assets/luts/DB_Amber_Hour_Rec709_100.cube
TITLE "Amber Hour Rec709 100"
# Red changes fastest. Full-range normalized input.
LUT_3D_SIZE 9
DOMAIN_MIN 0 0 0
DOMAIN_MAX 1 1 1
0.00400000 0.00400000 0.00400000
0.12386084 0.00156706 0.00218334
0.24283946 0.00012220 0.00155030
0.35949208 0.00000000 0.00180479
0.47802500 0.00000000 0.00186487
0.59876293 0.00000000 0.00169941
0.72154408 0.00000000 0.00132384
0.84620497 0.00000000 0.00075356
0.97258174 0.00000000 0.00000520
0.00000000 0.11937047 0.00394015
0.11800858 0.11974867 0.00000000
0.23886115 0.11985174 0.00000000
0.36129841 0.12058318 0.00000000
0.48412736 0.12130142 0.00000000
0.60766490 0.12223768 0.00000000
0.73162094 0.12345839 0.00018541
0.85567997 0.12500121 0.00064975
0.98005256 0.12677198 0.00123981
0.00000000 0.24114878 0.00356273
0.11913171 0.24343214 0.00000000
0.24241389 0.24449965 0.00000000
0.36630424 0.24595398 0.00024216
0.49047687 0.24762935 0.00084765
0.61495159 0.24947693 0.00148365
0.73967810 0.25150656 0.00222714
0.86460997 0.25368777 0.00306985
0.98970145 0.25598827 0.00400055
0.00101994 0.36857784 0.00051059
0.12531178 0.37028983 0.00106755
0.24988338 0.37220594 0.00174146
0.37468966 0.37429406 0.00252182
0.49968566 0.37652305 0.00339890
0.62482398 0.37885909 0.00435904
0.75005940 0.38127022 0.00539169
0.87534624 0.38372428 0.00648583
1.00000000 0.38631803 0.00823239
0.00972787 0.49710160 0.00283156
0.13478049 0.49937286 0.00373945
0.25995940 0.50173989 0.00472716
0.38521883 0.50417039 0.00578350
0.51051304 0.50663204 0.00689724
0.63579625 0.50909256 0.00805716
0.76102271 0.51151964 0.00925206
0.88614666 0.51388097 0.01047070
1.00000000 0.51794015 0.02666299
0.02038288 0.62707468 0.00618292
0.14567838 0.62953966 0.00731477
0.27094623 0.63199174 0.00848872
0.39614066 0.63439863 0.00969356
0.52121592 0.63672801 0.01091807
0.64612625 0.63894758 0.01215104
0.77082589 0.64102506 0.01338124
0.89526907 0.64292812 0.01459747
1.00000000 0.64657840 0.05358805
0.03124282 0.75726734 0.01013768
0.15626333 0.75956049 0.01136656
0.28110225 0.76173207 0.01259982
0.40571381 0.76374978 0.01382624
0.53005227 0.76558133 0.01503459
0.65407184 0.76719442 0.01621367
0.77772679 0.76855673 0.01735226
0.90097133 0.76963597 0.01843914
1.00000000 0.77036675 0.08975370
0.04056554 0.88644984 0.01426884
0.16479320 0.88820559 0.01546783
0.28868533 0.88973111 0.01663347
0.41219616 0.89099411 0.01775453
0.53527993 0.89196228 0.01881980
0.65789089 0.89260331 0.01981806
0.77998327 0.89288491 0.02073811
0.90151131 0.89277478 0.02156871
1.00000000 0.88747423 0.13555862
0.07989211 1.00000000 0.05280660
0.20313970 1.00000000 0.06132288
0.32450688 1.00000000 0.07050683
0.44383109 1.00000000 0.08037119
0.56095025 1.00000000 0.09092724
0.67570282 1.00000000 0.10218474
0.78792782 1.00000000 0.11415178
0.89746485 1.00000000 0.12683475
1.00000000 0.99610995 0.19100451
0.00285884 0.00320408 0.12556595
0.12207107 0.00120919 0.12439003
0.24121991 0.00000000 0.12317209
0.35862816 0.00000000 0.12217131
0.47798516 0.00000000 0.12198391
0.59934426 0.00000000 0.12201346
0.72262118 0.00000000 0.12204390
0.84768804 0.00000000 0.12198586
0.97391477 0.00013799 0.12186182
0.00000000 0.11951871 0.12132864
0.11769916 0.11996386 0.12145856
0.24049036 0.11945747 0.12046434
0.36226192 0.12052293 0.12142399
0.48501906 0.12148395 0.12172892
0.60845193 0.12258020 0.12196315
0.73227880 0.12395477 0.12233831
0.85644945 0.12557863 0.12284660
0.98091811 0.12741946 0.12347681
0.00000000 0.24173854 0.12286676
0.11935976 0.24378306 0.12162115
0.24259320 0.24393447 0.12029482
0.36699865 0.24529436 0.12101723
0.49130637 0.24812772 0.12295906
0.61584853 0.25014644 0.12373373
0.74064964 0.25223193 0.12451277
0.86564085 0.25445727 0.12538661
0.99077612 0.25679093 0.12634465
0.00176061 0.36913432 0.12269587
0.12615151 0.37091888 0.12329322
0.25075522 0.37286549 0.12396580
0.37549155 0.37486469 0.12465774
0.50067743 0.37723135 0.12567103
0.62590939 0.37966846 0.12671057
0.75116875 0.38210043 0.12776693
0.87646265 0.38456172 0.12887940
1.00000000 0.38741236 0.13132116
0.01074416 0.49786019 0.12514023
0.13584480 0.50016760 0.12607649
0.26105613 0.50255978 0.12708875
0.38633154 0.50500401 0.12816553
0.51162646 0.50746833 0.12929598
0.63689699 0.50992199 0.13046952
0.76209400 0.51233055 0.13167381
0.88717273 0.51466221 0.13289798
1.00000000 0.51913257 0.14745871
0.02149891 0.62791124 0.12857188
0.14679015 0.63037546 0.12971929
0.27203820 0.63281582 0.13090499
0.39719729 0.63520000 0.13211777
0.52222167 0.63749572 0.13334641
0.64706558 0.63967066 0.13457969
0.77168325 0.64169252 0.13580641
0.89602893 0.64352901 0.13701534
1.00000000 0.64775334 0.17144488
0.03228272 0.75805773 0.13256383
0.15724670 0.76031321 0.13379546
0.28201354 0.76243616 0.13502765
0.40653749 0.76439428 0.13624919
0.53077278 0.76615526 0.13744886
0.65467365 0.76768680 0.13861544
0.77819435 0.76895660 0.13973773
0.90128912 0.76993237 0.14080450
1.00000000 0.77140796 0.20403241
0.04135346 0.88706991 0.13668907
0.16547230 0.88875110 0.13787799
0.28924006 0.89019109 0.13902975
0.41261099 0.89135758 0.14013312
0.53553933 0.89221828 0.14117689
0.65797931 0.89274087 0.14214985
0.77988517 0.89289305 0.14304077
0.90121115 0.89264254 0.14383845
1.00000000 0.88826480 0.24562659
0.08262954 1.00000000 0.17140285
0.20560986 1.00000000 0.17910471
0.32667204 1.00000000 0.18742712
0.44565371 1.00000000 0.19638221
0.56239302 1.00000000 0.20598064
0.67672866 1.00000000 0.21623150
0.78849987 1.00000000 0.22714218
0.89754651 1.00000000 0.23871832
1.00000000 0.99653229 0.29623589
0.00180626 0.00247415 0.24714041
0.12121781 0.00067873 0.24604123
0.23982154 0.00000000 0.24361263
0.35811967 0.00000000 0.24224854
0.47815421 0.00000000 0.24219298
0.60005658 0.00000000 0.24259319
0.72378147 0.00000000 0.24311669
0.84922162 0.00000000 0.24361334
0.97444218 0.00053998 0.24396574
0.00000000 0.11972109 0.23877162
0.11743366 0.12018707 0.24391336
0.23965737 0.12032929 0.24368482
0.36232688 0.12090940 0.24366274
0.48545401 0.12182378 0.24380341
0.60902756 0.12301705 0.24408493
0.73297631 0.12447991 0.24450656
0.85725330 0.12618107 0.24505751
0.98181275 0.12808825 0.24572658
0.00000000 0.24232377 0.24278676
0.11992139 0.24421565 0.24387199
0.24334794 0.24490087 0.24381382
0.36755700 0.24554260 0.24390904
0.49215408 0.24856029 0.24516569
0.61677333 0.25083254 0.24599573
0.74164308 0.25297351 0.24680939
0.86668834 0.25523927 0.24771308
0.99186214 0.25760236 0.24869716
0.00253708 0.36971683 0.24489556
0.12702159 0.37157013 0.24553290
0.25149358 0.37344882 0.24620482
0.37448429 0.37388292 0.24646295
0.50027347 0.37623007 0.24759335
0.62692120 0.38033980 0.24904648
0.75228187 0.38293332 0.25014871
0.87757793 0.38539912 0.25127833
1.00000000 0.38855002 0.25392856
0.01177850 0.49863228 0.24745897
0.13692187 0.50097211 0.24842230
0.26215830 0.50338494 0.24945765
0.38734934 0.50579227 0.25054713
0.51235851 0.50806768 0.25168065
0.63786703 0.51065047 0.25288198
0.76314841 0.51312937 0.25409786
0.88817990 0.51543087 0.25532626
1.00000000 0.52036434 0.26763173
0.02261524 0.62874878 0.25096656
0.14789694 0.63120851 0.25212823
0.27311991 0.63363342 0.25332438
0.39823832 0.63599115 0.25454380
0.52320518 0.63824889 0.25577530
0.64797642 0.64037483 0.25700765
0.77250892 0.64233839 0.25822953
0.89675215 0.64410479 0.25942986
1.00000000 0.64896320 0.28854202
0.03330517 0.75883656 0.25499133
0.15820733 0.76105066 0.25622441
0.28289682 0.76312125 0.25745425
0.40732787 0.76501604 0.25866962
0.53145472 0.76670272 0.25985931
0.65523162 0.76814900 0.26101211
0.77861280 0.76932257 0.26211680
0.90155251 0.77019113 0.26316216
1.00000000 0.77247918 0.31741940
0.04210616 0.88766589 0.25910630
0.16611090 0.88926879 0.26028386
0.28974903 0.89061952 0.26142044
0.41297479 0.89168579 0.26250483
0.53574241 0.89243528 0.26352581
0.65800613 0.89283570 0.26447217
0.77972019 0.89285475 0.26533269
0.90083884 0.89246013 0.26609615
1.00000000 0.88907991 0.35467624
0.08539839 1.00000000 0.28938048
0.20810455 1.00000000 0.29623447
0.32885492 1.00000000 0.30366164
0.44748733 1.00000000 0.31167352
0.56384016 1.00000000 0.32028013
0.67775232 1.00000000 0.32948987
0.78906330 1.00000000 0.33930942
0.89761321 1.00000000 0.34974365
1.00000000 0.99697310 0.40032821
0.00084120 0.00180542 0.36875134
0.12049919 0.00018637 0.36772907
0.23888756 0.00000000 0.36344885
0.35787650 0.00000000 0.36228350
0.47848822 0.00000000 0.36260321
0.60087520 0.00000000 0.36349306
0.72500962 0.00000000 0.36456906
0.85079550 0.00000000 0.36564786
0.97501463 0.00097453 0.36608633
0.00000000 0.11995736 0.35652469
0.11742699 0.12021493 0.36583522
0.23978410 0.12052980 0.36568785
0.36263688 0.12120136 0.36571077
0.48593943 0.12219734 0.36589285
0.60964632 0.12348512 0.36622292
0.73371167 0.12503252 0.36668972
0.85808972 0.12680727 0.36728205
0.98273469 0.12877706 0.36798867
0.00000000 0.24289985 0.36333059
0.12048250 0.24464385 0.36599653
0.24431561 0.24601322 0.36637962
0.36848980 0.24757124 0.36689983
0.49299085 0.24947231 0.36753028
0.61772155 0.25154480 0.36827226
0.74265662 0.25373005 0.36911658
0.86775066 0.25603249 0.37004883
0.99295769 0.25842130 0.37105765
0.00334757 0.37032411 0.36710923
0.12792423 0.37224396 0.36778591
0.25267181 0.37429780 0.36857478
0.37651450 0.37554392 0.36962335
0.50091960 0.37663837 0.37083279
0.62785289 0.38090109 0.37152565
0.75339535 0.38376433 0.37253830
0.87869027 0.38623520 0.37368218
1.00000000 0.38973142 0.37603234
0.01282909 0.49941662 0.36978733
0.13800993 0.50178514 0.37077644
0.26326600 0.50421479 0.37183450
0.38809600 0.50644702 0.37302196
0.50970037 0.50657226 0.37492557
0.63600485 0.50920102 0.37605584
0.76400534 0.51374292 0.37658096
0.88916545 0.51618453 0.37775546
1.00000000 0.52163578 0.38716055
0.02373007 0.62958602 0.37336650
0.14899696 0.63203755 0.37454114
0.27418957 0.63444327 0.37574646
0.39925918 0.63676982 0.37697170
0.52403210 0.63892923 0.37822911
0.64833799 0.64078979 0.37954228
0.77313375 0.64285638 0.38068882
0.89743249 0.64465078 0.38184174
1.00000000 0.65020822 0.40485886
0.03430837 0.75960257 0.37741976
0.15914344 0.76177155 0.37865300
0.28375029 0.76378606 0.37987917
0.40808316 0.76561380 0.38108708
0.53209622 0.76722244 0.38226551
0.65574232 0.76857913 0.38340346
0.77897770 0.76965215 0.38448939
0.90175935 0.77041079 0.38551173
1.00000000 0.77358054 0.42989503
0.04282185 0.88823652 0.38152011
0.16670723 0.88975740 0.38268501
0.29021044 0.89101515 0.38380512
0.41328574 0.89197746 0.38486924
0.53588737 0.89261203 0.38586613
0.65796955 0.89288656 0.38678459
0.77948654 0.89276874 0.38761341
0.90039257 0.89222628 0.38834136
1.00000000 0.88991959 0.46268901
0.08819833 1.00000000 0.40672221
0.21062347 1.00000000 0.41269479
0.33105525 1.00000000 0.41919293
0.44933172 1.00000000 0.42622756
0.56529147 1.00000000 0.43380804
0.67877364 1.00000000 0.44194206
0.78961799 1.00000000 0.45063559
0.89766488 1.00000000 0.45989272
1.00000000 0.99743231 0.50326408
0.00000000 0.00123486 0.48990864
0.11961906 0.00000000 0.48769113
0.23828192 0.00000000 0.48309412
0.35783670 0.00000000 0.48244194
0.47895430 0.00000000 0.48329318
0.60178063 0.00000000 0.48475224
0.72629306 0.00000000 0.48641980
0.85193278 0.00015938 0.48789658
0.97563035 0.00144039 0.48822317
0.00000000 0.12021946 0.47472376
0.11748640 0.12027994 0.48777534
0.24001688 0.12071967 0.48768703
0.36302755 0.12150498 0.48776529
0.48647265 0.12260356 0.48799891
0.61030642 0.12398313 0.48837668
0.73448310 0.12561136 0.48888737
0.85895693 0.12745597 0.48951977
0.98368214 0.12948465 0.49026266
0.00000000 0.24346503 0.48450373
0.12106404 0.24508499 0.48812035
0.24502793 0.24655880 0.48854782
0.36931802 0.24826930 0.48910426
0.49388873 0.25018466 0.48977817
0.61869412 0.25227258 0.49055837
0.74368846 0.25450028 0.49143389
0.86882601 0.25683567 0.49239341
0.99406101 0.25924646 0.49342568
0.00419028 0.37095490 0.48933643
0.12885168 0.37293673 0.49005039
0.25373042 0.37507868 0.49086699
0.37875061 0.37732332 0.49179086
0.50384089 0.37958346 0.49283899
0.62918330 0.38209120 0.49384783
0.75451356 0.38460620 0.49493182
0.87979789 0.38706873 0.49609051
1.00000000 0.39095694 0.49761034
0.01389415 0.50021192 0.49212487
0.13910718 0.50260541 0.49313847
0.26438390 0.50505062 0.49421681
0.38957250 0.50746250 0.49538752
0.51276703 0.50862586 0.49744472
0.63643700 0.50956069 0.49955095
0.76469530 0.51421213 0.49925412
0.89012433 0.51691819 0.50018830
1.00000000 0.52294722 0.50602381
0.02484162 0.63042170 0.49577128
0.15008841 0.63286130 0.49695759
0.27524539 0.63524411 0.49817078
0.40026078 0.63753568 0.49940145
0.52447297 0.63943561 0.50084864
0.64413756 0.63882907 0.50396694
0.76997080 0.64100006 0.50478738
0.89783428 0.64498634 0.50436397
1.00000000 0.65148722 0.52037465
0.03529053 0.76035448 0.49984867
0.16005322 0.76247463 0.50108076
0.28457216 0.76442933 0.50230200
0.40880158 0.76618629 0.50350115
0.53269232 0.76771211 0.50466793
0.65605648 0.76891918 0.50583199
0.77873156 0.76968772 0.50702235
0.90173826 0.77049408 0.50790534
1.00000000 0.77470854 0.54143522
0.04349875 0.88878052 0.50393004
0.16725948 0.89021566 0.50508099
0.29062250 0.89137670 0.50618334
0.41354207 0.89223133 0.50722589
0.53597242 0.89274725 0.50819740
0.65786772 0.89289214 0.50908669
0.77918101 0.89263329 0.50988268
0.89986850 0.89193888 0.51057377
1.00000000 0.89078373 0.56964585
0.09102903 1.00000000 0.52341074
0.21316634 1.00000000 0.52846825
0.33327279 1.00000000 0.53400348
0.45118666 1.00000000 0.54002672
0.56674677 1.00000000 0.54654665
0.67979250 1.00000000 0.55357025
0.79016385 1.00000000 0.56110275
0.89770147 1.00000000 0.56914745
1.00000000 0.99790981 0.60502626
0.00000000 0.00145694 0.60160261
0.11884829 0.00000000 0.60629664
0.23791583 0.00000000 0.60279185
0.35795593 0.00000000 0.60283624
0.47952732 0.00000000 0.60431863
0.60275722 0.00000000 0.60639850
0.72762136 0.00000000 0.60868135
0.85246273 0.00056321 0.61000143
0.97628754 0.00193629 0.61037580
0.00000000 0.12049759 0.59344861
0.11760647 0.12038851 0.60973597
0.24030516 0.12094923 0.60970549
0.36346850 0.12184455 0.60983777
0.48705072 0.12304218 0.61012160
0.61100608 0.12450982 0.61054576
0.73528880 0.12621515 0.61109904
0.85985313 0.12812590 0.61177023
0.98465331 0.13020974 0.61254809
0.00000000 0.24401747 0.60630670
0.12168817 0.24555694 0.61026037
0.24576801 0.24711485 0.61073284
0.37015855 0.24889871 0.61133034
0.49481404 0.25087621 0.61204166
0.61968872 0.25301505 0.61285558
0.74473683 0.25528293 0.61376089
0.86991260 0.25764755 0.61474637
0.99517028 0.26007660 0.61580081
0.00506341 0.37160793 0.61157672
0.12980400 0.37364791 0.61232669
0.25474712 0.37583747 0.61317519
0.37984696 0.37814427 0.61411102
0.50505753 0.38053574 0.61512322
0.63033377 0.38298026 0.61619993
0.75562963 0.38544546 0.61733005
0.88089900 0.38789843 0.61850288
1.00000000 0.39222698 0.61864054
0.01497189 0.50101694 0.61447115
0.14021183 0.50343168 0.61550795
0.26550035 0.50588733 0.61660554
0.39079052 0.50835100 0.61775336
0.51598459 0.51075817 0.61897318
0.64098317 0.51301435 0.62030622
0.76615479 0.51540820 0.62143764
0.89106829 0.51764661 0.62261458
1.00000000 0.52429896 0.62420023
0.02594808 0.63125456 0.61818045
0.15116951 0.63367850 0.61937715
0.27628558 0.63603469 0.62059690
0.40124994 0.63829061 0.62182876
0.52587627 0.64035253 0.62313059
0.64767367 0.64087957 0.62583550
0.76996802 0.64112548 0.62837886
0.89801825 0.64516023 0.62710135
1.00000000 0.65279559 0.63507245
0.03624985 0.76109104 0.62227762
0.16093490 0.76315862 0.62350728
0.28536064 0.76504980 0.62472227
0.40948133 0.76673225 0.62591138
0.53324442 0.76817147 0.62706607
0.65593045 0.76907255 0.62846096
0.77369198 0.76747992 0.63187136
0.89794937 0.76842000 0.63217065
1.00000000 0.77566596 0.65193461
0.04413506 0.88929663 0.62633566
0.16776586 0.89064231 0.62747136
0.29098341 0.89170291 0.62855466
0.41374197 0.89244614 0.62957434
0.53599577 0.89283968 0.63051919
0.65769590 0.89285037 0.63137890
0.77867543 0.89240494 0.63217599
0.89884079 0.89141818 0.63290062
1.00000000 0.89160231 0.67531389
0.09389020 1.00000000 0.63942869
0.21573288 1.00000000 0.64353741
0.33550730 1.00000000 0.64807575
0.45305195 1.00000000 0.65305334
0.56820589 1.00000000 0.65847819
0.68080875 1.00000000 0.66435656
0.79070074 1.00000000 0.67069285
0.89772215 1.00000000 0.67748860
1.00000000 0.99840569 0.70559223
0.00000000 0.00166031 0.71432886
0.11831655 0.00000000 0.72499165
0.23773028 0.00000000 0.72269760
0.35820171 0.00000000 0.72354379
0.48018773 0.00000000 0.72571893
0.60379231 0.00000000 0.72845094
0.72898579 0.00000000 0.73136119
0.85303763 0.00099953 0.73212294
0.97698440 0.00246095 0.73254380
0.00000000 0.12078442 0.71275361
0.11778541 0.12053941 0.73171667
0.24064703 0.12121738 0.73174272
0.36395775 0.12221899 0.73192773
0.48767182 0.12351194 0.73226047
0.61174349 0.12506392 0.73272974
0.73612698 0.12684264 0.73332432
0.86077653 0.12881578 0.73403299
0.98564640 0.13095106 0.73484454
0.00000000 0.24455566 0.72873644
0.12235341 0.24605867 0.73241610
0.24654390 0.24769694 0.73293229
0.37102955 0.24955018 0.73356971
0.49576461 0.25158610 0.73431713
0.62070332 0.25377238 0.73516334
0.74579991 0.25607674 0.73609714
0.87100863 0.25846686 0.73710729
0.99628372 0.26091045 0.73818259
0.00596518 0.37228194 0.73382967
0.13077968 0.37437634 0.73461436
0.25578117 0.37660935 0.73549376
0.38092388 0.37894867 0.73645665
0.50616206 0.38136199 0.73749182
0.63144995 0.38381703 0.73858805
0.75674178 0.38628147 0.73973413
0.88199179 0.38872301 0.74091885
1.00000000 0.39354190 0.73910098
0.01606050 0.50183040 0.73682574
0.14132207 0.50426266 0.73788444
0.26661669 0.50672485 0.73900012
0.39189860 0.50918470 0.74016156
0.51712196 0.51160985 0.74135761
0.64224061 0.51396766 0.74257744
0.76720996 0.51622668 0.74380880
0.89198384 0.51835447 0.74504069
1.00000000 0.52569129 0.74166871
0.02704767 0.63208333 0.74059357
0.15223845 0.63448788 0.74179936
0.27730833 0.63681372 0.74302439
0.40221156 0.63902853 0.74425745
0.52690082 0.64109935 0.74548832
0.65126347 0.64295858 0.74675268
0.77518918 0.64451231 0.74810546
0.89915585 0.64606542 0.74912196
1.00000000 0.65415374 0.74892562
0.03718455 0.76181098 0.74470617
0.16178666 0.76382228 0.74593210
0.28611395 0.76564619 0.74713956
0.41012063 0.76725042 0.74831732
0.53376030 0.76860245 0.74945450
0.65683588 0.76961064 0.75062437
0.77680260 0.76903792 0.75335326
0.89737149 0.76814866 0.75563187
1.00000000 0.77648908 0.76181401
0.04472899 0.88978360 0.74873653
0.16822458 0.89103608 0.74985569
0.29129139 0.89199252 0.75091865
0.41388366 0.89262062 0.75191417
0.53595563 0.89288806 0.75283105
0.65745538 0.89276083 0.75366066
0.77777439 0.89201579 0.75463499
0.89425975 0.88935137 0.75692309
1.00000000 0.89077056 0.77794159
0.09678155 1.00000000 0.75475870
0.21832283 1.00000000 0.75788479
0.33775854 1.00000000 0.76139215
0.45492739 1.00000000 0.76528974
0.56966868 1.00000000 0.76958486
0.68182229 1.00000000 0.77428305
0.79122623 1.00000000 0.77938721
0.89765883 1.00000000 0.78483868
1.00000000 0.99895029 0.80416702
0.00000000 0.00184512 0.82806796
0.11795547 0.00000000 0.84395923
0.23768446 0.00000000 0.84291328
0.35854966 0.00000000 0.84461811
0.48092004 0.00000000 0.84752139
0.60487545 0.00000000 0.85092205
0.72995094 0.00018088 0.85393139
0.85365569 0.00146709 0.85426066
0.97771915 0.00301312 0.85472673
0.00000000 0.12107441 0.83267532
0.11802142 0.12073135 0.85371700
0.24104069 0.12152286 0.85379829
0.36449352 0.12262703 0.85403472
0.48833417 0.12401157 0.85441509
0.61251686 0.12564417 0.85492818
0.73699584 0.12749254 0.85556276
0.86172534 0.12952437 0.85630762
0.98665962 0.13170737 0.85715156
0.00000000 0.24507835 0.85178704
0.12305798 0.24658892 0.85458711
0.24735383 0.24830382 0.85514573
0.37192932 0.25022272 0.85582176
0.49673867 0.25231332 0.85660399
0.62173613 0.25454333 0.85748121
0.74687593 0.25688043 0.85844219
0.87211232 0.25929234 0.85947573
0.99739954 0.26174674 0.86057060
0.00689380 0.37297566 0.85609484
0.13177693 0.37512075 0.85691295
0.25683151 0.37739349 0.85782196
0.38201177 0.37976156 0.85881066
0.50727196 0.38219268 0.85986782
0.63256632 0.38465453 0.86098224
0.75784908 0.38711481 0.86214270
0.88307449 0.38954124 0.86333798
1.00000000 0.39490207 0.85896985
0.01715821 0.50265105 0.85918820
0.14243613 0.50509709 0.86026750
0.26773157 0.50756211 0.86139998
0.39299874 0.51001381 0.86257442
0.51819191 0.51241988 0.86377959
0.64326529 0.51474802 0.86500428
0.76817314 0.51696594 0.86623728
0.89286970 0.51904132 0.86746738
1.00000000 0.52712448 0.85840823
0.02813859 0.63290675 0.86301021
0.15329345 0.63528819 0.86422379
0.27831187 0.63757995 0.86545280
0.40314809 0.63974971 0.86668604
0.52775635 0.64176519 0.86791229
0.65209082 0.64359402 0.86912041
0.77610522 0.64520358 0.87029967
0.89975526 0.64656244 0.87143752
1.00000000 0.65554430 0.86191588
0.03809282 0.76251303 0.86713388
0.16260673 0.76446432 0.86835480
0.28683027 0.76621725 0.86955343
0.41071767 0.76773952 0.87071855
0.53422317 0.76899885 0.87183895
0.65729938 0.76996227 0.87290454
0.77983317 0.77056534 0.87395547
0.90173144 0.77072573 0.87504064
1.00000000 0.77821208 0.87037189
0.04527875 0.89024014 0.87113221
0.16863385 0.89139571 0.87223354
0.29154464 0.89224426 0.87327485
0.41396535 0.89275350 0.87424493
0.53585022 0.89289112 0.87513255
0.65715290 0.89262465 0.87592682
0.77770412 0.89187960 0.87668926
0.89572199 0.88983377 0.87855557
1.00000000 0.89125947 0.88456626
0.09970279 1.00000000 0.86938333
0.22093595 1.00000000 0.87149287
0.34002631 1.00000000 0.87393505
0.45681282 1.00000000 0.87671818
0.57113502 1.00000000 0.87984882
0.68283303 1.00000000 0.88333177
0.79174276 1.00000000 0.88716999
0.89741568 1.00000000 0.89127162
1.00000000 0.99962013 0.89886450
0.00000000 0.00201149 0.94280026
0.11772156 0.00000000 0.96330922
0.23774922 0.00000000 0.96350645
0.35898112 0.00000000 0.96609592
0.48171183 0.00000000 0.96974436
0.60599797 0.00000000 0.97381909
0.73048342 0.00058655 0.97603718
0.85431512 0.00196461 0.97641416
0.97848999 0.00359153 0.97692413
0.00000000 0.12136334 0.95323740
0.11831271 0.12096309 0.97573651
0.24148435 0.12186440 0.97587175
0.36507402 0.12306740 0.97615832
0.48903596 0.12453981 0.97658502
0.61332440 0.12624931 0.97714062
0.73789359 0.12816361 0.97781391
0.86269777 0.13025039 0.97859368
0.98769117 0.13247738 0.97946871
0.00000000 0.24558453 0.97545020
0.12380007 0.24714643 0.97677296
0.24819602 0.24893423 0.97737271
0.37285606 0.25091506 0.97808606
0.49773442 0.25305663 0.97890181
0.62278535 0.25532663 0.97980873
0.74796309 0.25769276 0.98079561
0.87322187 0.26012272 0.98185124
0.99851594 0.26258420 0.98296439
0.00784746 0.37368782 0.97837178
0.13279395 0.37587989 0.97922202
0.25789634 0.37818862 0.98015935
0.38310888 0.38058173 0.98117256
0.50838581 0.38302690 0.98225042
0.63368136 0.38549185 0.98338174
0.75894977 0.38794425 0.98455528
0.88414529 0.39035183 0.98575983
1.00000000 0.39630784 0.97822543
0.01826321 0.50347760 0.98155808
0.14355221 0.50593371 0.98265670
0.26884318 0.50839783 0.98380468
0.39409035 0.51083766 0.98499081
0.51924797 0.51322088 0.98620387
0.64427027 0.51551522 0.98743265
0.76911150 0.51768835 0.98866592
0.89372588 0.51970798 0.98989247
1.00000000 0.52859880 0.97439795
0.02921906 0.63372355 0.98542992
0.15433271 0.63607816 0.98665000
0.27929439 0.63833211 0.98788171
0.40405833 0.64045310 0.98911383
0.52857877 0.64240882 0.99033515
0.65280995 0.64416699 0.99153446
0.77670612 0.64569530 0.99270054
0.90022151 0.64696144 0.99382216
1.00000000 0.65696830 0.97402686
0.03897288 0.76319594 0.98956031
0.16339332 0.76508348 0.99077492
0.28750783 0.76676170 0.99196343
0.41127067 0.76819830 0.99311462
0.53463607 0.76936098 0.99421728
0.65755826 0.77021743 0.99526019
0.77999142 0.77073531 0.99623222
0.90188933 0.77088203 0.99712263
1.00000000 0.77954288 0.97792757
0.04578253 0.89066500 0.99352226
0.16899188 0.89171993 0.99460447
0.29174136 0.89245687 0.99562285
0.41398523 0.89284353 0.99656618
0.53567772 0.89284760 0.99742324
0.65677306 0.89243677 0.99818283
0.77722420 0.89157831 0.99883471
0.89693960 0.89021925 0.99940767
1.00000000 0.89435054 0.98677777
0.10265365 1.00000000 0.98328513
0.22357200 1.00000000 0.98434408
0.34231041 1.00000000 0.98568679
0.45870807 1.00000000 0.98732088
0.57260476 1.00000000 0.98925217
0.68384089 1.00000000 0.99148469
0.79225705 1.00000000 0.99402066
0.89763265 1.00000000 0.99688254
1.00000000 1.00000000 1.00000000
