assets/luts/DB_Alpine_Air_Rec709_50.cube
TITLE "Alpine Air Rec709 50"
# Red changes fastest. Full-range normalized input.
LUT_3D_SIZE 9
DOMAIN_MIN 0 0 0
DOMAIN_MAX 1 1 1
0.00000000 0.00000000 0.00000000
0.10889619 0.00000000 0.00048578
0.22054525 0.00000000 0.00126150
0.33477563 0.00000000 0.00187099
0.45142086 0.00000000 0.00233676
0.57033569 0.00000000 0.00271658
0.69136577 0.00000000 0.00301062
0.81435611 0.00000000 0.00321899
0.93915129 0.00000000 0.00334291
0.00000000 0.11184605 0.00402794
0.11175092 0.11384989 0.00000000
0.22878420 0.11466645 0.00000000
0.34854011 0.11545053 0.00000000
0.47003999 0.11612747 0.00000000
0.59308673 0.11684061 0.00000000
0.71757981 0.11758884 0.00000000
0.84337677 0.11836857 0.00000000
0.97033734 0.11917540 0.00000000
0.00000000 0.23169263 0.00701056
0.11159359 0.23619033 0.00000000
0.23262556 0.23764545 0.00000000
0.35507217 0.23918314 0.00000000
0.47900097 0.24067502 0.00000000
0.60421044 0.24212730 0.00000000
0.73054723 0.24355409 0.00000000
0.85787367 0.24495078 0.00000000
0.98605406 0.24631166 0.00000000
0.00000000 0.35780651 0.00838532
0.11317905 0.36345968 0.00000000
0.23673014 0.36552248 0.00000000
0.36150819 0.36751393 0.00000000
0.48737310 0.36943005 0.00000000
0.61418802 0.37126482 0.00000000
0.74181699 0.37301274 0.00000000
0.87012617 0.37466757 0.00000000
0.99898338 0.37622256 0.00000000
0.00000000 0.48842889 0.00831765
0.11574960 0.49426990 0.00000000
0.24128554 0.49654663 0.00000000
0.36772792 0.49869234 0.00000000
0.49494139 0.50070117 0.00000000
0.62279233 0.50256679 0.00000000
0.75114866 0.50428239 0.00000000
0.87987965 0.50584076 0.00000000
1.00000000 0.50866150 0.01193941
0.00000000 0.62178326 0.00703317
0.11893706 0.62698452 0.00000000
0.24586348 0.62913038 0.00000000
0.37338238 0.63108355 0.00000000
0.50136198 0.63283714 0.00000000
0.62967171 0.63438390 0.00000000
0.75818213 0.63571623 0.00000000
0.88676465 0.63682629 0.00000000
1.00000000 0.63920133 0.03021481
0.00000000 0.75607814 0.00490444
0.12231328 0.75997696 0.00000000
0.25003519 0.76164744 0.00000000
0.37804134 0.76306189 0.00000000
0.50620251 0.76421265 0.00000000
0.63439032 0.76509181 0.00000000
0.76247705 0.76569127 0.00000000
0.89033546 0.76600279 0.00000000
1.00000000 0.76584123 0.05427885
0.00000000 0.88951127 0.00241066
0.12538806 0.89163906 0.00000000
0.25331348 0.89248878 0.00000000
0.38121946 0.89301777 0.00000000
0.50897851 0.89321784 0.00000000
0.63646356 0.89308071 0.00000000
0.76354782 0.89259799 0.00000000
0.89010456 0.89176130 0.00000000
1.00000000 0.88680163 0.08438605
0.05091644 1.00000000 0.05099662
0.17629542 1.00000000 0.05852989
0.30004798 1.00000000 0.06653904
0.42201788 1.00000000 0.07502782
0.54204917 1.00000000 0.08399905
0.65998624 1.00000000 0.09345462
0.77567382 1.00000000 0.10339537
0.88895703 1.00000000 0.11382104
0.99968138 1.00000000 0.12473020
0.00000000 0.00024022 0.10584709
0.10913016 0.00000000 0.11102171
0.22121145 0.00000000 0.11296520
0.33583924 0.00000000 0.11477483
0.45285691 0.00000000 0.11643483
0.57210987 0.00000000 0.11795628
0.69344339 0.00000000 0.11933917
0.81670228 0.00000000 0.12058407
0.94173100 0.00000000 0.12169268
0.00000000 0.11249726 0.11455488
0.11096898 0.11435693 0.11713096
0.23695316 0.11279124 0.11529397
0.36382069 0.11166608 0.11534449
0.49145721 0.11078402 0.11476059
0.61936281 0.11026767 0.11425417
0.74765153 0.11006396 0.11396831
0.87629089 0.11013943 0.11388082
1.00000000 0.11188197 0.11533708
0.00000000 0.23263583 0.12145814
0.10510412 0.23920422 0.11446226
0.23417193 0.23816256 0.11353525
0.36141532 0.23840595 0.11366907
0.49001960 0.23896626 0.11389469
0.61913779 0.23938345 0.11403789
0.74845998 0.23998903 0.11432342
0.87800781 0.24076393 0.11472638
1.00000000 0.24362136 0.11875322
0.00000000 0.35891748 0.12632382
0.10391142 0.36785058 0.11392821
0.23312087 0.36830083 0.11413810
0.36258114 0.36889622 0.11454270
0.49209209 0.36980265 0.11494172
0.62189287 0.37078429 0.11542339
0.75183048 0.37183020 0.11600606
0.88186879 0.37293496 0.11662674
1.00000000 0.37675457 0.12588583
0.00000000 0.48958600 0.12919672
0.10621003 0.49891599 0.11507980
0.23606205 0.49990648 0.11562869
0.36604010 0.50097683 0.11622966
0.49610622 0.50209491 0.11685823
0.62622396 0.50322867 0.11748847
0.75635688 0.50434421 0.11809877
0.88646765 0.50540926 0.11866446
1.00000000 0.50947163 0.13729054
0.00000000 0.62286562 0.13029639
0.11034996 0.63125809 0.11708769
0.24047769 0.63238862 0.11771418
0.37060679 0.63348951 0.11831118
0.50070034 0.63452811 0.11885456
0.63072138 0.63547176 0.11932025
0.76063299 0.63628780 0.11968413
0.89039823 0.63694358 0.11992211
1.00000000 0.63996789 0.15347036
0.00000000 0.75696562 0.12998785
0.11492341 0.76363437 0.11903436
0.24490889 0.76453534 0.11946578
0.37477149 0.76529681 0.11978661
0.50447427 0.76588614 0.11997278
0.63398030 0.76627066 0.12000017
0.76325264 0.76641771 0.11984469
0.89225436 0.76629464 0.11948224
1.00000000 0.76644897 0.17482663
0.00000000 0.89008463 0.12874168
0.11852424 0.89480156 0.12000240
0.24794946 0.89510340 0.11996600
0.37712756 0.89515589 0.11973796
0.50602158 0.89492638 0.11929419
0.63459459 0.89438219 0.11861057
0.76280967 0.89349068 0.11766301
0.89062987 0.89221920 0.11642742
1.00000000 0.88713549 0.20161188
0.05359583 1.00000000 0.17149957
0.17877133 1.00000000 0.17821836
0.30228456 1.00000000 0.18536364
0.42397938 1.00000000 0.19293882
0.54369995 1.00000000 0.20094643
0.66129079 1.00000000 0.20938799
0.77659674 1.00000000 0.21826395
0.88946307 1.00000000 0.22757367
0.99973543 1.00000000 0.23731528
0.00000000 0.00047933 0.21266095
0.10934056 0.00000000 0.22230832
0.22186057 0.00000000 0.22550361
0.33688996 0.00000000 0.22851178
0.45427465 0.00000000 0.23133005
0.57386006 0.00000000 0.23395724
0.69549125 0.00000000 0.23639328
0.81901289 0.00000000 0.23863922
0.94426927 0.00000000 0.24069718
0.00000000 0.11314200 0.22586128
0.10965097 0.11391691 0.24609482
0.23633333 0.11241534 0.24476768
0.36348429 0.11131504 0.24393245
0.49112641 0.11057142 0.24331202
0.61916454 0.11016516 0.24288334
0.74757648 0.11005992 0.24266756
0.87632652 0.11022276 0.24264196
1.00000000 0.11216979 0.24327599
0.00000000 0.23356208 0.23667721
0.10462953 0.23911579 0.24307948
0.23344482 0.23851213 0.24178640
0.36149734 0.23845614 0.24105115
0.49000821 0.23906969 0.24247158
0.61930052 0.23956832 0.24286809
0.74870738 0.24023484 0.24319832
0.87832370 0.24105981 0.24363563
1.00000000 0.24420712 0.24629812
0.00000000 0.36000464 0.24492083
0.10402140 0.36798991 0.24272808
0.23351327 0.36840794 0.24288623
0.36392258 0.36825297 0.24286907
0.49238119 0.36953110 0.24375832
0.62220822 0.37110426 0.24438457
0.75225753 0.37220028 0.24496425
0.88232298 0.37331788 0.24559149
1.00000000 0.37752277 0.25242704
0.00000000 0.49071294 0.25062010
0.10656789 0.49924135 0.24400892
0.23646817 0.50026191 0.24457823
0.36652367 0.50131718 0.24521225
0.49663392 0.50235560 0.24595800
0.62667367 0.50357666 0.24651377
0.75682137 0.50471246 0.24704957
0.88691818 0.50575370 0.24759211
1.00000000 0.51030675 0.26221860
0.00000000 0.62391176 0.25398680
0.11081539 0.63164332 0.24605226
0.24094774 0.63276745 0.24667144
0.37106894 0.63385082 0.24725296
0.50114231 0.63486042 0.24777337
0.63113004 0.63576417 0.24820801
0.76099595 0.63653003 0.24853055
0.89070316 0.63712403 0.24872002
1.00000000 0.64075443 0.27617538
0.00000000 0.75781111 0.25537865
0.11535448 0.76395396 0.24794178
0.24530237 0.76481122 0.24833834
0.37511483 0.76551789 0.24861614
0.50475494 0.76604133 0.24875109
0.63418575 0.76634886 0.24871908
0.76337032 0.76640784 0.24849602
0.89227173 0.76618561 0.24805780
1.00000000 0.76707156 0.29469762
0.00000000 0.89061046 0.25525787
0.11877897 0.89493000 0.24876003
0.24812441 0.89515082 0.24866126
0.37721017 0.89511121 0.24836265
0.50599932 0.89477849 0.24784013
0.63445492 0.89412001 0.24706958
0.76254003 0.89310313 0.24602691
0.89021773 0.89169517 0.24468802
1.00000000 0.88747892 0.31803621
0.05632073 1.00000000 0.29140580
0.18128642 1.00000000 0.29727614
0.30455403 1.00000000 0.30352344
0.42596751 1.00000000 0.31015084
0.54537114 1.00000000 0.31716050
0.66260956 1.00000000 0.32455360
0.77752777 1.00000000 0.33233019
0.88997114 1.00000000 0.34048922
0.99978548 1.00000000 0.34902839
0.00000000 0.00071447 0.32044896
0.10955254 0.00000000 0.33445342
0.22250280 0.00000000 0.33887880
0.33792812 0.00000000 0.34306304
0.45567421 0.00000000 0.34700410
0.57558636 0.00000000 0.35070123
0.69750944 0.00000000 0.35415482
0.82128799 0.00000000 0.35736637
0.94676614 0.00000000 0.36033841
0.00000000 0.11377498 0.33801373
0.10888025 0.11336250 0.37443317
0.23573958 0.11199745 0.37331514
0.36307205 0.11102004 0.37247616
0.49084111 0.11039752 0.37189181
0.61900953 0.11009733 0.37153724
0.74754043 0.11008680 0.37138875
0.87639689 0.11033325 0.37142226
1.00000000 0.11249744 0.37115801
0.00000000 0.23447094 0.35264803
0.10433573 0.23900244 0.37173649
0.23265805 0.23880466 0.37141938
0.36131060 0.23888165 0.37122000
0.49024261 0.23922921 0.37142253
0.61949900 0.23977487 0.37171644
0.74897946 0.24049890 0.37208580
0.87865999 0.24137017 0.37255469
1.00000000 0.24482787 0.37365722
0.00000000 0.36106791 0.36415917
0.10415841 0.36815558 0.37154715
0.23354644 0.36874230 0.37178828
0.36367853 0.36908691 0.37132822
0.49280699 0.36985148 0.37140826
0.62250082 0.37143011 0.37316445
0.75269154 0.37257588 0.37392403
0.88278323 0.37370260 0.37455670
1.00000000 0.37832108 0.37865373
0.00000000 0.49180971 0.37257006
0.10694306 0.49957845 0.37294582
0.23688740 0.50062541 0.37353158
0.36713742 0.50158060 0.37411427
0.49779963 0.50167512 0.37485875
0.62674437 0.50325547 0.37584681
0.75718327 0.50504114 0.37604686
0.88735943 0.50608719 0.37651135
1.00000000 0.51116703 0.38670399
0.00000000 0.62492172 0.37808621
0.11128380 0.63202762 0.37501527
0.24141650 0.63314157 0.37562435
0.37152673 0.63420280 0.37618810
0.50160724 0.63514333 0.37671866
0.63154145 0.63591211 0.37728554
0.76130241 0.63671746 0.37745088
0.89098300 0.63728025 0.37750290
1.00000000 0.64156111 0.39831047
0.00000000 0.75861468 0.38105823
0.11577418 0.76425995 0.37683827
0.24568022 0.76506973 0.37719721
0.37543829 0.76571784 0.37742920
0.50501149 0.76617159 0.37751018
0.63436301 0.76639798 0.37741686
0.76345518 0.76636493 0.37712440
0.89225208 0.76604031 0.37660609
1.00000000 0.76770913 0.41387273
0.00000000 0.89108887 0.38194025
0.11900801 0.89503217 0.37749740
0.24826940 0.89516821 0.37733346
0.37725858 0.89503272 0.37696152
0.50593859 0.89459303 0.37635746
0.63427252 0.89381650 0.37549720
0.76222341 0.89267046 0.37435664
0.88975434 0.89112227 0.37291167
1.00000000 0.88783201 0.43364035
0.05909097 1.00000000 0.41069795
0.18384054 1.00000000 0.41568580
0.30685623 1.00000000 0.42100101
0.42798213 1.00000000 0.42664637
0.54706262 1.00000000 0.43262373
0.66394247 1.00000000 0.43893386
0.77846681 1.00000000 0.44557644
0.89048117 1.00000000 0.45254999
0.99983149 1.00000000 0.45985177
0.00000000 0.00094626 0.42918817
0.10976332 0.00000000 0.44746736
0.22313828 0.00000000 0.45308650
0.33895391 0.00000000 0.45841079
0.45705574 0.00000000 0.46343875
0.57728888 0.00000000 0.46817009
0.69949806 0.00000000 0.47260568
0.82352764 0.00000000 0.47674746
0.94922165 0.00000000 0.48059839
0.00000000 0.11439739 0.45101158
0.10818278 0.11285343 0.50277101
0.23520697 0.11162367 0.50175076
0.36269191 0.11077043 0.50100073
0.49060067 0.11026106 0.50049681
0.61889633 0.11006291 0.50021491
0.74754193 0.11014331 0.50013092
0.87650054 0.11046961 0.50022076
1.00000000 0.11286513 0.49896335
0.00000000 0.23536237 0.46935510
0.10414242 0.23890461 0.50036975
0.23256977 0.23881165 0.50016262
0.36133365 0.23898533 0.50014414
0.49039690 0.23939308 0.50029142
0.61972300 0.24000215 0.50057996
0.74927475 0.24077992 0.50098493
0.87901524 0.24169373 0.50148262
1.00000000 0.24548379 0.50081073
0.00000000 0.36210722 0.48402159
0.10432824 0.36834323 0.50038174
0.23374134 0.36901723 0.50071430
0.36338187 0.36983840 0.50111779
0.49317059 0.37077434 0.50153670
0.62308157 0.37184511 0.50222264
0.75314232 0.37295611 0.50288748
0.88324813 0.37408786 0.50352142
1.00000000 0.37914967 0.50454617
0.00000000 0.49287629 0.49502882
0.10733407 0.49992601 0.50188956
0.23731399 0.50099780 0.50249054
0.36742923 0.50208552 0.50307999
0.49792110 0.50270257 0.50311835
0.62721648 0.50361593 0.50361257
0.75748319 0.50535483 0.50487621
0.88778692 0.50640836 0.50542007
1.00000000 0.51205264 0.51072712
0.00000000 0.62589554 0.50257636
0.11175374 0.63240971 0.50397576
0.24188252 0.63350973 0.50457197
0.37197759 0.63454515 0.50511398
0.50215237 0.63532783 0.50561170
0.63214817 0.63506992 0.50673685
0.76081605 0.63621288 0.50721367
0.89111179 0.63738070 0.50635889
1.00000000 0.64238773 0.51985621
0.00000000 0.75937642 0.50700790
0.11618108 0.76455105 0.50572291
0.24604101 0.76530959 0.50604143
0.37574043 0.76589537 0.50622483
0.50524343 0.76627483 0.50624988
0.63453215 0.76638174 0.50614358
0.76347825 0.76617111 0.50599237
0.89214110 0.76582798 0.50523623
1.00000000 0.76836085 0.53233250
0.00000000 0.89151998 0.50876977
0.11920991 0.89510679 0.50621355
0.24838300 0.89515428 0.50598168
0.37727133 0.89491914 0.50553361
0.50583795 0.89436873 0.50484525
0.63404596 0.89347035 0.50389254
0.76185849 0.89219107 0.50265228
0.88923798 0.89049875 0.50109947
1.00000000 0.88819479 0.54840559
0.06190640 1.00000000 0.52935860
0.18643353 1.00000000 0.53342991
0.30919104 1.00000000 0.53777886
0.43002312 1.00000000 0.54240791
0.54877429 1.00000000 0.54731854
0.66528943 1.00000000 0.55251116
0.77941381 1.00000000 0.55798505
0.89099311 1.00000000 0.56373827
0.99987342 1.00000000 0.56976766
0.00000000 0.00117446 0.53886306
0.10997307 0.00000000 0.56133181
0.22376718 0.00000000 0.56810844
0.33996749 0.00000000 0.57453675
0.45841935 0.00000000 0.58061575
0.57896772 0.00000000 0.58634565
0.70145716 0.00000000 0.59172776
0.82573190 0.00000000 0.59676448
0.95163581 0.00000000 0.60145915
0.00000000 0.11500908 0.56483871
0.10754272 0.11239155 0.63114273
0.23472753 0.11129332 0.63021696
0.36236055 0.11056052 0.62955320
0.49040484 0.11016050 0.62912739
0.61882348 0.11006061 0.62891540
0.74757952 0.11022819 0.62889315
0.87663604 0.11063057 0.62903653
1.00000000 0.11327306 0.62667219
0.00000000 0.23623628 0.58678174
0.10399281 0.23884111 0.62902672
0.23253856 0.23884238 0.62888660
0.36140828 0.23909922 0.62892744
0.49056501 0.23957898 0.62912515
0.61997183 0.24024900 0.62945562
0.74959181 0.24107664 0.62989475
0.87938800 0.24202922 0.63041846
1.00000000 0.24617508 0.62773883
0.00000000 0.36312254 0.60449075
0.10452713 0.36855260 0.62923136
0.23401583 0.36928379 0.62960418
0.36370425 0.37016068 0.63007683
0.49355544 0.37115059 0.63062482
0.62353229 0.37222101 0.63122517
0.75359831 0.37333915 0.63185339
0.88371620 0.37447237 0.63248472
1.00000000 0.38000874 0.63008466
0.00000000 0.49391268 0.61797854
0.10773950 0.50028275 0.63083920
0.23775315 0.50137429 0.63145224
0.36784278 0.50250138 0.63208338
0.49798100 0.50362018 0.63267906
0.62807950 0.50469703 0.63319630
0.75816105 0.50576506 0.63381997
0.88821272 0.50671671 0.63431718
1.00000000 0.51296376 0.63426847
0.00000000 0.62683327 0.62743891
0.11222375 0.63278831 0.63293281
0.24234436 0.63387063 0.63351335
0.37241641 0.63487879 0.63403153
0.50243840 0.63574790 0.63444092
0.63242354 0.63598040 0.63451868
0.76106021 0.63638815 0.63491134
0.89114000 0.63745132 0.63505996
1.00000000 0.64323336 0.64079310
0.00000000 0.76009640 0.63320895
0.11657372 0.76482600 0.63459474
0.24638328 0.76552953 0.63487008
0.37601980 0.76604921 0.63500210
0.50544840 0.76635072 0.63496723
0.63473388 0.76625527 0.63484386
0.76331327 0.76507827 0.63573591
0.89090744 0.76503719 0.63513803
1.00000000 0.76897870 0.65004462
0.00000000 0.89190392 0.63572739
0.11938324 0.89515259 0.63490756
0.24846376 0.89510775 0.63460496
0.37724698 0.89476921 0.63407799
0.50569595 0.89410429 0.63330255
0.63377460 0.89307957 0.63225563
0.76145899 0.89163487 0.63097325
0.88861884 0.88973799 0.62954556
1.00000000 0.88854785 0.66229076
0.06476685 1.00000000 0.64737035
0.18906525 1.00000000 0.65049103
0.31155832 1.00000000 0.65383951
0.43209037 1.00000000 0.65741792
0.55050604 1.00000000 0.66122737
0.66665034 1.00000000 0.66526789
0.78036868 1.00000000 0.66953831
0.89150677 1.00000000 0.67403594
0.99991127 1.00000000 0.67875743
0.00000000 0.00139885 0.64945800
0.11018199 0.00000000 0.67602833
0.22438966 0.00000000 0.68392628
0.34096898 0.00000000 0.69142263
0.45976515 0.00000000 0.69851690
0.58062296 0.00000000 0.70520977
0.70338682 0.00000000 0.71150302
0.82790080 0.00000000 0.71739944
0.95400866 0.00000000 0.72290278
0.00000000 0.11560987 0.67947886
0.10695862 0.11197558 0.75954746
0.23429978 0.11100511 0.75871337
0.36207662 0.11038899 0.75813312
0.49025218 0.11009456 0.75778262
0.61878955 0.11008916 0.75763777
0.74765177 0.11034014 0.75767447
0.87680193 0.11081484 0.75786863
1.00000000 0.11372140 0.75426473
0.00000000 0.23709257 0.70491110
0.10388483 0.23881086 0.75770735
0.23254474 0.23890258 0.75763139
0.36151607 0.23923878 0.75772820
0.49076188 0.23978682 0.75797369
0.62024523 0.24051403 0.75834377
0.74992919 0.24138776 0.75881433
0.87977682 0.24237535 0.75936127
1.00000000 0.24690193 0.75442174
0.00000000 0.36411380 0.72554923
0.10475331 0.36878255 0.75809527
0.23431397 0.36956688 0.75850472
0.36406180 0.37048585 0.75900588
0.49395985 0.37150678 0.75957464
0.62397119 0.37259703 0.76018693
0.75405889 0.37372394 0.76081862
0.88418601 0.37485486 0.76144563
1.00000000 0.38089846 0.75524952
0.00000000 0.49491888 0.74140127
0.10815789 0.50064740 0.75979378
0.23820130 0.50175477 0.76041592
0.36830763 0.50288692 0.76104870
0.49843994 0.50401117 0.76166797
0.62856122 0.50509482 0.76224931
0.75863452 0.50610539 0.76276956
0.88862329 0.50701009 0.76320426
1.00000000 0.51390055 0.75730853
0.00000000 0.62773494 0.75265550
0.11269240 0.63316214 0.76188545
0.24280057 0.63422299 0.76244756
0.37284740 0.63519875 0.76293925
0.50279635 0.63605645 0.76333585
0.63261399 0.63675205 0.76359222
0.76220352 0.63725337 0.76367731
0.89164095 0.63759138 0.76370171
1.00000000 0.64410279 0.76110308
0.00000000 0.76077472 0.75964259
0.11695067 0.76508352 0.76345282
0.24670560 0.76572827 0.76368219
0.37627494 0.76617808 0.76376007
0.50562195 0.76640013 0.76366228
0.63473451 0.76633188 0.76335739
0.76343683 0.76554172 0.76289112
0.89067254 0.76480683 0.76255183
1.00000000 0.76957888 0.76702421
0.00000000 0.89224080 0.76279397
0.11952653 0.89516827 0.76357846
0.24851023 0.89502735 0.76320237
0.37718407 0.89458163 0.76259372
0.50551113 0.89379845 0.76172841
0.63345626 0.89264373 0.76058328
0.76105774 0.89096853 0.75927609
0.88764000 0.88834108 0.75908849
1.00000000 0.88848915 0.77508095
0.06767217 1.00000000 0.76471578
0.19173556 1.00000000 0.76685169
0.31395795 1.00000000 0.76916545
0.43418377 1.00000000 0.77165886
0.55225778 1.00000000 0.77433263
0.66802514 1.00000000 0.77718639
0.78133087 1.00000000 0.78021821
0.89200882 1.00000000 0.78340322
0.99994656 1.00000000 0.78668684
0.00000000 0.00161919 0.76095730
0.11039027 0.00000000 0.79153849
0.22500587 0.00000000 0.80052167
0.34195853 0.00000000 0.80905018
0.46109325 0.00000000 0.81712404
0.58225468 0.00000000 0.82474437
0.70528708 0.00000000 0.83191341
0.83003438 0.00000000 0.83863436
0.95634021 0.00000000 0.84491136
0.00000000 0.11619963 0.79491569
0.10642903 0.11160424 0.88798423
0.23392229 0.11075777 0.88723905
0.36183867 0.11025456 0.88673953
0.49014125 0.11006195 0.88646158
0.61879308 0.11014728 0.88638109
0.74775723 0.11047790 0.88647396
0.87699676 0.11102114 0.88671611
1.00000000 0.11421037 0.88172114
0.00000000 0.23793114 0.82372625
0.10381702 0.23881256 0.88641068
0.23258683 0.23899097 0.88639610
0.36165552 0.23940278 0.88654611
0.49098614 0.24001533 0.88683661
0.62054176 0.24079596 0.88724351
0.75028545 0.24171202 0.88774271
0.88018027 0.24273085 0.88831012
1.00000000 0.24766453 0.88083968
0.00000000 0.36508097 0.84717954
0.10500533 0.36903179 0.88697254
0.23463370 0.36986551 0.88741584
0.36443668 0.37082276 0.88794266
0.49437735 0.37187090 0.88852890
0.62441877 0.37297726 0.88915048
0.75452400 0.37410919 0.88978329
0.88465610 0.37523404 0.89040323
1.00000000 0.38181902 0.88002106
0.00000000 0.49589492 0.86527903
0.10858779 0.50101866 0.88875238
0.23865671 0.50213812 0.88938083
0.36877600 0.50327125 0.89001175
0.49890872 0.50438540 0.89062102
0.62901793 0.50544792 0.89118455
0.75906670 0.50642616 0.89167825
0.88901810 0.50728744 0.89207801
1.00000000 0.51486317 0.87982783
0.00000000 0.62860063 0.87820767
0.11315823 0.63352992 0.89083275
0.24324971 0.63456554 0.89137364
0.37326730 0.63550498 0.89183593
0.50317408 0.63631558 0.89219551
0.63293309 0.63696468 0.89242824
0.76250729 0.63741958 0.89250977
0.89185984 0.63764779 0.89241675
1.00000000 0.64499205 0.88076575
0.00000000 0.76141148 0.88628998
0.11731047 0.76532231 0.89229621
0.24700652 0.76590452 0.89247683
0.37650442 0.76628069 0.89249778
0.50576725 0.76641817 0.89233495
0.63475835 0.76628401 0.89196384
0.76343941 0.76583604 0.89134627
0.89170884 0.76504699 0.89045826
1.00000000 0.77039429 0.88323814
0.00000000 0.89253075 0.88995036
0.11963835 0.89515257 0.89222532
0.24852096 0.89491180 0.89177296
0.37708118 0.89435514 0.89107984
0.50528206 0.89344992 0.89012189
0.63308686 0.89216338 0.88887496
0.76047806 0.89043993 0.88731570
0.88721199 0.88800782 0.88559760
1.00000000 0.88881673 0.88750897
0.07062222 1.00000000 0.88137745
0.19444432 1.00000000 0.88249442
0.31638980 1.00000000 0.88373918
0.43630320 1.00000000 0.88511316
0.55402942 1.00000000 0.88661670
0.66941374 1.00000000 0.88824901
0.78230081 1.00000000 0.89000788
0.89247583 1.00000000 0.89184674
0.99998243 1.00000000 0.89326876
0.00000000 0.00183530 0.87334515
0.11059806 0.00000000 0.90784394
0.22561596 0.00000000 0.91787633
0.34293624 0.00000000 0.92740119
0.46240374 0.00000000 0.93641900
0.58386295 0.00000000 0.94493136
0.70715799 0.00000000 0.95294092
0.83213267 0.00000000 0.96045129
0.95863045 0.00000000 0.96746700
0.00000000 0.11677821 0.91113277
0.10738797 0.11251040 1.00000000
0.23307224 0.11229932 1.00000000
0.35915940 0.11244667 1.00000000
0.48552366 0.11294377 1.00000000
0.61203904 0.11378199 1.00000000
0.73857924 0.11495282 1.00000000
0.86501742 0.11644789 1.00000000
0.99122608 0.11825903 1.00000000
0.00000000 0.23875190 0.94321016
0.10714908 0.23937379 1.00000000
0.23404652 0.24022755 1.00000000
0.36105013 0.24137296 1.00000000
0.48803325 0.24280161 1.00000000
0.61486860 0.24450525 1.00000000
0.74142820 0.24647587 1.00000000
0.86758315 0.24870571 1.00000000
0.99320345 0.25118734 1.00000000
0.00000000 0.36602403 0.96936412
0.11152302 0.36904507 1.00000000
0.23906181 0.37061230 1.00000000
0.36640741 0.37240518 1.00000000
0.49343145 0.37441582 1.00000000
0.62000458 0.37663659 1.00000000
0.74599632 0.37906021 1.00000000
0.87127483 0.38167980 1.00000000
0.99570676 0.38448893 1.00000000
0.00000000 0.49684080 0.98959375
0.12003123 0.49991263 1.00000000
0.24763599 0.50184300 1.00000000
0.37474465 0.50393410 1.00000000
0.50122632 0.50617876 1.00000000
0.62694873 0.50857024 1.00000000
0.75177800 0.51110226 1.00000000
0.87557844 0.51376909 1.00000000
0.99821237 0.51656558 1.00000000
0.00444989 0.62851920 1.00000000
0.13221579 0.63035872 1.00000000
0.25931082 0.63230202 1.00000000
0.38560238 0.63434243 1.00000000
0.51095619 0.63647380 1.00000000
0.63523611 0.63869053 1.00000000
0.75830389 0.64098766 1.00000000
0.88001898 0.64336089 1.00000000
1.00000000 0.64590153 0.99976220
0.02067952 0.75718531 1.00000000
0.14767213 0.75874973 1.00000000
0.27368493 0.76035477 1.00000000
0.39858146 0.76199493 1.00000000
0.52222309 0.76366535 1.00000000
0.64446877 0.76536190 1.00000000
0.76517480 0.76708120 1.00000000
0.88419457 0.76882068 1.00000000
1.00000000 0.77112537 0.99864666
0.04042507 0.88249125 1.00000000
0.16608454 0.88342562 1.00000000
0.29044985 0.88433909 1.00000000
0.41337964 0.88522759 1.00000000
0.53472984 0.88608790 1.00000000
0.65435336 0.88691766 1.00000000
0.77209978 0.88771535 1.00000000
0.88781141 0.88847459 1.00000000
1.00000000 0.88971557 0.99872925
0.07361685 1.00000000 0.99733791
0.19719141 1.00000000 0.99740173
0.31885376 1.00000000 0.99754316
0.43844857 1.00000000 0.99776325
0.55582087 1.00000000 0.99806195
0.67081609 1.00000000 0.99843806
0.78327998 1.00000000 0.99888918
0.89304464 1.00000000 0.99941547
1.00000000 1.00000000 1.00000000
