assets/luts/DB_Amber_Hour_Rec709_100.cube
TITLE "Amber Hour Rec709 100"
# Red changes fastest. Full-range normalized input.
LUT_3D_SIZE 5
DOMAIN_MIN 0 0 0
DOMAIN_MAX 1 1 1
0.00400000 0.00400000 0.00400000
0.24283946 0.00012220 0.00155030
0.47802500 0.00000000 0.00186487
0.72154408 0.00000000 0.00132384
0.97258174 0.00000000 0.00000520
0.00000000 0.24114878 0.00356273
0.24241389 0.24449965 0.00000000
0.49047687 0.24762935 0.00084765
0.73967810 0.25150656 0.00222714
0.98970145 0.25598827 0.00400055
0.00972787 0.49710160 0.00283156
0.25995940 0.50173989 0.00472716
0.51051304 0.50663204 0.00689724
0.76102271 0.51151964 0.00925206
1.00000000 0.51794015 0.02666299
0.03124282 0.75726734 0.01013768
0.28110225 0.76173207 0.01259982
0.53005227 0.76558133 0.01503459
0.77772679 0.76855673 0.01735226
1.00000000 0.77036675 0.08975370
0.07989211 1.00000000 0.05280660
0.32450688 1.00000000 0.07050683
0.56095025 1.00000000 0.09092724
0.78792782 1.00000000 0.11415178
1.00000000 0.99610995 0.19100451
0.00180626 0.00247415 0.24714041
0.23982154 0.00000000 0.24361263
0.47815421 0.00000000 0.24219298
0.72378147 0.00000000 0.24311669
0.97444218 0.00053998 0.24396574
0.00000000 0.24232377 0.24278676
0.24334794 0.24490087 0.24381382
0.49215408 0.24856029 0.24516569
0.74164308 0.25297351 0.24680939
0.99186214 0.25760236 0.24869716
0.01177850 0.49863228 0.24745897
0.26215830 0.50338494 0.24945765
0.51235851 0.50806768 0.25168065
0.76314841 0.51312937 0.25409786
1.00000000 0.52036434 0.26763173
0.03330517 0.75883656 0.25499133
0.28289682 0.76312125 0.25745425
0.53145472 0.76670272 0.25985931
0.77861280 0.76932257 0.26211680
1.00000000 0.77247918 0.31741940
0.08539839 1.00000000 0.28938048
0.32885492 1.00000000 0.30366164
0.56384016 1.00000000 0.32028013
0.78906330 1.00000000 0.33930942
1.00000000 0.99697310 0.40032821
0.00000000 0.00123486 0.48990864
0.23828192 0.00000000 0.48309412
0.47895430 0.00000000 0.48329318
0.72629306 0.00000000 0.48641980
0.97563035 0.00144039 0.48822317
0.00000000 0.24346503 0.48450373
0.24502793 0.24655880 0.48854782
0.49388873 0.25018466 0.48977817
0.74368846 0.25450028 0.49143389
0.99406101 0.25924646 0.49342568
0.01389415 0.50021192 0.49212487
0.26438390 0.50505062 0.49421681
0.51276703 0.50862586 0.49744472
0.76469530 0.51421213 0.49925412
1.00000000 0.52294722 0.50602381
0.03529053 0.76035448 0.49984867
0.28457216 0.76442933 0.50230200
0.53269232 0.76771211 0.50466793
0.77873156 0.76968772 0.50702235
1.00000000 0.77470854 0.54143522
0.09102903 1.00000000 0.52341074
0.33327279 1.00000000 0.53400348
0.56674677 1.00000000 0.54654665
0.79016385 1.00000000 0.56110275
1.00000000 0.99790981 0.60502626
0.00000000 0.00166031 0.71432886
0.23773028 0.00000000 0.72269760
0.48018773 0.00000000 0.72571893
0.72898579 0.00000000 0.73136119
0.97698440 0.00246095 0.73254380
0.00000000 0.24455566 0.72873644
0.24654390 0.24769694 0.73293229
0.49576461 0.25158610 0.73431713
0.74579991 0.25607674 0.73609714
0.99628372 0.26091045 0.73818259
0.01606050 0.50183040 0.73682574
0.26661669 0.50672485 0.73900012
0.51712196 0.51160985 0.74135761
0.76720996 0.51622668 0.74380880
1.00000000 0.52569129 0.74166871
0.03718455 0.76181098 0.74470617
0.28611395 0.76564619 0.74713956
0.53376030 0.76860245 0.74945450
0.77680260 0.76903792 0.75335326
1.00000000 0.77648908 0.76181401
0.09678155 1.00000000 0.75475870
0.33775854 1.00000000 0.76139215
0.56966868 1.00000000 0.76958486
0.79122623 1.00000000 0.77938721
1.00000000 0.99895029 0.80416702
0.00000000 0.00201149 0.94280026
0.23774922 0.00000000 0.96350645
0.48171183 0.00000000 0.96974436
0.73048342 0.00058655 0.97603718
0.97848999 0.00359153 0.97692413
0.00000000 0.24558453 0.97545020
0.24819602 0.24893423 0.97737271
0.49773442 0.25305663 0.97890181
0.74796309 0.25769276 0.98079561
0.99851594 0.26258420 0.98296439
0.01826321 0.50347760 0.98155808
0.26884318 0.50839783 0.98380468
0.51924797 0.51322088 0.98620387
0.76911150 0.51768835 0.98866592
1.00000000 0.52859880 0.97439795
0.03897288 0.76319594 0.98956031
0.28750783 0.76676170 0.99196343
0.53463607 0.76936098 0.99421728
0.77999142 0.77073531 0.99623222
1.00000000 0.77954288 0.97792757
0.10265365 1.00000000 0.98328513
0.34231041 1.00000000 0.98568679
0.57260476 1.00000000 0.98925217
0.79225705 1.00000000 0.99402066
1.00000000 1.00000000 1.00000000
