assets/luts/DB_Alpine_Air_Rec709_100.cube
TITLE "Alpine Air Rec709 100"
# Red changes fastest. Full-range normalized input.
LUT_3D_SIZE 9
DOMAIN_MIN 0 0 0
DOMAIN_MAX 1 1 1
0.00000000 0.00000000 0.00000000
0.09279237 0.00000000 0.00097156
0.19109051 0.00000000 0.00252300
0.29455126 0.00000000 0.00374198
0.40284172 0.00000000 0.00467351
0.51567138 0.00000000 0.00543317
0.63273155 0.00000000 0.00602124
0.75371221 0.00000000 0.00643798
0.87830257 0.00000000 0.00668583
0.00000000 0.09869209 0.00805588
0.09850183 0.10269978 0.00000000
0.20756839 0.10433290 0.00000000
0.32208023 0.10590105 0.00000000
0.44007998 0.10725493 0.00000000
0.56117346 0.10868122 0.00000000
0.68515963 0.11017769 0.00000000
0.81175354 0.11173713 0.00000000
0.94067468 0.11335080 0.00000000
0.00000000 0.21338527 0.01402112
0.09818719 0.22238066 0.00000000
0.21525112 0.22529090 0.00000000
0.33514434 0.22836628 0.00000000
0.45800194 0.23135004 0.00000000
0.58342088 0.23425460 0.00000000
0.71109445 0.23710817 0.00000000
0.84074735 0.23990156 0.00000000
0.97210813 0.24262332 0.00000000
0.00000000 0.34061302 0.01677063
0.10135811 0.35191936 0.00000000
0.22346028 0.35604496 0.00000000
0.34801639 0.36002787 0.00000000
0.47474619 0.36386010 0.00000000
0.60337603 0.36752963 0.00000000
0.73363398 0.37102547 0.00000000
0.86525234 0.37433515 0.00000000
0.99796675 0.37744511 0.00000000
0.00000000 0.47685778 0.01663530
0.10649919 0.48853980 0.00000000
0.23257108 0.49309327 0.00000000
0.36045584 0.49738467 0.00000000
0.48988278 0.50140235 0.00000000
0.62058466 0.50513359 0.00000000
0.75229733 0.50856478 0.00000000
0.88475931 0.51168152 0.00000000
1.00000000 0.51732301 0.02387882
0.00000000 0.61856653 0.01406633
0.11287413 0.62896905 0.00000000
0.24172695 0.63326076 0.00000000
0.37176477 0.63716709 0.00000000
0.50272396 0.64067428 0.00000000
0.63434343 0.64376779 0.00000000
0.76636425 0.64643246 0.00000000
0.89852930 0.64865258 0.00000000
1.00000000 0.65340267 0.06042962
0.00000000 0.76215628 0.00980889
0.11962655 0.76995393 0.00000000
0.25007038 0.77329489 0.00000000
0.38108267 0.77612378 0.00000000
0.51240501 0.77842530 0.00000000
0.64378063 0.78018362 0.00000000
0.77495409 0.78138254 0.00000000
0.90567092 0.78200558 0.00000000
1.00000000 0.78168246 0.10855770
0.00000000 0.90402254 0.00482132
0.12577611 0.90827812 0.00000000
0.25662697 0.90997756 0.00000000
0.38743892 0.91103553 0.00000000
0.51795701 0.91143569 0.00000000
0.64792712 0.91116142 0.00000000
0.77709564 0.91019599 0.00000000
0.90520912 0.90852259 0.00000000
1.00000000 0.89860326 0.16877209
0.10183288 1.00000000 0.10199324
0.22759084 1.00000000 0.11705979
0.35009596 1.00000000 0.13307809
0.46903576 1.00000000 0.15005563
0.58409834 1.00000000 0.16799810
0.69497248 1.00000000 0.18690925
0.80134765 1.00000000 0.20679075
0.90291407 1.00000000 0.22764208
0.99936275 1.00000000 0.24946041
0.00000000 0.00048043 0.08669417
0.09326031 0.00000000 0.09704341
0.19242289 0.00000000 0.10093041
0.29667848 0.00000000 0.10454967
0.40571382 0.00000000 0.10786966
0.51921975 0.00000000 0.11091256
0.63688678 0.00000000 0.11367833
0.75840456 0.00000000 0.11616815
0.88346201 0.00000000 0.11838536
0.00000000 0.09999451 0.10410976
0.09693795 0.10371386 0.10926192
0.22390633 0.10058247 0.10558794
0.35264139 0.09833216 0.10568899
0.48291443 0.09656804 0.10452117
0.61372562 0.09553534 0.10350833
0.74530306 0.09512792 0.10293662
0.87758177 0.09527885 0.10276165
1.00000000 0.09876394 0.10567416
0.00000000 0.21527166 0.11791628
0.08520825 0.22840844 0.10392452
0.21834386 0.22632513 0.10207051
0.34783065 0.22681190 0.10233813
0.48003920 0.22793252 0.10278937
0.61327557 0.22876690 0.10307578
0.74691997 0.22997806 0.10364684
0.88101562 0.23152786 0.10445276
1.00000000 0.23724272 0.11250643
0.00000000 0.34283497 0.12764764
0.08282283 0.36070115 0.10285642
0.21624174 0.36160167 0.10327620
0.35016228 0.36279244 0.10408540
0.48418419 0.36460531 0.10488345
0.61878573 0.36656859 0.10584678
0.75366097 0.36866040 0.10701212
0.88873757 0.37086992 0.10825348
1.00000000 0.37850914 0.12677166
0.00000000 0.47917200 0.13339345
0.08742006 0.49783199 0.10515960
0.22212411 0.49981297 0.10625738
0.35708020 0.50195365 0.10745932
0.49221245 0.50418982 0.10871647
0.62744791 0.50645734 0.10997695
0.76271376 0.50868841 0.11119755
0.89793530 0.51081853 0.11232892
1.00000000 0.51894326 0.14958109
0.00000000 0.62073124 0.13559278
0.09569991 0.63751618 0.10917537
0.23095538 0.63977724 0.11042837
0.36621359 0.64197902 0.11162235
0.50140067 0.64405621 0.11270913
0.63644276 0.64594351 0.11364049
0.77126598 0.64757560 0.11436826
0.90579646 0.64888715 0.11484422
1.00000000 0.65493578 0.18194073
0.00000000 0.76393124 0.13497569
0.10484683 0.77726873 0.11306873
0.23981779 0.77907068 0.11393155
0.37454298 0.78059363 0.11457322
0.50894854 0.78177228 0.11494555
0.64296060 0.78254131 0.11500033
0.77650529 0.78283542 0.11468938
0.90950872 0.78258928 0.11396449
1.00000000 0.78289794 0.22465327
0.00000000 0.90516926 0.13248336
0.11204847 0.91460311 0.11500479
0.24589893 0.91520680 0.11493200
0.37925511 0.91531179 0.11447593
0.51204316 0.91485275 0.11358837
0.64418919 0.91376438 0.11222114
0.77561934 0.91198137 0.11032603
0.90625974 0.90943839 0.10785485
1.00000000 0.89927098 0.27822376
0.10719166 1.00000000 0.21799913
0.23254266 1.00000000 0.23143673
0.35456913 1.00000000 0.24572727
0.47295876 1.00000000 0.26087764
0.58739991 1.00000000 0.27689286
0.69758157 1.00000000 0.29377598
0.80319349 1.00000000 0.31152791
0.90392615 1.00000000 0.33014734
0.99947085 1.00000000 0.34963056
0.00000000 0.00095866 0.17532190
0.09368111 0.00000000 0.19461664
0.19372113 0.00000000 0.20100722
0.29877993 0.00000000 0.20702356
0.40854929 0.00000000 0.21266009
0.52272012 0.00000000 0.21791447
0.64098250 0.00000000 0.22278656
0.76302577 0.00000000 0.22727845
0.88853855 0.00000000 0.23139436
0.00000000 0.10128399 0.20172255
0.09430195 0.10283383 0.24218964
0.22266665 0.09983069 0.23953537
0.35196858 0.09763008 0.23786490
0.48225283 0.09614285 0.23662404
0.61332909 0.09533032 0.23576669
0.74515297 0.09511984 0.23533512
0.87765304 0.09544553 0.23528392
1.00000000 0.09933957 0.23655197
0.00000000 0.21712415 0.22335443
0.08425906 0.22823158 0.23615897
0.21688964 0.22702426 0.23357279
0.34799468 0.22691228 0.23210229
0.48001643 0.22813938 0.23494317
0.61360104 0.22913663 0.23573619
0.74741477 0.23046968 0.23639664
0.88164739 0.23211962 0.23727127
1.00000000 0.23841425 0.24259623
0.00000000 0.34500928 0.23984166
0.08304281 0.36097982 0.23545616
0.21702654 0.36181589 0.23577247
0.35284516 0.36150593 0.23573814
0.48476238 0.36406221 0.23751665
0.61941644 0.36720852 0.23876915
0.75451506 0.36940057 0.23992850
0.88964595 0.37163575 0.24118299
1.00000000 0.38004555 0.25485407
0.00000000 0.48142589 0.25124019
0.08813579 0.49848270 0.23801784
0.22293635 0.50052383 0.23915647
0.35804734 0.50263437 0.24042449
0.49326785 0.50471119 0.24191601
0.62834733 0.50715331 0.24302755
0.76364275 0.50942492 0.24409915
0.89883636 0.51150741 0.24518422
1.00000000 0.52061349 0.27443721
0.00000000 0.62282352 0.25797360
0.09663079 0.63828664 0.24210452
0.23189547 0.64053489 0.24334288
0.36713787 0.64270164 0.24450592
0.50228462 0.64472084 0.24554673
0.63726008 0.64652835 0.24641603
0.77199190 0.64806006 0.24706110
0.90640633 0.64924807 0.24744004
1.00000000 0.65650887 0.30235075
0.00000000 0.76562222 0.26075729
0.10570895 0.77790791 0.24588356
0.24060473 0.77962243 0.24667668
0.37522966 0.78103578 0.24723228
0.50950987 0.78208265 0.24750218
0.64337149 0.78269772 0.24743816
0.77674065 0.78281568 0.24699204
0.90954347 0.78237122 0.24611561
1.00000000 0.78414312 0.33939523
0.00000000 0.90622092 0.26051574
0.11255793 0.91486000 0.24752006
0.24624882 0.91530165 0.24732251
0.37942034 0.91522241 0.24672531
0.51199864 0.91455698 0.24568025
0.64390984 0.91324003 0.24413916
0.77508007 0.91120625 0.24205382
0.90543546 0.90839034 0.23937604
1.00000000 0.89995785 0.38607242
0.11264145 1.00000000 0.33281161
0.23757284 1.00000000 0.34455228
0.35910805 1.00000000 0.35704689
0.47693501 1.00000000 0.37030168
0.59074228 1.00000000 0.38432101
0.70021913 1.00000000 0.39910719
0.80505553 1.00000000 0.41466038
0.90494228 1.00000000 0.43097844
0.99957095 1.00000000 0.44805678
0.00000000 0.00142894 0.26589792
0.09410509 0.00000000 0.29390683
0.19500560 0.00000000 0.30275760
0.30085624 0.00000000 0.31112607
0.41134842 0.00000000 0.31900821
0.52617272 0.00000000 0.32640247
0.64501889 0.00000000 0.33330964
0.76757597 0.00000000 0.33973274
0.89353228 0.00000000 0.34567682
0.00000000 0.10254997 0.30102746
0.09276050 0.10172500 0.37386634
0.22147916 0.09899491 0.37163028
0.35114411 0.09704007 0.36995233
0.48168222 0.09579503 0.36878362
0.61301907 0.09519466 0.36807449
0.74508086 0.09517359 0.36777749
0.87779377 0.09566650 0.36784451
1.00000000 0.09999489 0.36731602
0.00000000 0.21894187 0.33029607
0.08367147 0.22800487 0.36847297
0.21531609 0.22760931 0.36783875
0.34762119 0.22776330 0.36744000
0.48048522 0.22845842 0.36784507
0.61399800 0.22954974 0.36843288
0.74795891 0.23099779 0.36917160
0.88231998 0.23274034 0.37010939
1.00000000 0.23965574 0.37231444
0.00000000 0.34713581 0.35331834
0.08331683 0.36131116 0.36809430
0.21709289 0.36248461 0.36857655
0.35235706 0.36317382 0.36765644
0.48561397 0.36470296 0.36781652
0.62000164 0.36786022 0.37132891
0.75538308 0.37015177 0.37284807
0.89056647 0.37240520 0.37411341
1.00000000 0.38164216 0.38230745
0.00000000 0.48361942 0.37014011
0.08888611 0.49915690 0.37089164
0.22377479 0.50125082 0.37206317
0.35927485 0.50316121 0.37322853
0.49559927 0.50335023 0.37471750
0.62848873 0.50651093 0.37669363
0.76436654 0.51008227 0.37709372
0.89971886 0.51217438 0.37802269
1.00000000 0.52233405 0.39840797
0.00000000 0.62484345 0.38117242
0.09756761 0.63905524 0.37503054
0.23283299 0.64128315 0.37624870
0.36805347 0.64340561 0.37737620
0.50321447 0.64528666 0.37843732
0.63808291 0.64682421 0.37957107
0.77260481 0.64843491 0.37990176
0.90696600 0.64956049 0.38000581
1.00000000 0.65812222 0.42162095
0.00000000 0.76722937 0.38711645
0.10654836 0.77851989 0.37867655
0.24136044 0.78013946 0.37939441
0.37587659 0.78143567 0.37985839
0.51002297 0.78234318 0.38002037
0.64372602 0.78279596 0.37983373
0.77691036 0.78272986 0.37924881
0.90950415 0.78208062 0.37821218
1.00000000 0.78541826 0.45274545
0.00000000 0.90717774 0.38888049
0.11301602 0.91506434 0.37999480
0.24653881 0.91533642 0.37966693
0.37951715 0.91506543 0.37892304
0.51187719 0.91418606 0.37771493
0.64354503 0.91263300 0.37599441
0.77444682 0.91034093 0.37371328
0.90450868 0.90724454 0.37082334
1.00000000 0.90066402 0.49228069
0.11818194 1.00000000 0.44639590
0.24268107 1.00000000 0.45637160
0.36371246 1.00000000 0.46700201
0.48096425 1.00000000 0.47829275
0.59412524 1.00000000 0.49024746
0.70288495 1.00000000 0.50286771
0.80693363 1.00000000 0.51615288
0.90596234 1.00000000 0.53009998
0.99966297 1.00000000 0.54470355
0.00000000 0.00189252 0.35837634
0.09452664 0.00000000 0.39493473
0.19627657 0.00000000 0.40617300
0.30290783 0.00000000 0.41682159
0.41411148 0.00000000 0.42687750
0.52957776 0.00000000 0.43634018
0.64899612 0.00000000 0.44521136
0.77205528 0.00000000 0.45349492
0.89844329 0.00000000 0.46119677
0.00000000 0.10379478 0.40202317
0.09136555 0.10070686 0.50554203
0.22041393 0.09824733 0.50350153
0.35038382 0.09654086 0.50200146
0.48120135 0.09552212 0.50099362
0.61279265 0.09512582 0.50042982
0.74508385 0.09528662 0.50026185
0.87800108 0.09593923 0.50044152
1.00000000 0.10073027 0.49792670
0.00000000 0.22072474 0.43871020
0.08328484 0.22780923 0.50073949
0.21513955 0.22762329 0.50032524
0.34766729 0.22797065 0.50028829
0.48079379 0.22878616 0.50058285
0.61444601 0.23000430 0.50115993
0.74854950 0.23155984 0.50196986
0.88303048 0.23338747 0.50296523
1.00000000 0.24096757 0.50162145
0.00000000 0.34921445 0.46804318
0.08365649 0.36168645 0.50076349
0.21748268 0.36303447 0.50142859
0.35176374 0.36467679 0.50223557
0.48634118 0.36654867 0.50307340
0.62116314 0.36869022 0.50444529
0.75628463 0.37091221 0.50577497
0.89149625 0.37317572 0.50704285
1.00000000 0.38329935 0.50909234
0.00000000 0.48575258 0.49005765
0.08966814 0.49985203 0.50377913
0.22462798 0.50199560 0.50498109
0.35985845 0.50417104 0.50615998
0.49584220 0.50540513 0.50623669
0.62943297 0.50723185 0.50722514
0.76496639 0.51070966 0.50975242
0.90057383 0.51281673 0.51084013
1.00000000 0.52410528 0.52145424
0.00000000 0.62679109 0.50515271
0.09850748 0.63981942 0.50795153
0.23376504 0.64201945 0.50914394
0.36895518 0.64409029 0.51022796
0.50430474 0.64565567 0.51122339
0.63929635 0.64513984 0.51347369
0.77163210 0.64742576 0.51442734
0.90722357 0.64976140 0.51271779
1.00000000 0.65977545 0.53971243
0.00000000 0.76875283 0.51401581
0.10736215 0.77910211 0.51144582
0.24208202 0.78061919 0.51208287
0.37648086 0.78179073 0.51244967
0.51048686 0.78254966 0.51249976
0.64406430 0.78276347 0.51228717
0.77695651 0.78234223 0.51198473
0.90928221 0.78165595 0.51047246
1.00000000 0.78672170 0.56466500
0.00000000 0.90803997 0.51753955
0.11341983 0.91521359 0.51242711
0.24676601 0.91530856 0.51196336
0.37954265 0.91483829 0.51106723
0.51167590 0.91373745 0.50969050
0.64309191 0.91194070 0.50778509
0.77371699 0.90938214 0.50530456
0.90347596 0.90599751 0.50219894
1.00000000 0.90138958 0.59681119
0.12381279 1.00000000 0.55871720
0.24786705 1.00000000 0.56685982
0.36838208 1.00000000 0.57555771
0.48504624 1.00000000 0.58481582
0.59754858 1.00000000 0.59463709
0.70557886 1.00000000 0.60502233
0.80882762 1.00000000 0.61597010
0.90698622 1.00000000 0.62747655
0.99974685 1.00000000 0.63953532
0.00000000 0.00234893 0.45272611
0.09494614 0.00000000 0.49766363
0.19753436 0.00000000 0.51121689
0.30493498 0.00000000 0.52407350
0.41683870 0.00000000 0.53623150
0.53293543 0.00000000 0.54769129
0.65291432 0.00000000 0.55845553
0.77646380 0.00000000 0.56852896
0.90327162 0.00000000 0.57791831
0.00000000 0.10501815 0.50467742
0.09008545 0.09978309 0.63728547
0.21945506 0.09758663 0.63543391
0.34972109 0.09612104 0.63410641
0.48080968 0.09532101 0.63325477
0.61264696 0.09512122 0.63283080
0.74515905 0.09545637 0.63278630
0.87827208 0.09626114 0.63307307
1.00000000 0.10154611 0.62834438
0.00000000 0.22247256 0.54856348
0.08298563 0.22768223 0.63305345
0.21507713 0.22768475 0.63277321
0.34781655 0.22819843 0.63285489
0.48113002 0.22915795 0.63325029
0.61494366 0.23049800 0.63391123
0.74918362 0.23215327 0.63478950
0.88377600 0.23405844 0.63583691
1.00000000 0.24235015 0.63047766
0.00000000 0.35124507 0.58398149
0.08405426 0.36210520 0.63346272
0.21803166 0.36356757 0.63420836
0.35240851 0.36532136 0.63515365
0.48711087 0.36730118 0.63624963
0.62206458 0.36944202 0.63745034
0.75719662 0.37167831 0.63870677
0.89243241 0.37394474 0.63996944
1.00000000 0.38501748 0.63516933
0.00000000 0.48782536 0.61095707
0.09047900 0.50056551 0.63667840
0.22550630 0.50274858 0.63790448
0.36068556 0.50500276 0.63916675
0.49596200 0.50724036 0.64035813
0.63115901 0.50939406 0.64139260
0.76632211 0.51153012 0.64263994
0.90142545 0.51343343 0.64363436
1.00000000 0.52592753 0.64353694
0.00000000 0.62866653 0.62987783
0.09944750 0.64057662 0.64086561
0.23468872 0.64274125 0.64202671
0.36983282 0.64475759 0.64306307
0.50487681 0.64649579 0.64388185
0.63984708 0.64696080 0.64403735
0.77212042 0.64777630 0.64482268
0.90727999 0.64990265 0.64511992
1.00000000 0.66146672 0.65658620
0.00000000 0.77019280 0.64141791
0.10814744 0.77965201 0.64418948
0.24276657 0.78105907 0.64474015
0.37703959 0.78209841 0.64500421
0.51089681 0.78270144 0.64493446
0.64446776 0.78251053 0.64468771
0.77662654 0.78015655 0.64647181
0.90681488 0.78007437 0.64527605
1.00000000 0.78795740 0.67508924
0.00000000 0.90880783 0.64645477
0.11376648 0.91530517 0.64481511
0.24692752 0.91521551 0.64420993
0.37949395 0.91453842 0.64315599
0.51139190 0.91320858 0.64160510
0.64254921 0.91115913 0.63951126
0.77291798 0.90826974 0.63694649
0.90223769 0.90447598 0.63409112
1.00000000 0.90209569 0.69958152
0.12953370 1.00000000 0.66974070
0.25313049 1.00000000 0.67598206
0.37311664 1.00000000 0.68267901
0.48918074 1.00000000 0.68983584
0.60101208 1.00000000 0.69745475
0.70830069 1.00000000 0.70553578
0.81073736 1.00000000 0.71407663
0.90801354 1.00000000 0.72307188
0.99982254 1.00000000 0.73251485
0.00000000 0.00279769 0.54891600
0.09536399 0.00000000 0.60205665
0.19877932 0.00000000 0.61785255
0.30693797 0.00000000 0.63284526
0.41953031 0.00000000 0.64703381
0.53624591 0.00000000 0.66041955
0.65677363 0.00000000 0.67300604
0.78080160 0.00000000 0.68479887
0.90801732 0.00000000 0.69580556
0.00000000 0.10621975 0.60895772
0.08891724 0.09895115 0.76909491
0.21859957 0.09701022 0.76742673
0.34915323 0.09577798 0.76626624
0.48050436 0.09518912 0.76556524
0.61257909 0.09517833 0.76527555
0.74530354 0.09568028 0.76534895
0.87860385 0.09662968 0.76573726
1.00000000 0.10244280 0.75852946
0.00000000 0.22418514 0.65982221
0.08276966 0.22762171 0.76541470
0.21508948 0.22780515 0.76526277
0.34803214 0.22847757 0.76545640
0.48152375 0.22957364 0.76594739
0.61549045 0.23102806 0.76668754
0.74985838 0.23277552 0.76762866
0.88455365 0.23475070 0.76872254
1.00000000 0.24380385 0.75884348
0.00000000 0.35322760 0.70109846
0.08450662 0.36256510 0.76619055
0.21862794 0.36413377 0.76700944
0.35312359 0.36597169 0.76801175
0.48791970 0.36801356 0.76914929
0.62294238 0.37019406 0.77037385
0.75811778 0.37244788 0.77163724
0.89337202 0.37470971 0.77289127
1.00000000 0.38679692 0.76049903
0.00000000 0.48983777 0.73280255
0.09131577 0.50129479 0.76958757
0.22640261 0.50350955 0.77083185
0.36161526 0.50577384 0.77209741
0.49687989 0.50802234 0.77333595
0.63212245 0.51018964 0.77449861
0.76726903 0.51221078 0.77553912
0.90224657 0.51402018 0.77640852
1.00000000 0.52780111 0.76461706
0.00000000 0.63046989 0.75531100
0.10038479 0.64132428 0.77377089
0.23560114 0.64344598 0.77489512
0.37069480 0.64539750 0.77587849
0.50559270 0.64711290 0.77667170
0.64022798 0.64850409 0.77718444
0.77440704 0.64950675 0.77735462
0.90828189 0.65018276 0.77740341
1.00000000 0.66320559 0.77220616
0.00000000 0.77154945 0.76928518
0.10890134 0.78016703 0.77690564
0.24341121 0.78145654 0.77736438
0.37754988 0.78235615 0.77752013
0.51124389 0.78280026 0.77732457
0.64446901 0.78266376 0.77671479
0.77687367 0.78108344 0.77578225
0.90634509 0.77961366 0.77510365
1.00000000 0.78915776 0.78404841
0.00000000 0.90948159 0.77558793
0.11405306 0.91533654 0.77715692
0.24702046 0.91505471 0.77640474
0.37936815 0.91416327 0.77518744
0.51102227 0.91259690 0.77345681
0.64191253 0.91028746 0.77116655
0.77211548 0.90693706 0.76855217
0.90028000 0.90168216 0.76817697
1.00000000 0.90197829 0.80016189
0.13534435 1.00000000 0.77943156
0.25847111 1.00000000 0.78370338
0.37791590 1.00000000 0.78833091
0.49336753 1.00000000 0.79331771
0.60451556 1.00000000 0.79866526
0.71105028 1.00000000 0.80437279
0.81266174 1.00000000 0.81043643
0.90901765 1.00000000 0.81680645
0.99989313 1.00000000 0.82337368
0.00000000 0.00323839 0.64691460
0.09578053 0.00000000 0.70807698
0.20001174 0.00000000 0.72604334
0.30891705 0.00000000 0.74310037
0.42218650 0.00000000 0.75924807
0.53950936 0.00000000 0.77448875
0.66057416 0.00000000 0.78882682
0.78506876 0.00000000 0.80226871
0.91268041 0.00000000 0.81482271
0.00000000 0.10739927 0.71483138
0.08785805 0.09820848 0.90096847
0.21784457 0.09651555 0.89947811
0.34867734 0.09550913 0.89847907
0.48028249 0.09512390 0.89792315
0.61258616 0.09529456 0.89776217
0.74551446 0.09595580 0.89794792
0.87899353 0.09704229 0.89843221
1.00000000 0.10342074 0.88844227
0.00000000 0.22586227 0.77245250
0.08263404 0.22762512 0.89782136
0.21517367 0.22798194 0.89779219
0.34831103 0.22880556 0.89809221
0.48197227 0.23003066 0.89867322
0.61608352 0.23159192 0.89948702
0.75057089 0.23342404 0.90048543
0.88536053 0.23546170 0.90162023
1.00000000 0.24532907 0.88667935
0.00000000 0.35516194 0.81935908
0.08501067 0.36306358 0.89894509
0.21926740 0.36473101 0.89983167
0.35387337 0.36664552 0.90088531
0.48875470 0.36874180 0.90205781
0.62383753 0.37095452 0.90330096
0.75904799 0.37321838 0.90456658
0.89431220 0.37546807 0.90580646
1.00000000 0.38863804 0.88504211
0.00000000 0.49178984 0.85555806
0.09217558 0.50203733 0.90250475
0.22731343 0.50427623 0.90376167
0.36255200 0.50654249 0.90502349
0.49781744 0.50877080 0.90624204
0.63303587 0.51089585 0.90736911
0.76813341 0.51285232 0.90835650
0.90303619 0.51457489 0.90915603
1.00000000 0.52972634 0.88465566
0.00000000 0.63220127 0.88141534
0.10131645 0.64205985 0.90666549
0.23649942 0.64413108 0.90774729
0.37153461 0.64600996 0.90867187
0.50634815 0.64763116 0.90939103
0.64086619 0.64892936 0.90985648
0.77501457 0.64983915 0.91001954
0.90871968 0.65029558 0.90983351
1.00000000 0.66498409 0.88653150
0.00000000 0.77282297 0.89757996
0.10962094 0.78064462 0.90959241
0.24401303 0.78180904 0.90995366
0.37800884 0.78256139 0.90999556
0.51153449 0.78283635 0.90966990
0.64451670 0.78256802 0.90892769
0.77687882 0.78167208 0.90769254
0.90841768 0.78009399 0.90591652
1.00000000 0.79078859 0.89147627
0.00000000 0.91006150 0.90490073
0.11427670 0.91530514 0.90945064
0.24704192 0.91482360 0.90854591
0.37916236 0.91371028 0.90715969
0.51056413 0.91189985 0.90524377
0.64117372 0.90932675 0.90274992
0.77095611 0.90587986 0.89963140
0.89942398 0.90101563 0.89619519
1.00000000 0.90263347 0.90001795
0.14124444 1.00000000 0.88775489
0.26388864 1.00000000 0.88998884
0.38277960 1.00000000 0.89247837
0.49760640 1.00000000 0.89522631
0.60805883 1.00000000 0.89823339
0.71382749 1.00000000 0.90149802
0.81460162 1.00000000 0.90501577
0.90995167 1.00000000 0.90869347
0.99996487 1.00000000 0.91153751
0.00000000 0.00367059 0.74669029
0.09619612 0.00000000 0.81568787
0.20123192 0.00000000 0.83575266
0.31087247 0.00000000 0.85480238
0.42480748 0.00000000 0.87283800
0.54272590 0.00000000 0.88986273
0.66431599 0.00000000 0.90588185
0.78926533 0.00000000 0.92090259
0.91726090 0.00000000 0.93493399
0.00000000 0.10855641 0.82226553
0.08977593 0.10002081 1.00000000
0.21614448 0.09959865 1.00000000
0.34331880 0.09989334 1.00000000
0.47104731 0.10088753 1.00000000
0.59907808 0.10256398 1.00000000
0.72715847 0.10490564 1.00000000
0.85503483 0.10789577 1.00000000
0.98245216 0.11151805 1.00000000
0.00000000 0.22750380 0.88642031
0.08929817 0.22874758 1.00000000
0.21809304 0.23045510 1.00000000
0.34710027 0.23274592 1.00000000
0.47606649 0.23560322 1.00000000
0.60473720 0.23901050 1.00000000
0.73285641 0.24295173 1.00000000
0.86016630 0.24741141 1.00000000
0.98640690 0.25237469 1.00000000
0.00000000 0.35704805 0.93872823
0.09804603 0.36309015 1.00000000
0.22812363 0.36622459 1.00000000
0.35781482 0.36981037 1.00000000
0.48686290 0.37383164 1.00000000
0.61500916 0.37827318 1.00000000
0.74199263 0.38312042 1.00000000
0.86754965 0.38835960 1.00000000
0.99141351 0.39397787 1.00000000
0.00000000 0.49368160 0.97918750
0.11506246 0.49982527 1.00000000
0.24527199 0.50368601 1.00000000
0.37448930 0.50786820 1.00000000
0.50245264 0.51235752 1.00000000
0.62889746 0.51714048 1.00000000
0.75355599 0.52220452 1.00000000
0.87615687 0.52753817 1.00000000
0.99642474 0.53313116 1.00000000
0.00889978 0.63203839 1.00000000
0.13943159 0.63571744 1.00000000
0.26862164 0.63960403 1.00000000
0.39620475 0.64368485 1.00000000
0.52191238 0.64794760 1.00000000
0.64547222 0.65238107 1.00000000
0.76660778 0.65697532 1.00000000
0.88503796 0.66172178 1.00000000
1.00000000 0.66680306 0.99952439
0.04135905 0.76437062 1.00000000
0.17034425 0.76749945 1.00000000
0.29736985 0.77070954 1.00000000
0.42216292 0.77398986 1.00000000
0.54444618 0.77733071 1.00000000
0.66393753 0.78072380 1.00000000
0.78034960 0.78416240 1.00000000
0.89338914 0.78764135 1.00000000
1.00000000 0.79225074 0.99729332
0.08085015 0.88998249 1.00000000
0.20716908 0.89185124 1.00000000
0.33089969 0.89367817 1.00000000
0.45175928 0.89545518 1.00000000
0.56945968 0.89717579 1.00000000
0.68370672 0.89883532 1.00000000
0.79419956 0.90043069 1.00000000
0.90062282 0.90194919 1.00000000
1.00000000 0.90443115 0.99745851
0.14723370 1.00000000 0.99467581
0.26938282 1.00000000 0.99480347
0.38770753 1.00000000 0.99508632
0.50189714 1.00000000 0.99552649
0.61164175 1.00000000 0.99612389
0.71663219 1.00000000 0.99687612
0.81655996 1.00000000 0.99777836
0.91108927 1.00000000 0.99883095
1.00000000 1.00000000 1.00000000
