assets/luts/DB_Alpine_Air_Rec709_50.cube
TITLE "Alpine Air Rec709 50"
# Red changes fastest. Full-range normalized input.
LUT_3D_SIZE 33
DOMAIN_MIN 0 0 0
DOMAIN_MAX 1 1 1
0.00000000 0.00000000 0.00000000
0.02696256 0.00000000 0.00013810
0.05410075 0.00000000 0.00024985
0.08141217 0.00000000 0.00035640
0.10889619 0.00000000 0.00048578
0.13655321 0.00000000 0.00065374
0.16438265 0.00000000 0.00085341
0.19238154 0.00000000 0.00106295
0.22054525 0.00000000 0.00126150
0.24886931 0.00000000 0.00143919
0.27735048 0.00000000 0.00159660
0.30598653 0.00000000 0.00173889
0.33477563 0.00000000 0.00187099
0.36371583 0.00000000 0.00199588
0.39280499 0.00000000 0.00211489
0.42204079 0.00000000 0.00222848
0.45142086 0.00000000 0.00233676
0.48094280 0.00000000 0.00243972
0.51060419 0.00000000 0.00253736
0.54040263 0.00000000 0.00262965
0.57033569 0.00000000 0.00271658
0.60040095 0.00000000 0.00279815
0.63059600 0.00000000 0.00287435
0.66091842 0.00000000 0.00294517
0.69136577 0.00000000 0.00301062
0.72193565 0.00000000 0.00307072
0.75262561 0.00000000 0.00312546
0.78343324 0.00000000 0.00317488
0.81435611 0.00000000 0.00321899
0.84539177 0.00000000 0.00325782
0.87653782 0.00000000 0.00329139
0.90779180 0.00000000 0.00331974
0.93915129 0.00000000 0.00334291
0.00000000 0.02712281 0.00097551
0.02680245 0.02744785 0.00000000
0.05471955 0.02738751 0.00000000
0.08266895 0.02736562 0.00000000
0.11076066 0.02735597 0.00000000
0.13912893 0.02732388 0.00000000
0.16784007 0.02724964 0.00000000
0.19685296 0.02713987 0.00000000
0.22606250 0.02701808 0.00000000
0.25537515 0.02690638 0.00000000
0.28475027 0.02681472 0.00000000
0.31419222 0.02674220 0.00000000
0.34372221 0.02668364 0.00000000
0.37335820 0.02663442 0.00000000
0.40310930 0.02659187 0.00000000
0.43297805 0.02655485 0.00000000
0.46296369 0.02652299 0.00000000
0.49306430 0.02649615 0.00000000
0.52327759 0.02647432 0.00000000
0.55360122 0.02645746 0.00000000
0.58403284 0.02644555 0.00000000
0.61457012 0.02643857 0.00000000
0.64521072 0.02643650 0.00000000
0.67595233 0.02643929 0.00000000
0.70679266 0.02644692 0.00000000
0.73772942 0.02645934 0.00000000
0.76876034 0.02647651 0.00000000
0.79988315 0.02649837 0.00000000
0.83109561 0.02652489 0.00000000
0.86239548 0.02655600 0.00000000
0.89378053 0.02659165 0.00000000
0.92524854 0.02663177 0.00000000
0.95679732 0.02667631 0.00000000
0.00000000 0.05482103 0.00197462
0.02609517 0.05561467 0.00000000
0.05446067 0.05557116 0.00000000
0.08280204 0.05557636 0.00000000
0.11114805 0.05563230 0.00000000
0.13962037 0.05571430 0.00000000
0.16835694 0.05578615 0.00000000
0.19741750 0.05582440 0.00000000
0.22675587 0.05583016 0.00000000
0.25627298 0.05582089 0.00000000
0.28588837 0.05581423 0.00000000
0.31557124 0.05581892 0.00000000
0.34532761 0.05583555 0.00000000
0.37517482 0.05586137 0.00000000
0.40512605 0.05589374 0.00000000
0.43518716 0.05593117 0.00000000
0.46535910 0.05597302 0.00000000
0.49564055 0.05601908 0.00000000
0.52602946 0.05606926 0.00000000
0.55652353 0.05612353 0.00000000
0.58712045 0.05618186 0.00000000
0.61781792 0.05624422 0.00000000
0.64861364 0.05631056 0.00000000
0.67950531 0.05638086 0.00000000
0.71049067 0.05645507 0.00000000
0.74156745 0.05653313 0.00000000
0.77273341 0.05661500 0.00000000
0.80398630 0.05670062 0.00000000
0.83532390 0.05678994 0.00000000
0.86674399 0.05688290 0.00000000
0.89824437 0.05697942 0.00000000
0.92982283 0.05707945 0.00000000
0.96147721 0.05718291 0.00000000
0.00000000 0.08306985 0.00301437
0.02525369 0.08437421 0.00000000
0.05403032 0.08435758 0.00000000
0.08282848 0.08436721 0.00000000
0.11158810 0.08443194 0.00000000
0.14034106 0.08455880 0.00000000
0.16920441 0.08472559 0.00000000
0.19830149 0.08489554 0.00000000
0.22768027 0.08504120 0.00000000
0.25729973 0.08515687 0.00000000
0.28708116 0.08525293 0.00000000
0.31696480 0.08534283 0.00000000
0.34692902 0.08543501 0.00000000
0.37697769 0.08553223 0.00000000
0.40712127 0.08563438 0.00000000
0.43736691 0.08574067 0.00000000
0.46771703 0.08585058 0.00000000
0.49817111 0.08596383 0.00000000
0.52872739 0.08608033 0.00000000
0.55938368 0.08620003 0.00000000
0.59013771 0.08632289 0.00000000
0.62098721 0.08644886 0.00000000
0.65192990 0.08657790 0.00000000
0.68296352 0.08670997 0.00000000
0.71408582 0.08684501 0.00000000
0.74529456 0.08698297 0.00000000
0.77658751 0.08712379 0.00000000
0.80796245 0.08726741 0.00000000
0.83941719 0.08741376 0.00000000
0.87094952 0.08756279 0.00000000
0.90255726 0.08771441 0.00000000
0.93423823 0.08786856 0.00000000
0.96599026 0.08802516 0.00000000
0.00000000 0.11184605 0.00402794
0.02434558 0.11367698 0.00000000
0.05340408 0.11372866 0.00000000
0.08256758 0.11377567 0.00000000
0.11175092 0.11384989 0.00000000
0.14090565 0.11398117 0.00000000
0.17006448 0.11417725 0.00000000
0.19932556 0.11441737 0.00000000
0.22878420 0.11466645 0.00000000
0.25847371 0.11489680 0.00000000
0.28836319 0.11509952 0.00000000
0.31839849 0.11528058 0.00000000
0.34854011 0.11545053 0.00000000
0.37877332 0.11561738 0.00000000
0.40909858 0.11578511 0.00000000
0.43952003 0.11595506 0.00000000
0.47003999 0.11612747 0.00000000
0.50065837 0.11630228 0.00000000
0.53137368 0.11647945 0.00000000
0.56218388 0.11665891 0.00000000
0.59308673 0.11684061 0.00000000
0.62407999 0.11702451 0.00000000
0.65516142 0.11721055 0.00000000
0.68632877 0.11739868 0.00000000
0.71757981 0.11758884 0.00000000
0.74891234 0.11778098 0.00000000
0.78032413 0.11797502 0.00000000
0.81181301 0.11817091 0.00000000
0.84337677 0.11836857 0.00000000
0.87501325 0.11856792 0.00000000
0.90672027 0.11876890 0.00000000
0.93849568 0.11897142 0.00000000
0.97033734 0.11917540 0.00000000
0.00000000 0.14112407 0.00494615
0.02351498 0.14344310 0.00000000
0.05275603 0.14359079 0.00000000
0.08214847 0.14371951 0.00000000
0.11163682 0.14384672 0.00000000
0.14115705 0.14400058 0.00000000
0.17067898 0.14420513 0.00000000
0.20023242 0.14446448 0.00000000
0.22988804 0.14475968 0.00000000
0.25970798 0.14506150 0.00000000
0.28971079 0.14534760 0.00000000
0.31987547 0.14561064 0.00000000
0.35016891 0.14585488 0.00000000
0.38056746 0.14608837 0.00000000
0.41106129 0.14631764 0.00000000
0.44164862 0.14654629 0.00000000
0.47232961 0.14677579 0.00000000
0.50310378 0.14700660 0.00000000
0.53396969 0.14723881 0.00000000
0.56492537 0.14747238 0.00000000
0.59596866 0.14770727 0.00000000
0.62709733 0.14794343 0.00000000
0.65830916 0.14818080 0.00000000
0.68960192 0.14841932 0.00000000
0.72097343 0.14865893 0.00000000
0.75242147 0.14889956 0.00000000
0.78394387 0.14914113 0.00000000
0.81553844 0.14938358 0.00000000
0.84720303 0.14962683 0.00000000
0.87893546 0.14987080 0.00000000
0.91073360 0.15011541 0.00000000
0.94259530 0.15036058 0.00000000
0.97451843 0.15060622 0.00000000
0.00000000 0.17087634 0.00574431
0.02284146 0.17361465 0.00000000
0.05224225 0.17385583 0.00000000
0.08179393 0.17408093 0.00000000
0.11147598 0.17429402 0.00000000
0.14124959 0.17450927 0.00000000
0.17107552 0.17474667 0.00000000
0.20094001 0.17502100 0.00000000
0.23086562 0.17533207 0.00000000
0.26089476 0.17566481 0.00000000
0.29106040 0.17599915 0.00000000
0.32136963 0.17632105 0.00000000
0.35180914 0.17662668 0.00000000
0.38236057 0.17691942 0.00000000
0.41301089 0.17720471 0.00000000
0.44375377 0.17748677 0.00000000
0.47458662 0.17776796 0.00000000
0.50550787 0.17804922 0.00000000
0.53651583 0.17833087 0.00000000
0.56760851 0.17861293 0.00000000
0.59878376 0.17889539 0.00000000
0.63003939 0.17917818 0.00000000
0.66137320 0.17946124 0.00000000
0.69278299 0.17974450 0.00000000
0.72426658 0.18002789 0.00000000
0.75582179 0.18031134 0.00000000
0.78744646 0.18059478 0.00000000
0.81913842 0.18087812 0.00000000
0.85089552 0.18116128 0.00000000
0.88271564 0.18144418 0.00000000
0.91459662 0.18172674 0.00000000
0.94653636 0.18200887 0.00000000
0.97853273 0.18229047 0.00000000
0.00000000 0.20107500 0.00642874
0.02232458 0.20416357 0.00000000
0.05190182 0.20448065 0.00000000
0.08161166 0.20478928 0.00000000
0.11145000 0.20508837 0.00000000
0.14140237 0.20538160 0.00000000
0.17144619 0.20567820 0.00000000
0.20156178 0.20598943 0.00000000
0.23174478 0.20632206 0.00000000
0.26200846 0.20667379 0.00000000
0.29237315 0.20703486 0.00000000
0.32285223 0.20739422 0.00000000
0.35344633 0.20774507 0.00000000
0.38414743 0.20808624 0.00000000
0.41494602 0.20842003 0.00000000
0.44583517 0.20874946 0.00000000
0.47681080 0.20907669 0.00000000
0.50787035 0.20940284 0.00000000
0.53901172 0.20972835 0.00000000
0.57023280 0.21005332 0.00000000
0.60153147 0.21037774 0.00000000
0.63290554 0.21070154 0.00000000
0.66435283 0.21102467 0.00000000
0.69587117 0.21134704 0.00000000
0.72745839 0.21166858 0.00000000
0.75911234 0.21198922 0.00000000
0.79083085 0.21230887 0.00000000
0.82261180 0.21262745 0.00000000
0.85445305 0.21294487 0.00000000
0.88635248 0.21326105 0.00000000
0.91830796 0.21357589 0.00000000
0.95031740 0.21388931 0.00000000
0.98237869 0.21420119 0.00000000
0.00000000 0.23169263 0.00701056
0.02193707 0.23507266 0.00000000
0.05170587 0.23544937 0.00000000
0.08159169 0.23582236 0.00000000
0.11159359 0.23619033 0.00000000
0.14170742 0.23655324 0.00000000
0.17192442 0.23691351 0.00000000
0.20223333 0.23727592 0.00000000
0.23262556 0.23764545 0.00000000
0.26309982 0.23802423 0.00000000
0.29366162 0.23841010 0.00000000
0.32431798 0.23879802 0.00000000
0.35507217 0.23918314 0.00000000
0.38592234 0.23956294 0.00000000
0.41686370 0.23993736 0.00000000
0.44789121 0.24030762 0.00000000
0.47900097 0.24067502 0.00000000
0.51019006 0.24104042 0.00000000
0.54145613 0.24140421 0.00000000
0.57279697 0.24176651 0.00000000
0.60421044 0.24212730 0.00000000
0.63569436 0.24248653 0.00000000
0.66724656 0.24284412 0.00000000
0.69886490 0.24320000 0.00000000
0.73054723 0.24355409 0.00000000
0.76229139 0.24390629 0.00000000
0.79409527 0.24425654 0.00000000
0.82595674 0.24460473 0.00000000
0.85787367 0.24495078 0.00000000
0.88984397 0.24529459 0.00000000
0.92186553 0.24563608 0.00000000
0.95393626 0.24597513 0.00000000
0.98605406 0.24631166 0.00000000
0.00000000 0.26270196 0.00749561
0.02165891 0.26632228 0.00000000
0.05162165 0.26674801 0.00000000
0.08169179 0.26717143 0.00000000
0.11186780 0.26759195 0.00000000
0.14214762 0.26800913 0.00000000
0.17252787 0.26842317 0.00000000
0.20300355 0.26883527 0.00000000
0.23356923 0.26924737 0.00000000
0.26422097 0.26966116 0.00000000
0.29495758 0.27007698 0.00000000
0.32577987 0.27049355 0.00000000
0.35668867 0.27090881 0.00000000
0.38768328 0.27132106 0.00000000
0.41876131 0.27172955 0.00000000
0.44991962 0.27213443 0.00000000
0.48115511 0.27253616 0.00000000
0.51246508 0.27293515 0.00000000
0.54384713 0.27333164 0.00000000
0.57529903 0.27372570 0.00000000
0.60681861 0.27411730 0.00000000
0.63840372 0.27450637 0.00000000
0.67005220 0.27489285 0.00000000
0.70176193 0.27527665 0.00000000
0.73353076 0.27565769 0.00000000
0.76535658 0.27603587 0.00000000
0.79723726 0.27641111 0.00000000
0.82917070 0.27678330 0.00000000
0.86115480 0.27715237 0.00000000
0.89318746 0.27751820 0.00000000
0.92526659 0.27788070 0.00000000
0.95739012 0.27823978 0.00000000
0.98955597 0.27859532 0.00000000
0.00000000 0.29407568 0.00788580
0.02148074 0.29788861 0.00000000
0.05163178 0.29835634 0.00000000
0.08188371 0.29882151 0.00000000
0.11223445 0.29928395 0.00000000
0.14268192 0.29974345 0.00000000
0.17322381 0.30019988 0.00000000
0.20385739 0.30065336 0.00000000
0.23457950 0.30110432 0.00000000
0.26538703 0.30155337 0.00000000
0.29627743 0.30200091 0.00000000
0.32724901 0.30244684 0.00000000
0.35830048 0.30289060 0.00000000
0.38943047 0.30333149 0.00000000
0.42063706 0.30376901 0.00000000
0.45191795 0.30420296 0.00000000
0.48327067 0.30463338 0.00000000
0.51469282 0.30506038 0.00000000
0.54618209 0.30548401 0.00000000
0.57773629 0.30590427 0.00000000
0.60935325 0.30632112 0.00000000
0.64103084 0.30673450 0.00000000
0.67276691 0.30714430 0.00000000
0.70455935 0.30755046 0.00000000
0.73640603 0.30795287 0.00000000
0.76830486 0.30835144 0.00000000
0.80025372 0.30874609 0.00000000
0.83225054 0.30913670 0.00000000
0.86429320 0.30952319 0.00000000
0.89637965 0.30990544 0.00000000
0.92850780 0.31028337 0.00000000
0.96067558 0.31065685 0.00000000
0.99288094 0.31102580 0.00000000
0.00000000 0.32578636 0.00818198
0.02139797 0.32974588 0.00000000
0.05172878 0.33024984 0.00000000
0.08215496 0.33075052 0.00000000
0.11267429 0.33124784 0.00000000
0.14328453 0.33174173 0.00000000
0.17398348 0.33223209 0.00000000
0.20476884 0.33271887 0.00000000
0.23563822 0.33320208 0.00000000
0.26658915 0.33368182 0.00000000
0.29761924 0.33415818 0.00000000
0.32872626 0.33463119 0.00000000
0.35990817 0.33510075 0.00000000
0.39116302 0.33556662 0.00000000
0.42248880 0.33602857 0.00000000
0.45388338 0.33648643 0.00000000
0.48534455 0.33694013 0.00000000
0.51687008 0.33738962 0.00000000
0.54845778 0.33783486 0.00000000
0.58010547 0.33827580 0.00000000
0.61181103 0.33871238 0.00000000
0.64357232 0.33914450 0.00000000
0.67538723 0.33957209 0.00000000
0.70725365 0.33999505 0.00000000
0.73916948 0.34041328 0.00000000
0.77113262 0.34082669 0.00000000
0.80314099 0.34123517 0.00000000
0.83519251 0.34163863 0.00000000
0.86728510 0.34203696 0.00000000
0.89941670 0.34243006 0.00000000
0.93158523 0.34281782 0.00000000
0.96378866 0.34320014 0.00000000
0.99602492 0.34357689 0.00000000
0.00000000 0.35780651 0.00838532
0.02140697 0.36186780 0.00000000
0.05190830 0.36240257 0.00000000
0.08249975 0.36293322 0.00000000
0.11317905 0.36345968 0.00000000
0.14394397 0.36398190 0.00000000
0.17479228 0.36449981 0.00000000
0.20572174 0.36501336 0.00000000
0.23673014 0.36552248 0.00000000
0.26781521 0.36602713 0.00000000
0.29897472 0.36652729 0.00000000
0.33020644 0.36702291 0.00000000
0.36150819 0.36751393 0.00000000
0.39287786 0.36800027 0.00000000
0.42431332 0.36848181 0.00000000
0.45581245 0.36895844 0.00000000
0.48737310 0.36943005 0.00000000
0.51899311 0.36989657 0.00000000
0.55067036 0.37035793 0.00000000
0.58240270 0.37081404 0.00000000
0.61418802 0.37126482 0.00000000
0.64602420 0.37171017 0.00000000
0.67790915 0.37215001 0.00000000
0.70984078 0.37258423 0.00000000
0.74181699 0.37301274 0.00000000
0.77383570 0.37343543 0.00000000
0.80589485 0.37385220 0.00000000
0.83799236 0.37426295 0.00000000
0.87012617 0.37466757 0.00000000
0.90229423 0.37506595 0.00000000
0.93449448 0.37545799 0.00000000
0.96672487 0.37584356 0.00000000
0.99898338 0.37622256 0.00000000
0.00000000 0.39010854 0.00849765
0.02150385 0.39422814 0.00000000
0.05216632 0.39478837 0.00000000
0.08291371 0.39534359 0.00000000
0.11374379 0.39589375 0.00000000
0.14465431 0.39643879 0.00000000
0.17564307 0.39697864 0.00000000
0.20670785 0.39751325 0.00000000
0.23784647 0.39804254 0.00000000
0.26905673 0.39856644 0.00000000
0.30033644 0.39908490 0.00000000
0.33168342 0.39959784 0.00000000
0.36309550 0.40010519 0.00000000
0.39457054 0.40060687 0.00000000
0.42610640 0.40110279 0.00000000
0.45770095 0.40159287 0.00000000
0.48935206 0.40207701 0.00000000
0.52105761 0.40255512 0.00000000
0.55281549 0.40302711 0.00000000
0.58462358 0.40349288 0.00000000
0.61647978 0.40395235 0.00000000
0.64838200 0.40440542 0.00000000
0.68032816 0.40485199 0.00000000
0.71231616 0.40529195 0.00000000
0.74434395 0.40572521 0.00000000
0.77640945 0.40615165 0.00000000
0.80851059 0.40657118 0.00000000
0.84064533 0.40698368 0.00000000
0.87281161 0.40738904 0.00000000
0.90500739 0.40778716 0.00000000
0.93723062 0.40817791 0.00000000
0.96947927 0.40856118 0.00000000
1.00000000 0.40927639 0.00179361
0.00000000 0.42266477 0.00852155
0.02168419 0.42680081 0.00000000
0.05249839 0.42738115 0.00000000
0.08339235 0.42795559 0.00000000
0.11436386 0.42852407 0.00000000
0.14541071 0.42908652 0.00000000
0.17653070 0.42964289 0.00000000
0.20772165 0.43019310 0.00000000
0.23898139 0.43073707 0.00000000
0.27030773 0.43127474 0.00000000
0.30169852 0.43180602 0.00000000
0.33315160 0.43233085 0.00000000
0.36466484 0.43284912 0.00000000
0.39623608 0.43336077 0.00000000
0.42786322 0.43386570 0.00000000
0.45954412 0.43436383 0.00000000
0.49127667 0.43485505 0.00000000
0.52305877 0.43533928 0.00000000
0.55488832 0.43581643 0.00000000
0.58676322 0.43628638 0.00000000
0.61868139 0.43674905 0.00000000
0.65064076 0.43720433 0.00000000
0.68263924 0.43765212 0.00000000
0.71467476 0.43809231 0.00000000
0.74674528 0.43852480 0.00000000
0.77884873 0.43894948 0.00000000
0.81098305 0.43936623 0.00000000
0.84314621 0.43977495 0.00000000
0.87533617 0.44017553 0.00000000
0.90755088 0.44056784 0.00000000
0.93978832 0.44095177 0.00000000
0.97204646 0.44132721 0.00000000
1.00000000 0.44248945 0.00485109
0.00000000 0.45544749 0.00846025
0.02194305 0.45955988 0.00000000
0.05289954 0.46015498 0.00000000
0.08393068 0.46074328 0.00000000
0.11503427 0.46132471 0.00000000
0.14620813 0.46189921 0.00000000
0.17745008 0.46246670 0.00000000
0.20875795 0.46302711 0.00000000
0.24012958 0.46358035 0.00000000
0.27156283 0.46412636 0.00000000
0.30305554 0.46466503 0.00000000
0.33460559 0.46519630 0.00000000
0.36621085 0.46572007 0.00000000
0.39786919 0.46623625 0.00000000
0.42957851 0.46674475 0.00000000
0.46133670 0.46724548 0.00000000
0.49314166 0.46773834 0.00000000
0.52499131 0.46822323 0.00000000
0.55688355 0.46870006 0.00000000
0.58881630 0.46916871 0.00000000
0.62078750 0.46962909 0.00000000
0.65279508 0.47008109 0.00000000
0.68483697 0.47052461 0.00000000
0.71691112 0.47095953 0.00000000
0.74901548 0.47138575 0.00000000
0.78114801 0.47180315 0.00000000
0.81330666 0.47221162 0.00000000
0.84548939 0.47261104 0.00000000
0.87769419 0.47300130 0.00000000
0.90991902 0.47338229 0.00000000
0.94216185 0.47375388 0.00000000
0.97442068 0.47411595 0.00000000
1.00000000 0.47562722 0.00823042
0.00000000 0.48842889 0.00831765
0.02227502 0.49247954 0.00000000
0.05336437 0.49308406 0.00000000
0.08452329 0.49368087 0.00000000
0.11574960 0.49426990 0.00000000
0.14704113 0.49485107 0.00000000
0.17839573 0.49542430 0.00000000
0.20981124 0.49598952 0.00000000
0.24128554 0.49654663 0.00000000
0.27281647 0.49709556 0.00000000
0.30440193 0.49763622 0.00000000
0.33603978 0.49816850 0.00000000
0.36772792 0.49869234 0.00000000
0.39946425 0.49920762 0.00000000
0.43124666 0.49971425 0.00000000
0.46307307 0.50021213 0.00000000
0.49494139 0.50070117 0.00000000
0.52684955 0.50118126 0.00000000
0.55879547 0.50165230 0.00000000
0.59077708 0.50211418 0.00000000
0.62279233 0.50256679 0.00000000
0.65483916 0.50301003 0.00000000
0.68691552 0.50344379 0.00000000
0.71901937 0.50386794 0.00000000
0.75114866 0.50428239 0.00000000
0.78330137 0.50468701 0.00000000
0.81547545 0.50508169 0.00000000
0.84766889 0.50546631 0.00000000
0.87987965 0.50584076 0.00000000
0.91210573 0.50620491 0.00000000
0.94434511 0.50655863 0.00000000
0.97659577 0.50690182 0.00000000
1.00000000 0.50866150 0.01193941
0.00000000 0.52158112 0.00809828
0.02267423 0.52553414 0.00000000
0.05388701 0.52614274 0.00000000
0.08516430 0.52674271 0.00000000
0.11650396 0.52733397 0.00000000
0.14790382 0.52791644 0.00000000
0.17936176 0.52849004 0.00000000
0.21087564 0.52905468 0.00000000
0.24244334 0.52961027 0.00000000
0.27406274 0.53015672 0.00000000
0.30573173 0.53069394 0.00000000
0.33744821 0.53122183 0.00000000
0.36921009 0.53174030 0.00000000
0.40101526 0.53224924 0.00000000
0.43286166 0.53274856 0.00000000
0.46474720 0.53323816 0.00000000
0.49666981 0.53371793 0.00000000
0.52862743 0.53418776 0.00000000
0.56061800 0.53464755 0.00000000
0.59263946 0.53509719 0.00000000
0.62468976 0.53553657 0.00000000
0.65676687 0.53596557 0.00000000
0.68886873 0.53638408 0.00000000
0.72099332 0.53679199 0.00000000
0.75313860 0.53718918 0.00000000
0.78530255 0.53757553 0.00000000
0.81748314 0.53795093 0.00000000
0.84967837 0.53831525 0.00000000
0.88188621 0.53866838 0.00000000
0.91410465 0.53901018 0.00000000
0.94633168 0.53934055 0.00000000
0.97856531 0.53965934 0.00000000
1.00000000 0.54156415 0.01598550
0.00000000 0.55487624 0.00780723
0.02313446 0.55869812 0.00000000
0.05446122 0.55930546 0.00000000
0.08584748 0.55990324 0.00000000
0.11729111 0.56049138 0.00000000
0.14878996 0.56106978 0.00000000
0.18034192 0.56163837 0.00000000
0.21194488 0.56219704 0.00000000
0.24359672 0.56274572 0.00000000
0.27529535 0.56328429 0.00000000
0.30703866 0.56381266 0.00000000
0.33882458 0.56433074 0.00000000
0.37065102 0.56483842 0.00000000
0.40251591 0.56533561 0.00000000
0.43441716 0.56582219 0.00000000
0.46635273 0.56629806 0.00000000
0.49832055 0.56676311 0.00000000
0.53031857 0.56721724 0.00000000
0.56234473 0.56766032 0.00000000
0.59439700 0.56809226 0.00000000
0.62647334 0.56851293 0.00000000
0.65857171 0.56892222 0.00000000
0.69069008 0.56932002 0.00000000
0.72282643 0.56970620 0.00000000
0.75497874 0.57008066 0.00000000
0.78714498 0.57044326 0.00000000
0.81932314 0.57079388 0.00000000
0.85151122 0.57113241 0.00000000
0.88370720 0.57145873 0.00000000
0.91590908 0.57177270 0.00000000
0.94811486 0.57207420 0.00000000
0.98032254 0.57236311 0.00000000
1.00000000 0.57430705 0.02037577
0.00000000 0.58828630 0.00745014
0.02364908 0.59194605 0.00000000
0.05508040 0.59254679 0.00000000
0.08656623 0.59313703 0.00000000
0.11810444 0.59371668 0.00000000
0.14969294 0.59428565 0.00000000
0.18132961 0.59484385 0.00000000
0.21301235 0.59539118 0.00000000
0.24473907 0.59592754 0.00000000
0.27650768 0.59645283 0.00000000
0.30831610 0.59696696 0.00000000
0.34016226 0.59746981 0.00000000
0.37204409 0.59796129 0.00000000
0.40395953 0.59844129 0.00000000
0.43590651 0.59890969 0.00000000
0.46788299 0.59936640 0.00000000
0.49988692 0.59981129 0.00000000
0.53191625 0.60024426 0.00000000
0.56396895 0.60066519 0.00000000
0.59604299 0.60107397 0.00000000
0.62813632 0.60147048 0.00000000
0.66024694 0.60185460 0.00000000
0.69237281 0.60222622 0.00000000
0.72451193 0.60258520 0.00000000
0.75666227 0.60293144 0.00000000
0.78882182 0.60326481 0.00000000
0.82098859 0.60358519 0.00000000
0.85316056 0.60389244 0.00000000
0.88533573 0.60418646 0.00000000
0.91751210 0.60446711 0.00000000
0.94968769 0.60473426 0.00000000
0.98186048 0.60498779 0.00000000
1.00000000 0.60686212 0.02511683
0.00000000 0.62178326 0.00703317
0.02421119 0.62525258 0.00000000
0.05573763 0.62584138 0.00000000
0.08731362 0.62641872 0.00000000
0.11893706 0.62698452 0.00000000
0.15060586 0.62753869 0.00000000
0.18231791 0.62808112 0.00000000
0.21407115 0.62861172 0.00000000
0.24586348 0.62913038 0.00000000
0.27769283 0.62963700 0.00000000
0.30955714 0.63013147 0.00000000
0.34145434 0.63061369 0.00000000
0.37338238 0.63108355 0.00000000
0.40533921 0.63154093 0.00000000
0.43732278 0.63198574 0.00000000
0.46933105 0.63241784 0.00000000
0.50136198 0.63283714 0.00000000
0.53341354 0.63324351 0.00000000
0.56548369 0.63363684 0.00000000
0.59757043 0.63401701 0.00000000
0.62967171 0.63438390 0.00000000
0.66178554 0.63473738 0.00000000
0.69390989 0.63507735 0.00000000
0.72604275 0.63540367 0.00000000
0.75818213 0.63571623 0.00000000
0.79032600 0.63601490 0.00000000
0.82247238 0.63629954 0.00000000
0.85461926 0.63657005 0.00000000
0.88676465 0.63682629 0.00000000
0.91890655 0.63706814 0.00000000
0.95104298 0.63729546 0.00000000
0.98317194 0.63750813 0.00000000
1.00000000 0.63920133 0.03021481
0.00000000 0.65533906 0.00656290
0.02481356 0.65859245 0.00000000
0.05642570 0.65916395 0.00000000
0.08808247 0.65972305 0.00000000
0.11978178 0.66026964 0.00000000
0.15152154 0.66080364 0.00000000
0.18329967 0.66132492 0.00000000
0.21511411 0.66183340 0.00000000
0.24696278 0.66232897 0.00000000
0.27884363 0.66281151 0.00000000
0.31075461 0.66328093 0.00000000
0.34269365 0.66373710 0.00000000
0.37465872 0.66417992 0.00000000
0.40664778 0.66460927 0.00000000
0.43865879 0.66502504 0.00000000
0.47068972 0.66542712 0.00000000
0.50273853 0.66581538 0.00000000
0.53480322 0.66618971 0.00000000
0.56688175 0.66654999 0.00000000
0.59897211 0.66689610 0.00000000
0.63107229 0.66722792 0.00000000
0.66318028 0.66754531 0.00000000
0.69529407 0.66784817 0.00000000
0.72741166 0.66813637 0.00000000
0.75953104 0.66840978 0.00000000
0.79165023 0.66866827 0.00000000
0.82376722 0.66891173 0.00000000
0.85588002 0.66914001 0.00000000
0.88798664 0.66935300 0.00000000
0.92008509 0.66955057 0.00000000
