assets/luts/DB_Alpine_Air_Rec709_100.cube
TITLE "Alpine Air Rec709 100"
# Red changes fastest. Full-range normalized input.
LUT_3D_SIZE 33
DOMAIN_MIN 0 0 0
DOMAIN_MAX 1 1 1
0.00000000 0.00000000 0.00000000
0.02267512 0.00000000 0.00027620
0.04570151 0.00000000 0.00049970
0.06907435 0.00000000 0.00071279
0.09279237 0.00000000 0.00097156
0.11685641 0.00000000 0.00130747
0.14126530 0.00000000 0.00170682
0.16601308 0.00000000 0.00212590
0.19109051 0.00000000 0.00252300
0.21648863 0.00000000 0.00287838
0.24220095 0.00000000 0.00319319
0.26822306 0.00000000 0.00347777
0.29455126 0.00000000 0.00374198
0.32118167 0.00000000 0.00399176
0.34810998 0.00000000 0.00422979
0.37533158 0.00000000 0.00445696
0.40284172 0.00000000 0.00467351
0.43063560 0.00000000 0.00487944
0.45870839 0.00000000 0.00507471
0.48705526 0.00000000 0.00525930
0.51567138 0.00000000 0.00543317
0.54455190 0.00000000 0.00559630
0.57369201 0.00000000 0.00574869
0.60308684 0.00000000 0.00589034
0.63273155 0.00000000 0.00602124
0.66262130 0.00000000 0.00614143
0.69275123 0.00000000 0.00625093
0.72311648 0.00000000 0.00634976
0.75371221 0.00000000 0.00643798
0.78453355 0.00000000 0.00651563
0.81557563 0.00000000 0.00658278
0.84683360 0.00000000 0.00663948
0.87830257 0.00000000 0.00668583
0.00000000 0.02299562 0.00195102
0.02235490 0.02364571 0.00000000
0.04693911 0.02352501 0.00000000
0.07158791 0.02348125 0.00000000
0.09652131 0.02346195 0.00000000
0.12200787 0.02339776 0.00000000
0.14818015 0.02324929 0.00000000
0.17495592 0.02302974 0.00000000
0.20212500 0.02278617 0.00000000
0.22950030 0.02256277 0.00000000
0.25700054 0.02237944 0.00000000
0.28463444 0.02223440 0.00000000
0.31244442 0.02211728 0.00000000
0.34046639 0.02201883 0.00000000
0.36871861 0.02193373 0.00000000
0.39720610 0.02185971 0.00000000
0.42592738 0.02179597 0.00000000
0.45487859 0.02174231 0.00000000
0.48405518 0.02169863 0.00000000
0.51345244 0.02166491 0.00000000
0.54306568 0.02164110 0.00000000
0.57289023 0.02162715 0.00000000
0.60292143 0.02162300 0.00000000
0.63315466 0.02162859 0.00000000
0.66358532 0.02164384 0.00000000
0.69420885 0.02166868 0.00000000
0.72502068 0.02170301 0.00000000
0.75601631 0.02174675 0.00000000
0.78719123 0.02179978 0.00000000
0.81854096 0.02186200 0.00000000
0.85006106 0.02193330 0.00000000
0.88174709 0.02201354 0.00000000
0.91359464 0.02210261 0.00000000
0.00000000 0.04714207 0.00394924
0.02094034 0.04872934 0.00000000
0.04642133 0.04864232 0.00000000
0.07185408 0.04865272 0.00000000
0.09729609 0.04876459 0.00000000
0.12299074 0.04892860 0.00000000
0.14921389 0.04907230 0.00000000
0.17608500 0.04914879 0.00000000
0.20351174 0.04916033 0.00000000
0.23129595 0.04914177 0.00000000
0.25927675 0.04912846 0.00000000
0.28739248 0.04913784 0.00000000
0.31565521 0.04917110 0.00000000
0.34409965 0.04922273 0.00000000
0.37275211 0.04928748 0.00000000
0.40162433 0.04936234 0.00000000
0.43071819 0.04944605 0.00000000
0.46003111 0.04953816 0.00000000
0.48955891 0.04963852 0.00000000
0.51929705 0.04974706 0.00000000
0.54924090 0.04986372 0.00000000
0.57938584 0.04998843 0.00000000
0.60972727 0.05012113 0.00000000
0.64026062 0.05026173 0.00000000
0.67098134 0.05041013 0.00000000
0.70188490 0.05056626 0.00000000
0.73296682 0.05073000 0.00000000
0.76422260 0.05090125 0.00000000
0.79564780 0.05107989 0.00000000
0.82723798 0.05126580 0.00000000
0.85898873 0.05145884 0.00000000
0.89089567 0.05165890 0.00000000
0.92295442 0.05186582 0.00000000
0.00000000 0.07238970 0.00602874
0.01925738 0.07499841 0.00000000
0.04556064 0.07496516 0.00000000
0.07190697 0.07498443 0.00000000
0.09817620 0.07511388 0.00000000
0.12443213 0.07536760 0.00000000
0.15090882 0.07570118 0.00000000
0.17785297 0.07604107 0.00000000
0.20536053 0.07633240 0.00000000
0.23334945 0.07656375 0.00000000
0.26166233 0.07675586 0.00000000
0.29017959 0.07693566 0.00000000
0.31885805 0.07712001 0.00000000
0.34770538 0.07731447 0.00000000
0.37674253 0.07751876 0.00000000
0.40598381 0.07773135 0.00000000
0.43543405 0.07795115 0.00000000
0.46509222 0.07817766 0.00000000
0.49495477 0.07841067 0.00000000
0.52501735 0.07865007 0.00000000
0.55527542 0.07889578 0.00000000
0.58572442 0.07914772 0.00000000
0.61635980 0.07940581 0.00000000
0.64717704 0.07966994 0.00000000
0.67817164 0.07994002 0.00000000
0.70933912 0.08021594 0.00000000
0.74067502 0.08049758 0.00000000
0.77217491 0.08078482 0.00000000
0.80383438 0.08107753 0.00000000
0.83564904 0.08137558 0.00000000
0.86761452 0.08167882 0.00000000
0.89972646 0.08198712 0.00000000
0.93198053 0.08230032 0.00000000
0.00000000 0.09869209 0.00805588
0.01744116 0.10235396 0.00000000
0.04430816 0.10245733 0.00000000
0.07138517 0.10255134 0.00000000
0.09850183 0.10269978 0.00000000
0.12556131 0.10296235 0.00000000
0.15262896 0.10335449 0.00000000
0.17990112 0.10383474 0.00000000
0.20756839 0.10433290 0.00000000
0.23569741 0.10479360 0.00000000
0.26422639 0.10519903 0.00000000
0.29304698 0.10556116 0.00000000
0.32208023 0.10590105 0.00000000
0.35129664 0.10623476 0.00000000
0.38069716 0.10657022 0.00000000
0.41029007 0.10691012 0.00000000
0.44007998 0.10725493 0.00000000
0.47006674 0.10760457 0.00000000
0.50024737 0.10795890 0.00000000
0.53061775 0.10831781 0.00000000
0.56117346 0.10868122 0.00000000
0.59190999 0.10904901 0.00000000
0.62282284 0.10942109 0.00000000
0.65390754 0.10979736 0.00000000
0.68515963 0.11017769 0.00000000
0.71657468 0.11056196 0.00000000
0.74814827 0.11095005 0.00000000
0.77987601 0.11134182 0.00000000
0.81175354 0.11173713 0.00000000
0.84377649 0.11213584 0.00000000
0.87594054 0.11253779 0.00000000
0.90824137 0.11294283 0.00000000
0.94067468 0.11335080 0.00000000
0.00000000 0.12599814 0.00989231
0.01577996 0.13063621 0.00000000
0.04301207 0.13093158 0.00000000
0.07054694 0.13118901 0.00000000
0.09827365 0.13144345 0.00000000
0.12606409 0.13175116 0.00000000
0.15385795 0.13216026 0.00000000
0.18171483 0.13267896 0.00000000
0.20977608 0.13326935 0.00000000
0.23816597 0.13387299 0.00000000
0.26692159 0.13444521 0.00000000
0.29600095 0.13497129 0.00000000
0.32533782 0.13545975 0.00000000
0.35488491 0.13592674 0.00000000
0.38462259 0.13638529 0.00000000
0.41454723 0.13684258 0.00000000
0.44465921 0.13730159 0.00000000
0.47495755 0.13776321 0.00000000
0.50543938 0.13822761 0.00000000
0.53610074 0.13869475 0.00000000
0.56693732 0.13916454 0.00000000
0.59794466 0.13963686 0.00000000
0.62911831 0.14011160 0.00000000
0.66045385 0.14058865 0.00000000
0.69194686 0.14106786 0.00000000
0.72359295 0.14154911 0.00000000
0.75538774 0.14203226 0.00000000
0.78732689 0.14251716 0.00000000
0.81940605 0.14300366 0.00000000
0.85162092 0.14349160 0.00000000
0.88396720 0.14398083 0.00000000
0.91644060 0.14447117 0.00000000
0.94903686 0.14496245 0.00000000
0.00000000 0.15425267 0.01148862
0.01443293 0.15972930 0.00000000
0.04198450 0.16021166 0.00000000
0.06983786 0.16066186 0.00000000
0.09795197 0.16108805 0.00000000
0.12624918 0.16151855 0.00000000
0.15465104 0.16199333 0.00000000
0.18313002 0.16254199 0.00000000
0.21173124 0.16316415 0.00000000
0.24053952 0.16382963 0.00000000
0.26962080 0.16449829 0.00000000
0.29898926 0.16514210 0.00000000
0.32861827 0.16575337 0.00000000
0.35847114 0.16633885 0.00000000
0.38852178 0.16690941 0.00000000
0.41875753 0.16747355 0.00000000
0.44917323 0.16803591 0.00000000
0.47976575 0.16859844 0.00000000
0.51053167 0.16916173 0.00000000
0.54146702 0.16972587 0.00000000
0.57256752 0.17029078 0.00000000
0.60382878 0.17085636 0.00000000
0.63524640 0.17142248 0.00000000
0.66681599 0.17198900 0.00000000
0.69853317 0.17255578 0.00000000
0.73039359 0.17312268 0.00000000
0.76239292 0.17368955 0.00000000
0.79452684 0.17425623 0.00000000
0.82679105 0.17482256 0.00000000
0.85918127 0.17538837 0.00000000
0.89169324 0.17595349 0.00000000
0.92432271 0.17651774 0.00000000
0.95706545 0.17708094 0.00000000
0.00000000 0.18340001 0.01285747
0.01339917 0.18957715 0.00000000
0.04130364 0.19021130 0.00000000
0.06947332 0.19082855 0.00000000
0.09790000 0.19142674 0.00000000
0.12655473 0.19201320 0.00000000
0.15539238 0.19260640 0.00000000
0.18437357 0.19322887 0.00000000
0.21348955 0.19389411 0.00000000
0.24276691 0.19459758 0.00000000
0.27224630 0.19531973 0.00000000
0.30195447 0.19603844 0.00000000
0.33189267 0.19674013 0.00000000
0.36204486 0.19742247 0.00000000
0.39239204 0.19809007 0.00000000
0.42292035 0.19874892 0.00000000
0.45362161 0.19940338 0.00000000
0.48449071 0.20005568 0.00000000
0.51552343 0.20070670 0.00000000
0.54671560 0.20135664 0.00000000
0.57806294 0.20200547 0.00000000
0.60956108 0.20265308 0.00000000
0.64120566 0.20329933 0.00000000
0.67299234 0.20394408 0.00000000
0.70491678 0.20458716 0.00000000
0.73697467 0.20522844 0.00000000
0.76916170 0.20586774 0.00000000
0.80147360 0.20650490 0.00000000
0.83390610 0.20713975 0.00000000
0.86645495 0.20777210 0.00000000
0.89911592 0.20840179 0.00000000
0.93188480 0.20902861 0.00000000
0.96475737 0.20965239 0.00000000
0.00000000 0.21338527 0.01402112
0.01262414 0.22014533 0.00000000
0.04091175 0.22089874 0.00000000
0.06943339 0.22164472 0.00000000
0.09818719 0.22238066 0.00000000
0.12716483 0.22310648 0.00000000
0.15634885 0.22382702 0.00000000
0.18571666 0.22455184 0.00000000
0.21525112 0.22529090 0.00000000
0.24494965 0.22604847 0.00000000
0.27482324 0.22682020 0.00000000
0.30488596 0.22759604 0.00000000
0.33514434 0.22836628 0.00000000
0.36559469 0.22912588 0.00000000
0.39622739 0.22987472 0.00000000
0.42703243 0.23061524 0.00000000
0.45800194 0.23135004 0.00000000
0.48913012 0.23208085 0.00000000
0.52041225 0.23280843 0.00000000
0.55184395 0.23353302 0.00000000
0.58342088 0.23425460 0.00000000
0.61513871 0.23497306 0.00000000
0.64699312 0.23568824 0.00000000
0.67897980 0.23640000 0.00000000
0.71109445 0.23710817 0.00000000
0.74333279 0.23781259 0.00000000
0.77569054 0.23851308 0.00000000
0.80816347 0.23920946 0.00000000
0.84074735 0.23990156 0.00000000
0.87343794 0.24058919 0.00000000
0.90623106 0.24127215 0.00000000
0.93912252 0.24195026 0.00000000
0.97210813 0.24262332 0.00000000
0.00000000 0.24415392 0.01499122
0.01206783 0.25139455 0.00000000
0.04074331 0.25224603 0.00000000
0.06963358 0.25309286 0.00000000
0.09873559 0.25393389 0.00000000
0.12804525 0.25476825 0.00000000
0.15755573 0.25559633 0.00000000
0.18725709 0.25642053 0.00000000
0.21713846 0.25724474 0.00000000
0.24719195 0.25807232 0.00000000
0.27741516 0.25890396 0.00000000
0.30780973 0.25973710 0.00000000
0.33837734 0.26056763 0.00000000
0.36911656 0.26139211 0.00000000
0.40002263 0.26220911 0.00000000
0.43108925 0.26301886 0.00000000
0.46231023 0.26382231 0.00000000
0.49368016 0.26462030 0.00000000
0.52519425 0.26541328 0.00000000
0.55684806 0.26620140 0.00000000
0.58863722 0.26698459 0.00000000
0.62055743 0.26776275 0.00000000
0.65260441 0.26853571 0.00000000
0.68477386 0.26930331 0.00000000
0.71706152 0.27006538 0.00000000
0.74946315 0.27082174 0.00000000
0.78197452 0.27157221 0.00000000
0.81459140 0.27231660 0.00000000
0.84730960 0.27305473 0.00000000
0.88012492 0.27378640 0.00000000
0.91303319 0.27451141 0.00000000
0.94603025 0.27522955 0.00000000
0.97911195 0.27594063 0.00000000
0.00000000 0.27565135 0.01577160
0.01171148 0.28327722 0.00000000
0.04076356 0.28421267 0.00000000
0.07001742 0.28514302 0.00000000
0.09946889 0.28606790 0.00000000
0.12911383 0.28698690 0.00000000
0.15894763 0.28789976 0.00000000
0.18896479 0.28880672 0.00000000
0.21915901 0.28970865 0.00000000
0.24952406 0.29060675 0.00000000
0.28005487 0.29150182 0.00000000
0.31074801 0.29239367 0.00000000
0.34160097 0.29328120 0.00000000
0.37261093 0.29416299 0.00000000
0.40377412 0.29503802 0.00000000
0.43508590 0.29590592 0.00000000
0.46654134 0.29676676 0.00000000
0.49813563 0.29762075 0.00000000
0.52986418 0.29846801 0.00000000
0.56172258 0.29930854 0.00000000
0.59370651 0.30014225 0.00000000
0.62581168 0.30096899 0.00000000
0.65803382 0.30178861 0.00000000
0.69036869 0.30260092 0.00000000
0.72281206 0.30340574 0.00000000
0.75535972 0.30420289 0.00000000
0.78800745 0.30499217 0.00000000
0.82075107 0.30577340 0.00000000
0.85358641 0.30654637 0.00000000
0.88650930 0.30731089 0.00000000
0.91951559 0.30806674 0.00000000
0.95260116 0.30881371 0.00000000
0.98576187 0.30955159 0.00000000
0.00000000 0.30782272 0.01636395
0.01154594 0.31574176 0.00000000
0.04095755 0.31674968 0.00000000
0.07055993 0.31775103 0.00000000
0.10034857 0.31874569 0.00000000
0.13031907 0.31973346 0.00000000
0.16046696 0.32071419 0.00000000
0.19078768 0.32168775 0.00000000
0.22127643 0.32265416 0.00000000
0.25192831 0.32361363 0.00000000
0.28273848 0.32456636 0.00000000
0.31370251 0.32551239 0.00000000
0.34481634 0.32645150 0.00000000
0.37607605 0.32738323 0.00000000
0.40747761 0.32830713 0.00000000
0.43901677 0.32922287 0.00000000
0.47068910 0.33013026 0.00000000
0.50249016 0.33102924 0.00000000
0.53441555 0.33191972 0.00000000
0.56646094 0.33280161 0.00000000
0.59862206 0.33367476 0.00000000
0.63089464 0.33453901 0.00000000
0.66327446 0.33539418 0.00000000
0.69575730 0.33624010 0.00000000
0.72833896 0.33707656 0.00000000
0.76101524 0.33790337 0.00000000
0.79378199 0.33872034 0.00000000
0.82663502 0.33952726 0.00000000
0.85957020 0.34032392 0.00000000
0.89258339 0.34111013 0.00000000
0.92567047 0.34188565 0.00000000
0.95882732 0.34265028 0.00000000
0.99204983 0.34340379 0.00000000
0.00000000 0.34061302 0.01677063
0.01156394 0.34873560 0.00000000
0.04131661 0.34980515 0.00000000
0.07124950 0.35086644 0.00000000
0.10135811 0.35191936 0.00000000
0.13163794 0.35296380 0.00000000
0.16208455 0.35399963 0.00000000
0.19269349 0.35502672 0.00000000
0.22346028 0.35604496 0.00000000
0.25438042 0.35705426 0.00000000
0.28544944 0.35805457 0.00000000
0.31666287 0.35904582 0.00000000
0.34801639 0.36002787 0.00000000
0.37950573 0.36100055 0.00000000
0.41112665 0.36196362 0.00000000
0.44287490 0.36291687 0.00000000
0.47474619 0.36386010 0.00000000
0.50673623 0.36479315 0.00000000
0.53884072 0.36571586 0.00000000
0.57105540 0.36662808 0.00000000
0.60337603 0.36752963 0.00000000
0.63579840 0.36842034 0.00000000
0.66831831 0.36930001 0.00000000
0.70093156 0.37016846 0.00000000
0.73363398 0.37102547 0.00000000
0.76642141 0.37187086 0.00000000
0.79928970 0.37270440 0.00000000
0.83223472 0.37352591 0.00000000
0.86525234 0.37433515 0.00000000
0.89833845 0.37513191 0.00000000
0.93148895 0.37591597 0.00000000
0.96469974 0.37668712 0.00000000
0.99796675 0.37744511 0.00000000
0.00000000 0.37396707 0.01699531
0.01175771 0.38220628 0.00000000
0.04183265 0.38332674 0.00000000
0.07207743 0.38443718 0.00000000
0.10248757 0.38553750 0.00000000
0.13305862 0.38662757 0.00000000
0.16378613 0.38770728 0.00000000
0.19466571 0.38877649 0.00000000
0.22569295 0.38983507 0.00000000
0.25686346 0.39088288 0.00000000
0.28817288 0.39191980 0.00000000
0.31961683 0.39294568 0.00000000
0.35119100 0.39396038 0.00000000
0.38289109 0.39496374 0.00000000
0.41471281 0.39595559 0.00000000
0.44665190 0.39693574 0.00000000
0.47870413 0.39790402 0.00000000
0.51086523 0.39886024 0.00000000
0.54313098 0.39980421 0.00000000
0.57549715 0.40073577 0.00000000
0.60795956 0.40165471 0.00000000
0.64051400 0.40256084 0.00000000
0.67315631 0.40345398 0.00000000
0.70588233 0.40433390 0.00000000
0.73868790 0.40520042 0.00000000
0.77156889 0.40605331 0.00000000
0.80452118 0.40689236 0.00000000
0.83754066 0.40771736 0.00000000
0.87062322 0.40852809 0.00000000
0.90376477 0.40932431 0.00000000
0.93696124 0.41010582 0.00000000
0.97020854 0.41087237 0.00000000
1.00000000 0.41230279 0.00358721
0.00000000 0.40782954 0.01704310
0.01211838 0.41610163 0.00000000
0.04249677 0.41726230 0.00000000
0.07303469 0.41841117 0.00000000
0.10372771 0.41954813 0.00000000
0.13457141 0.42067304 0.00000000
0.16556140 0.42178578 0.00000000
0.19669331 0.42288619 0.00000000
0.22796277 0.42397414 0.00000000
0.25936546 0.42504948 0.00000000
0.29089704 0.42611205 0.00000000
0.32255320 0.42716169 0.00000000
0.35432967 0.42819824 0.00000000
0.38622217 0.42922154 0.00000000
0.41822643 0.43023140 0.00000000
0.45033823 0.43122765 0.00000000
0.48255334 0.43221010 0.00000000
0.51486754 0.43317857 0.00000000
0.54727663 0.43413285 0.00000000
0.57977644 0.43507276 0.00000000
0.61236279 0.43599810 0.00000000
0.64503152 0.43690866 0.00000000
0.67777847 0.43780424 0.00000000
0.71059953 0.43868463 0.00000000
0.74349056 0.43954960 0.00000000
0.77644745 0.44039896 0.00000000
0.80946610 0.44123247 0.00000000
0.84254243 0.44204991 0.00000000
0.87567234 0.44285106 0.00000000
0.90885176 0.44363568 0.00000000
0.94207664 0.44440354 0.00000000
0.97534293 0.44515442 0.00000000
1.00000000 0.44747890 0.00970218
0.00000000 0.44214498 0.01692050
0.01263610 0.45036976 0.00000000
0.04329909 0.45155995 0.00000000
0.07411136 0.45273655 0.00000000
0.10506855 0.45389942 0.00000000
0.13616626 0.45504842 0.00000000
0.16740016 0.45618340 0.00000000
0.19876590 0.45730422 0.00000000
0.23025917 0.45841071 0.00000000
0.26187566 0.45950271 0.00000000
0.29361109 0.46058007 0.00000000
0.32546119 0.46164260 0.00000000
0.35742170 0.46269014 0.00000000
0.38948839 0.46372250 0.00000000
0.42165703 0.46473951 0.00000000
0.45392341 0.46574097 0.00000000
0.48628333 0.46672669 0.00000000
0.51873262 0.46769647 0.00000000
0.55126709 0.46865012 0.00000000
0.58388260 0.46958742 0.00000000
0.61657500 0.47050819 0.00000000
0.64934015 0.47141219 0.00000000
0.68217393 0.47229922 0.00000000
0.71507224 0.47316906 0.00000000
0.74803096 0.47402150 0.00000000
0.78104601 0.47485629 0.00000000
0.81411331 0.47567323 0.00000000
0.84722879 0.47647208 0.00000000
0.88038838 0.47725261 0.00000000
0.91358803 0.47801458 0.00000000
0.94682370 0.47875776 0.00000000
0.98009135 0.47948190 0.00000000
1.00000000 0.48250443 0.01646085
0.00000000 0.47685778 0.01663530
0.01330003 0.48495908 0.00000000
0.04422874 0.48616812 0.00000000
0.07529657 0.48736174 0.00000000
0.10649919 0.48853980 0.00000000
0.13783226 0.48970214 0.00000000
0.16929146 0.49084861 0.00000000
0.20087249 0.49197904 0.00000000
0.23257108 0.49309327 0.00000000
0.26438295 0.49419113 0.00000000
0.29630386 0.49527243 0.00000000
0.32832956 0.49633701 0.00000000
0.36045584 0.49738467 0.00000000
0.39267850 0.49841523 0.00000000
0.42499332 0.49942850 0.00000000
0.45739614 0.50042427 0.00000000
0.48988278 0.50140235 0.00000000
0.52244910 0.50236253 0.00000000
0.55509093 0.50330460 0.00000000
0.58780416 0.50422836 0.00000000
0.62058466 0.50513359 0.00000000
0.65342832 0.50602006 0.00000000
0.68633105 0.50688757 0.00000000
0.71928874 0.50773589 0.00000000
0.75229733 0.50856478 0.00000000
0.78535273 0.50937403 0.00000000
0.81845090 0.51016339 0.00000000
0.85158777 0.51093263 0.00000000
0.88475931 0.51168152 0.00000000
0.91796147 0.51240981 0.00000000
0.95119022 0.51311727 0.00000000
0.98444155 0.51380365 0.00000000
1.00000000 0.51732301 0.02387882
0.00000000 0.51191223 0.01619655
0.01409847 0.51981828 0.00000000
0.04527402 0.52103548 0.00000000
0.07657861 0.52223542 0.00000000
0.10800791 0.52341794 0.00000000
0.13955765 0.52458289 0.00000000
0.17122352 0.52573008 0.00000000
0.20300129 0.52685936 0.00000000
0.23488668 0.52797054 0.00000000
0.26687548 0.52906344 0.00000000
0.29896347 0.53013787 0.00000000
0.33114643 0.53119366 0.00000000
0.36342017 0.53223059 0.00000000
0.39578052 0.53324848 0.00000000
0.42822332 0.53424713 0.00000000
0.46074440 0.53522633 0.00000000
0.49333962 0.53618586 0.00000000
0.52600486 0.53712553 0.00000000
0.55873600 0.53804511 0.00000000
0.59152892 0.53894438 0.00000000
0.62437952 0.53982314 0.00000000
0.65728373 0.54068114 0.00000000
0.69023746 0.54151816 0.00000000
0.72323663 0.54233398 0.00000000
0.75627720 0.54312836 0.00000000
0.78935510 0.54390107 0.00000000
0.82246629 0.54465186 0.00000000
0.85560674 0.54538050 0.00000000
0.88877241 0.54608675 0.00000000
0.92195929 0.54677036 0.00000000
0.95516336 0.54743109 0.00000000
0.98838062 0.54806869 0.00000000
1.00000000 0.55187830 0.03197100
0.00000000 0.54725249 0.01561445
0.01501892 0.55489625 0.00000000
0.04642244 0.55611093 0.00000000
0.07794497 0.55730649 0.00000000
0.10958221 0.55848276 0.00000000
0.14132992 0.55963957 0.00000000
0.17318384 0.56077674 0.00000000
0.20513976 0.56189409 0.00000000
0.23719344 0.56299143 0.00000000
0.26934069 0.56406857 0.00000000
0.30157733 0.56512532 0.00000000
0.33389917 0.56616148 0.00000000
0.36630204 0.56717685 0.00000000
0.39878181 0.56817122 0.00000000
0.43133433 0.56914438 0.00000000
0.46395546 0.57009612 0.00000000
0.49664110 0.57102622 0.00000000
0.52938713 0.57193447 0.00000000
0.56218946 0.57282064 0.00000000
0.59504401 0.57368452 0.00000000
0.62794668 0.57452586 0.00000000
0.66089342 0.57534445 0.00000000
0.69388017 0.57614004 0.00000000
0.72690287 0.57691241 0.00000000
0.75995748 0.57766131 0.00000000
0.79303996 0.57838651 0.00000000
0.82614629 0.57908776 0.00000000
0.85927244 0.57976483 0.00000000
0.89241440 0.58041745 0.00000000
0.92556816 0.58104539 0.00000000
0.95872972 0.58164840 0.00000000
0.99189508 0.58222622 0.00000000
1.00000000 0.58611410 0.04075154
0.00000000 0.58282260 0.01490028
0.01604817 0.59014211 0.00000000
0.04766080 0.59134358 0.00000000
0.07938245 0.59252406 0.00000000
0.11120889 0.59368336 0.00000000
0.14313588 0.59482130 0.00000000
0.17515922 0.59593770 0.00000000
0.20727470 0.59703235 0.00000000
0.23947813 0.59810507 0.00000000
0.27176536 0.59915566 0.00000000
0.30413221 0.60018391 0.00000000
0.33657453 0.60118962 0.00000000
0.36908819 0.60217258 0.00000000
0.40166906 0.60313257 0.00000000
0.43431303 0.60406939 0.00000000
0.46701599 0.60498280 0.00000000
0.49977384 0.60587258 0.00000000
0.53258251 0.60673852 0.00000000
0.56543791 0.60758039 0.00000000
0.59833597 0.60839794 0.00000000
0.63127265 0.60919096 0.00000000
0.66424388 0.60995920 0.00000000
0.69724563 0.61070243 0.00000000
0.73027386 0.61142040 0.00000000
0.76332454 0.61211288 0.00000000
0.79639365 0.61277962 0.00000000
0.82947718 0.61342037 0.00000000
0.86257111 0.61403489 0.00000000
0.89567145 0.61462292 0.00000000
0.92877421 0.61518421 0.00000000
0.96187537 0.61571852 0.00000000
0.99497097 0.61622558 0.00000000
1.00000000 0.61997423 0.05023365
0.00000000 0.61856653 0.01406633
0.01717237 0.62550517 0.00000000
0.04897525 0.62668275 0.00000000
0.08087724 0.62783744 0.00000000
0.11287413 0.62896905 0.00000000
0.14496172 0.63007738 0.00000000
0.17713583 0.63116225 0.00000000
0.20939229 0.63222344 0.00000000
0.24172695 0.63326076 0.00000000
0.27413566 0.63427399 0.00000000
0.30661428 0.63526294 0.00000000
0.33915868 0.63622738 0.00000000
0.37176477 0.63716709 0.00000000
0.40442843 0.63808186 0.00000000
0.43714557 0.63897147 0.00000000
0.46991210 0.63983568 0.00000000
0.50272396 0.64067428 0.00000000
0.53557707 0.64148702 0.00000000
0.56846739 0.64227368 0.00000000
0.60139085 0.64303401 0.00000000
0.63434343 0.64376779 0.00000000
0.66732108 0.64447477 0.00000000
0.70031978 0.64515470 0.00000000
0.73333551 0.64580735 0.00000000
0.76636425 0.64643246 0.00000000
0.79940200 0.64702979 0.00000000
0.83244476 0.64759909 0.00000000
0.86548852 0.64814011 0.00000000
0.89852930 0.64865258 0.00000000
0.93156311 0.64913627 0.00000000
0.96458596 0.64959091 0.00000000
0.99759388 0.65001625 0.00000000
1.00000000 0.65340267 0.06042962
0.00000000 0.65442812 0.01312581
0.01837711 0.66093491 0.00000000
0.05035140 0.66207790 0.00000000
0.08241494 0.66319610 0.00000000
0.11456356 0.66428929 0.00000000
0.14679307 0.66535727 0.00000000
0.17909934 0.66639985 0.00000000
0.21147821 0.66741681 0.00000000
0.24392556 0.66840794 0.00000000
0.27643726 0.66937303 0.00000000
0.30900921 0.67031185 0.00000000
0.34163730 0.67122420 0.00000000
0.37431745 0.67210983 0.00000000
0.40704557 0.67296854 0.00000000
0.43981758 0.67380009 0.00000000
0.47262944 0.67460424 0.00000000
0.50547707 0.67538076 0.00000000
0.53835644 0.67612943 0.00000000
0.57126350 0.67684999 0.00000000
0.60419422 0.67754220 0.00000000
0.63714458 0.67820583 0.00000000
0.67011056 0.67884063 0.00000000
0.70308814 0.67944635 0.00000000
0.73607332 0.68002274 0.00000000
0.76906209 0.68056956 0.00000000
0.80205046 0.68108655 0.00000000
0.83503444 0.68157345 0.00000000
0.86801004 0.68203002 0.00000000
0.90097328 0.68245600 0.00000000
0.93392017 0.68285113 0.00000000
