assets/luts/DB_Amber_Hour_Rec709_50.cube
TITLE "Amber Hour Rec709 50"
# Red changes fastest. Full-range normalized input.
LUT_3D_SIZE 33
DOMAIN_MIN 0 0 0
DOMAIN_MAX 1 1 1
0.00200000 0.00200000 0.00200000
0.03254899 0.00167813 0.00177383
0.06317100 0.00135916 0.00152704
0.09381884 0.00105518 0.00128766
0.12443042 0.00078353 0.00109167
0.15496970 0.00055529 0.00095898
0.18544962 0.00036779 0.00088068
0.21591741 0.00020777 0.00082847
0.24641973 0.00006110 0.00077515
0.27668418 0.00000000 0.00078550
0.30679780 0.00000000 0.00083728
0.33698517 0.00000000 0.00087511
0.36724604 0.00000000 0.00090240
0.39758009 0.00000000 0.00092111
0.42798657 0.00000000 0.00093214
0.45846444 0.00000000 0.00093585
0.48901250 0.00000000 0.00093243
0.51962951 0.00000000 0.00092200
0.55031418 0.00000000 0.00090466
0.58106526 0.00000000 0.00088053
0.61188147 0.00000000 0.00084971
0.64276152 0.00000000 0.00081232
0.67370415 0.00000000 0.00076848
0.70470809 0.00000000 0.00071830
0.73577204 0.00000000 0.00066192
0.76689473 0.00000000 0.00059945
0.79807489 0.00000000 0.00053101
0.82931124 0.00000000 0.00045675
0.86060248 0.00000000 0.00037678
0.89194735 0.00000000 0.00029124
0.92334456 0.00000000 0.00020028
0.95479283 0.00000000 0.00010402
0.98629087 0.00000000 0.00000260
0.00067504 0.03195115 0.00134130
0.03130794 0.03168390 0.00106555
0.06203834 0.03140887 0.00075336
0.09282797 0.03113586 0.00045243
0.12359844 0.03088858 0.00022824
0.15427651 0.03069134 0.00012441
0.18484354 0.03055241 0.00013299
0.21534441 0.03045918 0.00020159
0.24585061 0.03038861 0.00026949
0.27641503 0.03032221 0.00030007
0.30705363 0.03025313 0.00028787
0.33775583 0.03018371 0.00024586
0.36850341 0.03011936 0.00019000
0.39928213 0.03006449 0.00013140
0.43008412 0.03002144 0.00007569
0.46090593 0.02999109 0.00002504
0.49168806 0.02998881 0.00000000
0.52242959 0.03001461 0.00000000
0.55320316 0.03004907 0.00000000
0.58400906 0.03009173 0.00000000
0.61484741 0.03014219 0.00000000
0.64571819 0.03020010 0.00000000
0.67662124 0.03026513 0.00000000
0.70755634 0.03033697 0.00000000
0.73852319 0.03041536 0.00000000
0.76952142 0.03050003 0.00000000
0.80055062 0.03059074 0.00000000
0.83161034 0.03068725 0.00000000
0.86270009 0.03078935 0.00000000
0.89381936 0.03089681 0.00000000
0.92496761 0.03100942 0.00000000
0.95614430 0.03112700 0.00000000
0.98734883 0.03124933 0.00000000
0.00000000 0.06193191 0.00121253
0.03028269 0.06187845 0.00053296
0.06106735 0.06165422 0.00016323
0.09184379 0.06142571 0.00000000
0.12244440 0.06125945 0.00000000
0.15299779 0.06114878 0.00000000
0.18360878 0.06107084 0.00000000
0.21432088 0.06100833 0.00000000
0.24511028 0.06095421 0.00000000
0.27592386 0.06090946 0.00000000
0.30672270 0.06087736 0.00000000
0.33749101 0.06086138 0.00000369
0.36826190 0.06085594 0.00000000
0.39902996 0.06086512 0.00000000
0.42981413 0.06088590 0.00000000
0.46062095 0.06091728 0.00000000
0.49145352 0.06095847 0.00000000
0.52231333 0.06100883 0.00000000
0.55320113 0.06106781 0.00000000
0.58411734 0.06113492 0.00000000
0.61506222 0.06120972 0.00000000
0.64603584 0.06129182 0.00000000
0.67703818 0.06138086 0.00000000
0.70806913 0.06147651 0.00000000
0.73912849 0.06157845 0.00000000
0.77021600 0.06168640 0.00000000
0.80133134 0.06180008 0.00000000
0.83247415 0.06191924 0.00000000
0.86364403 0.06204363 0.00000000
0.89480333 0.06218273 0.00001325
0.92590013 0.06234980 0.00005765
0.95700842 0.06252519 0.00010638
0.98812784 0.06270864 0.00015937
0.00000000 0.09192474 0.00164984
0.02948991 0.09225369 0.00021877
0.06031977 0.09206439 0.00000000
0.09113942 0.09186035 0.00000000
0.12182258 0.09171479 0.00000000
0.15242578 0.09163312 0.00000000
0.18303836 0.09160764 0.00000000
0.21373315 0.09161963 0.00000000
0.24452818 0.09164850 0.00000000
0.27539144 0.09168056 0.00000000
0.30627717 0.09171149 0.00000000
0.33715752 0.09174316 0.00000000
0.36802897 0.09177925 0.00000000
0.39890127 0.09182262 0.00000000
0.42978562 0.09187468 0.00000000
0.46068956 0.09193580 0.00000000
0.49161693 0.09200576 0.00000000
0.52256946 0.09208414 0.00000000
0.55354792 0.09217049 0.00000000
0.58455265 0.09226437 0.00000000
0.61558382 0.09236536 0.00000000
0.64664147 0.09247309 0.00000000
0.67772554 0.09258720 0.00000000
0.70883588 0.09270738 0.00000000
0.73997230 0.09283332 0.00000000
0.77113453 0.09296472 0.00000000
0.80225352 0.09311882 0.00002891
0.83335455 0.09328895 0.00007489
0.86446693 0.09346731 0.00012518
0.89559032 0.09365363 0.00017970
0.92672435 0.09384767 0.00023835
0.95786866 0.09404919 0.00030106
0.98902290 0.09425792 0.00036772
0.00000000 0.12218523 0.00197007
0.02894929 0.12279933 0.00005638
0.05984234 0.12264867 0.00000000
0.09071455 0.12249617 0.00000000
0.12150429 0.12237433 0.00000000
0.15221850 0.12230268 0.00000000
0.18290461 0.12229303 0.00000000
0.21362766 0.12234064 0.00000000
0.24443057 0.12242587 0.00000000
0.27531331 0.12252500 0.00000000
0.30624574 0.12262134 0.00000000
0.33719615 0.12270935 0.00000000
0.36814921 0.12279159 0.00000000
0.39910555 0.12287338 0.00000000
0.43007258 0.12295912 0.00000000
0.46105723 0.12305127 0.00000000
0.49206368 0.12315071 0.00000000
0.52309388 0.12325749 0.00000000
0.55414860 0.12337135 0.00000000
0.58522810 0.12349192 0.00000000
0.61633245 0.12361884 0.00000000
0.64746159 0.12375177 0.00000000
0.67861165 0.12389128 0.00000195
0.70970527 0.12405604 0.00004514
0.74081047 0.12422920 0.00009271
0.77192690 0.12441048 0.00014455
0.80305420 0.12459964 0.00020058
0.83419202 0.12479644 0.00026072
0.86533999 0.12500061 0.00032487
0.89649776 0.12521190 0.00039296
0.92766497 0.12543006 0.00046488
0.95884126 0.12565484 0.00054056
0.99002628 0.12588599 0.00061991
0.00000000 0.15269742 0.00213807
0.02868649 0.15348830 0.00000000
0.05959488 0.15340727 0.00000000
0.09049058 0.15332867 0.00000000
0.12135615 0.15325892 0.00000000
0.15218046 0.15321464 0.00000000
0.18297598 0.15321511 0.00000000
0.21377898 0.15327053 0.00000000
0.24462843 0.15337472 0.00000000
0.27554208 0.15350827 0.00000000
0.30651070 0.15364955 0.00000000
0.33751212 0.15378476 0.00000000
0.36852876 0.15391057 0.00000000
0.39955477 0.15403049 0.00000000
0.43059267 0.15414979 0.00000000
0.46164738 0.15427242 0.00000000
0.49272265 0.15440044 0.00000000
0.52382045 0.15453453 0.00000000
0.55494155 0.15467469 0.00000000
0.58606068 0.15482652 0.00001716
0.61715855 0.15499437 0.00006196
0.64826788 0.15517052 0.00011109
0.67938831 0.15535470 0.00016447
0.71051948 0.15554667 0.00022200
0.74166103 0.15574618 0.00028361
0.77281261 0.15595297 0.00034921
0.80397386 0.15616679 0.00041870
0.83514442 0.15638739 0.00049200
0.86632393 0.15661452 0.00056903
0.89751204 0.15684792 0.00064969
0.92870838 0.15708735 0.00073389
0.95991261 0.15733254 0.00082155
0.99112436 0.15758326 0.00091259
0.00000000 0.18344337 0.00215255
0.02867182 0.18431051 0.00000000
0.05957700 0.18430637 0.00000000
0.09048873 0.18430496 0.00000000
0.12140038 0.18430545 0.00000000
0.15230327 0.18431467 0.00000000
0.18319640 0.18434619 0.00000000
0.21409296 0.18441367 0.00000000
0.24501520 0.18452222 0.00000000
0.27598058 0.18466448 0.00000000
0.30699172 0.18482489 0.00000000
0.33803849 0.18498840 0.00000000
0.36910812 0.18514682 0.00000000
0.40019319 0.18529939 0.00000000
0.43129281 0.18544936 0.00000000
0.46240947 0.18560049 0.00000000
0.49351200 0.18576213 0.00003163
0.52461353 0.18593361 0.00007904
0.55572680 0.18611286 0.00012997
0.58685115 0.18629994 0.00018493
0.61798613 0.18649469 0.00024397
0.64913138 0.18669688 0.00030704
0.68028652 0.18690626 0.00037406
0.71145120 0.18712258 0.00044495
0.74262506 0.18734559 0.00051962
0.77380774 0.18757503 0.00059798
0.80499889 0.18781066 0.00067994
0.83619814 0.18805221 0.00076541
0.86740515 0.18829944 0.00085431
0.89861955 0.18855210 0.00094655
0.92984099 0.18880994 0.00104205
0.96106910 0.18907269 0.00114070
0.99230353 0.18934011 0.00124244
0.00000000 0.21440713 0.00202875
0.02883039 0.21527741 0.00000000
0.05975671 0.21533328 0.00000000
0.09069598 0.21539561 0.00000000
0.12164724 0.21546167 0.00000000
0.15260734 0.21553192 0.00000000
0.18357426 0.21561153 0.00000000
0.21455135 0.21570894 0.00000000
0.24554782 0.21583122 0.00000000
0.27657398 0.21597929 0.00000000
0.30763467 0.21614690 0.00000000
0.33872717 0.21632427 0.00000000
0.36984469 0.21650334 0.00000000
0.40097343 0.21668172 0.00001220
0.43207436 0.21686620 0.00008213
0.46318895 0.21705333 0.00014423
0.49431600 0.21724527 0.00020436
0.52545432 0.21744345 0.00026606
0.55660308 0.21764848 0.00033090
0.58776170 0.21786046 0.00039941
0.61892975 0.21807926 0.00047170
0.65010687 0.21830464 0.00054772
0.68129267 0.21853636 0.00062740
0.71248681 0.21877418 0.00071065
0.74368893 0.21901783 0.00079738
0.77489867 0.21926706 0.00088751
0.80611568 0.21952164 0.00098095
0.83733958 0.21978129 0.00107760
0.86857004 0.22004577 0.00117739
0.89980669 0.22031483 0.00128022
0.93104917 0.22058821 0.00138601
0.96229712 0.22086566 0.00149467
0.99355019 0.22114694 0.00160611
0.00000000 0.24557439 0.00178136
0.02912941 0.24638688 0.00000000
0.06009210 0.24648903 0.00000000
0.09107075 0.24659941 0.00000000
0.12206585 0.24671607 0.00000000
0.15307692 0.24683780 0.00000000
0.18410325 0.24696523 0.00000000
0.21514555 0.24710126 0.00000000
0.24620695 0.24724982 0.00000000
0.27729199 0.24741346 0.00000000
0.30840395 0.24759135 0.00000000
0.33952958 0.24777977 0.00003699
0.37065212 0.24797699 0.00012108
0.40178372 0.24818009 0.00020195
0.43292517 0.24838725 0.00027796
0.46407680 0.24859850 0.00035099
0.49523843 0.24881467 0.00042382
0.52640961 0.24903654 0.00049853
0.55758986 0.24926446 0.00057621
0.58877872 0.24949848 0.00065728
0.61997580 0.24973846 0.00074183
0.65118073 0.24998418 0.00082981
0.68239316 0.25023539 0.00092115
0.71361271 0.25049184 0.00101577
0.74483905 0.25075328 0.00111357
0.77607180 0.25101946 0.00121448
0.80731061 0.25129012 0.00131840
0.83855512 0.25156501 0.00142524
0.86980498 0.25184389 0.00153492
0.90105983 0.25212649 0.00164735
0.93231931 0.25241256 0.00176245
0.96358306 0.25270186 0.00188012
0.99485072 0.25299413 0.00200027
0.00000000 0.27693107 0.00142086
0.02954688 0.27763388 0.00000000
0.06055256 0.27777356 0.00000000
0.09157613 0.27792119 0.00000000
0.12261816 0.27807572 0.00000000
0.15367883 0.27823617 0.00000000
0.18476117 0.27839967 0.00001371
0.21586202 0.27856670 0.00004939
0.24697557 0.27874193 0.00009138
0.27810192 0.27892678 0.00014309
0.30924032 0.27912219 0.00020594
0.34038940 0.27932793 0.00027839
0.37154785 0.27954251 0.00035687
0.40271488 0.27976406 0.00043795
0.43389026 0.27999122 0.00051985
0.46507395 0.28022343 0.00060246
0.49626588 0.28046073 0.00068660
0.52746585 0.28070329 0.00077313
0.55867353 0.28095120 0.00086259
0.58988859 0.28120439 0.00095520
0.62111065 0.28146270 0.00105101
0.65233936 0.28172590 0.00114995
0.68357436 0.28199374 0.00125197
0.71481529 0.28226597 0.00135696
0.74606179 0.28254234 0.00146485
0.77731351 0.28282260 0.00157554
0.80857008 0.28310650 0.00168895
0.83983116 0.28339378 0.00180499
0.87109638 0.28368419 0.00192358
0.90236538 0.28397748 0.00204462
0.93363781 0.28427339 0.00216803
0.96491331 0.28457168 0.00229371
0.99619152 0.28487209 0.00242159
0.00000000 0.30846274 0.00095566
0.03006808 0.30900996 0.00000000
0.06112575 0.30917849 0.00000943
0.09222135 0.30934474 0.00005314
0.12332826 0.30951920 0.00010079
0.15444601 0.30970149 0.00015201
0.18557423 0.30989121 0.00020650
0.21671273 0.31008808 0.00026432
0.24786152 0.31029204 0.00032606
0.27902063 0.31050328 0.00039269
0.31018991 0.31072208 0.00046500
0.34136884 0.31094843 0.00054303
0.37255667 0.31118191 0.00062599
0.40375264 0.31142181 0.00071275
0.43495621 0.31166737 0.00080238
0.46616703 0.31191808 0.00089449
0.49738486 0.31217369 0.00098912
0.52860945 0.31243407 0.00108646
0.55984051 0.31269909 0.00118668
0.59107771 0.31296859 0.00128984
0.62232071 0.31324237 0.00139591
0.65356915 0.31352019 0.00150483
0.68482268 0.31380180 0.00161652
0.71608093 0.31408696 0.00173090
0.74734356 0.31437541 0.00184788
0.77861019 0.31466689 0.00196737
0.80988048 0.31496117 0.00208928
0.84115407 0.31525798 0.00221352
0.87243060 0.31555707 0.00234002
0.90370971 0.31585819 0.00246868
0.93499105 0.31616109 0.00259940
0.96627425 0.31646551 0.00273212
0.99755897 0.31677121 0.00286673
0.00000000 0.34015469 0.00039396
0.03078707 0.34046138 0.00012061
0.06190950 0.34064701 0.00017475
0.09304259 0.34084038 0.00023301
0.12418594 0.34104122 0.00029526
0.15533918 0.34124925 0.00036136
0.18650191 0.34146418 0.00043114
0.21767377 0.34168572 0.00050450
0.24885449 0.34191364 0.00058143
0.28004382 0.34214776 0.00066205
0.31124154 0.34238797 0.00074651
0.34244733 0.34263414 0.00083490
0.37366079 0.34288604 0.00092709
0.40488140 0.34314333 0.00102277
0.43610869 0.34340562 0.00112160
0.46734226 0.34367256 0.00122333
0.49858174 0.34394384 0.00132786
0.52982682 0.34421923 0.00143513
0.56107718 0.34449851 0.00154514
0.59233247 0.34478146 0.00165785
0.62359236 0.34506785 0.00177319
0.65485649 0.34535744 0.00189109
0.68612449 0.34564997 0.00201147
0.71739603 0.34594520 0.00213425
0.74867073 0.34624287 0.00225932
0.77994824 0.34654273 0.00238661
0.81122820 0.34684452 0.00251603
0.84251026 0.34714801 0.00264750
0.87379405 0.34745292 0.00278091
0.90507923 0.34775902 0.00291619
0.93636543 0.34806604 0.00305325
0.96765229 0.34837375 0.00319200
0.99893946 0.34868187 0.00333235
0.00050997 0.37178892 0.00025530
0.03165707 0.37199246 0.00031910
0.06281399 0.37220313 0.00038684
0.09398039 0.37242070 0.00045843
0.12515589 0.37264491 0.00053378
0.15634014 0.37287550 0.00061278
0.18753276 0.37311222 0.00069533
0.21873340 0.37335479 0.00078135
0.24994169 0.37360297 0.00087073
0.28115730 0.37385651 0.00096342
0.31237992 0.37411518 0.00105938
0.34360922 0.37437877 0.00115856
0.37484483 0.37464703 0.00126091
0.40608639 0.37491971 0.00136631
0.43733350 0.37519655 0.00147461
0.46858577 0.37547724 0.00158570
0.49984283 0.37576152 0.00169945
0.53110433 0.37604914 0.00181578
0.56236992 0.37633985 0.00193462
0.59363926 0.37663340 0.00205589
0.62491199 0.37692955 0.00217952
0.65618776 0.37722804 0.00230541
0.68746620 0.37752864 0.00243349
0.71874697 0.37783108 0.00256366
0.75002970 0.37813511 0.00269585
0.78131404 0.37844049 0.00282995
0.81259963 0.37874695 0.00296589
0.84388611 0.37905425 0.00310357
0.87517312 0.37936214 0.00324292
0.90646031 0.37967035 0.00338383
0.93774732 0.37997865 0.00352623
0.96903380 0.38028677 0.00367002
1.00000000 0.38065902 0.00411619
0.00145956 0.40337783 0.00048544
0.03263830 0.40360440 0.00056214
0.06382567 0.40383726 0.00064249
0.09502131 0.40407617 0.00072638
0.12622486 0.40432087 0.00081375
0.15743596 0.40457111 0.00090449
0.18865426 0.40482663 0.00099852
0.21987939 0.40508719 0.00109575
0.25111099 0.40535252 0.00119608
0.28234872 0.40562238 0.00129944
0.31359221 0.40589652 0.00140574
0.34484113 0.40617468 0.00151490
0.37609511 0.40645662 0.00162684
0.40735379 0.40674210 0.00174148
0.43861682 0.40703085 0.00185872
0.46988384 0.40732263 0.00197846
0.50115446 0.40761716 0.00210061
0.53242835 0.40791420 0.00222508
0.56370514 0.40821350 0.00235179
0.59498447 0.40851479 0.00248064
0.62626599 0.40881784 0.00261156
0.65754935 0.40912240 0.00274445
0.68883419 0.40942820 0.00287923
0.72012014 0.40973500 0.00301582
0.75140686 0.41004254 0.00315411
0.78269398 0.41035057 0.00329404
0.81398115 0.41065885 0.00343550
0.84526800 0.41096711 0.00357842
0.87655419 0.41127511 0.00372270
0.90783936 0.41158259 0.00386825
0.93912314 0.41188930 0.00401500
0.97040518 0.41219499 0.00416284
1.00000000 0.41282505 0.00604794
0.00251082 0.43504085 0.00075779
0.03371716 0.43528759 0.00084640
0.06493093 0.43553979 0.00093835
0.09615177 0.43579718 0.00103356
0.12737931 0.43605951 0.00113195
0.15861320 0.43632653 0.00123342
0.18985309 0.43659799 0.00133788
0.22109862 0.43687364 0.00144525
0.25234942 0.43715322 0.00155545
0.28360515 0.43743648 0.00166837
0.31486543 0.43772317 0.00178394
0.34612993 0.43801303 0.00190207
0.37739828 0.43830582 0.00202268
0.40867012 0.43860128 0.00214567
0.43994510 0.43889916 0.00227095
0.47122285 0.43919921 0.00239845
0.50250303 0.43950118 0.00252806
0.53378526 0.43980481 0.00265971
0.56506920 0.44010984 0.00279330
0.59635448 0.44041604 0.00292875
0.62764076 0.44072314 0.00306597
0.65892766 0.44103089 0.00320487
0.69021484 0.44133904 0.00334537
0.72150194 0.44164734 0.00348737
0.75278859 0.44195554 0.00363079
0.78407445 0.44226338 0.00377555
0.81535915 0.44257061 0.00392154
0.84664234 0.44287697 0.00406870
0.87792366 0.44318223 0.00421692
0.90920275 0.44348612 0.00436613
0.94047925 0.44378839 0.00451623
0.97175281 0.44408879 0.00466713
1.00000000 0.44494212 0.00822224
0.00365015 0.46676837 0.00106902
0.03488005 0.46703244 0.00116854
0.06611617 0.46730111 0.00127111
0.09735815 0.46757413 0.00137664
0.12860564 0.46785123 0.00148505
0.15985828 0.46813218 0.00159625
0.19111571 0.46841672 0.00171015
0.22237758 0.46870460 0.00182667
0.25364352 0.46899556 0.00194571
0.28491318 0.46928935 0.00206720
0.31618620 0.46958572 0.00219103
0.34746223 0.46988442 0.00231713
0.37874090 0.47018520 0.00244540
0.41002186 0.47048779 0.00257576
0.44130476 0.47079196 0.00270813
0.47258923 0.47109745 0.00284241
0.50387491 0.47140400 0.00297851
0.53516146 0.47171137 0.00311635
0.56644850 0.47201929 0.00325584
0.59773569 0.47232753 0.00339690
0.62902267 0.47263582 0.00353943
0.66030908 0.47294391 0.00368334
0.69159456 0.47325156 0.00382856
0.72287875 0.47355851 0.00397499
0.75416130 0.47386450 0.00412254
0.78544184 0.47416929 0.00427113
0.81672003 0.47447262 0.00442067
0.84799551 0.47477423 0.00457108
0.87926791 0.47507389 0.00472225
0.91053688 0.47537133 0.00487412
0.94180206 0.47566631 0.00502658
0.97306309 0.47595856 0.00517955
1.00000000 0.47699539 0.01064746
0.00486394 0.49855080 0.00141578
0.03611334 0.49882934 0.00152522
0.06736777 0.49911162 0.00163741
0.09862686 0.49939740 0.00175228
0.12989025 0.49968643 0.00186972
0.16115758 0.49997845 0.00198966
0.19242851 0.50027321 0.00211201
0.22370267 0.50057046 0.00223668
0.25497970 0.50086995 0.00236358
0.28625925 0.50117141 0.00249263
0.31754096 0.50147461 0.00262373
0.34882446 0.50177929 0.00275680
0.38010942 0.50208519 0.00289175
0.41139546 0.50239207 0.00302850
0.44268223 0.50269967 0.00316695
0.47396937 0.50300774 0.00330702
0.50525652 0.50331602 0.00344862
0.53654333 0.50362427 0.00359166
0.56782944 0.50393223 0.00373606
0.59911449 0.50423965 0.00388173
0.63039813 0.50454628 0.00402858
0.66167999 0.50485186 0.00417652
0.69295972 0.50515615 0.00432547
0.72423696 0.50545889 0.00447533
0.75551135 0.50575982 0.00462603
0.78678255 0.50605870 0.00477747
0.81805018 0.50635527 0.00492956
0.84931389 0.50664928 0.00508221
0.88057333 0.50694049 0.00523535
0.91182813 0.50722862 0.00538888
0.94307794 0.50751345 0.00554272
0.97432241 0.50779470 0.00569677
1.00000000 0.50897007 0.01333149
0.00613857 0.53037852 0.00179474
0.03740344 0.53066866 0.00191310
0.06867212 0.53096171 0.00203393
0.09994427 0.53125741 0.00215714
0.13121951 0.53155550 0.00228263
0.16249750 0.53185573 0.00241032
0.19377788 0.53215786 0.00254012
0.22506028 0.53246163 0.00267195
0.25634436 0.53276678 0.00280572
0.28762975 0.53307307 0.00294133
0.31891610 0.53338024 0.00307871
0.35020304 0.53368803 0.00321776
0.38149023 0.53399621 0.00335840
0.41277730 0.53430451 0.00350053
0.44406389 0.53461269 0.00364408
0.47534966 0.53492048 0.00378896
0.50663424 0.53522764 0.00393506
0.53791727 0.53553392 0.00408232
0.56919839 0.53583906 0.00423064
0.60047726 0.53614281 0.00437993
0.63175351 0.53644492 0.00453011
0.66302678 0.53674513 0.00468108
0.69429672 0.53704320 0.00483276
0.72556296 0.53733887 0.00498507
0.75682516 0.53763189 0.00513792
0.78808295 0.53792201 0.00529121
0.81933598 0.53820897 0.00544486
0.85058388 0.53849252 0.00559878
0.88182631 0.53877241 0.00575289
0.91306290 0.53904839 0.00590709
0.94429330 0.53932020 0.00606131
0.97551715 0.53958760 0.00621544
1.00000000 0.54085144 0.01628168
0.00746044 0.56224192 0.00220256
0.03873672 0.56254082 0.00232887
0.07001562 0.56284177 0.00245734
0.10129678 0.56314452 0.00258789
0.13257983 0.56344883 0.00272043
0.16386443 0.56375442 0.00285488
0.19515021 0.56406106 0.00299115
0.22643682 0.56436849 0.00312914
0.25772389 0.56467645 0.00326878
0.28901108 0.56498470 0.00340998
0.32029801 0.56529298 0.00355264
0.35158435 0.56560105 0.00369668
0.38286972 0.56590864 0.00384201
0.41415378 0.56621551 0.00398855
0.44543616 0.56652140 0.00413620
0.47671650 0.56682607 0.00428488
0.50799446 0.56712925 0.00443450
0.53926966 0.56743070 0.00458498
0.57054176 0.56773016 0.00473623
0.60181040 0.56802738 0.00488815
0.63307521 0.56832212 0.00504066
0.66433584 0.56861411 0.00519368
0.69559194 0.56890311 0.00534711
0.72684315 0.56918885 0.00550087
0.75808910 0.56947110 0.00565487
0.78932944 0.56974960 0.00580902
0.82056382 0.57002409 0.00596324
0.85179187 0.57029433 0.00611743
0.88301325 0.57056005 0.00627152
0.91422758 0.57082101 0.00642541
0.94543452 0.57107696 0.00657901
0.97663370 0.57132765 0.00673224
1.00000000 0.57262482 0.01950480
0.00881593 0.59413139 0.00263592
0.04009959 0.59443619 0.00276916
0.07138466 0.59474220 0.00290428
0.10267078 0.59504915 0.00304119
0.13395760 0.59535681 0.00317980
0.16524475 0.59566490 0.00332001
0.19653189 0.59597320 0.00346175
0.22781865 0.59628143 0.00360492
0.25910468 0.59658935 0.00374944
0.29038961 0.59689671 0.00389522
0.32167310 0.59720325 0.00404218
0.35295478 0.59750872 0.00419021
0.38423429 0.59781288 0.00433925
0.41551129 0.59811546 0.00448919
0.44678540 0.59841621 0.00463996
0.47805628 0.59871489 0.00479146
0.50932357 0.59901124 0.00494361
0.54058690 0.59930500 0.00509631
0.57184593 0.59959593 0.00524949
0.60310028 0.59988378 0.00540305
0.63434962 0.60016828 0.00555691
0.66559357 0.60044919 0.00571098
0.69683178 0.60072626 0.00586516
0.72806390 0.60099923 0.00601938
0.75928956 0.60126785 0.00617355
0.79050841 0.60153187 0.00632757
0.82172010 0.60179104 0.00648137
0.85292425 0.60204510 0.00663484
0.88412052 0.60229380 0.00678791
0.91530855 0.60253690 0.00694049
0.94648799 0.60277412 0.00709249
0.97765846 0.60300524 0.00724382
1.00000000 0.60427559 0.02300706
0.01019144 0.62603734 0.00309146
0.04147842 0.62634518 0.00323066
0.07276561 0.62665338 0.00337144
0.10405265 0.62696168 0.00351371
0.13533919 0.62726983 0.00365739
0.16662486 0.62757758 0.00380237
0.19790931 0.62788467 0.00394859
0.22919218 0.62819085 0.00409595
0.26047311 0.62849587 0.00424436
0.29175175 0.62879948 0.00439374
0.32302774 0.62910143 0.00454399
0.35430072 0.62940145 0.00469504
0.38557033 0.62969931 0.00484678
0.41683622 0.62999475 0.00499914
0.44809802 0.63028751 0.00515203
0.47935539 0.63057735 0.00530536
0.51060796 0.63086400 0.00545904
0.54185538 0.63114723 0.00561298
0.57309728 0.63142677 0.00576710
0.60433332 0.63170237 0.00592131
0.63556313 0.63197379 0.00607552
0.66678635 0.63224077 0.00622964
0.69800263 0.63250305 0.00638359
0.72921162 0.63276039 0.00653728
0.76041294 0.63301253 0.00669062
0.79160626 0.63325922 0.00684353
0.82279120 0.63350020 0.00699590
0.85396741 0.63373524 0.00714767
0.88513453 0.63396406 0.00729874
0.91629221 0.63418643 0.00744902
0.94744009 0.63440208 0.00759842
0.97857781 0.63461077 0.00774686
1.00000000 0.63578920 0.02679403
0.01157335 0.65795015 0.00356586
0.04285961 0.65825818 0.00371002
0.07414488 0.65856572 0.00385547
0.10542880 0.65887251 0.00400211
0.13671100 0.65917829 0.00414986
0.16799114 0.65948283 0.00429864
0.19926886 0.65978587 0.00444834
0.23054379 0.66008714 0.00459889
0.26181559 0.66038641 0.00475020
0.29308388 0.66068341 0.00490218
0.32434833 0.66097791 0.00505475
0.35560856 0.66126963 0.00520781
0.38686422 0.66155834 0.00536127
0.41811495 0.66184378 0.00551506
0.44936041 0.66212569 0.00566907
0.48060021 0.66240383 0.00582324
0.51183402 0.66267794 0.00597746
0.54306148 0.66294777 0.00613165
0.57428222 0.66321306 0.00628572
0.60549588 0.66347357 0.00643958
0.63670212 0.66372905 0.00659315
0.66790057 0.66397923 0.00674634
0.69909088 0.66422388 0.00689907
0.73027268 0.66446272 0.00705123
0.76144563 0.66469552 0.00720275
0.79260935 0.66492203 0.00735354
0.82376351 0.66514198 0.00750351
0.85490773 0.66535512 0.00765258
0.88604166 0.66556121 0.00780065
0.91716495 0.66576000 0.00794764
