assets/luts/DB_Alpine_Air_Rec709_100.cube
TITLE "Alpine Air Rec709 100"
# Red changes fastest. Full-range normalized input.
LUT_3D_SIZE 5
DOMAIN_MIN 0 0 0
DOMAIN_MAX 1 1 1
0.00000000 0.00000000 0.00000000
0.19109051 0.00000000 0.00252300
0.40284172 0.00000000 0.00467351
0.63273155 0.00000000 0.00602124
0.87830257 0.00000000 0.00668583
0.00000000 0.21338527 0.01402112
0.21525112 0.22529090 0.00000000
0.45800194 0.23135004 0.00000000
0.71109445 0.23710817 0.00000000
0.97210813 0.24262332 0.00000000
0.00000000 0.47685778 0.01663530
0.23257108 0.49309327 0.00000000
0.48988278 0.50140235 0.00000000
0.75229733 0.50856478 0.00000000
1.00000000 0.51732301 0.02387882
0.00000000 0.76215628 0.00980889
0.25007038 0.77329489 0.00000000
0.51240501 0.77842530 0.00000000
0.77495409 0.78138254 0.00000000
1.00000000 0.78168246 0.10855770
0.10183288 1.00000000 0.10199324
0.35009596 1.00000000 0.13307809
0.58409834 1.00000000 0.16799810
0.80134765 1.00000000 0.20679075
0.99936275 1.00000000 0.24946041
0.00000000 0.00095866 0.17532190
0.19372113 0.00000000 0.20100722
0.40854929 0.00000000 0.21266009
0.64098250 0.00000000 0.22278656
0.88853855 0.00000000 0.23139436
0.00000000 0.21712415 0.22335443
0.21688964 0.22702426 0.23357279
0.48001643 0.22813938 0.23494317
0.74741477 0.23046968 0.23639664
1.00000000 0.23841425 0.24259623
0.00000000 0.48142589 0.25124019
0.22293635 0.50052383 0.23915647
0.49326785 0.50471119 0.24191601
0.76364275 0.50942492 0.24409915
1.00000000 0.52061349 0.27443721
0.00000000 0.76562222 0.26075729
0.24060473 0.77962243 0.24667668
0.50950987 0.78208265 0.24750218
0.77674065 0.78281568 0.24699204
1.00000000 0.78414312 0.33939523
0.11264145 1.00000000 0.33281161
0.35910805 1.00000000 0.35704689
0.59074228 1.00000000 0.38432101
0.80505553 1.00000000 0.41466038
0.99957095 1.00000000 0.44805678
0.00000000 0.00189252 0.35837634
0.19627657 0.00000000 0.40617300
0.41411148 0.00000000 0.42687750
0.64899612 0.00000000 0.44521136
0.89844329 0.00000000 0.46119677
0.00000000 0.22072474 0.43871020
0.21513955 0.22762329 0.50032524
0.48079379 0.22878616 0.50058285
0.74854950 0.23155984 0.50196986
1.00000000 0.24096757 0.50162145
0.00000000 0.48575258 0.49005765
0.22462798 0.50199560 0.50498109
0.49584220 0.50540513 0.50623669
0.76496639 0.51070966 0.50975242
1.00000000 0.52410528 0.52145424
0.00000000 0.76875283 0.51401581
0.24208202 0.78061919 0.51208287
0.51048686 0.78254966 0.51249976
0.77695651 0.78234223 0.51198473
1.00000000 0.78672170 0.56466500
0.12381279 1.00000000 0.55871720
0.36838208 1.00000000 0.57555771
0.59754858 1.00000000 0.59463709
0.80882762 1.00000000 0.61597010
0.99974685 1.00000000 0.63953532
0.00000000 0.00279769 0.54891600
0.19877932 0.00000000 0.61785255
0.41953031 0.00000000 0.64703381
0.65677363 0.00000000 0.67300604
0.90801732 0.00000000 0.69580556
0.00000000 0.22418514 0.65982221
0.21508948 0.22780515 0.76526277
0.48152375 0.22957364 0.76594739
0.74985838 0.23277552 0.76762866
1.00000000 0.24380385 0.75884348
0.00000000 0.48983777 0.73280255
0.22640261 0.50350955 0.77083185
0.49687989 0.50802234 0.77333595
0.76726903 0.51221078 0.77553912
1.00000000 0.52780111 0.76461706
0.00000000 0.77154945 0.76928518
0.24341121 0.78145654 0.77736438
0.51124389 0.78280026 0.77732457
0.77687367 0.78108344 0.77578225
1.00000000 0.78915776 0.78404841
0.13534435 1.00000000 0.77943156
0.37791590 1.00000000 0.78833091
0.60451556 1.00000000 0.79866526
0.81266174 1.00000000 0.81043643
0.99989313 1.00000000 0.82337368
0.00000000 0.00367059 0.74669029
0.20123192 0.00000000 0.83575266
0.42480748 0.00000000 0.87283800
0.66431599 0.00000000 0.90588185
0.91726090 0.00000000 0.93493399
0.00000000 0.22750380 0.88642031
0.21809304 0.23045510 1.00000000
0.47606649 0.23560322 1.00000000
0.73285641 0.24295173 1.00000000
0.98640690 0.25237469 1.00000000
0.00000000 0.49368160 0.97918750
0.24527199 0.50368601 1.00000000
0.50245264 0.51235752 1.00000000
0.75355599 0.52220452 1.00000000
0.99642474 0.53313116 1.00000000
0.04135905 0.76437062 1.00000000
0.29736985 0.77070954 1.00000000
0.54444618 0.77733071 1.00000000
0.78034960 0.78416240 1.00000000
1.00000000 0.79225074 0.99729332
0.14723370 1.00000000 0.99467581
0.38770753 1.00000000 0.99508632
0.61164175 1.00000000 0.99612389
0.81655996 1.00000000 0.99777836
1.00000000 1.00000000 1.00000000
