assets/luts/DB_Amber_Hour_Rec709_100.cube
TITLE "Amber Hour Rec709 100"
# Red changes fastest. Full-range normalized input.
LUT_3D_SIZE 33
DOMAIN_MIN 0 0 0
DOMAIN_MAX 1 1 1
0.00400000 0.00400000 0.00400000
0.03384797 0.00335625 0.00354766
0.06384200 0.00271831 0.00305408
0.09388768 0.00211036 0.00257531
0.12386084 0.00156706 0.00218334
0.15368939 0.00111057 0.00191796
0.18339925 0.00073557 0.00176136
0.21308483 0.00041553 0.00165694
0.24283946 0.00012220 0.00155030
0.27211836 0.00000000 0.00157100
0.30109561 0.00000000 0.00167456
0.33022034 0.00000000 0.00175022
0.35949208 0.00000000 0.00180479
0.38891018 0.00000000 0.00184221
0.41847314 0.00000000 0.00186427
0.44817888 0.00000000 0.00187171
0.47802500 0.00000000 0.00186487
0.50800901 0.00000000 0.00184400
0.53812837 0.00000000 0.00180932
0.56838052 0.00000000 0.00176105
0.59876293 0.00000000 0.00169941
0.62927304 0.00000000 0.00162464
0.65990831 0.00000000 0.00153696
0.69066617 0.00000000 0.00143661
0.72154408 0.00000000 0.00132384
0.75253947 0.00000000 0.00119889
0.78364979 0.00000000 0.00106202
0.81487248 0.00000000 0.00091349
0.84620497 0.00000000 0.00075356
0.87764471 0.00000000 0.00058249
0.90918913 0.00000000 0.00040055
0.94083566 0.00000000 0.00020803
0.97258174 0.00000000 0.00000520
0.00135007 0.03265229 0.00268260
0.03136589 0.03211779 0.00213109
0.06157667 0.03156773 0.00150673
0.09190593 0.03102171 0.00090486
0.12219689 0.03052716 0.00045647
0.15230302 0.03013267 0.00024882
0.18218709 0.02985482 0.00026598
0.21193882 0.02966835 0.00040317
0.24170121 0.02952722 0.00053899
0.27158005 0.02939442 0.00060014
0.30160726 0.02925626 0.00057574
0.33176167 0.02911742 0.00049172
0.36200682 0.02898872 0.00037999
0.39231426 0.02887897 0.00026280
0.42266825 0.02879289 0.00015138
0.45306186 0.02873218 0.00005009
0.48337612 0.02872762 0.00000000
0.51360917 0.02877922 0.00000000
0.54390631 0.02884814 0.00000000
0.57426812 0.02893346 0.00000000
0.60469483 0.02903439 0.00000000
0.63518637 0.02915020 0.00000000
0.66574248 0.02928026 0.00000000
0.69636268 0.02942395 0.00000000
0.72704638 0.02958072 0.00000000
0.75779284 0.02975007 0.00000000
0.78860124 0.02993148 0.00000000
0.81947068 0.03012451 0.00000000
0.85040018 0.03032869 0.00000000
0.88138872 0.03054361 0.00000000
0.91243523 0.03076885 0.00000000
0.94353859 0.03100400 0.00000000
0.97469766 0.03124867 0.00000000
0.00000000 0.06136382 0.00242505
0.02931537 0.06125691 0.00106592
0.05963469 0.06080845 0.00032646
0.08993758 0.06035142 0.00000000
0.11988881 0.06001890 0.00000000
0.14974558 0.05979755 0.00000000
0.17971757 0.05964169 0.00000000
0.20989176 0.05951667 0.00000000
0.24022056 0.05940842 0.00000000
0.27059772 0.05931892 0.00000000
0.30094540 0.05925473 0.00000000
0.33123203 0.05922275 0.00000738
0.36152381 0.05921189 0.00000000
0.39180991 0.05923024 0.00000000
0.42212825 0.05927180 0.00000000
0.45249189 0.05933456 0.00000000
0.48290705 0.05941694 0.00000000
0.51337666 0.05951766 0.00000000
0.54390225 0.05963562 0.00000000
0.57448469 0.05976983 0.00000000
0.60512443 0.05991944 0.00000000
0.63582167 0.06008364 0.00000000
0.66657636 0.06026172 0.00000000
0.69738826 0.06045301 0.00000000
0.72825698 0.06065690 0.00000000
0.75918200 0.06087280 0.00000000
0.79016269 0.06110017 0.00000000
0.82119831 0.06133849 0.00000000
0.85228806 0.06158726 0.00000000
0.88335666 0.06186546 0.00002651
0.91430026 0.06219960 0.00011529
0.94526684 0.06255037 0.00021276
0.97625569 0.06291728 0.00031874
0.00000000 0.09009948 0.00329967
0.02772983 0.09075738 0.00043754
0.05813954 0.09037878 0.00000000
0.08852884 0.08997070 0.00000000
0.11864516 0.08967959 0.00000000
0.14860156 0.08951624 0.00000000
0.17857672 0.08946528 0.00000000
0.20871630 0.08948926 0.00000000
0.23905637 0.08954700 0.00000000
0.26953288 0.08961112 0.00000000
0.30005434 0.08967298 0.00000000
0.33056504 0.08973633 0.00000000
0.36105794 0.08980850 0.00000000
0.39155254 0.08989524 0.00000000
0.42207125 0.08999937 0.00000000
0.45262911 0.09012160 0.00000000
0.48323386 0.09026152 0.00000000
0.51388892 0.09041829 0.00000000
0.54459583 0.09059099 0.00000000
0.57535530 0.09077874 0.00000000
0.60616764 0.09098072 0.00000000
0.63703294 0.09119617 0.00000000
0.66795107 0.09142441 0.00000000
0.69892176 0.09166477 0.00000000
0.72994460 0.09191664 0.00000000
0.76101905 0.09217944 0.00000000
0.79200704 0.09248765 0.00005781
0.82295910 0.09282791 0.00014978
0.85393386 0.09318461 0.00025037
0.88493063 0.09355726 0.00035940
0.91594869 0.09394535 0.00047671
0.94698732 0.09434837 0.00060211
0.97804581 0.09476583 0.00073544
0.00000000 0.11937047 0.00394015
0.02664858 0.12059866 0.00011276
0.05718469 0.12029734 0.00000000
0.08767910 0.11999234 0.00000000
0.11800858 0.11974867 0.00000000
0.14818700 0.11960537 0.00000000
0.17830923 0.11958607 0.00000000
0.20850533 0.11968127 0.00000000
0.23886115 0.11985174 0.00000000
0.26937662 0.12005000 0.00000000
0.29999148 0.12024269 0.00000000
0.33064229 0.12041870 0.00000000
0.36129841 0.12058318 0.00000000
0.39196110 0.12074675 0.00000000
0.42264516 0.12091825 0.00000000
0.45336446 0.12110255 0.00000000
0.48412736 0.12130142 0.00000000
0.51493775 0.12151498 0.00000000
0.54579719 0.12174270 0.00000000
0.57670620 0.12198384 0.00000000
0.60766490 0.12223768 0.00000000
0.63867317 0.12250353 0.00000000
0.66972330 0.12278256 0.00000390
0.70066054 0.12311209 0.00009029
0.73162094 0.12345839 0.00018541
0.76260380 0.12382096 0.00028909
0.79360840 0.12419929 0.00040116
0.82463403 0.12459287 0.00052144
0.85567997 0.12500121 0.00064975
0.88674551 0.12542380 0.00078591
0.91782993 0.12586012 0.00092976
0.94893252 0.12630968 0.00108112
0.98005256 0.12677198 0.00123981
0.00000000 0.14914485 0.00427614
0.02612297 0.15072661 0.00000000
0.05668976 0.15056455 0.00000000
0.08723116 0.15040733 0.00000000
0.11771230 0.15026784 0.00000000
0.14811092 0.15017928 0.00000000
0.17845197 0.15018021 0.00000000
0.20880795 0.15029106 0.00000000
0.23925686 0.15049945 0.00000000
0.26983417 0.15076653 0.00000000
0.30052140 0.15104910 0.00000000
0.33127423 0.15131953 0.00000000
0.36205753 0.15157115 0.00000000
0.39285954 0.15181098 0.00000000
0.42368535 0.15204957 0.00000000
0.45454476 0.15229484 0.00000000
0.48544530 0.15255089 0.00000000
0.51639089 0.15281906 0.00000000
0.54738311 0.15309938 0.00000000
0.57837135 0.15340305 0.00003432
0.60931710 0.15373875 0.00012391
0.64028576 0.15409103 0.00022218
0.67127662 0.15445940 0.00032893
0.70228896 0.15484334 0.00044401
0.73332207 0.15524235 0.00056723
0.76437522 0.15565594 0.00069842
0.79544772 0.15608358 0.00083740
0.82653884 0.15652479 0.00098401
0.85764786 0.15697904 0.00113806
0.88877408 0.15744585 0.00129937
0.91991677 0.15792470 0.00146778
0.95107522 0.15841509 0.00164311
0.98224872 0.15891651 0.00182518
0.00000000 0.17938675 0.00430510
0.02609364 0.18112103 0.00000000
0.05665401 0.18111274 0.00000000
0.08722746 0.18110991 0.00000000
0.11780077 0.18111089 0.00000000
0.14835654 0.18112935 0.00000000
0.17889281 0.18119239 0.00000000
0.20943593 0.18132735 0.00000000
0.24003040 0.18154444 0.00000000
0.27071116 0.18182896 0.00000000
0.30148344 0.18214978 0.00000000
0.33232698 0.18247680 0.00000000
0.36321623 0.18279365 0.00000000
0.39413637 0.18309878 0.00000000
0.42508563 0.18339873 0.00000000
0.45606895 0.18370098 0.00000000
0.48702400 0.18402427 0.00006325
0.51797706 0.18436723 0.00015807
0.54895360 0.18472573 0.00025994
0.57995230 0.18509989 0.00036985
0.61097227 0.18548939 0.00048793
0.64201276 0.18589376 0.00061408
0.67307304 0.18631252 0.00074813
0.70415240 0.18674516 0.00088990
0.73525011 0.18719118 0.00103924
0.76636548 0.18765006 0.00119595
0.79749778 0.18812131 0.00135987
0.82864629 0.18860442 0.00153082
0.85981030 0.18909889 0.00170862
0.89098910 0.18960421 0.00189311
0.92218197 0.19011987 0.00208409
0.95338820 0.19064538 0.00228141
0.98460707 0.19118022 0.00248487
0.00000000 0.21006425 0.00405751
0.02641077 0.21180481 0.00000000
0.05701342 0.21191656 0.00000000
0.08764195 0.21204123 0.00000000
0.11829448 0.21217333 0.00000000
0.14896467 0.21231383 0.00000000
0.17964853 0.21247306 0.00000000
0.21035269 0.21266788 0.00000000
0.24109565 0.21291244 0.00000000
0.27189796 0.21320859 0.00000000
0.30276935 0.21354380 0.00000000
0.33370434 0.21389855 0.00000000
0.36468939 0.21425668 0.00000000
0.39569686 0.21461345 0.00002441
0.42664871 0.21498240 0.00016426
0.45762790 0.21535666 0.00028846
0.48863200 0.21574053 0.00040873
0.51965864 0.21613689 0.00053212
0.55070616 0.21654696 0.00066179
0.58177340 0.21697093 0.00079882
0.61285951 0.21740852 0.00094340
0.64396373 0.21785928 0.00109545
0.67508534 0.21832272 0.00125481
0.70622363 0.21879835 0.00142130
0.73737787 0.21928565 0.00159477
0.76854734 0.21978413 0.00177502
0.79973135 0.22029327 0.00196189
0.83092917 0.22081258 0.00215520
0.86214008 0.22134154 0.00235478
0.89336337 0.22187965 0.00256044
0.92459833 0.22242642 0.00277202
0.95584424 0.22298133 0.00298934
0.98710039 0.22354387 0.00321222
0.00000000 0.24114878 0.00356273
0.02700881 0.24277377 0.00000000
0.05768421 0.24297805 0.00000000
0.08839149 0.24319882 0.00000000
0.11913171 0.24343214 0.00000000
0.14990385 0.24367560 0.00000000
0.18070650 0.24393047 0.00000000
0.21154109 0.24420252 0.00000000
0.24241389 0.24449965 0.00000000
0.27333399 0.24482692 0.00000000
0.30430791 0.24518271 0.00000000
0.33530916 0.24555953 0.00007399
0.36630424 0.24595398 0.00024216
0.39731744 0.24636019 0.00040389
0.42835034 0.24677451 0.00055591
0.45940360 0.24719700 0.00070199
0.49047687 0.24762935 0.00084765
0.52156923 0.24807307 0.00099706
0.55267971 0.24852892 0.00115242
0.58380743 0.24899697 0.00131456
0.61495159 0.24947693 0.00148365
0.64611146 0.24996836 0.00165961
0.67728631 0.25047078 0.00184230
0.70847543 0.25098368 0.00203153
0.73967810 0.25150656 0.00222714
0.77089360 0.25203891 0.00242896
0.80212122 0.25258024 0.00263679
0.83336025 0.25313002 0.00285048
0.86460997 0.25368777 0.00306985
0.89586966 0.25425298 0.00329471
0.92713862 0.25482513 0.00352490
0.95841612 0.25540373 0.00376024
0.98970145 0.25598827 0.00400055
0.00000000 0.27261214 0.00284172
0.02784377 0.27401775 0.00000000
0.05860512 0.27429711 0.00000000
0.08940226 0.27459238 0.00000000
0.12023633 0.27490144 0.00000000
0.15110766 0.27522234 0.00000000
0.18202235 0.27554935 0.00002742
0.21297405 0.27588339 0.00009877
0.24395113 0.27623387 0.00018276
0.27495384 0.27660355 0.00028617
0.30598064 0.27699439 0.00041188
0.33702880 0.27740585 0.00055677
0.36809570 0.27783501 0.00071374
0.39917977 0.27827812 0.00087591
0.43028051 0.27873244 0.00103969
0.46139789 0.27919687 0.00120492
0.49253176 0.27967146 0.00137320
0.52368169 0.28015658 0.00154626
0.55484706 0.28065240 0.00172517
0.58602718 0.28115879 0.00191040
0.61722130 0.28167541 0.00210201
0.64842873 0.28220180 0.00229991
0.67964872 0.28273748 0.00250393
0.71088058 0.28328194 0.00271392
0.74212358 0.28383469 0.00292970
0.77337702 0.28439521 0.00315108
0.80464017 0.28496300 0.00337791
0.83591232 0.28553756 0.00360999
0.86719275 0.28611838 0.00384716
0.89848076 0.28670496 0.00408924
0.92977561 0.28729679 0.00433605
0.96107661 0.28789337 0.00458743
0.99238304 0.28849419 0.00484319
0.00000000 0.30442548 0.00191132
0.02888616 0.30551992 0.00000000
0.05975149 0.30585697 0.00001887
0.09069269 0.30618948 0.00010629
0.12165651 0.30653841 0.00020159
0.15264202 0.30690298 0.00030402
0.18364846 0.30728243 0.00041299
0.21467546 0.30767616 0.00052863
0.24572303 0.30808407 0.00065212
0.27679127 0.30850657 0.00078539
0.30787983 0.30894416 0.00093000
0.33898769 0.30939686 0.00108605
0.37011333 0.30986383 0.00125199
0.40125527 0.31034361 0.00142551
0.43241241 0.31083473 0.00160476
0.46358406 0.31133617 0.00178898
0.49476972 0.31184739 0.00197824
0.52596889 0.31236814 0.00217292
0.55718101 0.31289818 0.00237336
0.58840542 0.31343718 0.00257967
0.61964142 0.31398474 0.00279181
0.65088830 0.31454038 0.00300965
0.68214536 0.31510360 0.00323304
0.71341186 0.31567392 0.00346180
0.74468711 0.31625081 0.00369575
0.77597039 0.31683379 0.00393473
0.80726097 0.31742234 0.00417855
0.83855815 0.31801596 0.00442705
0.86986120 0.31861414 0.00468004
0.90116943 0.31921638 0.00493735
0.93248210 0.31982218 0.00519881
0.96379851 0.32043103 0.00546424
0.99511793 0.32104242 0.00573346
0.00000000 0.33655939 0.00078792
0.03032415 0.33717276 0.00024122
0.06131900 0.33754403 0.00034950
0.09233517 0.33793076 0.00046601
0.12337189 0.33833244 0.00059052
0.15442836 0.33874850 0.00072271
0.18550382 0.33917835 0.00086229
0.21659755 0.33962144 0.00100901
0.24770897 0.34007728 0.00116287
0.27883763 0.34054552 0.00132409
0.30998307 0.34102595 0.00149302
0.34114467 0.34151828 0.00166981
0.37232157 0.34202207 0.00185418
0.40351280 0.34253666 0.00204554
0.43471738 0.34306125 0.00224320
0.46593451 0.34359512 0.00244667
0.49716348 0.34413768 0.00265572
0.52840364 0.34468846 0.00287027
0.55965435 0.34524702 0.00309028
0.59091494 0.34581292 0.00331569
0.62218472 0.34638571 0.00354638
0.65346297 0.34696488 0.00378218
0.68474899 0.34754994 0.00402295
0.71604206 0.34814039 0.00426849
0.74734146 0.34873573 0.00451864
0.77864648 0.34933545 0.00477323
0.80995640 0.34993905 0.00503207
0.84127052 0.35054601 0.00529499
0.87258811 0.35115584 0.00556182
0.90390846 0.35176804 0.00583238
0.93523085 0.35238209 0.00610650
0.96655457 0.35299749 0.00638400
0.99787891 0.35361374 0.00666470
0.00101994 0.36857784 0.00051059
0.03206414 0.36898491 0.00063820
0.06312799 0.36940627 0.00077369
0.09421078 0.36984141 0.00091687
0.12531178 0.37028983 0.00106755
0.15643028 0.37075101 0.00122555
0.18756552 0.37122444 0.00139067
0.21871679 0.37170958 0.00156270
0.24988338 0.37220594 0.00174146
0.28106461 0.37271302 0.00192684
0.31225984 0.37323037 0.00211876
0.34346843 0.37375753 0.00231713
0.37468966 0.37429406 0.00252182
0.40592278 0.37483943 0.00273261
0.43716700 0.37539309 0.00294923
0.46842153 0.37595448 0.00317139
0.49968566 0.37652305 0.00339890
0.53095866 0.37709828 0.00363157
0.56223985 0.37767970 0.00386924
0.59352852 0.37826680 0.00411179
0.62482398 0.37885909 0.00435904
0.65612551 0.37945609 0.00461082
0.68743240 0.38005728 0.00486698
0.71874394 0.38066216 0.00512733
0.75005940 0.38127022 0.00539169
0.78137808 0.38188097 0.00565990
0.81269925 0.38249390 0.00593178
0.84402221 0.38310850 0.00620715
0.87534624 0.38372428 0.00648583
0.90667063 0.38434071 0.00676766
0.93799465 0.38495730 0.00705245
0.96931760 0.38557355 0.00734004
1.00000000 0.38631803 0.00823239
0.00291911 0.40050566 0.00097088
0.03402660 0.40095879 0.00112429
0.06515134 0.40142452 0.00128497
0.09629262 0.40190234 0.00145277
0.12744972 0.40239174 0.00162750
0.15862192 0.40289222 0.00180898
0.18980852 0.40340326 0.00199704
0.22100878 0.40392438 0.00219149
0.25222199 0.40445504 0.00239216
0.28344744 0.40499476 0.00259888
0.31468443 0.40554303 0.00281148
0.34593225 0.40609936 0.00302980
0.37719021 0.40666325 0.00325369
0.40845759 0.40723420 0.00348296
0.43973365 0.40781171 0.00371743
0.47101767 0.40839525 0.00395692
0.50230893 0.40898432 0.00420122
0.53360670 0.40957840 0.00445016
0.56491027 0.41017699 0.00470357
0.59621894 0.41077959 0.00496128
0.62753199 0.41138569 0.00522312
0.65884871 0.41199479 0.00548890
0.69016837 0.41260639 0.00575847
0.72149028 0.41321999 0.00603163
0.75281372 0.41383508 0.00630823
0.78413796 0.41445115 0.00658808
0.81546229 0.41506770 0.00687101
0.84678601 0.41568422 0.00715684
0.87810839 0.41630022 0.00744540
0.90942871 0.41691518 0.00773651
0.94074627 0.41752860 0.00802999
0.97206035 0.41813998 0.00832568
1.00000000 0.41940010 0.01209587
0.00502164 0.43258170 0.00151559
0.03618433 0.43307519 0.00169280
0.06736186 0.43357958 0.00187670
0.09855353 0.43409436 0.00206713
0.12975862 0.43461902 0.00226389
0.16097641 0.43515306 0.00246683
0.19220619 0.43569599 0.00267576
0.22344724 0.43624728 0.00289050
0.25469884 0.43680644 0.00311089
0.28596029 0.43737296 0.00333674
0.31723087 0.43794633 0.00356789
0.34850986 0.43852606 0.00380415
0.37979655 0.43911164 0.00404535
0.41109024 0.43970256 0.00429133
0.44239019 0.44029833 0.00454191
0.47369570 0.44089843 0.00479690
0.50500605 0.44150236 0.00505613
0.53632052 0.44210962 0.00531943
0.56763840 0.44271969 0.00558661
0.59895897 0.44333208 0.00585751
0.63028152 0.44394627 0.00613194
0.66160533 0.44456178 0.00640975
0.69292968 0.44517808 0.00669074
0.72425388 0.44579468 0.00697474
0.75557719 0.44641107 0.00726158
0.78689890 0.44702675 0.00755109
0.81821830 0.44764121 0.00784309
0.84953468 0.44825395 0.00813740
0.88084732 0.44886446 0.00843384
0.91215549 0.44947224 0.00873225
0.94345850 0.45007678 0.00903245
0.97475562 0.45067758 0.00933426
1.00000000 0.45238424 0.01644447
0.00730030 0.46478675 0.00213804
0.03851010 0.46531489 0.00233707
0.06973233 0.46585222 0.00254221
0.10096630 0.46639825 0.00275328
0.13221128 0.46695247 0.00297010
0.16346656 0.46751437 0.00319250
0.19473142 0.46808344 0.00342031
0.22600515 0.46865919 0.00365334
0.25728704 0.46924112 0.00389143
0.28857636 0.46982870 0.00413439
0.31987240 0.47042144 0.00438206
0.35117445 0.47101884 0.00463426
0.38248180 0.47162039 0.00489080
0.41379373 0.47222559 0.00515153
0.44510952 0.47283392 0.00541626
0.47642845 0.47344490 0.00568481
0.50774983 0.47405800 0.00595702
0.53907292 0.47467273 0.00623270
0.57039701 0.47528858 0.00651168
0.60172139 0.47590505 0.00679379
0.63304534 0.47652164 0.00707885
0.66436816 0.47713783 0.00736668
0.69568911 0.47775312 0.00765712
0.72700750 0.47836701 0.00794998
0.75832259 0.47897900 0.00824508
0.78963369 0.47958857 0.00854227
0.82094007 0.48019523 0.00884135
0.85224101 0.48079847 0.00914215
0.88353581 0.48139778 0.00944450
0.91482375 0.48199267 0.00974823
0.94610411 0.48258261 0.01005315
0.97737618 0.48316712 0.01035910
1.00000000 0.48524078 0.02129493
0.00972787 0.49710160 0.00283156
0.04097669 0.49765867 0.00305043
0.07223554 0.49822324 0.00327482
0.10350371 0.49879481 0.00350455
0.13478049 0.49937286 0.00373945
0.16606517 0.49995690 0.00397933
0.19735702 0.50054643 0.00422403
0.22865534 0.50114092 0.00447336
0.25995940 0.50173989 0.00472716
0.29126850 0.50234283 0.00498525
0.32258191 0.50294923 0.00524746
0.35389893 0.50355858 0.00551360
0.38521883 0.50417039 0.00578350
0.41654091 0.50478414 0.00605699
0.44786445 0.50539934 0.00633390
0.47918873 0.50601547 0.00661404
0.51051304 0.50663204 0.00689724
0.54183666 0.50724854 0.00718333
0.57315888 0.50786446 0.00747213
0.60447898 0.50847931 0.00776347
0.63579625 0.50909256 0.00805716
0.66710997 0.50970373 0.00835305
0.69841943 0.51031230 0.00865094
0.72972392 0.51091777 0.00895067
0.76102271 0.51151964 0.00925206
0.79231509 0.51211740 0.00955493
0.82360036 0.51271054 0.00985911
0.85487778 0.51329857 0.01016443
0.88614666 0.51388097 0.01047070
0.91740626 0.51445725 0.01077776
0.94865589 0.51502689 0.01108543
0.97989481 0.51558940 0.01139353
1.00000000 0.51794015 0.02666299
0.01227714 0.52950703 0.00358948
0.04355688 0.53008733 0.00382621
0.07484425 0.53067342 0.00406787
0.10613854 0.53126481 0.00431427
0.13743903 0.53186100 0.00456526
0.16874501 0.53246147 0.00482064
0.20005576 0.53306572 0.00508025
0.23137057 0.53367325 0.00534390
0.26268872 0.53428356 0.00561143
0.29400950 0.53489613 0.00588266
0.32533219 0.53551047 0.00615742
0.35665608 0.53612607 0.00643552
0.38798046 0.53674242 0.00671680
0.41930460 0.53735902 0.00700107
0.45062779 0.53797537 0.00728817
0.48194932 0.53859096 0.00757791
0.51326847 0.53920528 0.00787013
0.54458454 0.53981783 0.00816464
0.57589679 0.54042811 0.00846128
0.60720452 0.54103561 0.00875986
0.63850702 0.54163983 0.00906021
0.66980356 0.54224026 0.00936216
0.70109343 0.54283640 0.00966553
0.73237592 0.54342774 0.00997015
0.76365032 0.54401378 0.01027583
0.79491590 0.54459401 0.01058241
0.82617196 0.54516793 0.01088971
0.85741777 0.54573503 0.01119756
0.88865262 0.54629482 0.01150577
0.91987581 0.54684678 0.01181418
0.95108660 0.54739040 0.01212261
0.98228429 0.54792519 0.01243088
1.00000000 0.55045289 0.03256336
0.01492088 0.56198383 0.00440513
0.04622345 0.56258164 0.00465773
0.07753125 0.56318354 0.00491467
0.10884356 0.56378905 0.00517577
0.14015967 0.56439765 0.00544086
0.17147886 0.56500884 0.00570976
0.20280042 0.56562212 0.00598229
0.23412363 0.56623697 0.00625829
0.26544778 0.56685290 0.00653756
0.29677215 0.56746940 0.00681995
0.32809603 0.56808597 0.00710527
0.35941870 0.56870210 0.00739335
0.39073945 0.56931728 0.00768402
0.42205756 0.56993102 0.00797709
0.45337232 0.57054280 0.00827240
0.48468301 0.57115213 0.00856976
0.51598891 0.57175850 0.00886901
0.54728932 0.57236139 0.00916996
0.57858352 0.57296032 0.00947245
0.60987079 0.57355477 0.00977629
0.64115042 0.57414424 0.01008132
0.67242169 0.57472822 0.01038735
0.70368388 0.57530621 0.01069422
0.73493629 0.57587771 0.01100174
0.76617820 0.57644221 0.01130974
0.79740889 0.57699920 0.01161804
0.82862764 0.57754818 0.01192648
0.85983375 0.57808865 0.01223487
0.89102649 0.57862010 0.01254304
0.92220516 0.57914203 0.01285081
0.95336904 0.57965393 0.01315802
0.98451740 0.58015529 0.01346448
1.00000000 0.58274964 0.03900961
0.01763186 0.59451279 0.00527183
0.04894918 0.59512239 0.00553833
0.08026931 0.59573440 0.00580857
0.11159156 0.59634831 0.00608238
0.14291519 0.59696361 0.00635959
0.17423950 0.59757981 0.00664002
0.20556378 0.59819639 0.00692350
0.23688730 0.59881286 0.00720984
0.26820935 0.59942870 0.00749888
0.29952923 0.60004342 0.00779045
0.33084620 0.60065650 0.00808435
0.36215956 0.60126745 0.00838043
0.39346859 0.60187576 0.00867850
0.42477258 0.60248092 0.00897839
0.45607081 0.60308243 0.00927992
0.48736257 0.60367978 0.00958292
0.51864714 0.60427248 0.00988722
0.54992380 0.60486001 0.01019263
0.58119185 0.60544187 0.01049898
0.61245057 0.60601755 0.01080611
0.64369924 0.60658656 0.01111382
0.67493714 0.60714838 0.01142195
0.70616357 0.60770252 0.01173033
0.73737780 0.60824846 0.01203877
0.76857913 0.60878570 0.01234710
0.79976683 0.60931374 0.01265514
0.83094019 0.60983208 0.01296273
0.86209851 0.61034020 0.01326969
0.89324105 0.61083761 0.01357583
0.92436711 0.61132379 0.01388099
0.95547597 0.61179825 0.01418499
0.98656692 0.61226048 0.01448765
1.00000000 0.61480118 0.04601413
0.02038288 0.62707468 0.00618292
0.05170684 0.62769037 0.00646132
0.08303123 0.62830676 0.00674288
0.11435531 0.62892336 0.00702742
0.14567838 0.62953966 0.00731477
0.17699972 0.63015515 0.00760475
0.20831862 0.63076933 0.00789718
0.23963436 0.63138170 0.00819190
0.27094623 0.63199174 0.00848872
0.30225350 0.63259896 0.00878748
0.33355548 0.63320285 0.00908798
0.36485144 0.63380291 0.00939007
0.39614066 0.63439863 0.00969356
0.42742244 0.63498950 0.00999829
0.45869605 0.63557502 0.01030406
0.48996078 0.63615469 0.01061072
0.52121592 0.63672801 0.01091807
0.55246075 0.63729446 0.01122596
0.58369456 0.63785354 0.01153420
0.61491663 0.63840475 0.01184262
0.64612625 0.63894758 0.01215104
0.67732270 0.63948154 0.01245929
0.70850526 0.64000610 0.01276719
0.73967323 0.64052078 0.01307457
0.77082589 0.64102506 0.01338124
0.80196251 0.64151843 0.01368705
0.83308239 0.64200041 0.01399181
0.86418482 0.64247047 0.01429534
0.89526907 0.64292812 0.01459747
0.92633443 0.64337285 0.01489803
0.95738018 0.64380416 0.01519684
0.98840562 0.64422153 0.01549372
1.00000000 0.64657840 0.05358805
0.02314670 0.65965030 0.00713172
0.05446923 0.66026636 0.00742005
0.08578976 0.66088143 0.00771094
0.11710759 0.66149501 0.00800423
0.14842201 0.66210659 0.00829973
0.17973229 0.66271566 0.00859727
0.21103772 0.66332173 0.00889669
0.24233758 0.66392428 0.00919779
0.27363117 0.66452282 0.00950041
0.30491777 0.66511683 0.00980437
0.33619665 0.66570581 0.01010949
0.36746712 0.66628926 0.01041561
0.39872844 0.66686668 0.01072254
0.42997991 0.66743755 0.01103011
0.46122081 0.66800138 0.01133815
0.49245043 0.66855765 0.01164647
0.52366805 0.66910587 0.01195491
0.55487295 0.66964553 0.01226329
0.58606443 0.67017612 0.01257143
0.61724176 0.67069715 0.01287916
0.64840424 0.67120810 0.01318631
0.67955114 0.67170847 0.01349269
0.71068175 0.67219775 0.01379813
0.74179536 0.67267545 0.01410246
0.77289125 0.67314105 0.01440551
0.80396871 0.67359405 0.01470709
0.83502701 0.67403395 0.01500703
0.86606546 0.67446025 0.01530516
0.89708332 0.67487243 0.01560130
0.92807989 0.67526999 0.01589527
