assets/luts/DB_Alpine_Air_Rec709_50.cube
TITLE "Alpine Air Rec709 50"
# Red changes fastest. Full-range normalized input.
LUT_3D_SIZE 5
DOMAIN_MIN 0 0 0
DOMAIN_MAX 1 1 1
0.00000000 0.00000000 0.00000000
0.22054525 0.00000000 0.00126150
0.45142086 0.00000000 0.00233676
0.69136577 0.00000000 0.00301062
0.93915129 0.00000000 0.00334291
0.00000000 0.23169263 0.00701056
0.23262556 0.23764545 0.00000000
0.47900097 0.24067502 0.00000000
0.73054723 0.24355409 0.00000000
0.98605406 0.24631166 0.00000000
0.00000000 0.48842889 0.00831765
0.24128554 0.49654663 0.00000000
0.49494139 0.50070117 0.00000000
0.75114866 0.50428239 0.00000000
1.00000000 0.50866150 0.01193941
0.00000000 0.75607814 0.00490444
0.25003519 0.76164744 0.00000000
0.50620251 0.76421265 0.00000000
0.76247705 0.76569127 0.00000000
1.00000000 0.76584123 0.05427885
0.05091644 1.00000000 0.05099662
0.30004798 1.00000000 0.06653904
0.54204917 1.00000000 0.08399905
0.77567382 1.00000000 0.10339537
0.99968138 1.00000000 0.12473020
0.00000000 0.00047933 0.21266095
0.22186057 0.00000000 0.22550361
0.45427465 0.00000000 0.23133005
0.69549125 0.00000000 0.23639328
0.94426927 0.00000000 0.24069718
0.00000000 0.23356208 0.23667721
0.23344482 0.23851213 0.24178640
0.49000821 0.23906969 0.24247158
0.74870738 0.24023484 0.24319832
1.00000000 0.24420712 0.24629812
0.00000000 0.49071294 0.25062010
0.23646817 0.50026191 0.24457823
0.49663392 0.50235560 0.24595800
0.75682137 0.50471246 0.24704957
1.00000000 0.51030675 0.26221860
0.00000000 0.75781111 0.25537865
0.24530237 0.76481122 0.24833834
0.50475494 0.76604133 0.24875109
0.76337032 0.76640784 0.24849602
1.00000000 0.76707156 0.29469762
0.05632073 1.00000000 0.29140580
0.30455403 1.00000000 0.30352344
0.54537114 1.00000000 0.31716050
0.77752777 1.00000000 0.33233019
0.99978548 1.00000000 0.34902839
0.00000000 0.00094626 0.42918817
0.22313828 0.00000000 0.45308650
0.45705574 0.00000000 0.46343875
0.69949806 0.00000000 0.47260568
0.94922165 0.00000000 0.48059839
0.00000000 0.23536237 0.46935510
0.23256977 0.23881165 0.50016262
0.49039690 0.23939308 0.50029142
0.74927475 0.24077992 0.50098493
1.00000000 0.24548379 0.50081073
0.00000000 0.49287629 0.49502882
0.23731399 0.50099780 0.50249054
0.49792110 0.50270257 0.50311835
0.75748319 0.50535483 0.50487621
1.00000000 0.51205264 0.51072712
0.00000000 0.75937642 0.50700790
0.24604101 0.76530959 0.50604143
0.50524343 0.76627483 0.50624988
0.76347825 0.76617111 0.50599237
1.00000000 0.76836085 0.53233250
0.06190640 1.00000000 0.52935860
0.30919104 1.00000000 0.53777886
0.54877429 1.00000000 0.54731854
0.77941381 1.00000000 0.55798505
0.99987342 1.00000000 0.56976766
0.00000000 0.00139885 0.64945800
0.22438966 0.00000000 0.68392628
0.45976515 0.00000000 0.69851690
0.70338682 0.00000000 0.71150302
0.95400866 0.00000000 0.72290278
0.00000000 0.23709257 0.70491110
0.23254474 0.23890258 0.75763139
0.49076188 0.23978682 0.75797369
0.74992919 0.24138776 0.75881433
1.00000000 0.24690193 0.75442174
0.00000000 0.49491888 0.74140127
0.23820130 0.50175477 0.76041592
0.49843994 0.50401117 0.76166797
0.75863452 0.50610539 0.76276956
1.00000000 0.51390055 0.75730853
0.00000000 0.76077472 0.75964259
0.24670560 0.76572827 0.76368219
0.50562195 0.76640013 0.76366228
0.76343683 0.76554172 0.76289112
1.00000000 0.76957888 0.76702421
0.06767217 1.00000000 0.76471578
0.31395795 1.00000000 0.76916545
0.55225778 1.00000000 0.77433263
0.78133087 1.00000000 0.78021821
0.99994656 1.00000000 0.78668684
0.00000000 0.00183530 0.87334515
0.22561596 0.00000000 0.91787633
0.46240374 0.00000000 0.93641900
0.70715799 0.00000000 0.95294092
0.95863045 0.00000000 0.96746700
0.00000000 0.23875190 0.94321016
0.23404652 0.24022755 1.00000000
0.48803325 0.24280161 1.00000000
0.74142820 0.24647587 1.00000000
0.99320345 0.25118734 1.00000000
0.00000000 0.49684080 0.98959375
0.24763599 0.50184300 1.00000000
0.50122632 0.50617876 1.00000000
0.75177800 0.51110226 1.00000000
0.99821237 0.51656558 1.00000000
0.02067952 0.75718531 1.00000000
0.27368493 0.76035477 1.00000000
0.52222309 0.76366535 1.00000000
0.76517480 0.76708120 1.00000000
1.00000000 0.77112537 0.99864666
0.07361685 1.00000000 0.99733791
0.31885376 1.00000000 0.99754316
0.55582087 1.00000000 0.99806195
0.78327998 1.00000000 0.99888918
1.00000000 1.00000000 1.00000000
