assets/luts/DB_Amber_Hour_Rec709_50.cube
TITLE "Amber Hour Rec709 50"
# Red changes fastest. Full-range normalized input.
LUT_3D_SIZE 5
DOMAIN_MIN 0 0 0
DOMAIN_MAX 1 1 1
0.00200000 0.00200000 0.00200000
0.24641973 0.00006110 0.00077515
0.48901250 0.00000000 0.00093243
0.73577204 0.00000000 0.00066192
0.98629087 0.00000000 0.00000260
0.00000000 0.24557439 0.00178136
0.24620695 0.24724982 0.00000000
0.49523843 0.24881467 0.00042382
0.74483905 0.25075328 0.00111357
0.99485072 0.25299413 0.00200027
0.00486394 0.49855080 0.00141578
0.25497970 0.50086995 0.00236358
0.50525652 0.50331602 0.00344862
0.75551135 0.50575982 0.00462603
1.00000000 0.50897007 0.01333149
0.01562141 0.75363367 0.00506884
0.26555112 0.75586603 0.00629991
0.51502613 0.75779067 0.00751730
0.76386339 0.75927836 0.00867613
1.00000000 0.76018338 0.04487685
0.03994606 1.00000000 0.02640330
0.28725344 1.00000000 0.03525341
0.53047512 1.00000000 0.04546362
0.76896391 1.00000000 0.05707589
1.00000000 0.99805498 0.09550226
0.00090313 0.00123708 0.24857020
0.24491077 0.00000000 0.24680632
0.48907710 0.00000000 0.24609649
0.73689073 0.00000000 0.24655834
0.98722109 0.00026999 0.24698287
0.00000000 0.24616188 0.24639338
0.24667397 0.24745044 0.24690691
0.49607704 0.24928015 0.24758285
0.74582154 0.25148675 0.24840469
0.99593107 0.25380118 0.24934858
0.00588925 0.49931614 0.24872948
0.25607915 0.50169247 0.24972883
0.50617925 0.50403384 0.25084032
0.75657420 0.50656468 0.25204893
1.00000000 0.51018217 0.25881587
0.01665259 0.75441828 0.25249567
0.26644841 0.75656063 0.25372712
0.51572736 0.75835136 0.25492965
0.76430640 0.75966128 0.25605840
1.00000000 0.76123959 0.28370970
0.04269919 1.00000000 0.26969024
0.28942746 1.00000000 0.27683082
0.53192008 1.00000000 0.28514007
0.76953165 1.00000000 0.29465471
1.00000000 0.99848655 0.32516411
0.00000000 0.00061743 0.49495432
0.24414096 0.00000000 0.49154706
0.48947715 0.00000000 0.49164659
0.73814653 0.00000000 0.49320990
0.98781518 0.00072020 0.49411158
0.00000000 0.24673251 0.49225187
0.24751397 0.24827940 0.49427391
0.49694436 0.25009233 0.49488908
0.74684423 0.25225014 0.49571695
0.99703050 0.25462323 0.49671284
0.00694708 0.50010596 0.49606243
0.25719195 0.50252531 0.49710841
0.50638351 0.50431293 0.49872236
0.75734765 0.50710607 0.49962706
1.00000000 0.51147361 0.50301190
0.01764527 0.75517724 0.49992433
0.26728608 0.75721467 0.50115100
0.51634616 0.75885605 0.50233397
0.76436578 0.75984386 0.50351118
1.00000000 0.76235427 0.52071761
0.04551452 1.00000000 0.51170537
0.29163640 1.00000000 0.51700174
0.53337338 1.00000000 0.52327332
0.77008193 1.00000000 0.53055137
1.00000000 0.99895491 0.55251313
0.00000000 0.00083016 0.73216443
0.24386514 0.00000000 0.73634880
0.49009387 0.00000000 0.73785946
0.73949290 0.00000000 0.74068059
0.98849220 0.00123048 0.74127190
0.00000000 0.24727783 0.73936822
0.24827195 0.24884847 0.74146615
0.49788231 0.25079305 0.74215856
0.74789996 0.25303837 0.74304857
0.99814186 0.25545523 0.74409130
0.00803025 0.50091520 0.74341287
0.25830835 0.50336243 0.74450006
0.50856098 0.50580492 0.74567881
0.75860498 0.50811334 0.74690440
1.00000000 0.51284565 0.74583435
0.01859227 0.75590549 0.74735308
0.26805697 0.75782310 0.74856978
0.51688015 0.75930122 0.74972725
0.76340130 0.75951896 0.75167663
1.00000000 0.76324454 0.75590700
0.04839077 1.00000000 0.75237935
0.29387927 1.00000000 0.75569607
0.53483434 1.00000000 0.75979243
0.77061311 1.00000000 0.76469360
1.00000000 0.99947514 0.77708351
0.00000000 0.00100574 0.97140013
0.24387461 0.00000000 0.98175323
0.49085592 0.00000000 0.98487218
0.74024171 0.00029327 0.98801859
0.98924500 0.00179577 0.98846207
0.00000000 0.24779227 0.98772510
0.24909801 0.24946711 0.98868635
0.49886721 0.25152831 0.98945090
0.74898155 0.25384638 0.99039781
0.99925797 0.25629210 0.99148219
0.00913160 0.50173880 0.99077904
0.25942159 0.50419892 0.99190234
0.50962398 0.50661044 0.99310194
0.75955575 0.50884417 0.99433296
1.00000000 0.51429940 0.98719898
0.01948644 0.75659797 0.99478016
0.26875391 0.75838085 0.99598171
0.51731803 0.75968049 0.99710864
0.76499571 0.76036765 0.99811611
1.00000000 0.76477144 0.98896378
0.05132682 1.00000000 0.99164256
0.29615520 1.00000000 0.99284340
0.53630238 1.00000000 0.99462609
0.77112853 1.00000000 0.99701033
1.00000000 1.00000000 1.00000000
