assets/luts/DB_Amber_Hour_Rec709_50.cube
TITLE "Amber Hour Rec709 50"
# Red changes fastest. Full-range normalized input.
LUT_3D_SIZE 9
DOMAIN_MIN 0 0 0
DOMAIN_MAX 1 1 1
0.00200000 0.00200000 0.00200000
0.12443042 0.00078353 0.00109167
0.24641973 0.00006110 0.00077515
0.36724604 0.00000000 0.00090240
0.48901250 0.00000000 0.00093243
0.61188147 0.00000000 0.00084971
0.73577204 0.00000000 0.00066192
0.86060248 0.00000000 0.00037678
0.98629087 0.00000000 0.00000260
0.00000000 0.12218523 0.00197007
0.12150429 0.12237433 0.00000000
0.24443057 0.12242587 0.00000000
0.36814921 0.12279159 0.00000000
0.49206368 0.12315071 0.00000000
0.61633245 0.12361884 0.00000000
0.74081047 0.12422920 0.00009271
0.86533999 0.12500061 0.00032487
0.99002628 0.12588599 0.00061991
0.00000000 0.24557439 0.00178136
0.12206585 0.24671607 0.00000000
0.24620695 0.24724982 0.00000000
0.37065212 0.24797699 0.00012108
0.49523843 0.24881467 0.00042382
0.61997580 0.24973846 0.00074183
0.74483905 0.25075328 0.00111357
0.86980498 0.25184389 0.00153492
0.99485072 0.25299413 0.00200027
0.00050997 0.37178892 0.00025530
0.12515589 0.37264491 0.00053378
0.24994169 0.37360297 0.00087073
0.37484483 0.37464703 0.00126091
0.49984283 0.37576152 0.00169945
0.62491199 0.37692955 0.00217952
0.75002970 0.37813511 0.00269585
0.87517312 0.37936214 0.00324292
1.00000000 0.38065902 0.00411619
0.00486394 0.49855080 0.00141578
0.12989025 0.49968643 0.00186972
0.25497970 0.50086995 0.00236358
0.38010942 0.50208519 0.00289175
0.50525652 0.50331602 0.00344862
0.63039813 0.50454628 0.00402858
0.75551135 0.50575982 0.00462603
0.88057333 0.50694049 0.00523535
1.00000000 0.50897007 0.01333149
0.01019144 0.62603734 0.00309146
0.13533919 0.62726983 0.00365739
0.26047311 0.62849587 0.00424436
0.38557033 0.62969931 0.00484678
0.51060796 0.63086400 0.00545904
0.63556313 0.63197379 0.00607552
0.76041294 0.63301253 0.00669062
0.88513453 0.63396406 0.00729874
1.00000000 0.63578920 0.02679403
0.01562141 0.75363367 0.00506884
0.14063166 0.75478024 0.00568328
0.26555112 0.75586603 0.00629991
0.39035691 0.75687489 0.00691312
0.51502613 0.75779067 0.00751730
0.63953592 0.75859721 0.00810684
0.76386339 0.75927836 0.00867613
0.88798567 0.75981799 0.00921957
1.00000000 0.76018338 0.04487685
0.02028277 0.88072492 0.00713442
0.14489660 0.88160279 0.00773392
0.26934266 0.88236556 0.00831673
0.39359808 0.88299706 0.00887726
0.51763996 0.88348114 0.00940990
0.64144544 0.88380166 0.00990903
0.76499163 0.88394246 0.01036905
0.88825566 0.88388739 0.01078435
1.00000000 0.88123712 0.06777931
0.03994606 1.00000000 0.02640330
0.16406985 1.00000000 0.03066144
0.28725344 1.00000000 0.03525341
0.40941554 1.00000000 0.04018559
0.53047512 1.00000000 0.04546362
0.65035141 1.00000000 0.05109237
0.76896391 1.00000000 0.05707589
0.88623243 1.00000000 0.06341737
1.00000000 0.99805498 0.09550226
0.00142942 0.00160204 0.12528298
0.12353553 0.00060460 0.12469501
0.24560995 0.00000000 0.12408604
0.36681408 0.00000000 0.12358566
0.48899258 0.00000000 0.12349195
0.61217213 0.00000000 0.12350673
0.73631059 0.00000000 0.12352195
0.86134402 0.00000000 0.12349293
0.98695739 0.00006899 0.12343091
0.00000000 0.12225936 0.12316432
0.12134958 0.12248193 0.12322928
0.24524518 0.12222873 0.12273217
0.36863096 0.12276147 0.12321200
0.49250953 0.12324197 0.12336446
0.61672596 0.12379010 0.12348157
0.74113940 0.12447739 0.12366915
0.86572472 0.12528931 0.12392330
0.99045905 0.12620973 0.12423841
0.00000000 0.24586927 0.12393338
0.12217988 0.24689153 0.12331057
0.24629660 0.24696724 0.12264741
0.37099933 0.24764718 0.12300862
0.49565319 0.24906386 0.12397953
0.62042427 0.25007322 0.12436686
0.74532482 0.25111596 0.12475638
0.87032042 0.25222864 0.12519331
0.99538806 0.25339547 0.12567232
0.00088031 0.37206716 0.12384793
0.12557575 0.37295944 0.12414661
0.25037761 0.37393274 0.12448290
0.37524577 0.37493234 0.12482887
0.50033871 0.37611567 0.12533552
0.62545469 0.37733423 0.12585529
0.75058438 0.37855021 0.12638347
0.87573133 0.37978086 0.12693970
1.00000000 0.38120618 0.12816058
0.00537208 0.49893009 0.12507012
0.13042240 0.50008380 0.12553824
0.25552807 0.50127989 0.12604438
0.38066577 0.50250200 0.12658276
0.50581323 0.50373416 0.12714799
0.63094850 0.50496099 0.12773476
0.75604700 0.50616527 0.12833691
0.88108637 0.50733111 0.12894899
1.00000000 0.50956628 0.13622936
0.01074946 0.62645562 0.12678594
0.13589508 0.62768773 0.12735965
0.26101910 0.62890791 0.12795250
0.38609865 0.63010000 0.12855888
0.51111084 0.63124786 0.12917320
0.63603279 0.63233533 0.12978985
0.76084163 0.63334626 0.13040321
0.88551447 0.63426450 0.13100767
1.00000000 0.63637667 0.14822244
0.01614136 0.75402887 0.12878191
0.14112335 0.75515661 0.12939773
0.26600677 0.75621808 0.13001382
0.39076874 0.75719714 0.13062459
0.51538639 0.75807763 0.13122443
0.63983683 0.75884340 0.13180772
0.76409718 0.75947830 0.13236886
0.88814456 0.75996618 0.13290225
1.00000000 0.76070398 0.16451621
0.02067673 0.88103495 0.13084453
0.14523615 0.88187555 0.13143900
0.26962003 0.88259555 0.13201487
0.39380550 0.88317879 0.13256656
0.51776966 0.88360914 0.13308845
0.64148965 0.88387043 0.13357492
0.76494258 0.88394653 0.13402039
0.88810558 0.88382127 0.13441923
1.00000000 0.88163240 0.18531330
0.04131477 1.00000000 0.14820142
0.16530493 1.00000000 0.15205236
0.28833602 1.00000000 0.15621356
0.41032685 1.00000000 0.16069110
0.53119651 1.00000000 0.16549032
0.65086433 1.00000000 0.17061575
0.76924993 1.00000000 0.17607109
0.88627325 1.00000000 0.18185916
1.00000000 0.99826614 0.21061795
0.00090313 0.00123708 0.24857020
0.12310890 0.00033937 0.24802061
0.24491077 0.00000000 0.24680632
0.36655984 0.00000000 0.24612427
0.48907710 0.00000000 0.24609649
0.61252829 0.00000000 0.24629659
0.73689073 0.00000000 0.24655834
0.86211081 0.00000000 0.24680667
0.98722109 0.00026999 0.24698287
0.00000000 0.12236054 0.24438581
0.12121683 0.12259354 0.24695668
0.24482869 0.12266464 0.24684241
0.36866344 0.12295470 0.24683137
0.49272700 0.12341189 0.24690171
0.61701378 0.12400853 0.24704246
0.74148815 0.12473995 0.24725328
0.86612665 0.12559054 0.24752876
0.99090638 0.12654412 0.24786329
0.00000000 0.24616188 0.24639338
0.12246069 0.24710783 0.24693599
0.24667397 0.24745044 0.24690691
0.37127850 0.24777130 0.24695452
0.49607704 0.24928015 0.24758285
0.62088667 0.25041627 0.24799787
0.74582154 0.25148675 0.24840469
0.87084417 0.25261963 0.24885654
0.99593107 0.25380118 0.24934858
0.00126854 0.37235841 0.24744778
0.12601079 0.37328507 0.24776645
0.25074679 0.37422441 0.24810241
0.37474214 0.37444146 0.24823148
0.50013674 0.37561503 0.24879667
0.62596060 0.37766990 0.24952324
0.75114093 0.37896666 0.25007435
0.87628896 0.38019956 0.25063917
1.00000000 0.38177501 0.25196428
0.00588925 0.49931614 0.24872948
0.13096094 0.50048605 0.24921115
0.25607915 0.50169247 0.24972883
0.38117467 0.50289613 0.25027357
0.50617925 0.50403384 0.25084032
0.63143352 0.50532524 0.25144099
0.75657420 0.50656468 0.25204893
0.88158995 0.50771543 0.25266313
1.00000000 0.51018217 0.25881587
0.01130762 0.62687439 0.25048328
0.13644847 0.62810426 0.25106411
0.26155996 0.62931671 0.25166219
0.38661916 0.63049558 0.25227190
0.51160259 0.63162444 0.25288765
0.63648821 0.63268741 0.25350382
0.76125446 0.63366920 0.25411477
0.88587607 0.63455239 0.25471493
1.00000000 0.63698160 0.26927101
0.01665259 0.75441828 0.25249567
0.14160367 0.75552533 0.25311221
0.26644841 0.75656063 0.25372712
0.39116393 0.75750802 0.25433481
0.51572736 0.75835136 0.25492965
0.64011581 0.75907450 0.25550605
0.76430640 0.75966128 0.25605840
0.88827625 0.76009556 0.25658108
1.00000000 0.76123959 0.28370970
0.02105308 0.88133295 0.25455315
0.14555545 0.88213440 0.25514193
0.26987452 0.88280976 0.25571022
0.39398739 0.88334289 0.25625242
0.51787120 0.88371764 0.25676291
0.64150306 0.88391785 0.25723609
0.76486010 0.88392738 0.25766634
0.88791942 0.88373006 0.25804807
1.00000000 0.88203996 0.30233812
0.04269919 1.00000000 0.26969024
0.16655228 1.00000000 0.27311724
0.28942746 1.00000000 0.27683082
0.41124367 1.00000000 0.28083676
0.53192008 1.00000000 0.28514007
0.65137616 1.00000000 0.28974493
0.76953165 1.00000000 0.29465471
0.88630660 1.00000000 0.29987183
1.00000000 0.99848655 0.32516411
0.00042060 0.00090271 0.37187567
0.12274959 0.00009319 0.37136453
0.24444378 0.00000000 0.36922443
0.36643825 0.00000000 0.36864175
0.48924411 0.00000000 0.36880161
0.61293760 0.00000000 0.36924653
0.73750481 0.00000000 0.36978453
0.86289775 0.00000000 0.37032393
0.98750732 0.00048727 0.37054317
0.00000000 0.12247868 0.36576235
0.12121350 0.12260746 0.37041761
0.24489205 0.12276490 0.37034392
0.36881844 0.12310068 0.37035538
0.49296971 0.12359867 0.37044643
0.61732316 0.12424256 0.37061146
0.74185584 0.12501626 0.37084486
0.86654486 0.12590364 0.37114102
0.99136735 0.12688853 0.37149434
0.00000000 0.24644993 0.36916530
0.12274125 0.24732192 0.37049826
0.24715780 0.24800661 0.37068981
0.37174490 0.24878562 0.37094992
0.49649542 0.24973615 0.37126514
0.62136078 0.25077240 0.37163613
0.74632831 0.25186503 0.37205829
0.87137533 0.25301624 0.37252441
0.99647885 0.25421065 0.37302883
0.00167379 0.37266205 0.37105461
0.12646212 0.37362198 0.37139295
0.25133590 0.37464890 0.37178739
0.37575725 0.37527196 0.37231167
0.50045980 0.37581918 0.37291640
0.62642645 0.37795055 0.37326283
0.75169767 0.37938216 0.37376915
0.87684513 0.38061760 0.37434109
1.00000000 0.38236571 0.37551617
0.00641455 0.49970831 0.37239366
0.13150497 0.50089257 0.37288822
0.25663300 0.50210740 0.37341725
0.38154800 0.50322351 0.37401098
0.50485018 0.50328613 0.37496278
0.63050242 0.50460051 0.37552792
0.75700267 0.50687146 0.37579048
0.88208273 0.50809227 0.37637773
1.00000000 0.51081789 0.38108028
0.01186504 0.62729301 0.37418325
0.13699848 0.62851877 0.37477057
0.26209479 0.62972163 0.37537323
0.38712959 0.63088491 0.37598585
0.51201605 0.63196461 0.37661456
0.63666899 0.63289489 0.37727114
0.76156687 0.63392819 0.37784441
0.88621624 0.63482539 0.37842087
1.00000000 0.63760411 0.38992943
0.01715419 0.75480128 0.37620988
0.14207172 0.75588578 0.37682650
0.26687514 0.75689303 0.37743959
0.39154158 0.75780690 0.37804354
0.51604811 0.75861122 0.37863276
0.64037116 0.75928957 0.37920173
0.76448885 0.75982608 0.37974470
0.88837968 0.76020539 0.38025586
1.00000000 0.76179027 0.40244752
0.02141093 0.88161826 0.37826005
0.14585361 0.88237870 0.37884250
0.27010522 0.88300757 0.37940256
0.39414287 0.88348873 0.37993462
0.51794368 0.88380601 0.38043307
0.64148478 0.88394328 0.38089230
0.76474327 0.88388437 0.38130670
0.88769629 0.88361314 0.38167068
1.00000000 0.88245980 0.41884450
0.04409916 1.00000000 0.39086111
0.16781174 1.00000000 0.39384739
0.29052763 1.00000000 0.39709647
0.41216586 1.00000000 0.40061378
0.53264573 1.00000000 0.40440402
0.65188682 1.00000000 0.40847103
0.76980900 1.00000000 0.41281779
0.88633244 1.00000000 0.41744636
1.00000000 0.99871616 0.43913204
0.00000000 0.00061743 0.49495432
0.12230953 0.00000000 0.49384557
0.24414096 0.00000000 0.49154706
0.36641835 0.00000000 0.49122097
0.48947715 0.00000000 0.49164659
0.61339031 0.00000000 0.49237612
0.73814653 0.00000000 0.49320990
0.86346639 0.00007969 0.49394829
0.98781518 0.00072020 0.49411158
0.00000000 0.12260973 0.48736188
0.12124320 0.12263997 0.49388767
0.24500844 0.12285983 0.49384351
0.36901378 0.12325249 0.49388265
0.49323633 0.12380178 0.49399946
0.61765321 0.12449156 0.49418834
0.74224155 0.12530568 0.49444368
0.86697846 0.12622798 0.49475988
0.99184107 0.12724232 0.49513133
0.00000000 0.24673251 0.49225187
0.12303202 0.24754249 0.49406017
0.24751397 0.24827940 0.49427391
0.37215901 0.24913465 0.49455213
0.49694436 0.25009233 0.49488908
0.62184706 0.25113629 0.49527919
0.74684423 0.25225014 0.49571695
0.87191301 0.25341784 0.49619670
0.99703050 0.25462323 0.49671284
0.00209514 0.37297745 0.49466821
0.12692584 0.37396836 0.49502520
0.25186521 0.37503934 0.49543350
0.37687531 0.37616166 0.49589543
0.50192045 0.37729173 0.49641949
0.62709165 0.37854560 0.49692392
0.75225678 0.37980310 0.49746591
0.87739894 0.38103437 0.49804526
1.00000000 0.38297847 0.49880517
0.00694708 0.50010596 0.49606243
0.13205359 0.50130271 0.49656924
0.25719195 0.50252531 0.49710841
0.38228625 0.50373125 0.49769376
0.50638351 0.50431293 0.49872236
0.63071850 0.50478034 0.49977548
0.75734765 0.50710607 0.49962706
0.88256216 0.50845910 0.50009415
1.00000000 0.51147361 0.50301190
0.01242081 0.62771085 0.49788564
0.13754421 0.62893065 0.49847880
0.26262270 0.63012206 0.49908539
0.38763039 0.63126784 0.49970073
0.51223649 0.63221781 0.50042432
0.63456878 0.63191453 0.50198347
0.75998540 0.63300003 0.50239369
0.88641714 0.63499317 0.50218199
1.00000000 0.63824361 0.51018732
0.01764527 0.75517724 0.49992433
0.14252661 0.75623731 0.50054038
0.26728608 0.75721467 0.50115100
0.39190079 0.75809315 0.50175057
0.51634616 0.75885605 0.50233397
0.64052824 0.75945959 0.50291599
0.76436578 0.75984386 0.50351118
0.88836913 0.76024704 0.50395267
1.00000000 0.76235427 0.52071761
0.02174938 0.88189026 0.50196502
0.14612974 0.88260783 0.50254049
0.27031125 0.88318835 0.50309167
0.39427103 0.88361567 0.50361294
0.51798621 0.88387363 0.50409870
0.64143386 0.88394607 0.50454335
0.76459050 0.88381664 0.50494134
0.88743425 0.88346944 0.50528689
1.00000000 0.88289186 0.53482292
0.04551452 1.00000000 0.51170537
0.16908317 1.00000000 0.51423412
0.29163640 1.00000000 0.51700174
0.41309333 1.00000000 0.52001336
0.53337338 1.00000000 0.52327332
0.65239625 1.00000000 0.52678513
0.77008193 1.00000000 0.53055137
0.88635074 1.00000000 0.53457373
1.00000000 0.99895491 0.55251313
0.00000000 0.00072847 0.61330130
0.12192415 0.00000000 0.61564832
0.24395792 0.00000000 0.61389593
0.36647797 0.00000000 0.61391812
0.48976366 0.00000000 0.61465932
0.61387861 0.00000000 0.61569925
0.73881068 0.00000000 0.61684067
0.86373136 0.00028161 0.61750072
0.98814377 0.00096814 0.61768790
0.00000000 0.12274879 0.60922430
0.12130324 0.12269426 0.61736799
0.24515258 0.12297461 0.61735274
0.36923425 0.12342228 0.61741889
0.49352536 0.12402109 0.61756080
0.61800304 0.12475491 0.61777288
0.74264440 0.12560758 0.61804952
0.86742657 0.12656295 0.61838511
0.99232665 0.12760487 0.61877405
0.00000000 0.24700874 0.61565335
0.12334409 0.24777847 0.61763018
0.24788400 0.24855743 0.61786642
0.37257927 0.24944935 0.61816517
0.49740702 0.25043810 0.61852083
0.62234436 0.25150753 0.61892779
0.74736841 0.25264147 0.61938045
0.87245630 0.25382377 0.61987319
0.99758514 0.25503830 0.62040040
0.00253171 0.37330396 0.61828836
0.12740200 0.37432395 0.61866335
0.25237356 0.37541873 0.61908759
0.37742348 0.37657214 0.61955551
0.50252877 0.37776787 0.62006161
0.62766689 0.37899013 0.62059996
0.75281482 0.38022273 0.62116502
0.87794950 0.38144921 0.62175144
1.00000000 0.38361349 0.62182027
0.00748594 0.50050847 0.61973558
0.13260591 0.50171584 0.62025398
0.25775018 0.50294366 0.62080277
0.38289526 0.50417550 0.62137668
0.50799230 0.50537909 0.62198659
0.63299159 0.50650718 0.62265311
0.75807739 0.50770410 0.62321882
0.88303415 0.50882330 0.62380729
1.00000000 0.51214948 0.62460012
0.01297404 0.62812728 0.62159023
0.13808475 0.62933925 0.62218857
0.26314279 0.63051734 0.62279845
0.38812497 0.63164530 0.62341438
0.51293813 0.63267627 0.62406529
0.63633684 0.63293979 0.62541775
0.75998401 0.63306274 0.62668943
0.88650912 0.63508011 0.62605067
1.00000000 0.63889779 0.63003622
0.01812493 0.75554552 0.62363881
0.14296745 0.75657931 0.62425364
0.26768032 0.75752490 0.62486114
0.39224067 0.75836613 0.62545569
0.51662221 0.75908574 0.62603303
0.64046523 0.75953628 0.62673048
0.76184599 0.75873996 0.62843568
0.88647468 0.75921000 0.62858533
1.00000000 0.76283298 0.63846731
0.02206753 0.88214832 0.62566783
0.14638293 0.88282116 0.62623568
0.27049171 0.88335146 0.62677733
0.39437099 0.88372307 0.62728717
0.51799788 0.88391984 0.62775960
0.64134795 0.88392519 0.62818945
0.76433772 0.88370247 0.62858799
0.88692040 0.88320909 0.62895031
1.00000000 0.88330115 0.65015695
0.04694510 1.00000000 0.63221435
0.17036644 1.00000000 0.63426871
0.29275365 1.00000000 0.63653787
0.41402597 1.00000000 0.63902667
0.53410294 1.00000000 0.64173909
0.65290438 1.00000000 0.64467828
0.77035037 1.00000000 0.64784642
0.88636107 1.00000000 0.65124430
1.00000000 0.99920285 0.66529611
0.00000000 0.00083016 0.73216443
0.12165828 0.00000000 0.73749582
0.24386514 0.00000000 0.73634880
0.36660086 0.00000000 0.73677189
0.49009387 0.00000000 0.73785946
0.61439615 0.00000000 0.73922547
0.73949290 0.00000000 0.74068059
0.86401881 0.00049977 0.74106147
0.98849220 0.00123048 0.74127190
0.00000000 0.12289221 0.73137681
0.12139271 0.12276970 0.74085834
0.24532351 0.12310869 0.74087136
0.36947888 0.12360949 0.74096386
0.49383591 0.12425597 0.74113024
0.61837174 0.12503196 0.74136487
0.74306349 0.12592132 0.74166216
0.86788827 0.12690789 0.74201650
0.99282320 0.12797553 0.74242227
0.00000000 0.24727783 0.73936822
0.12367671 0.24802934 0.74120805
0.24827195 0.24884847 0.74146615
0.37301478 0.24977509 0.74178485
0.49788231 0.25079305 0.74215856
0.62285166 0.25188619 0.74258167
0.74789996 0.25303837 0.74304857
0.87300432 0.25423343 0.74355365
0.99814186 0.25545523 0.74409130
0.00298259 0.37364097 0.74191484
0.12788984 0.37468817 0.74230718
0.25289058 0.37580467 0.74274688
0.37796194 0.37697433 0.74322833
0.50308103 0.37818100 0.74374591
0.62822497 0.37940851 0.74429403
0.75337089 0.38064073 0.74486707
0.87849590 0.38186151 0.74545942
1.00000000 0.38427095 0.74455049
0.00803025 0.50091520 0.74341287
0.13316104 0.50213133 0.74394222
0.25830835 0.50336243 0.74450006
0.38344930 0.50459235 0.74508078
0.50856098 0.50580492 0.74567881
0.63362030 0.50698383 0.74628872
0.75860498 0.50811334 0.74690440
0.88349192 0.50917723 0.74752034
1.00000000 0.51284565 0.74583435
0.01352383 0.62854167 0.74529679
0.13861922 0.62974394 0.74589968
0.26365417 0.63090686 0.74651219
0.38860578 0.63201427 0.74712873
0.51345041 0.63304967 0.74774416
0.63813174 0.63397929 0.74837634
0.76259459 0.63475615 0.74905273
0.88707793 0.63553271 0.74956098
1.00000000 0.63957687 0.74946281
0.01859227 0.75590549 0.74735308
0.14339333 0.75691114 0.74796605
0.26805697 0.75782310 0.74856978
0.39256031 0.75862521 0.74915866
0.51688015 0.75930122 0.74972725
0.64091794 0.75980532 0.75031219
0.76340130 0.75951896 0.75167663
0.88618574 0.75907433 0.75281593
1.00000000 0.76324454 0.75590700
0.02236450 0.88239180 0.74936827
0.14661229 0.88301804 0.74992785
0.27064570 0.88349626 0.75045932
0.39444183 0.88381031 0.75095709
0.51797782 0.88394403 0.75141553
0.64122769 0.88388042 0.75183033
0.76388720 0.88350789 0.75231750
0.88462988 0.88217569 0.75346154
1.00000000 0.88288528 0.76397080
0.04839077 1.00000000 0.75237935
0.17166142 1.00000000 0.75394239
0.29387927 1.00000000 0.75569607
0.41496370 1.00000000 0.75764487
0.53483434 1.00000000 0.75979243
0.65341115 1.00000000 0.76214153
0.77061311 1.00000000 0.76469360
0.88632941 1.00000000 0.76741934
1.00000000 0.99947514 0.77708351
0.00000000 0.00092256 0.85153398
0.12147774 0.00000000 0.85947962
0.24384223 0.00000000 0.85895664
0.36677483 0.00000000 0.85980906
0.49046002 0.00000000 0.86126069
0.61493772 0.00000000 0.86296102
0.73997547 0.00009044 0.86446570
0.86432785 0.00073355 0.86463033
0.98885958 0.00150656 0.86486336
0.00000000 0.12303721 0.85383766
0.12151071 0.12286568 0.86435850
0.24552034 0.12326143 0.86439914
0.36974676 0.12381351 0.86451736
0.49416708 0.12450578 0.86470755
0.61875843 0.12532209 0.86496409
0.74349792 0.12624627 0.86528138
0.86836267 0.12726219 0.86565381
0.99332981 0.12835368 0.86607578
0.00000000 0.24753918 0.86339352
0.12402899 0.24829446 0.86479356
0.24867692 0.24915191 0.86507286
0.37346466 0.25011136 0.86541088
0.49836934 0.25115666 0.86580200
0.62336806 0.25227166 0.86624060
0.74843797 0.25344022 0.86672110
0.87355616 0.25464617 0.86723786
0.99869977 0.25587337 0.86778530
0.00344690 0.37398783 0.86554742
0.12838846 0.37506038 0.86595647
0.25341575 0.37619674 0.86641098
0.37850589 0.37738078 0.86690533
0.50363598 0.37859634 0.86743391
0.62878316 0.37982726 0.86799112
0.75392454 0.38105741 0.86857135
0.87903724 0.38227062 0.86916899
1.00000000 0.38495104 0.86698493
0.00857910 0.50132552 0.86709410
0.13371807 0.50254854 0.86763375
0.25886578 0.50378106 0.86819999
0.38399937 0.50500690 0.86878721
0.50909595 0.50620994 0.86938979
0.63413265 0.50737401 0.87000214
0.75908657 0.50848297 0.87061864
0.88393485 0.50952066 0.87123369
1.00000000 0.51356224 0.86670412
0.01406930 0.62895338 0.86900510
0.13914672 0.63014410 0.86961189
0.26415593 0.63128997 0.87022640
0.38907404 0.63237486 0.87084302
0.51387818 0.63338259 0.87145615
0.63854541 0.63429701 0.87206020
0.76305261 0.63510179 0.87264983
0.88737763 0.63578122 0.87321876
1.00000000 0.64027215 0.86845794
0.01904641 0.75625652 0.87106694
0.14380337 0.75723216 0.87167740
0.26841514 0.75810862 0.87227671
0.39285884 0.75886976 0.87285927
0.51711158 0.75949942 0.87341947
0.64114969 0.75998113 0.87395227
0.76491658 0.76028267 0.87447774
0.88836572 0.76036287 0.87502032
1.00000000 0.76410604 0.87268595
0.02263937 0.88262007 0.87306611
0.14681693 0.88319785 0.87361677
0.27077232 0.88362213 0.87413743
0.39448267 0.88387675 0.87462246
0.51792511 0.88394556 0.87506627
0.64107645 0.88381233 0.87546341
0.76385206 0.88343980 0.87584463
0.88536100 0.88241689 0.87677779
1.00000000 0.88312973 0.87978313
0.04985139 1.00000000 0.87219167
0.17296797 1.00000000 0.87324643
0.29501316 1.00000000 0.87446753
0.41590641 1.00000000 0.87585909
0.53556751 1.00000000 0.87742441
0.65391652 1.00000000 0.87916588
0.77087138 1.00000000 0.88108499
0.88620784 1.00000000 0.88313581
1.00000000 0.99981006 0.88693225
0.00000000 0.00100574 0.97140013
0.12136078 0.00000000 0.98165461
0.24387461 0.00000000 0.98175323
0.36699056 0.00000000 0.98304796
0.49085592 0.00000000 0.98487218
0.61549898 0.00000000 0.98690954
0.74024171 0.00029327 0.98801859
0.86465756 0.00098231 0.98820708
0.98924500 0.00179577 0.98846207
0.00000000 0.12318167 0.97661870
0.12165636 0.12298154 0.98786826
0.24574218 0.12343220 0.98793587
0.37003701 0.12403370 0.98807916
0.49451798 0.12476990 0.98829251
0.61916220 0.12562465 0.98857031
0.74394680 0.12658180 0.98890696
0.86884888 0.12762520 0.98929684
0.99384559 0.12873869 0.98973435
0.00000000 0.24779227 0.98772510
0.12440003 0.24857321 0.98838648
0.24909801 0.24946711 0.98868635
0.37392803 0.25045753 0.98904303
0.49886721 0.25152831 0.98945090
0.62389268 0.25266331 0.98990436
0.74898155 0.25384638 0.99039781
0.87411094 0.25506136 0.99092562
0.99925797 0.25629210 0.99148219
0.00392373 0.37434391 0.98918589
0.12889697 0.37543994 0.98961101
0.25394817 0.37659431 0.99007968
0.37905444 0.37779086 0.99058628
0.50419290 0.37901345 0.99112521
0.62934068 0.38024592 0.99169087
0.75447489 0.38147213 0.99227764
0.87957265 0.38267591 0.99287992
1.00000000 0.38565392 0.98911272
0.00913160 0.50173880 0.99077904
0.13427611 0.50296686 0.99132835
0.25942159 0.50419892 0.99190234
0.38454518 0.50541883 0.99249541
0.50962398 0.50661044 0.99310194
0.63463514 0.50775761 0.99371632
0.75955575 0.50884417 0.99433296
0.88436294 0.50985399 0.99494624
1.00000000 0.51429940 0.98719898
0.01460953 0.62936178 0.99271496
0.13966636 0.63053908 0.99332500
0.26464719 0.63166605 0.99394085
0.38952916 0.63272655 0.99455692
0.51428938 0.63370441 0.99516758
0.63890498 0.63458350 0.99576723
0.76335306 0.63534765 0.99635027
0.88761075 0.63598072 0.99691108
1.00000000 0.64098415 0.98701343
0.01948644 0.75659797 0.99478016
0.14419666 0.75754174 0.99538746
0.26875391 0.75838085 0.99598171
0.39313533 0.75909915 0.99655731
0.51731803 0.75968049 0.99710864
0.64127913 0.76010871 0.99763009
0.76499571 0.76036765 0.99811611
0.88844466 0.76044102 0.99856132
1.00000000 0.76477144 0.98896378
0.02289127 0.88283250 0.99676113
0.14699594 0.88335996 0.99730224
0.27087068 0.88372844 0.99781142
0.39449261 0.88392176 0.99828309
0.51783886 0.88392380 0.99871162
0.64088653 0.88371839 0.99909142
0.76361210 0.88328915 0.99941735
0.88596980 0.88260962 0.99970383
1.00000000 0.88467527 0.99338889
0.05132682 1.00000000 0.99164256
0.17428600 1.00000000 0.99217204
0.29615520 1.00000000 0.99284340
0.41685404 1.00000000 0.99366044
0.53630238 1.00000000 0.99462609
0.65442045 1.00000000 0.99574234
0.77112853 1.00000000 0.99701033
0.88631633 1.00000000 0.99844127
1.00000000 1.00000000 1.00000000
