assets/luts/DB_Copper_Story_Rec709_100.cube
TITLE "Copper Story Rec709 100"
# Red changes fastest. Full-range normalized input.
LUT_3D_SIZE 9
DOMAIN_MIN 0 0 0
DOMAIN_MAX 1 1 1
0.00700000 0.00700000 0.00700000
0.11524612 0.00155504 0.00204584
0.21576977 0.00000000 0.00112626
0.31636152 0.00000000 0.00141437
0.42238392 0.00000000 0.00146045
0.53356709 0.00000000 0.00133190
0.64955585 0.00000000 0.00103256
0.76149218 0.00229569 0.00285566
0.87412146 0.00550651 0.00545412
0.00000000 0.10491878 0.00510371
0.10325892 0.10628439 0.00000000
0.21213229 0.10745002 0.00000000
0.32354021 0.10973012 0.00102368
0.43493078 0.11260146 0.00372166
0.54790596 0.11609602 0.00655947
0.66178741 0.12031451 0.01000326
0.77647793 0.12518554 0.01400069
0.89188537 0.13063622 0.01849583
0.00000000 0.21849648 0.00598492
0.10841653 0.22303644 0.00443140
0.22192305 0.22673333 0.00657244
0.33618837 0.23118105 0.01093887
0.45096916 0.23633325 0.01556747
0.56660438 0.24198026 0.02024495
0.68284115 0.24810407 0.02532892
0.79957706 0.25463514 0.03077838
0.91671993 0.26150059 0.03653748
0.01030854 0.34226081 0.01286229
0.12553010 0.34756114 0.01722748
0.24140065 0.35338818 0.02204615
0.35783089 0.35966824 0.02726591
0.47472590 0.36632960 0.03284091
0.59199375 0.37329881 0.03870009
0.70954317 0.38050283 0.04479143
0.82728174 0.38786886 0.05106020
0.94511730 0.39532400 0.05745053
0.03288227 0.47128337 0.02926383
0.14992362 0.47806513 0.03494428
0.26730484 0.48512818 0.04089366
0.38493379 0.49239961 0.04705606
0.50271833 0.49980653 0.05337556
0.62056633 0.50727601 0.05979626
0.73838563 0.51473516 0.06626224
0.85608411 0.52211107 0.07271760
0.97356962 0.52933082 0.07910643
0.06034503 0.60431436 0.04934152
0.17816334 0.61175249 0.05570434
0.29601156 0.61922665 0.06214799
0.41379754 0.62666393 0.06861658
0.53142915 0.63399143 0.07505419
0.64881425 0.64113624 0.08140491
0.76586069 0.64802544 0.08761283
0.88247634 0.65458615 0.09362204
0.99856906 0.66074543 0.09937663
0.08918898 0.73857816 0.07096681
0.20674151 0.74584758 0.07737926
0.32401398 0.75290778 0.08368446
0.44091426 0.75968582 0.08982651
0.55735019 0.76610883 0.09574949
0.67322965 0.77210387 0.10139750
0.78846049 0.77759806 0.10671463
0.90295058 0.78251847 0.11164496
1.00000000 0.78682386 0.16472224
0.11590628 0.87129915 0.09201116
0.23215029 0.87757478 0.09784050
0.34780428 0.88339592 0.10337452
0.46277610 0.88868966 0.10855730
0.57697362 0.89338308 0.11333293
0.69030470 0.89740329 0.11764550
0.80267720 0.90067737 0.12143910
0.91399898 0.90313242 0.12465782
1.00000000 0.89974930 0.24743642
0.13698908 0.99970170 0.11034601
0.26068601 1.00000000 0.12728315
0.38130960 1.00000000 0.14615976
0.49776049 1.00000000 0.16620865
0.60968125 1.00000000 0.18743291
0.71671541 1.00000000 0.20983273
0.81850758 1.00000000 0.23340518
0.91470351 1.00000000 0.25814398
1.00000000 0.99549066 0.34328414
0.00486975 0.00545745 0.11503057
0.10917370 0.00170481 0.11213639
0.21267267 0.00000000 0.10924468
0.31557556 0.00000000 0.10801875
0.42324162 0.00000000 0.10844162
0.53569685 0.00000000 0.10943263
0.65057460 0.00062301 0.11074218
0.76253605 0.00329725 0.11289400
0.87549311 0.00677163 0.11571265
0.00000000 0.10541036 0.10679018
0.10280087 0.10700052 0.10817462
0.21768013 0.10653444 0.10731635
0.32527044 0.11018857 0.11086790
0.43612213 0.11369319 0.11383566
0.54938922 0.11745092 0.11689343
0.66355572 0.12189921 0.12053152
0.77850004 0.12697527 0.12470425
0.89412999 0.13260621 0.12935570
0.00000000 0.21998625 0.11316225
0.10938910 0.22425498 0.11431878
0.22405037 0.22725406 0.11155645
0.34196332 0.23098337 0.11568220
0.45359752 0.23798263 0.12584547
0.56892679 0.24400804 0.13115376
0.68533885 0.25028003 0.13637139
0.80222329 0.25693284 0.14193228
0.91948341 0.26389526 0.14778382
0.01226474 0.34399726 0.12352006
0.12771326 0.34948534 0.12804270
0.24367990 0.35548150 0.13277946
0.36033793 0.36179442 0.13728276
0.47754732 0.36858443 0.14361297
0.59480051 0.37571877 0.14996164
0.71241616 0.38298983 0.15613319
0.83019797 0.39039432 0.16244956
0.94804551 0.39786314 0.16886845
0.03549121 0.47355042 0.14038931
0.15265831 0.48043588 0.14616737
0.27013388 0.48757790 0.15219521
0.38782460 0.49490361 0.15841384
0.50564165 0.50233945 0.16477058
0.62349129 0.50981383 0.17121871
0.74127974 0.51725304 0.17768849
0.85891622 0.52458409 0.18412754
0.97630844 0.53173423 0.19048105
0.06325259 0.60683182 0.16071983
0.18109139 0.61429036 0.16711637
0.29892880 0.62176018 0.17357476
0.41667269 0.62916835 0.18003910
0.53423092 0.63644198 0.18645346
0.65151134 0.64350816 0.19276196
0.76842181 0.65029398 0.19890867
0.88487021 0.65672653 0.20483767
1.00000000 0.66283323 0.21175021
0.09204104 0.74106583 0.18238307
0.20950879 0.74827237 0.18876536
0.32666520 0.75524492 0.19502143
0.44341811 0.76191057 0.20109535
0.55967540 0.76819641 0.20693122
0.67534491 0.77402954 0.21247313
0.79033452 0.77933704 0.21766516
0.90455208 0.78404602 0.22245142
1.00000000 0.78875727 0.27282669
0.11834872 0.87347682 0.20325048
0.23440268 0.87960629 0.20898580
0.34983534 0.88525649 0.21440680
0.46455454 0.89035454 0.21945758
0.57846814 0.89482751 0.22408222
0.69148402 0.89860250 0.22822482
0.80351002 0.90160661 0.23182945
0.91445401 0.90376693 0.23484022
1.00000000 0.90111128 0.34715618
0.14201772 1.00000000 0.22409965
0.26594644 1.00000000 0.24000871
0.38597935 1.00000000 0.25696773
0.50175858 1.00000000 0.27498109
0.61292723 1.00000000 0.29405032
0.71912941 1.00000000 0.31417391
0.82001033 1.00000000 0.33534715
0.91521639 1.00000000 0.35756186
1.00000000 0.99600587 0.43331344
0.00293575 0.00407791 0.22305300
0.10752550 0.00084838 0.22037758
0.21072315 0.00000000 0.21567895
0.31539670 0.00000000 0.21464620
0.42444677 0.00000000 0.21609189
0.53803532 0.00000000 0.21848997
0.65138485 0.00143695 0.22062471
0.76369475 0.00439109 0.22300925
0.87696895 0.00812062 0.22604163
0.00000000 0.10600425 0.20900972
0.10252209 0.10768105 0.21831794
0.21331613 0.10908447 0.21962351
0.32488282 0.11156980 0.22144629
0.43737869 0.11488970 0.22404147
0.55097274 0.11888666 0.22729553
0.66541373 0.12355632 0.23112145
0.78060122 0.12882900 0.23546302
0.89644306 0.13463179 0.24026434
0.00000000 0.22146835 0.22179126
0.11107289 0.22549282 0.22515759
0.22515035 0.22902100 0.22809204
0.34401858 0.23198766 0.23062468
0.45656568 0.23948533 0.23668123
0.57133119 0.24608047 0.24210698
0.68789053 0.25250010 0.24745382
0.80491285 0.25926624 0.25311970
0.92227958 0.26631723 0.25905722
0.01430291 0.34579997 0.23423481
0.12996730 0.35146698 0.23891344
0.24568752 0.35759677 0.24354583
0.36192252 0.36269585 0.24393999
0.48273803 0.36874150 0.24991577
0.59804051 0.37793540 0.26084942
0.71531120 0.38549087 0.26749048
0.83312177 0.39292720 0.27385074
0.95097067 0.40040129 0.28029175
0.03814637 0.47585546 0.25155007
0.15542859 0.48283622 0.25741927
0.27298306 0.49004936 0.26351583
0.39057785 0.49742025 0.26959431
0.50832545 0.50475244 0.27525258
0.62646827 0.51225858 0.28227835
0.74416258 0.51975441 0.28909916
0.86172018 0.52703624 0.29552758
0.97900847 0.53410837 0.30183936
0.06617062 0.60935899 0.27211172
0.18401928 0.61682954 0.27853553
0.30183526 0.62428659 0.28500221
0.41952629 0.63165727 0.29145572
0.53699866 0.63886869 0.29783735
0.65416409 0.64584734 0.30409403
0.77092970 0.65252162 0.31017834
0.88720016 0.65881777 0.31602174
1.00000000 0.66513002 0.32543929
0.09486782 0.74353492 0.29379121
0.21224017 0.75067018 0.30013691
0.32926987 0.75754668 0.30633738
0.44586480 0.76409152 0.31233673
0.56193281 0.77023179 0.31807904
0.67738176 0.77589459 0.32350840
0.79211951 0.78100700 0.32856890
0.90605392 0.78549613 0.33320463
1.00000000 0.79073969 0.37921086
0.12073012 0.87560764 0.31446000
0.23658342 0.88158252 0.32009485
0.35178411 0.88705338 0.32539639
0.46624006 0.89194732 0.33030872
0.57985913 0.89619143 0.33477592
0.69254917 0.89971281 0.33874209
0.80421805 0.90243854 0.34215132
0.91477362 0.90429571 0.34494769
1.00000000 0.90250658 0.44490384
0.14787240 1.00000000 0.33729501
0.27127786 1.00000000 0.35132327
0.39070627 1.00000000 0.36628438
0.50580026 1.00000000 0.38218116
0.61620349 1.00000000 0.39901351
0.72156066 1.00000000 0.41677822
0.82151760 1.00000000 0.43546872
0.91572135 1.00000000 0.45507492
1.00000000 0.99653685 0.52113736
0.00118385 0.00284075 0.33126014
0.10629853 0.00003160 0.32892379
0.20957355 0.00000000 0.32159897
0.31566687 0.00000000 0.32172121
0.42592260 0.00000000 0.32459628
0.54053961 0.00000000 0.32858917
0.65231695 0.00234872 0.33058839
0.76496466 0.00557436 0.33319922
0.87854539 0.00955063 0.33643889
0.00000000 0.10666437 0.31219660
0.10282826 0.10811069 0.32781935
0.21375160 0.10995074 0.32928194
0.32575848 0.11266102 0.33146343
0.43875556 0.11616887 0.33430886
0.55265297 0.12040036 0.33776354
0.66735783 0.12528298 0.34177084
0.78277788 0.13074386 0.34627481
0.89882098 0.13671010 0.35121955
0.00000000 0.22293547 0.33188182
0.11266430 0.22685933 0.33550040
0.22686261 0.23131311 0.33921614
0.34204969 0.23626548 0.34353552
0.45765889 0.24200201 0.34807267
0.57375550 0.24821984 0.35311907
0.69049250 0.25476144 0.35857406
0.80764212 0.26163250 0.36433845
0.92510485 0.26876364 0.37035551
0.01641944 0.34766612 0.34500434
0.13230139 0.35350225 0.34983495
0.24860805 0.35977754 0.35508819
0.36482043 0.36549779 0.36065948
0.48535085 0.37037178 0.36563654
0.60149437 0.37995317 0.37231727
0.71823548 0.38799656 0.37886377
0.83604958 0.39546463 0.38526156
0.95388917 0.40293561 0.39171824
0.04084413 0.47819565 0.36274391
0.15823085 0.48526329 0.36869782
0.27585311 0.49253874 0.37486168
0.39289197 0.49990148 0.38086013
0.50839794 0.50568634 0.38351940
0.63025888 0.51240391 0.38994127
0.74732161 0.52200400 0.40018593
0.86449560 0.52946282 0.40691328
0.98166609 0.53645038 0.41317917
0.06909550 0.61189301 0.38351500
0.18694340 0.61936715 0.38995964
0.30472731 0.62680304 0.39642816
0.42234921 0.63412831 0.40286173
0.53953820 0.64126662 0.40904506
0.65636650 0.64802477 0.41461064
0.77338749 0.65461796 0.42109769
0.88946749 0.66085305 0.42716108
1.00000000 0.66748981 0.43763553
0.09766570 0.74598258 0.40518905
0.21493202 0.75303813 0.41149170
0.33182441 0.75981018 0.41763015
0.44825073 0.76622580 0.42354847
0.56411868 0.77221211 0.42919065
0.67933436 0.77769629 0.43449818
0.79380985 0.78260479 0.43941767
0.90745251 0.78686582 0.44390139
1.00000000 0.79277087 0.48383599
0.12304689 0.87768873 0.42563753
0.23868889 0.88350062 0.43116545
0.35364700 0.88878373 0.43634109
0.46782907 0.89346516 0.44110852
0.58114297 0.89747200 0.44541184
0.69349655 0.90073135 0.44919514
0.80479767 0.90317029 0.45240250
0.91495420 0.90471592 0.45497803
1.00000000 0.90393465 0.54064383
0.15381196 1.00000000 0.44911838
0.27668022 1.00000000 0.46118592
0.39549041 1.00000000 0.47406847
0.50988570 1.00000000 0.48776728
0.61951032 1.00000000 0.50228059
0.72400956 1.00000000 0.51760339
0.82302991 1.00000000 0.53372725
0.91621907 1.00000000 0.55064009
1.00000000 0.99708270 0.60672371
0.00000000 0.00211031 0.43486916
0.10462395 0.00000000 0.43298304
0.20898603 0.00000000 0.42771556
0.31627748 0.00000000 0.42952474
0.42761176 0.00000000 0.43408250
0.54138624 0.00066550 0.43846617
0.65336728 0.00335546 0.44063106
0.76634218 0.00684420 0.44346171
0.88021880 0.01105880 0.44690222
0.00000000 0.10737518 0.41656710
0.10327586 0.10863368 0.43746131
0.21457693 0.11077775 0.43917373
0.32693046 0.11376696 0.44158747
0.44024431 0.11752839 0.44464662
0.55442634 0.12198915 0.44829527
0.66938441 0.12707632 0.45247752
0.78502638 0.13271701 0.45713744
0.90126012 0.13883829 0.46221914
0.00062092 0.22428080 0.44262942
0.11426151 0.22830528 0.44590967
0.22873673 0.23300250 0.44975920
0.34395494 0.23829912 0.45412295
0.45982345 0.24412314 0.45894257
0.57624893 0.25040184 0.46416305
0.69314120 0.25706120 0.46972987
0.81040750 0.26402875 0.47558634
0.92795560 0.27123164 0.48167649
0.01861071 0.34959283 0.45582645
0.13469267 0.35559067 0.46079901
0.25129777 0.36201578 0.46615422
0.36831143 0.36876706 0.47190013
0.48582355 0.37566317 0.47802525
0.60346554 0.38303170 0.48401248
0.72113602 0.39053070 0.49026122
0.83897770 0.39800380 0.49667984
0.95679741 0.40546322 0.50314572
0.04358090 0.48056812 0.47396865
0.16106150 0.48771424 0.48000081
0.27875576 0.49504265 0.48622624
0.39639568 0.50246045 0.49264348
0.51258312 0.50886730 0.49978418
0.63276635 0.51414388 0.50601769
0.75057606 0.52401198 0.51187536
0.86724782 0.53185441 0.51828656
0.98427772 0.53875740 0.52449829
0.07202364 0.61443103 0.49492749
0.18986014 0.62190036 0.50138651
0.30760138 0.62930667 0.50785042
0.42514304 0.63657775 0.51426261
0.54148812 0.64358683 0.52038679
0.65460673 0.64868527 0.52392945
0.77552704 0.65442193 0.52949155
0.89189323 0.66260394 0.53800536
1.00000000 0.66991151 0.54829755
0.10043109 0.74840595 0.51657441
0.21758075 0.75537340 0.52282756
0.33432519 0.76203257 0.52889752
0.45057225 0.76831057 0.53472837
0.56622337 0.77413509 0.54026176
0.68098877 0.77943455 0.54530080
0.79494198 0.78402883 0.54948565
0.90874123 0.78807707 0.55423367
1.00000000 0.79484788 0.58665958
0.12529541 0.87971725 0.53678087
0.24071549 0.88535774 0.54219543
0.35542038 0.89044469 0.54723870
0.46931795 0.89490520 0.55185479
0.58231605 0.89866637 0.55598778
0.69432239 0.90165530 0.55958164
0.80524322 0.90379928 0.56257783
0.91499063 0.90502468 0.56492288
1.00000000 0.90539479 0.63434044
0.15983630 1.00000000 0.55952904
0.28215349 1.00000000 0.56955562
0.40033185 1.00000000 0.58027865
0.51401509 1.00000000 0.59169777
0.62284802 1.00000000 0.60380948
0.72647656 1.00000000 0.61660698
0.82454785 1.00000000 0.63007989
0.91671027 1.00000000 0.64421411
1.00000000 0.99764247 0.69004080
0.00000000 0.00246713 0.52627510
0.10351641 0.00000000 0.53699155
0.20880475 0.00000000 0.53444693
0.31715104 0.00000000 0.53824400
0.42947060 0.00000000 0.54463803
0.54220334 0.00148493 0.54835325
0.65453223 0.00445433 0.55075050
0.76782369 0.00819775 0.55379453
0.88198559 0.01264227 0.55742944
0.00000000 0.10811927 0.52225387
0.10385546 0.10926252 0.54719074
0.21552429 0.11170178 0.54914760
0.32821428 0.11496141 0.55178680
0.44183330 0.11896852 0.55505241
0.55628921 0.12365019 0.55888855
0.67148987 0.12893351 0.56323929
0.78734314 0.13474558 0.56804872
0.90375688 0.14101350 0.57326093
0.00201947 0.22556757 0.55290612
0.11595384 0.22982869 0.55638591
0.23069155 0.23473784 0.56041587
0.34614047 0.24022210 0.56494007
0.46220845 0.24620857 0.56990261
0.57880336 0.25262434 0.57524759
0.69583305 0.25939650 0.58091908
0.81320538 0.26645215 0.58686118
0.93082822 0.27371838 0.59301798
0.02087312 0.35157726 0.56669895
0.13714360 0.35772846 0.57180720
0.25390746 0.36428242 0.57727752
0.37107252 0.37116619 0.58305416
0.48854697 0.37830639 0.58908220
0.60623860 0.38563112 0.59530293
0.72405399 0.39306763 0.60166140
0.84190257 0.40054183 0.60810337
0.95969177 0.40798128 0.61457203
0.04635305 0.48297001 0.58522209
0.16391690 0.49018621 0.59132605
0.28166417 0.49755989 0.59760401
0.39950067 0.50501785 0.60400197
0.51728868 0.51245631 0.61054488
0.63508691 0.51969287 0.61724555
0.75272795 0.52707263 0.62343684
0.86993202 0.53423518 0.62964924
0.98683969 0.54102659 0.63579453
0.07495141 0.61697019 0.60634698
0.19276590 0.62442629 0.61281393
0.31045383 0.63179463 0.61926679
0.42792187 0.63900231 0.62565006
0.54486341 0.64595550 0.63199269
0.65921042 0.65156589 0.63937335
0.77735445 0.65576103 0.64543385
0.89433026 0.66408170 0.64945483
1.00000000 0.67239125 0.65738868
0.10316037 0.75080217 0.62794508
0.22018275 0.75767310 0.63414229
0.33676861 0.76421101 0.64013732
0.45282581 0.77034297 0.64587426
0.56824908 0.77599692 0.65129737
0.68196167 0.78107052 0.65625087
0.79167900 0.78415236 0.65880488
0.90954367 0.78724687 0.66229949
1.00000000 0.79682180 0.68758083
0.12747207 0.88169033 0.64788784
0.24265960 0.88715101 0.65318258
0.35710066 0.89203340 0.65808705
0.47070309 0.89626459 0.66254535
0.58337476 0.89977167 0.66650155
0.69501723 0.90248256 0.66989734
0.80535739 0.90433797 0.67253065
0.91453277 0.90518200 0.67400634
1.00000000 0.90683913 0.72575495
0.16594532 1.00000000 0.66848611
0.28769770 1.00000000 0.67639119
0.40523072 1.00000000 0.68487342
0.51818869 1.00000000 0.69393077
0.62621699 1.00000000 0.70355800
0.72896218 1.00000000 0.71374640
0.82607200 1.00000000 0.72448364
0.91719506 1.00000000 0.73575305
1.00000000 0.99821543 0.77105229
0.00000000 0.00280511 0.61987966
0.10281613 0.00000000 0.64169178
0.20892635 0.00000000 0.64205635
0.31823090 0.00000000 0.64800461
0.43146524 0.00000000 0.65632150
0.54314208 0.00240203 0.65832137
0.65580819 0.00564247 0.66094454
0.76940559 0.00963216 0.66419551
0.88384213 0.01429820 0.66801835
0.00000000 0.10888345 0.62934634
0.10456347 0.10999438 0.65700532
0.21658942 0.11272042 0.65920017
0.32960525 0.11624208 0.66205837
0.44351882 0.12048644 0.66552401
0.55823798 0.12538061 0.66954117
0.67367060 0.13085168 0.67405395
0.78972454 0.13682673 0.67900644
0.90630766 0.14323287 0.68434273
0.00352129 0.22693747 0.66325271
0.11773882 0.23142685 0.66692561
0.23272839 0.23653948 0.67112968
0.34839788 0.24220247 0.67580902
0.46465514 0.24834291 0.68090771
0.58140803 0.25488789 0.68636984
0.69856441 0.26176450 0.69213950
0.81603215 0.26889983 0.69816078
0.93371911 0.27622099 0.70437778
0.02320306 0.35361655 0.67761967
0.13965142 0.35991271 0.68285714
0.25656188 0.36658686 0.68843771
0.37384229 0.37356610 0.69430545
0.49140050 0.38077753 0.70040445
0.60914438 0.38814823 0.70667882
0.72698179 0.39560531 0.71307263
0.84482059 0.40307584 0.71952997
0.96256864 0.41048694 0.72599495
0.04915698 0.48539848 0.69650205
0.16679345 0.49267633 0.70267137
0.28458205 0.50008692 0.70899569
0.40243063 0.50755734 0.71541910
0.52024699 0.51501463 0.72188588
0.63793912 0.52238541 0.72834124
0.75541534 0.52959782 0.73472608
0.87258208 0.53657908 0.74098556
0.98934842 0.54325509 0.74706570
0.07787522 0.61950764 0.71777130
0.19565706 0.62694211 0.72423973
0.31328106 0.63426405 0.73067509
0.43065508 0.64140056 0.73702145
0.54768454 0.64827840 0.74322515
0.66421449 0.65479432 0.74932532
0.78028896 0.66076990 0.75534928
0.89587128 0.66653857 0.76051686
1.00000000 0.67494497 0.76485873
0.10584993 0.75316839 0.73929889
0.22273440 0.75993440 0.74543370
0.33915106 0.76634262 0.75134735
0.45500778 0.77232014 0.75698392
0.57021112 0.77779410 0.76228800
0.68443886 0.78267658 0.76730509
0.79547433 0.78602995 0.77333423
0.91020454 0.78768032 0.77755077
1.00000000 0.79871002 0.78699422
0.12957327 0.88360513 0.75895626
0.24451762 0.88887760 0.76412473
0.35868421 0.89354701 0.76888394
0.47198089 0.89754046 0.77317800
0.58431551 0.90078504 0.77695098
0.69558322 0.90320914 0.78014712
0.80479827 0.90477026 0.78257747
0.91074485 0.90454735 0.78178045
1.00000000 0.90711358 0.81325766
0.17213898 1.00000000 0.77594861
0.29331291 1.00000000 0.78165134
0.41018722 1.00000000 0.78781115
0.52240679 1.00000000 0.79442431
0.62961763 1.00000000 0.80148376
0.73146695 1.00000000 0.80897890
0.82760124 1.00000000 0.81689524
0.91761878 1.00000000 0.82518679
1.00000000 0.99883833 0.84900592
0.00000000 0.00312363 0.71564783
0.10240326 0.00000000 0.74739551
0.20927956 0.00000000 0.75071255
0.31947476 0.00000000 0.75889006
0.43219827 0.00070829 0.76619042
0.54419885 0.00341396 0.76836834
0.65719157 0.00691702 0.77121099
0.77108427 0.01114458 0.77466243
0.88578483 0.01602372 0.77866678
0.00000000 0.10965765 0.73790333
0.10539627 0.11082642 0.76690284
0.21776872 0.11383083 0.76932924
0.33109976 0.11760609 0.77240000
0.44529724 0.12207931 0.77605921
0.56026903 0.12717757 0.78025096
0.67592298 0.13282797 0.78491934
0.79216697 0.13895760 0.79000843
0.90890884 0.14549355 0.79546234
0.00512279 0.22838767 0.77366701
0.11961283 0.23309689 0.77752657
0.23484364 0.23840460 0.78189831
0.35072307 0.24423791 0.78672633
0.46715898 0.25052390 0.79195472
0.58405923 0.25718968 0.79752756
0.70133169 0.26416233 0.80338894
0.81888421 0.27136895 0.80948296
0.93662465 0.27873662 0.81575370
0.02559691 0.35570785 0.78858640
0.14221254 0.36214054 0.79394666
0.25925897 0.36892648 0.79963102
0.37664405 0.37599275 0.80558356
0.49427565 0.38326644 0.81174839
0.61206163 0.39067466 0.81806959
0.72990984 0.39814448 0.82449125
0.84772815 0.40560300 0.83095745
0.96542443 0.41297733 0.83741230
0.05198908 0.48785067 0.80780633
0.16968755 0.49518177 0.81403455
0.28750685 0.50262085 0.82039880
0.40535485 0.51009500 0.82684315
0.52313940 0.51753131 0.83331169
0.64076836 0.52485688 0.83974852
0.75814959 0.53199879 0.84609772
0.87519096 0.53888415 0.85230338
0.99180032 0.54544003 0.85830960
0.08079145 0.62204051 0.82919825
0.19853002 0.62944495 0.83566172
0.31607946 0.63671209 0.84207312
0.43334762 0.64376904 0.84837654
0.55024238 0.65054288 0.85451606
0.66667150 0.65696068 0.86043599
0.78254285 0.66294905 0.86608163
0.89776512 0.66843611 0.87139359
1.00000000 0.67755874 0.87067221
0.10849616 0.75550176 0.85063363
0.22523209 0.76215444 0.85669961
0.34146893 0.76842456 0.86252543
0.45711453 0.77423923 0.86805519
0.57207675 0.77952553 0.87323297
0.68626088 0.78421031 0.87800528
0.79950899 0.78819451 0.88241642
0.91187889 0.79130958 0.88648928
1.00000000 0.80131599 0.88407051
0.13159539 0.88545878 0.86998392
0.24628594 0.89053463 0.87501967
0.36016744 0.89498265 0.87962719
0.47314773 0.89872996 0.88375055
0.58513468 0.90170364 0.88733385
0.69603491 0.90383087 0.89032167
0.80554964 0.90503763 0.89274993
0.91214686 0.90469586 0.89557403
1.00000000 0.90827171 0.90343902
0.17841730 1.00000000 0.88187542
0.29899923 1.00000000 0.88529462
0.41520156 1.00000000 0.88905005
0.52666976 1.00000000 0.89313624
0.63305045 1.00000000 0.89754426
0.73399152 1.00000000 0.90226156
0.82913837 1.00000000 0.90727233
0.91791494 1.00000000 0.91253194
1.00000000 0.99959623 0.92221157
0.00000000 0.00342212 0.81354409
0.10220185 0.00000000 0.85428531
0.20981366 0.00000000 0.86052378
0.32085034 0.00000000 0.87095433
0.43302220 0.00153321 0.87608204
0.54537005 0.00451785 0.87849198
0.65867874 0.00827513 0.88154765
0.77285613 0.01273215 0.88519313
0.88781008 0.01781599 0.88937252
0.00000000 0.11043400 0.84796146
0.10635025 0.11175576 0.87688113
0.21905857 0.11503014 0.87953263
0.33269419 0.11905060 0.88280950
0.44716496 0.12374426 0.88665583
0.56237875 0.12903821 0.89101571
0.67824342 0.13485953 0.89583324
0.79466682 0.14113532 0.90105250
0.91155681 0.14779268 0.90661758
0.00682034 0.22991531 0.88414683
0.12157228 0.23483595 0.88818660
0.23703370 0.24033033 0.89271957
0.35311244 0.24632555 0.89768982
0.46971638 0.25274870 0.90304145
0.58675337 0.25952686 0.90871855
0.70413127 0.26658715 0.91466521
0.82175794 0.27385663 0.92082551
0.93954124 0.28126243 0.92714355
0.02805108 0.35784829 0.89959695
0.14482334 0.36440912 0.90507355
0.26199511 0.37129844 0.91085526
0.37947424 0.37844332 0.91688617
0.49716860 0.38577088 0.92311037
0.61498605 0.39320819 0.92947195
0.73283444 0.40068235 0.93591501
0.85062164 0.40812045 0.94238363
0.96825551 0.41544960 0.94882190
0.05484575 0.49032371 0.91913274
0.17259558 0.49769966 0.92541343
0.29043496 0.50515883 0.93181115
0.40827174 0.51262830 0.93826998
0.52601379 0.52003518 0.94473402
0.64356895 0.52730655 0.95114736
0.76084510 0.53436951 0.95745409
0.87775009 0.54115115 0.96359829
0.99419178 0.54757857 0.96952406
0.08369649 0.62456596 0.94062565
0.20138116 0.63193195 0.94707770
0.31884541 0.63913588 0.95345870
0.43599710 0.64610487 0.95971273
0.55274409 0.65276599 0.96578388
0.66899423 0.65904634 0.97161624
0.78465539 0.66487302 0.97715390
0.89963543 0.67017311 0.98234096
1.00000000 0.68023303 0.97479293
0.11109546 0.75779942 0.96194713
0.22767223 0.76433035 0.96793782
0.34371861 0.77045398 0.97366936
0.45914247 0.77609738 0.97908585
0.57385166 0.78118767 0.98413138
0.68775404 0.78565192 0.98875004
0.80075738 0.78941720 0.99288612
0.91276961 0.79241018 0.99648493
1.00000000 0.80364644 0.97925214
0.13353483 0.88724844 0.98096863
0.24796095 0.89211925 0.98586523
0.36154673 0.89633748 0.99031459
0.47420001 0.89983024 0.99426082
0.58582866 0.90252460 0.99764799
0.69687848 0.90423019 1.00000000
0.80757611 0.90490607 1.00000000
0.91361149 0.90546772 1.00000000
1.00000000 0.91143753 0.98823446
0.18478032 1.00000000 0.98622531
0.30475684 1.00000000 0.98727946
0.42027403 1.00000000 0.98854820
0.53097798 1.00000000 0.99002426
0.63651597 1.00000000 0.99169681
0.73653655 1.00000000 0.99355128
0.83068927 1.00000000 0.99556931
0.91857914 1.00000000 0.99774697
1.00000000 1.00000000 1.00000000
