assets/luts/DB_Copper_Story_Rec709_50.cube
TITLE "Copper Story Rec709 50"
# Red changes fastest. Full-range normalized input.
LUT_3D_SIZE 9
DOMAIN_MIN 0 0 0
DOMAIN_MAX 1 1 1
0.00350000 0.00350000 0.00350000
0.12012306 0.00077752 0.00102292
0.23288488 0.00000000 0.00056313
0.34568076 0.00000000 0.00070718
0.46119196 0.00000000 0.00073023
0.57928355 0.00000000 0.00066595
0.69977793 0.00000000 0.00051628
0.81824609 0.00114785 0.00142783
0.93706073 0.00275326 0.00272706
0.00000000 0.11495939 0.00255186
0.11412946 0.11564219 0.00000000
0.23106615 0.11622501 0.00000000
0.34927010 0.11736506 0.00051184
0.46746539 0.11880073 0.00186083
0.58645298 0.12054801 0.00327973
0.70589371 0.12265725 0.00500163
0.82573897 0.12509277 0.00700034
0.94594269 0.12781811 0.00924791
0.00000000 0.23424824 0.00299246
0.11670826 0.23651822 0.00221570
0.23596153 0.23836666 0.00328622
0.35559418 0.24059052 0.00546943
0.47548458 0.24316663 0.00778373
0.59580219 0.24599013 0.01012248
0.71642058 0.24905203 0.01266446
0.83728853 0.25231757 0.01538919
0.95835997 0.25575030 0.01826874
0.00515427 0.35863041 0.00643114
0.12526505 0.36128057 0.00861374
0.24570032 0.36419409 0.01102307
0.36641544 0.36733412 0.01363295
0.48736295 0.37066480 0.01642045
0.60849688 0.37414941 0.01935005
0.72977159 0.37775141 0.02239571
0.85114087 0.38143443 0.02553010
0.97255865 0.38516200 0.02872527
0.01644113 0.48564168 0.01463192
0.13746181 0.48903256 0.01747214
0.25865242 0.49256409 0.02044683
0.37996690 0.49619981 0.02352803
0.50135917 0.49990326 0.02668778
0.62278316 0.50363801 0.02989813
0.74419282 0.50736758 0.03313112
0.86554206 0.51105553 0.03635880
0.98678481 0.51466541 0.03955321
0.03017252 0.61465718 0.02467076
0.15158167 0.61837625 0.02785217
0.27300578 0.62211333 0.03107400
0.39439877 0.62583197 0.03430829
0.51571457 0.62949572 0.03752709
0.63690712 0.63306812 0.04070245
0.75793034 0.63651272 0.04380641
0.87873817 0.63979307 0.04681102
0.99928453 0.64287272 0.04968831
0.04459449 0.74428908 0.03548341
0.16587076 0.74792379 0.03868963
0.28700699 0.75145389 0.04184223
0.40795713 0.75484291 0.04491325
0.52867510 0.75805441 0.04787475
0.64911483 0.76105194 0.05069875
0.76923025 0.76379903 0.05335731
0.88897529 0.76625924 0.05582248
1.00000000 0.76841193 0.08236112
0.05795314 0.87314957 0.04600558
0.17857514 0.87628739 0.04892025
0.29890214 0.87919796 0.05168726
0.41888805 0.88184483 0.05427865
0.53848681 0.88419154 0.05666646
0.65765235 0.88620164 0.05882275
0.77633860 0.88783868 0.06071955
0.89449949 0.88906621 0.06232891
1.00000000 0.88737465 0.12371821
0.06849454 0.99985085 0.05517300
0.19284300 1.00000000 0.06364157
0.31565480 1.00000000 0.07307988
0.43638025 1.00000000 0.08310432
0.55484062 1.00000000 0.09371645
0.67085770 1.00000000 0.10491637
0.78425379 1.00000000 0.11670259
0.89485175 1.00000000 0.12907199
1.00000000 0.99774533 0.17164207
0.00243487 0.00272872 0.12001529
0.11708685 0.00085240 0.11856819
0.23133634 0.00000000 0.11712234
0.34528778 0.00000000 0.11650937
0.46162081 0.00000000 0.11672081
0.58034842 0.00000000 0.11721632
0.70028730 0.00031151 0.11787109
0.81876803 0.00164863 0.11894700
0.93774655 0.00338581 0.12035632
0.00000000 0.11520518 0.11589509
0.11390044 0.11600026 0.11658731
0.23384006 0.11576722 0.11615818
0.35013522 0.11759429 0.11793395
0.46806107 0.11934660 0.11941783
0.58719461 0.12122546 0.12094672
0.70677786 0.12344961 0.12276576
0.82675002 0.12598764 0.12485212
0.94706500 0.12880311 0.12717785
0.00000000 0.23499313 0.11908113
0.11719455 0.23712749 0.11965939
0.23702518 0.23862703 0.11827822
0.35848166 0.24049168 0.12034110
0.47679876 0.24399131 0.12542274
0.59696340 0.24700402 0.12807688
0.71766942 0.25014001 0.13068569
0.83861165 0.25346642 0.13346614
0.95974170 0.25694763 0.13639191
0.00613237 0.35949863 0.12426003
0.12635663 0.36224267 0.12652135
0.24683995 0.36524075 0.12888973
0.36766896 0.36839721 0.13114138
0.48877366 0.37179222 0.13430649
0.60990025 0.37535939 0.13748082
0.73120808 0.37899492 0.14056660
0.85259898 0.38269716 0.14372478
0.97402275 0.38643157 0.14693422
0.01774561 0.48677521 0.13269466
0.13882916 0.49021794 0.13558368
0.26006694 0.49378895 0.13859760
0.38141230 0.49745180 0.14170692
0.50282083 0.50116972 0.14488529
0.62424565 0.50490692 0.14810936
0.74563987 0.50862652 0.15134425
0.86695811 0.51229205 0.15456377
0.98815422 0.51586712 0.15774053
0.03162630 0.61591591 0.14285991
0.15304569 0.61964518 0.14605818
0.27446440 0.62338009 0.14928738
0.39583635 0.62708418 0.15251955
0.51711546 0.63072099 0.15572673
0.63825567 0.63425408 0.15888098
0.75921091 0.63764699 0.16195433
0.87993510 0.64086327 0.16491884
1.00000000 0.64391661 0.16837511
0.04602052 0.74553291 0.15369153
0.16725440 0.74913619 0.15688268
0.28833260 0.75262246 0.16001071
0.40920906 0.75595529 0.16304767
0.52983770 0.75909821 0.16596561
0.65017246 0.76201477 0.16873656
0.77016726 0.76466852 0.17133258
0.88977604 0.76702301 0.17372571
1.00000000 0.76937864 0.19891335
0.05917436 0.87423841 0.16412524
0.17970134 0.87730314 0.16699290
0.29991767 0.88012825 0.16970340
0.41977727 0.88267727 0.17222879
0.53923407 0.88491375 0.17454111
0.65824201 0.88680125 0.17661241
0.77675501 0.88830331 0.17841473
0.89472700 0.88938346 0.17992011
1.00000000 0.88805564 0.23607809
0.07100886 1.00000000 0.17454983
0.19547322 1.00000000 0.18250435
0.31798967 1.00000000 0.19098387
0.43837929 1.00000000 0.19999055
0.55646361 1.00000000 0.20952516
0.67206470 1.00000000 0.21958696
0.78500517 1.00000000 0.23017357
0.89510819 1.00000000 0.24128093
1.00000000 0.99800293 0.27915672
0.00146788 0.00203896 0.23652650
0.11626275 0.00042419 0.23518879
0.23036158 0.00000000 0.23283948
0.34519835 0.00000000 0.23232310
0.46222339 0.00000000 0.23304595
0.58151766 0.00000000 0.23424499
0.70069243 0.00071847 0.23531235
0.81934737 0.00219555 0.23650463
0.93848448 0.00406031 0.23802082
0.00000000 0.11550213 0.22950486
0.11376105 0.11634053 0.23415897
0.23165807 0.11704223 0.23481176
0.34994141 0.11828490 0.23572315
0.46868934 0.11994485 0.23702073
0.58798637 0.12194333 0.23864777
0.70770686 0.12427816 0.24056072
0.82780061 0.12691450 0.24273151
0.94822153 0.12981590 0.24513217
0.00000000 0.23573417 0.23589563
0.11803644 0.23774641 0.23757880
0.23757517 0.23951050 0.23904602
0.35950929 0.24099383 0.24031234
0.47828284 0.24474267 0.24334061
0.59816560 0.24804023 0.24605349
0.71894526 0.25125005 0.24872691
0.83995642 0.25463312 0.25155985
0.96113979 0.25815861 0.25452861
0.00715145 0.36039999 0.24211741
0.12748365 0.36323349 0.24445672
0.24784376 0.36629838 0.24677291
0.36846126 0.36884793 0.24696999
0.49136902 0.37187075 0.24995788
0.61152026 0.37646770 0.25542471
0.73265560 0.38024543 0.25874524
0.85406089 0.38396360 0.26192537
0.97548533 0.38770065 0.26514587
0.01907318 0.48792773 0.25077504
0.14021429 0.49141811 0.25370963
0.26149153 0.49502468 0.25675792
0.38278892 0.49871012 0.25979716
0.50416272 0.50237622 0.26262629
0.62573414 0.50612929 0.26613918
0.74708129 0.50987720 0.26954958
0.86836009 0.51351812 0.27276379
0.98950423 0.51705419 0.27591968
0.03308531 0.61717949 0.26105586
0.15450964 0.62091477 0.26426777
0.27591763 0.62464330 0.26750111
0.39726315 0.62832863 0.27072786
0.51849933 0.63193434 0.27391867
0.63958204 0.63542367 0.27704702
0.76046485 0.63876081 0.28008917
0.88110008 0.64190888 0.28301087
1.00000000 0.64506501 0.28771965
0.04743391 0.74676746 0.27189560
0.16862008 0.75033509 0.27506845
0.28963494 0.75377334 0.27816869
0.41043240 0.75704576 0.28116837
0.53096641 0.76011589 0.28403952
0.65119088 0.76294729 0.28675420
0.77105976 0.76550350 0.28928445
0.89052696 0.76774807 0.29160232
1.00000000 0.77036985 0.31460543
0.06036506 0.87530382 0.28223000
0.18079171 0.87829126 0.28504742
0.30089206 0.88102669 0.28769819
0.42062003 0.88347366 0.29015436
0.53992956 0.88559572 0.29238796
0.65877458 0.88735640 0.29437105
0.77710902 0.88871927 0.29607566
0.89488681 0.88964786 0.29747385
1.00000000 0.88875329 0.34745192
0.07393620 1.00000000 0.29364750
0.19813893 1.00000000 0.30066164
0.32035313 1.00000000 0.30814219
0.44040013 1.00000000 0.31609058
0.55810175 1.00000000 0.32450676
0.67328033 1.00000000 0.33338911
0.78575880 1.00000000 0.34273436
0.89536068 1.00000000 0.35253746
1.00000000 0.99826842 0.38556868
0.00059192 0.00142037 0.35313007
0.11564926 0.00001580 0.35196189
0.22978677 0.00000000 0.34829948
0.34533343 0.00000000 0.34836061
0.46296130 0.00000000 0.34979814
0.58276980 0.00000000 0.35179458
0.70115847 0.00117436 0.35279420
0.81998233 0.00278718 0.35409961
0.93927269 0.00477531 0.35571944
0.00000000 0.11583219 0.34359830
0.11391413 0.11655535 0.35140968
0.23187580 0.11747537 0.35214097
0.35037924 0.11883051 0.35323172
0.46937778 0.12058443 0.35465443
0.58882649 0.12270018 0.35638177
0.70867891 0.12514149 0.35838542
0.82888894 0.12787193 0.36063741
0.94941049 0.13085505 0.36310977
0.00000000 0.23646774 0.35344091
0.11883215 0.23842966 0.35525020
0.23843131 0.24065656 0.35710807
0.35852484 0.24313274 0.35926776
0.47882945 0.24600100 0.36153633
0.59937775 0.24910992 0.36405953
0.72024625 0.25238072 0.36678703
0.84132106 0.25581625 0.36966922
0.96255243 0.25938182 0.37267776
0.00820972 0.36133306 0.36000217
0.12865070 0.36425113 0.36241747
0.24930402 0.36738877 0.36504410
0.36991022 0.37024890 0.36782974
0.49267543 0.37268589 0.37031827
0.61324719 0.37747658 0.37365864
0.73411774 0.38149828 0.37693189
0.85552479 0.38523232 0.38013078
0.97694459 0.38896780 0.38335912
0.02042207 0.48909782 0.36887196
0.14161543 0.49263165 0.37184891
0.26292656 0.49626937 0.37493084
0.38394598 0.49995074 0.37793007
0.50419897 0.50284317 0.37925970
0.62762944 0.50620196 0.38247063
0.74866081 0.51100200 0.38759296
0.86974780 0.51473141 0.39095664
0.99083305 0.51822519 0.39408959
0.03454775 0.61844651 0.37925750
0.15597170 0.62218358 0.38247982
0.27736366 0.62590152 0.38571408
0.39867460 0.62956416 0.38893086
0.51976910 0.63313331 0.39202253
0.64068325 0.63651239 0.39480532
0.76169375 0.63980898 0.39804884
0.88223374 0.64292653 0.40108054
1.00000000 0.64624490 0.40631776
0.04883285 0.74799129 0.39009453
0.16996601 0.75151907 0.39324585
0.29091220 0.75490509 0.39631507
0.41162536 0.75811290 0.39927424
0.53205934 0.76110606 0.40209532
0.65216718 0.76384814 0.40474909
0.77190493 0.76630239 0.40720883
0.89122625 0.76843291 0.40945069
1.00000000 0.77138544 0.42941799
0.06152344 0.87634437 0.40031876
0.18184445 0.87925031 0.40308273
0.30182350 0.88189187 0.40567054
0.42141454 0.88423258 0.40805426
0.54057148 0.88623600 0.41020592
0.65924827 0.88786567 0.41209757
0.77739884 0.88908514 0.41370125
0.89497710 0.88985796 0.41498901
1.00000000 0.88946732 0.45782192
0.07690598 1.00000000 0.41205919
0.20084011 1.00000000 0.41809296
0.32274520 1.00000000 0.42453423
0.44244285 1.00000000 0.43138364
0.55975516 1.00000000 0.43864029
0.67450478 1.00000000 0.44630169
0.78651495 1.00000000 0.45436362
0.89560953 1.00000000 0.46282004
1.00000000 0.99854135 0.49086185
0.00000000 0.00105516 0.46743458
0.11481197 0.00000000 0.46649152
0.22949301 0.00000000 0.46385778
0.34563874 0.00000000 0.46476237
0.46380588 0.00000000 0.46704125
0.58319312 0.00033275 0.46923309
0.70168364 0.00167773 0.47031553
0.82067109 0.00342210 0.47173085
0.94010940 0.00552940 0.47345111
0.00000000 0.11618759 0.45828355
0.11413793 0.11681684 0.46873066
0.23228846 0.11788887 0.46958686
0.35096523 0.11938348 0.47079373
0.47012216 0.12126420 0.47232331
0.58971317 0.12349458 0.47414764
0.70969221 0.12603816 0.47623876
0.83001319 0.12885850 0.47856872
0.95063006 0.13191915 0.48110957
0.00031046 0.23714040 0.47131471
0.11963076 0.23915264 0.47295483
0.23936836 0.24150125 0.47487960
0.35947747 0.24414956 0.47706148
0.47991173 0.24706157 0.47947129
0.60062447 0.25020092 0.48208153
0.72157060 0.25353060 0.48486493
0.84270375 0.25701438 0.48779317
0.96397780 0.26061582 0.49083825
0.00930536 0.36229642 0.47791322
0.12984634 0.36529534 0.48039951
0.25064888 0.36850789 0.48307711
0.37165572 0.37188353 0.48595007
0.49291178 0.37533159 0.48901262
0.61423277 0.37901585 0.49200624
0.73556801 0.38276535 0.49513061
0.85698885 0.38650190 0.49833992
0.97839870 0.39023161 0.50157286
0.02179045 0.49028406 0.48698432
0.14303075 0.49385712 0.49000040
0.26437788 0.49752133 0.49311312
0.38569784 0.50123023 0.49632174
0.50629156 0.50443365 0.49989209
0.62888317 0.50707194 0.50300884
0.75028803 0.51200599 0.50593768
0.87112391 0.51592721 0.50914328
0.99213886 0.51937870 0.51224914
0.03601182 0.61971552 0.49746374
0.15743007 0.62345018 0.50069325
0.27880069 0.62715334 0.50392521
0.40007152 0.63078887 0.50713131
0.52074406 0.63429341 0.51019339
0.63980336 0.63684263 0.51196472
0.76276352 0.63971096 0.51474578
0.88344662 0.64380197 0.51900268
1.00000000 0.64745575 0.52414878
0.05021554 0.74920297 0.50828720
0.17129038 0.75268670 0.51141378
0.29216260 0.75601629 0.51444876
0.41278613 0.75915529 0.51736419
0.53311169 0.76206754 0.52013088
0.65299439 0.76471728 0.52265040
0.77247099 0.76701442 0.52474282
0.89187061 0.76903854 0.52711684
1.00000000 0.77242394 0.54332979
0.06264770 0.87735862 0.51839044
0.18285774 0.88017887 0.52109771
0.30271019 0.88272235 0.52361935
0.42215897 0.88495260 0.52592740
0.54115802 0.88683318 0.52799389
0.65966120 0.88832765 0.52979082
0.77762161 0.88939964 0.53128891
0.89499531 0.89001234 0.53246144
1.00000000 0.89019740 0.56717022
0.07991815 1.00000000 0.52976452
0.20357675 1.00000000 0.53477781
0.32516592 1.00000000 0.54013932
0.44450755 1.00000000 0.54584888
0.56142401 1.00000000 0.55190474
0.67573828 1.00000000 0.55830349
0.78727392 1.00000000 0.56503995
0.89585513 1.00000000 0.57210706
1.00000000 0.99882123 0.59502040
0.00000000 0.00123357 0.57563755
0.11425821 0.00000000 0.58099577
0.22940238 0.00000000 0.57972346
0.34607552 0.00000000 0.58162200
0.46473530 0.00000000 0.58481901
0.58360167 0.00074246 0.58667662
0.70226611 0.00222717 0.58787525
0.82141185 0.00409888 0.58939727
0.94099279 0.00632114 0.59121472
0.00000000 0.11655963 0.57362694
0.11442773 0.11713126 0.58609537
0.23276214 0.11835089 0.58707380
0.35160714 0.11998071 0.58839340
0.47091665 0.12198426 0.59002621
0.59064461 0.12432509 0.59194427
0.71074494 0.12696675 0.59411964
0.83117157 0.12987279 0.59652436
0.95187844 0.13300675 0.59913047
0.00100974 0.23778378 0.58895306
0.12047692 0.23991435 0.59069296
0.24034578 0.24236892 0.59270793
0.36057024 0.24511105 0.59497004
0.48110423 0.24810429 0.59745131
0.60190168 0.25131217 0.60012379
0.72291652 0.25469825 0.60295954
0.84410269 0.25822607 0.60593059
0.96541411 0.26185919 0.60900899
0.01043656 0.36328863 0.59584948
0.13107180 0.36636423 0.59840360
0.25195373 0.36964121 0.60113876
0.37303626 0.37308309 0.60402708
0.49427348 0.37665319 0.60704110
0.61561930 0.38031556 0.61015147
0.73702699 0.38403381 0.61333070
0.85845128 0.38777091 0.61655169
0.97984588 0.39149064 0.61978601
0.02317652 0.49148501 0.60511105
0.14445845 0.49509310 0.60816303
0.26583208 0.49877995 0.61130200
0.38725034 0.50250892 0.61450099
0.50864434 0.50622816 0.61777244
0.63004346 0.50984643 0.62112278
0.75136397 0.51353632 0.62421842
0.87246601 0.51711759 0.62732462
0.99341985 0.52051329 0.63039727
0.03747571 0.62098510 0.61567349
0.15888295 0.62471315 0.61890697
0.28022692 0.62839731 0.62213339
0.40146094 0.63200116 0.62532503
0.52243170 0.63547775 0.62849635
0.64210521 0.63828295 0.63218668
0.76367722 0.64038052 0.63521693
0.88466513 0.64454085 0.63722742
1.00000000 0.64869563 0.64119434
0.05158018 0.75040109 0.62647254
0.17259137 0.75383655 0.62957115
0.29338431 0.75710550 0.63256866
0.41391291 0.76017148 0.63543713
0.53412454 0.76299846 0.63814869
0.65348083 0.76553526 0.64062544
0.77083950 0.76707618 0.64190244
0.89227183 0.76862344 0.64364975
1.00000000 0.77341090 0.65629042
0.06373604 0.87834517 0.63644392
0.18382980 0.88107551 0.63909129
0.30355033 0.88351670 0.64154353
0.42285155 0.88563229 0.64377267
0.54168738 0.88738583 0.64575078
0.66000862 0.88874128 0.64744867
0.77767869 0.88966899 0.64876532
0.89476639 0.89009100 0.64950317
1.00000000 0.89091957 0.67537748
0.08297266 1.00000000 0.64674305
0.20634885 1.00000000 0.65069560
0.32761536 1.00000000 0.65493671
0.44659434 1.00000000 0.65946539
0.56310849 1.00000000 0.66427900
0.67698109 1.00000000 0.66937320
0.78803600 1.00000000 0.67474182
0.89609753 1.00000000 0.68037652
1.00000000 0.99910771 0.69802614
0.00000000 0.00140256 0.68493983
0.11390807 0.00000000 0.69584589
0.22946318 0.00000000 0.69602817
0.34661545 0.00000000 0.69900230
0.46573262 0.00000000 0.70316075
0.58407104 0.00120102 0.70416069
0.70290410 0.00282124 0.70547227
0.82220280 0.00481608 0.70709775
0.94192107 0.00714910 0.70900918
0.00000000 0.11694172 0.68967317
0.11478174 0.11749719 0.70350266
0.23329471 0.11886021 0.70460009
0.35230263 0.12062104 0.70602919
0.47175941 0.12274322 0.70776200
0.59161899 0.12519031 0.70977059
0.71183530 0.12792584 0.71202698
0.83236227 0.13091337 0.71450322
0.95315383 0.13411643 0.71717136
0.00176065 0.23846874 0.70662635
0.12136941 0.24071342 0.70846281
0.24136419 0.24326974 0.71056484
0.36169894 0.24610124 0.71290451
0.48232757 0.24917145 0.71545385
0.60320401 0.25244394 0.71818492
0.72428221 0.25588225 0.72106975
0.84551608 0.25944992 0.72408039
0.96685955 0.26311049 0.72718889
0.01160153 0.36430828 0.71380983
0.13232571 0.36745635 0.71642857
0.25328094 0.37079343 0.71921885
0.37442114 0.37428305 0.72215272
0.49570025 0.37788876 0.72520223
0.61707219 0.38157412 0.72833941
0.73849090 0.38530265 0.73153631
0.85991030 0.38903792 0.73476499
0.98128432 0.39274347 0.73799747
0.02457849 0.49269924 0.72325102
0.14589673 0.49633817 0.72633568
0.26729103 0.50004346 0.72949784
0.38871532 0.50377867 0.73270955
0.51012350 0.50750732 0.73594294
0.63146956 0.51119271 0.73917062
0.75270767 0.51479891 0.74236304
0.87379104 0.51828954 0.74549278
0.99467421 0.52162755 0.74853285
0.03893761 0.62225382 0.73388565
0.16032853 0.62597105 0.73711987
0.28164053 0.62963203 0.74033754
0.40282754 0.63320028 0.74351072
0.52384227 0.63663920 0.74661258
0.64460725 0.63989716 0.74966266
0.76514448 0.64288495 0.75267464
0.88543564 0.64576929 0.75525843
1.00000000 0.64997248 0.75742936
0.05292496 0.75158420 0.74464944
0.17386720 0.75496720 0.74771685
0.29457553 0.75817131 0.75067368
0.41500389 0.76116007 0.75349196
0.53510556 0.76389705 0.75614400
0.65471943 0.76633829 0.75865255
0.77273717 0.76801498 0.76166711
0.89260227 0.76884016 0.76377538
1.00000000 0.77435501 0.76849711
0.06478663 0.87930256 0.75447813
0.18475881 0.88193880 0.75706236
0.30434210 0.88427350 0.75944197
0.42349044 0.88627023 0.76158900
0.54215775 0.88789252 0.76347549
0.66029161 0.88910457 0.76507356
0.77739914 0.88988513 0.76628873
0.89287242 0.88977368 0.76589022
1.00000000 0.89105679 0.78162883
0.08606949 1.00000000 0.76297430
0.20915645 1.00000000 0.76582567
0.33009361 1.00000000 0.76890558
0.44870340 1.00000000 0.77221216
0.56480882 1.00000000 0.77574188
0.67823348 1.00000000 0.77948945
0.78880062 1.00000000 0.78344762
0.89630939 1.00000000 0.78759340
1.00000000 0.99941917 0.79950296
0.00000000 0.00156181 0.79532392
0.11370163 0.00000000 0.81119776
0.22963978 0.00000000 0.81285628
0.34723738 0.00000000 0.81694503
0.46609913 0.00035415 0.82059521
0.58459943 0.00170698 0.82168417
0.70359578 0.00345851 0.82310549
0.82304214 0.00557229 0.82483122
0.94289242 0.00801186 0.82683339
0.00000000 0.11732882 0.80645166
0.11519813 0.11791321 0.82095142
0.23388436 0.11941541 0.82216462
0.35304988 0.12130305 0.82370000
0.47264862 0.12353966 0.82552961
0.59263451 0.12608879 0.82762548
0.71296149 0.12891398 0.82995967
0.83358348 0.13197880 0.83250422
0.95445442 0.13524677 0.83523117
0.00256139 0.23919384 0.82433351
0.12230642 0.24154844 0.82626329
0.24242182 0.24420230 0.82844916
0.36286154 0.24711895 0.83086317
0.48357949 0.25026195 0.83347736
0.60452962 0.25359484 0.83626378
0.72566585 0.25708116 0.83919447
0.84694210 0.26068447 0.84224148
0.96831232 0.26436831 0.84537685
0.01279846 0.36535392 0.83179320
0.13360627 0.36857027 0.83447333
0.25462948 0.37196324 0.83731551
0.37582202 0.37549638 0.84029178
0.49713782 0.37913322 0.84337420
0.61853081 0.38283733 0.84653480
0.73995492 0.38657224 0.84974562
0.86136408 0.39030150 0.85297873
0.98271221 0.39398866 0.85620615
0.02599454 0.49392533 0.84140316
0.14734378 0.49759089 0.84451728
0.26875343 0.50131043 0.84769940
0.39017742 0.50504750 0.85092157
0.51156970 0.50876566 0.85415584
0.63288418 0.51242844 0.85737426
0.75407480 0.51599940 0.86054886
0.87509548 0.51944207 0.86365169
0.99590016 0.52272002 0.86665480
0.04039572 0.62352026 0.85209913
0.16176501 0.62722247 0.85533086
0.28303973 0.63085604 0.85853656
0.40417381 0.63438452 0.86168827
0.52512119 0.63777144 0.86475803
0.64583575 0.64098034 0.86771799
0.76627143 0.64397453 0.87054081
0.88638256 0.64671805 0.87319679
1.00000000 0.65127937 0.87283610
0.05424808 0.75275088 0.86281682
0.17511605 0.75607722 0.86584980
0.29573447 0.75921228 0.86876271
0.41605727 0.76211962 0.87152759
0.53603838 0.76476277 0.87411648
0.65563044 0.76710516 0.87650264
0.77475450 0.76909725 0.87870821
0.89343944 0.77065479 0.88074464
1.00000000 0.77565800 0.87953526
0.06579769 0.88022939 0.87249196
0.18564297 0.88276731 0.87500984
0.30508372 0.88499133 0.87731359
0.42407387 0.88686498 0.87937527
0.54256734 0.88835182 0.88116693
0.66051746 0.88941544 0.88266083
0.77777482 0.89001882 0.88387497
0.89357343 0.88984793 0.88528702
1.00000000 0.89163586 0.88921951
0.08920865 1.00000000 0.87843771
0.21199962 1.00000000 0.88014731
0.33260078 1.00000000 0.88202503
0.45083488 1.00000000 0.88406812
0.56652522 1.00000000 0.88627213
0.67949576 1.00000000 0.88863078
0.78956919 1.00000000 0.89113616
0.89645747 1.00000000 0.89376597
1.00000000 0.99979812 0.89860578
0.00000000 0.00171106 0.90677205
0.11360092 0.00000000 0.92714266
0.22990683 0.00000000 0.93026189
0.34792517 0.00000000 0.93547716
0.46651110 0.00076660 0.93804102
0.58518502 0.00225892 0.93924599
0.70433937 0.00413756 0.94077382
0.82392806 0.00636607 0.94259656
0.94390504 0.00890799 0.94468626
0.00000000 0.11771700 0.92398073
0.11567513 0.11837788 0.93844057
0.23452929 0.12001507 0.93976632
0.35384710 0.12202530 0.94140475
0.47358248 0.12437213 0.94332792
0.59368938 0.12701910 0.94550786
0.71412171 0.12992977 0.94791662
0.83483341 0.13306766 0.95052625
0.95577841 0.13639634 0.95330879
0.00341017 0.23995765 0.94207342
0.12328614 0.24241797 0.94409330
0.24351685 0.24516517 0.94635978
0.36405622 0.24816277 0.94884491
0.48485819 0.25137435 0.95152073
0.60587668 0.25476343 0.95435928
0.72706563 0.25829357 0.95733260
0.84837897 0.26192832 0.96041276
0.96977062 0.26563121 0.96357178
0.01402554 0.36642414 0.94979848
0.13491167 0.36970456 0.95253677
0.25599756 0.37314922 0.95542763
0.37723712 0.37672166 0.95844308
0.49858430 0.38038544 0.96155518
0.61999302 0.38410409 0.96473598
0.74141722 0.38784117 0.96795750
0.86281082 0.39156023 0.97119181
0.98412775 0.39522480 0.97441095
0.02742287 0.49516186 0.95956637
0.14879779 0.49884983 0.96270672
0.27021748 0.50257941 0.96590557
0.39163587 0.50631415 0.96913499
0.51300689 0.51001759 0.97236701
0.63428448 0.51365328 0.97557368
0.75542255 0.51718476 0.97872704
0.87637504 0.52057558 0.98179914
0.99709589 0.52378928 0.98476203
0.04184824 0.62478298 0.97031282
0.16319058 0.62846597 0.97353885
0.28442271 0.63206794 0.97672935
0.40549855 0.63555243 0.97985636
0.52637204 0.63888299 0.98289194
0.64699711 0.64202317 0.98580812
0.76732770 0.64493651 0.98857695
0.88731772 0.64758656 0.99117048
1.00000000 0.65261651 0.98739647
0.05554773 0.75389971 0.98097356
0.17633612 0.75716518 0.98396891
0.29685931 0.76022699 0.98683468
0.41707123 0.76304869 0.98954293
0.53692583 0.76559383 0.99206569
0.65637702 0.76782596 0.99437502
0.77537869 0.76970860 0.99644306
0.89388480 0.77120509 0.99824247
1.00000000 0.77682322 0.98962607
0.06676741 0.88112422 0.99048432
0.18648048 0.88355962 0.99293261
0.30577336 0.88566874 0.99515730
0.42460000 0.88741512 0.99713041
0.54291433 0.88876230 0.99882400
0.66093924 0.88961509 1.00000000
0.77878806 0.88995303 1.00000000
0.89430574 0.89023386 1.00000000
1.00000000 0.89321877 0.99411723
0.09239016 1.00000000 0.99311265
0.21487842 1.00000000 0.99363973
0.33513702 1.00000000 0.99427410
0.45298899 1.00000000 0.99501213
0.56825798 1.00000000 0.99584840
0.68076827 1.00000000 0.99677564
0.79034464 1.00000000 0.99778466
0.89678957 1.00000000 0.99887349
1.00000000 1.00000000 1.00000000
