assets/luts/DB_Copper_Story_Rec709_50.cube
TITLE "Copper Story Rec709 50"
# Red changes fastest. Full-range normalized input.
LUT_3D_SIZE 33
DOMAIN_MIN 0 0 0
DOMAIN_MAX 1 1 1
0.00350000 0.00350000 0.00350000
0.03245543 0.00279439 0.00287069
0.06170748 0.00205981 0.00219362
0.09103188 0.00135877 0.00154399
0.12012306 0.00077752 0.00102292
0.14879491 0.00036899 0.00069034
0.17710158 0.00011779 0.00052587
0.20511775 0.00000000 0.00049258
0.23288488 0.00000000 0.00056313
0.26082723 0.00000000 0.00061773
0.28894065 0.00000000 0.00065768
0.31722501 0.00000000 0.00068650
0.34568076 0.00000000 0.00070718
0.37430733 0.00000000 0.00072139
0.40310301 0.00000000 0.00072984
0.43206544 0.00000000 0.00073276
0.46119196 0.00000000 0.00073023
0.49047982 0.00000000 0.00072226
0.51992623 0.00000000 0.00070888
0.54952840 0.00000000 0.00069010
0.57928355 0.00000000 0.00066595
0.60918887 0.00000000 0.00063645
0.63924157 0.00000000 0.00060165
0.66943886 0.00000000 0.00056158
0.69977793 0.00000000 0.00051628
0.72946954 0.00021246 0.00067691
0.75902844 0.00049753 0.00090506
0.78862086 0.00080951 0.00115551
0.81824609 0.00114785 0.00142783
0.84790341 0.00151195 0.00172158
0.87759211 0.00190127 0.00203633
0.90731145 0.00231523 0.00237163
0.93706073 0.00275326 0.00272706
0.00086062 0.03107996 0.00170333
0.02989695 0.03054366 0.00096333
0.05937012 0.02993465 0.00012127
0.08830192 0.02946821 0.00000000
0.11684920 0.02917083 0.00000000
0.14534675 0.02896522 0.00000000
0.17392787 0.02881182 0.00000000
0.20262728 0.02869008 0.00000000
0.23142025 0.02859358 0.00000000
0.26027436 0.02852207 0.00000000
0.28918062 0.02847499 0.00000000
0.31815262 0.02844967 0.00000000
0.34721101 0.02844257 0.00000000
0.37637222 0.02845056 0.00000000
0.40564581 0.02847141 0.00000000
0.43503626 0.02850354 0.00000000
0.46454529 0.02854580 0.00000000
0.49417327 0.02859732 0.00000000
0.52379370 0.02869061 0.00004228
0.55322461 0.02887301 0.00018565
0.58269167 0.02908439 0.00035291
0.61219416 0.02932419 0.00054363
0.64173136 0.02959185 0.00075736
0.67130254 0.02988678 0.00099368
0.70090699 0.03020842 0.00125214
0.73054399 0.03055620 0.00153232
0.76021282 0.03092955 0.00183376
0.78991275 0.03132791 0.00215604
0.81964308 0.03175069 0.00249872
0.84940307 0.03219734 0.00286137
0.87919201 0.03266728 0.00324353
0.90900918 0.03315994 0.00364479
0.93885386 0.03367476 0.00406470
0.00000000 0.05863301 0.00150205
0.02800949 0.05865343 0.00000000
0.05722481 0.05819902 0.00000000
0.08613817 0.05787867 0.00000000
0.11486855 0.05767696 0.00000000
0.14355462 0.05757385 0.00000000
0.17232042 0.05754107 0.00000000
0.20123342 0.05754813 0.00000000
0.23029505 0.05757198 0.00000000
0.25946941 0.05760218 0.00000000
0.28872303 0.05763817 0.00000000
0.31804522 0.05768305 0.00000000
0.34744385 0.05773936 0.00000000
0.37693221 0.05780796 0.00000000
0.40652067 0.05788851 0.00000000
0.43601067 0.05803177 0.00009065
0.46545317 0.05822527 0.00024361
0.49493288 0.05844716 0.00041962
0.52444803 0.05869719 0.00061879
0.55399767 0.05897484 0.00084080
0.58358105 0.05927956 0.00108524
0.61319744 0.05961079 0.00135165
0.64284611 0.05996794 0.00163962
0.67252634 0.06035047 0.00194870
0.70223742 0.06075778 0.00227846
0.73197863 0.06118932 0.00262846
0.76174925 0.06164451 0.00299826
0.79154855 0.06212279 0.00338743
0.82137582 0.06262359 0.00379553
0.85123034 0.06314633 0.00422212
0.88111138 0.06369044 0.00466676
0.91101823 0.06425537 0.00512903
0.94095017 0.06484053 0.00560847
0.00000000 0.08649101 0.00207096
0.02706812 0.08702571 0.00000000
0.05625691 0.08674628 0.00000000
0.08532647 0.08653229 0.00000000
0.11428181 0.08640272 0.00000000
0.14317721 0.08637142 0.00000000
0.17210554 0.08643325 0.00000000
0.20115276 0.08656218 0.00000000
0.23035977 0.08672255 0.00000000
0.25971880 0.08688521 0.00000000
0.28919856 0.08703706 0.00000000
0.31877274 0.08717906 0.00000000
0.34843203 0.08731817 0.00000000
0.37775755 0.08756045 0.00025699
0.40719977 0.08780747 0.00047599
0.43671175 0.08807228 0.00069376
0.46626959 0.08836109 0.00092656
0.49586415 0.08867580 0.00117959
0.52549219 0.08901658 0.00145400
0.55515241 0.08938305 0.00174972
0.58484396 0.08977466 0.00206639
0.61456609 0.09019086 0.00240357
0.64431809 0.09063108 0.00276082
0.67409923 0.09109474 0.00313773
0.70390880 0.09158129 0.00353384
0.73374607 0.09209014 0.00394872
0.76361033 0.09262073 0.00438193
0.79350085 0.09317248 0.00483304
0.82341692 0.09374484 0.00530161
0.85335781 0.09433723 0.00578720
0.88332281 0.09494908 0.00628938
0.91331120 0.09557981 0.00680771
0.94332225 0.09622887 0.00734176
0.00000000 0.11495939 0.00255186
0.02646480 0.11590184 0.00000000
0.05569186 0.11578877 0.00000000
0.08492477 0.11569471 0.00000000
0.11412946 0.11564219 0.00000000
0.14329701 0.11566175 0.00000000
0.17246547 0.11577300 0.00000000
0.20170236 0.11597056 0.00000000
0.23106615 0.11622501 0.00000000
0.26058062 0.11649824 0.00000000
0.29023656 0.11676185 0.00000000
0.32001119 0.11700562 0.00000000
0.34927010 0.11736506 0.00051184
0.37866002 0.11771695 0.00092042
0.40818937 0.11806423 0.00124735
0.43780180 0.11842261 0.00155136
0.46746539 0.11880073 0.00186083
0.49716614 0.11920197 0.00218644
0.52689880 0.11962710 0.00253127
0.55666142 0.12007595 0.00289578
0.58645298 0.12054801 0.00327973
0.61627272 0.12104274 0.00368273
0.64611990 0.12155957 0.00410433
0.67599380 0.12209793 0.00454411
0.70589371 0.12265725 0.00500163
0.73581890 0.12323697 0.00547645
0.76576865 0.12383651 0.00596813
0.79574224 0.12445530 0.00647624
0.82573897 0.12509277 0.00700034
0.85575809 0.12574836 0.00754000
0.88579890 0.12642149 0.00809477
0.91586067 0.12711160 0.00866422
0.94594269 0.12781811 0.00924791
0.00000000 0.14400281 0.00288846
0.02613191 0.14525248 0.00000000
0.05541555 0.14530167 0.00000000
0.08477168 0.14535079 0.00000000
0.11417581 0.14540951 0.00000000
0.14360043 0.14550249 0.00000000
0.17304110 0.14565774 0.00000000
0.20252601 0.14588953 0.00000000
0.23209953 0.14618818 0.00000000
0.26179625 0.14652484 0.00000000
0.29162706 0.14686748 0.00000000
0.32109984 0.14728155 0.00057344
0.35043150 0.14773669 0.00129331
0.37992354 0.14817899 0.00182933
0.40954495 0.14861652 0.00225911
0.43925198 0.14906146 0.00264691
0.46901298 0.14952255 0.00302963
0.49881146 0.15000397 0.00342347
0.52864047 0.15050706 0.00383394
0.55849730 0.15103184 0.00426234
0.58838072 0.15157791 0.00470865
0.61828991 0.15214473 0.00517252
0.64822413 0.15273172 0.00565352
0.67818264 0.15333834 0.00615124
0.70816474 0.15396400 0.00666522
0.73816970 0.15460813 0.00719503
0.76819680 0.15527017 0.00774024
0.79824533 0.15594955 0.00830041
0.82831455 0.15664570 0.00887510
0.85840376 0.15735804 0.00946387
0.88851223 0.15808601 0.01006629
0.91863925 0.15882904 0.01068192
0.94878408 0.15958656 0.01131032
0.00000000 0.17358653 0.00306694
0.02605061 0.17503968 0.00000000
0.05542857 0.17522802 0.00000000
0.08489913 0.17541662 0.00000000
0.11445552 0.17560452 0.00000000
0.14408104 0.17580178 0.00000000
0.17376120 0.17602754 0.00000000
0.20349707 0.17630020 0.00000000
0.23330708 0.17662565 0.00000000
0.26321541 0.17699258 0.00000000
0.29282048 0.17742504 0.00077252
0.32232358 0.17791143 0.00164171
0.35186692 0.17841895 0.00238710
0.38150137 0.17893090 0.00299421
0.41123002 0.17944539 0.00350381
0.44103178 0.17996807 0.00396613
0.47088416 0.18050509 0.00441676
0.50077256 0.18106017 0.00487409
0.53068976 0.18163477 0.00534538
0.56063264 0.18222906 0.00583276
0.59059978 0.18284269 0.00633649
0.62059027 0.18347514 0.00685630
0.65060338 0.18412586 0.00739177
0.68063836 0.18479428 0.00794247
0.71069450 0.18547983 0.00850797
0.74077109 0.18618194 0.00908784
0.77086739 0.18690004 0.00968163
0.80098270 0.18763356 0.01028891
0.83111628 0.18838193 0.01090924
0.86126743 0.18914458 0.01154219
0.89143541 0.18992094 0.01218731
0.92161952 0.19071045 0.01284418
0.95181903 0.19151253 0.01351235
0.00000000 0.20367858 0.00309766
0.02664332 0.20505027 0.00054643
0.05616494 0.20532950 0.00070578
0.08571516 0.20563726 0.00082538
0.11530999 0.20596768 0.00088158
0.14497602 0.20631170 0.00087967
0.17473317 0.20666258 0.00087524
0.20457094 0.20702319 0.00096604
0.23444209 0.20740788 0.00124428
0.26428812 0.20783423 0.00173865
0.29407846 0.20831079 0.00239460
0.32382782 0.20883176 0.00311060
0.35357845 0.20938276 0.00379803
0.38336844 0.20995091 0.00441744
0.41321383 0.21053040 0.00497474
0.44311143 0.21112154 0.00549615
0.47305058 0.21172698 0.00600668
0.50302177 0.21234897 0.00652191
0.53301922 0.21298858 0.00704900
0.56304004 0.21364591 0.00759043
0.59308273 0.21432066 0.00814665
0.62314639 0.21501231 0.00871744
0.65323024 0.21572030 0.00930243
0.68333354 0.21644408 0.00990118
0.71345558 0.21718307 0.01051326
0.74359564 0.21793671 0.01113824
0.77375301 0.21870442 0.01177567
0.80392694 0.21948563 0.01242512
0.83411674 0.22027978 0.01308615
0.86432168 0.22108629 0.01375833
0.89454104 0.22190460 0.01444121
0.92477409 0.22273414 0.01513437
0.95502013 0.22357433 0.01583737
0.00000000 0.23424824 0.00299246
0.02768315 0.23534870 0.00139537
0.05733068 0.23571259 0.00167207
0.08700506 0.23610294 0.00194988
0.11670826 0.23651822 0.00221570
0.14644791 0.23695517 0.00246192
0.17623505 0.23740967 0.00269819
0.20607562 0.23787942 0.00295759
0.23596153 0.23836666 0.00328622
0.26587123 0.23887769 0.00371766
0.29578259 0.23941864 0.00425082
0.32568733 0.23999093 0.00485036
0.35559418 0.24059052 0.00546943
0.38551936 0.24121121 0.00607484
0.41547491 0.24184831 0.00665678
0.44546424 0.24250005 0.00722235
0.47548458 0.24316663 0.00778373
0.50553148 0.24384875 0.00835061
0.53560138 0.24454681 0.00892825
0.56569206 0.24526072 0.00951873
0.59580219 0.24599013 0.01012248
0.62593086 0.24673453 0.01073932
0.65607730 0.24749335 0.01136888
0.68624078 0.24826604 0.01201074
0.71642058 0.24905203 0.01266446
0.74661597 0.24985075 0.01332960
0.77682624 0.25066163 0.01400573
0.80705067 0.25148409 0.01469240
0.83728853 0.25231757 0.01538919
0.86753911 0.25316150 0.01609566
0.89780169 0.25401531 0.01681136
0.92807555 0.25487843 0.01753587
0.95835997 0.25575030 0.01826874
0.00000000 0.26526461 0.00275841
0.02907518 0.26594302 0.00246660
0.05883097 0.26638806 0.00282447
0.08861411 0.26685687 0.00319709
0.11842370 0.26734888 0.00357967
0.14826035 0.26786303 0.00396728
0.17812678 0.26839764 0.00435861
0.20802644 0.26895098 0.00476012
0.23796019 0.26952223 0.00518651
0.26792369 0.27011223 0.00565436
0.29790872 0.27072292 0.00617202
0.32790812 0.27135564 0.00673372
0.35791999 0.27200994 0.00732319
0.38794750 0.27268373 0.00792351
0.41799525 0.27337465 0.00852499
0.44806592 0.27408103 0.00912638
0.47815950 0.27480215 0.00973123
0.50827441 0.27553779 0.01034369
0.53840883 0.27628778 0.01096656
0.56856130 0.27705181 0.01160104
0.59873074 0.27782943 0.01224736
0.62891628 0.27862012 0.01290531
0.65911717 0.27942333 0.01357450
0.68933268 0.28023849 0.01425452
0.71956208 0.28106503 0.01494493
0.74980466 0.28190239 0.01564529
0.78005969 0.28274998 0.01635517
0.81032646 0.28360725 0.01707413
0.84060424 0.28447362 0.01780174
0.87089232 0.28534852 0.01853755
0.90118998 0.28623138 0.01928113
0.93149649 0.28712164 0.02003204
0.96181114 0.28801873 0.02078985
0.00097560 0.29631005 0.00335258
0.03080035 0.29680893 0.00375890
0.06065222 0.29732985 0.00418342
0.09053030 0.29787230 0.00462514
0.12043363 0.29843575 0.00508258
0.15036150 0.29901961 0.00555383
0.18031372 0.29962310 0.00603729
0.21029075 0.30024531 0.00653297
0.24029308 0.30088536 0.00704360
0.27032022 0.30154271 0.00757401
0.30037010 0.30221734 0.00812855
0.33043982 0.30290938 0.00870804
0.36052706 0.30361870 0.00930897
0.39063111 0.30434459 0.00992547
0.42075245 0.30508601 0.01055258
0.45089172 0.30584193 0.01118792
0.48104892 0.30661156 0.01183151
0.51122341 0.30739434 0.01248433
0.54141422 0.30818980 0.01314728
0.57162036 0.30899748 0.01382074
0.60184097 0.30981686 0.01450467
0.63207524 0.31064741 0.01519877
0.66232243 0.31148856 0.01590265
0.69258182 0.31233974 0.01661589
0.72285268 0.31320039 0.01733805
0.75313430 0.31406993 0.01806869
0.78342595 0.31494780 0.01880738
0.81372692 0.31583342 0.01955368
0.84403647 0.31672623 0.02030716
0.87435391 0.31762566 0.02106737
0.90467849 0.31853113 0.02183388
0.93500952 0.31944209 0.02260626
0.96534625 0.32035795 0.02338406
0.00292004 0.32735338 0.00479287
0.03283389 0.32792396 0.00525991
0.06277261 0.32851463 0.00574398
0.09273542 0.32912483 0.00624454
0.12272156 0.32975399 0.00676098
0.15273024 0.33040157 0.00729253
0.18276075 0.33106698 0.00783838
0.21281257 0.33174958 0.00839788
0.24288530 0.33244871 0.00897094
0.27297851 0.33316374 0.00955819
0.30309148 0.33389414 0.01016064
0.33322308 0.33463950 0.01077884
0.36337207 0.33539941 0.01141229
0.39353742 0.33617336 0.01205943
0.42371846 0.33696073 0.01271840
0.45391477 0.33776083 0.01338780
0.48412591 0.33857300 0.01406691
0.51435130 0.33939663 0.01475556
0.54459021 0.34023116 0.01545370
0.57484186 0.34107605 0.01616119
0.60510548 0.34193075 0.01687778
0.63538034 0.34279470 0.01760309
0.66566569 0.34366734 0.01833671
0.69596081 0.34454810 0.01907822
0.72626499 0.34543641 0.01982719
0.75657750 0.34633169 0.02058316
0.78689762 0.34723339 0.02134572
0.81722463 0.34814092 0.02211442
0.84755782 0.34905373 0.02288882
0.87789646 0.34997124 0.02366849
0.90823983 0.35089287 0.02445299
0.93858721 0.35181807 0.02524189
0.96893789 0.35274627 0.02603474
0.00515427 0.35863041 0.00643114
0.03514900 0.35926627 0.00695386
0.06516618 0.35992030 0.00749217
0.09520511 0.36059192 0.00804561
0.12526505 0.36128057 0.00861374
0.15534526 0.36198569 0.00919606
0.18544500 0.36270670 0.00979205
0.21556358 0.36344303 0.01040121
0.24570032 0.36419409 0.01102307
0.27585458 0.36495930 0.01165735
0.30602569 0.36573807 0.01230387
0.33621291 0.36652986 0.01296250
0.36641544 0.36733412 0.01363295
0.39663245 0.36815032 0.01431469
0.42686316 0.36897789 0.01500699
0.45710688 0.36981625 0.01570910
0.48736295 0.37066480 0.01642045
0.51763069 0.37152296 0.01714058
0.54790941 0.37239016 0.01786913
0.57819838 0.37326583 0.01860575
0.60849688 0.37414941 0.01935005
0.63880417 0.37504032 0.02010162
0.66911953 0.37593801 0.02086004
0.69944224 0.37684189 0.02162489
0.72977159 0.37775141 0.02239571
0.76010684 0.37866600 0.02317208
0.79044729 0.37958507 0.02395356
0.82079220 0.38050807 0.02473971
0.85114087 0.38143443 0.02553010
0.88149257 0.38236357 0.02632429
0.91184658 0.38329492 0.02712183
0.94220218 0.38422792 0.02792231
0.97255865 0.38516200 0.02872527
0.00765090 0.39011944 0.00825081
0.03771834 0.39081414 0.00882425
0.06780583 0.39152508 0.00941181
0.09791264 0.39225171 0.01001305
0.12803806 0.39299345 0.01062753
0.15818135 0.39374972 0.01125482
0.18834181 0.39451997 0.01189447
0.21851870 0.39530361 0.01254601
0.24871131 0.39610009 0.01320901
0.27891894 0.39690883 0.01388303
0.30914087 0.39772925 0.01456767
0.33937639 0.39856078 0.01526255
0.36962478 0.39940286 0.01596728
0.39988531 0.40025493 0.01668144
0.43015722 0.40111641 0.01740456
0.46043981 0.40198675 0.01813613
0.49073234 0.40286536 0.01887569
0.52103412 0.40375168 0.01962276
0.55134442 0.40464513 0.02037693
0.58166254 0.40554514 0.02113776
0.61198775 0.40645114 0.02190484
0.64231933 0.40736257 0.02267774
0.67265655 0.40827886 0.02345602
0.70299871 0.40919943 0.02423925
0.73334507 0.41012372 0.02502700
0.76369493 0.41105115 0.02581882
0.79404755 0.41198116 0.02661428
0.82440222 0.41291318 0.02741294
0.85475822 0.41384664 0.02821437
0.88511483 0.41478097 0.02901813
0.91547134 0.41571560 0.02982378
0.94582701 0.41664995 0.03063088
0.97618113 0.41758347 0.03143900
0.01038252 0.42179878 0.01023525
0.04051453 0.42254587 0.01085446
0.07066417 0.42330730 0.01148632
0.10083071 0.42408249 0.01213040
0.13101344 0.42487086 0.01278625
0.16121163 0.42567187 0.01345345
0.19142456 0.42648492 0.01413155
0.22165152 0.42730946 0.01482012
0.25189178 0.42814491 0.01551871
0.28214462 0.42899071 0.01622689
0.31240933 0.42984628 0.01694423
0.34268519 0.43071105 0.01767028
0.37297147 0.43158446 0.01840464
0.40326747 0.43246594 0.01914686
0.43357245 0.43335491 0.01989650
0.46388570 0.43425081 0.02065313
0.49420649 0.43515307 0.02141630
0.52453410 0.43606111 0.02218556
0.55486782 0.43697438 0.02296048
0.58520692 0.43789229 0.02374062
0.61555069 0.43881428 0.02452554
0.64589841 0.43973978 0.02531482
0.67624935 0.44066822 0.02610802
0.70660281 0.44159903 0.02690470
0.73695805 0.44253164 0.02770442
0.76731435 0.44346548 0.02850674
0.79767101 0.44439998 0.02931124
0.82802729 0.44533457 0.03011747
0.85838248 0.44626869 0.03092499
0.88873585 0.44720176 0.03173338
0.91908670 0.44813321 0.03254219
0.94943429 0.44906247 0.03335098
0.97977792 0.44998898 0.03415933
0.01332173 0.45364676 0.01236783
0.04351017 0.45443980 0.01302787
0.07371381 0.45524525 0.01369909
0.10393194 0.45606255 0.01438105
0.13416382 0.45689113 0.01507333
0.16440875 0.45773042 0.01577548
0.19466600 0.45857984 0.01648707
0.22493486 0.45943882 0.01720765
0.25521459 0.46030681 0.01793680
0.28550449 0.46118322 0.01867407
0.31580384 0.46206750 0.01941904
0.34611190 0.46295906 0.02017125
0.37642798 0.46385734 0.02093028
0.40675133 0.46476177 0.02169569
0.43708125 0.46567178 0.02246705
0.46741701 0.46658680 0.02324391
0.49775790 0.46750626 0.02402584
0.52810319 0.46842959 0.02481241
0.55845217 0.46935623 0.02560316
0.58880411 0.47028560 0.02639768
0.61915830 0.47121713 0.02719551
0.64951401 0.47215025 0.02799623
0.67987053 0.47308440 0.02879940
0.71022713 0.47401900 0.02960458
0.74058309 0.47495349 0.03041133
0.77093771 0.47588729 0.03121922
0.80129025 0.47681983 0.03202781
0.83163999 0.47775055 0.03283667
0.86198622 0.47867888 0.03364535
0.89232822 0.47960424 0.03445342
0.92266526 0.48052607 0.03526045
0.95299663 0.48144380 0.03606599
0.98332161 0.48235686 0.03686961
0.01644113 0.48564168 0.01463192
0.04667785 0.48647423 0.01532784
0.07692735 0.48731727 0.01603347
0.10718891 0.48817023 0.01674839
0.13746181 0.48903256 0.01747214
0.16774533 0.48990368 0.01820430
0.19803875 0.49078302 0.01894443
0.22834136 0.49167002 0.01969208
0.25865242 0.49256409 0.02044683
0.28897123 0.49346467 0.02120824
0.31929705 0.49437120 0.02197586
0.34962918 0.49528310 0.02274927
0.37996690 0.49619981 0.02352803
0.41030947 0.49712074 0.02431169
0.44065619 0.49804535 0.02509983
0.47100633 0.49897304 0.02589201
0.50135917 0.49990326 0.02668778
0.53171399 0.50083544 0.02748672
0.56207008 0.50176900 0.02828838
0.59242671 0.50270338 0.02909233
0.62278316 0.50363801 0.02989813
0.65313872 0.50457231 0.03070535
0.68349266 0.50550572 0.03151354
0.71384427 0.50643766 0.03232228
0.74419282 0.50736758 0.03313112
0.77453759 0.50829489 0.03393963
0.80487787 0.50921904 0.03474737
0.83521293 0.51013944 0.03555391
0.86554206 0.51105553 0.03635880
0.89586453 0.51196675 0.03716162
0.92617962 0.51287251 0.03796191
0.95648662 0.51377225 0.03875926
0.98678481 0.51466541 0.03955321
0.01971332 0.51776187 0.01701088
0.04999017 0.51862747 0.01773775
0.08027738 0.51950165 0.01847285
0.11057423 0.52038384 0.01921577
0.14087999 0.52127348 0.01996606
0.17119396 0.52216999 0.02072329
0.20151540 0.52307280 0.02148701
0.23184361 0.52398135 0.02225679
0.26217786 0.52489507 0.02303220
0.29251742 0.52581338 0.02381279
0.32286159 0.52673571 0.02459813
0.35320963 0.52766151 0.02538779
0.38356084 0.52859019 0.02618133
0.41391449 0.52952119 0.02697830
0.44426985 0.53045394 0.02777828
0.47462622 0.53138786 0.02858083
0.50498287 0.53232240 0.02938550
0.53533908 0.53325697 0.03019187
0.56569414 0.53419101 0.03099949
0.59604731 0.53512395 0.03180794
0.62639789 0.53605523 0.03261676
0.65674514 0.53698426 0.03342553
0.68708836 0.53791049 0.03423381
0.71742682 0.53883334 0.03504117
0.74775981 0.53975224 0.03584715
0.77808660 0.54066662 0.03665134
0.80840647 0.54157591 0.03745329
0.83871870 0.54247955 0.03825256
0.86902257 0.54337696 0.03904872
0.89931737 0.54426758 0.03984134
0.92960237 0.54515083 0.04062996
0.95987686 0.54602615 0.04141417
0.99014011 0.54689296 0.04219352
0.02311088 0.54998564 0.01948810
0.05341972 0.55087785 0.02024096
0.08373649 0.55177672 0.02100060
0.11406048 0.55268169 0.02176658
0.14439097 0.55359218 0.02253846
0.17472723 0.55450764 0.02331580
0.20506856 0.55542748 0.02409818
0.23541422 0.55635114 0.02488514
0.26576350 0.55727805 0.02567626
0.29611568 0.55820764 0.02647110
0.32647003 0.55913935 0.02726922
0.35682585 0.56007259 0.02807018
0.38718240 0.56100680 0.02887356
0.41753898 0.56194142 0.02967890
0.44789485 0.56287586 0.03048577
0.47824930 0.56380957 0.03129375
0.50860161 0.56474197 0.03210238
0.53895106 0.56567250 0.03291124
0.56929693 0.56660057 0.03371988
0.59963850 0.56752563 0.03452787
0.62997506 0.56844711 0.03533478
0.66030587 0.56936443 0.03614016
0.69063022 0.57027703 0.03694358
0.72094739 0.57118433 0.03774461
0.75125666 0.57208577 0.03854280
0.78155732 0.57298077 0.03933772
0.81184863 0.57386877 0.04012893
0.84212989 0.57474920 0.04091600
0.87240037 0.57562149 0.04169849
0.90265935 0.57648506 0.04247596
0.93290611 0.57733935 0.04324797
0.96313993 0.57818379 0.04401409
0.99336010 0.57901782 0.04477389
0.02660641 0.58229131 0.02204693
0.05693909 0.58320367 0.02282085
0.08727728 0.58412079 0.02360008
0.11762027 0.58504209 0.02438418
0.14796733 0.58596700 0.02517270
0.17831775 0.58689495 0.02596523
0.20867080 0.58782538 0.02676131
0.23902577 0.58875771 0.02756052
0.26938194 0.58969137 0.02836241
0.29973858 0.59062579 0.02916655
0.33009499 0.59156041 0.02997250
0.36045042 0.59249466 0.03077982
0.39080418 0.59342795 0.03158809
0.42115553 0.59435974 0.03239685
0.45150377 0.59528944 0.03320568
0.48184815 0.59621648 0.03401414
0.51218798 0.59714031 0.03482179
0.54252253 0.59806034 0.03562819
0.57285107 0.59897600 0.03643291
0.60317289 0.59988674 0.03723551
0.63348727 0.60079197 0.03803555
0.66379349 0.60169113 0.03883260
0.69409083 0.60258365 0.03962622
0.72437856 0.60346896 0.04041598
0.75465598 0.60434649 0.04120143
0.78492235 0.60521567 0.04198214
0.81517697 0.60607593 0.04275767
0.84541910 0.60692670 0.04352759
0.87564803 0.60776742 0.04429146
0.90586305 0.60859750 0.04504884
0.93606342 0.60941639 0.04579930
0.96624844 0.61022351 0.04654240
0.99641737 0.61101830 0.04727770
0.03017252 0.61465718 0.02467076
0.06052088 0.61558326 0.02546079
0.09087234 0.61651218 0.02625466
0.12122618 0.61744337 0.02705193
0.15158167 0.61837625 0.02785217
0.18193810 0.61931025 0.02865493
0.21229473 0.62024481 0.02945978
0.24265087 0.62117936 0.03026628
0.27300578 0.62211333 0.03107400
0.30335874 0.62304614 0.03188249
0.33370904 0.62397723 0.03269133
0.36405596 0.62490603 0.03350008
0.39439877 0.62583197 0.03430829
0.42473676 0.62675447 0.03511554
0.45506920 0.62767298 0.03592138
0.48539538 0.62858692 0.03672537
0.51571457 0.62949572 0.03752709
0.54602607 0.63039880 0.03832610
0.57632914 0.63129561 0.03912195
0.60662306 0.63218558 0.03991422
0.63690712 0.63306812 0.04070245
0.66718060 0.63394267 0.04148623
0.69744278 0.63480867 0.04226511
0.72769293 0.63566555 0.04303865
0.75793034 0.63651272 0.04380641
0.78815429 0.63734963 0.04456797
0.81836406 0.63817571 0.04532288
0.84855893 0.63899038 0.04607071
0.87873817 0.63979307 0.04681102
0.90890107 0.64058322 0.04754337
0.93904691 0.64136026 0.04826733
0.96917497 0.64212362 0.04898245
0.99928453 0.64287272 0.04968831
0.03378178 0.64706158 0.02734295
0.06413769 0.64799493 0.02814415
0.09449428 0.64892921 0.02894773
0.12485082 0.64986383 0.02975323
0.15520659 0.65079823 0.03056022
0.18556087 0.65173184 0.03136827
0.21591295 0.65266410 0.03217695
0.24626210 0.65359442 0.03298580
0.27660761 0.65452224 0.03379440
0.30694875 0.65544700 0.03460231
0.33728480 0.65636811 0.03540910
0.36761504 0.65728502 0.03621432
0.39793876 0.65819715 0.03701754
0.42825524 0.65910394 0.03781832
0.45856375 0.66000481 0.03861623
0.48886357 0.66089919 0.03941083
0.51915399 0.66178652 0.04020167
0.54943428 0.66266622 0.04098834
0.57970373 0.66353772 0.04177038
0.60996161 0.66440047 0.04254736
0.64020721 0.66525387 0.04331885
0.67043980 0.66609738 0.04408441
0.70065867 0.66693041 0.04484360
0.73086310 0.66775240 0.04559598
0.76105236 0.66856278 0.04634112
0.79122574 0.66936097 0.04707858
0.82138251 0.67014641 0.04780793
0.85152196 0.67091854 0.04852872
0.88164337 0.67167677 0.04924053
0.91174601 0.67242054 0.04994290
