assets/luts/DB_Copper_Story_Rec709_50.cube
TITLE "Copper Story Rec709 50"
# Red changes fastest. Full-range normalized input.
LUT_3D_SIZE 5
DOMAIN_MIN 0 0 0
DOMAIN_MAX 1 1 1
0.00350000 0.00350000 0.00350000
0.23288488 0.00000000 0.00056313
0.46119196 0.00000000 0.00073023
0.69977793 0.00000000 0.00051628
0.93706073 0.00275326 0.00272706
0.00000000 0.23424824 0.00299246
0.23596153 0.23836666 0.00328622
0.47548458 0.24316663 0.00778373
0.71642058 0.24905203 0.01266446
0.95835997 0.25575030 0.01826874
0.01644113 0.48564168 0.01463192
0.25865242 0.49256409 0.02044683
0.50135917 0.49990326 0.02668778
0.74419282 0.50736758 0.03313112
0.98678481 0.51466541 0.03955321
0.04459449 0.74428908 0.03548341
0.28700699 0.75145389 0.04184223
0.52867510 0.75805441 0.04787475
0.76923025 0.76379903 0.05335731
1.00000000 0.76841193 0.08236112
0.06849454 0.99985085 0.05517300
0.31565480 1.00000000 0.07307988
0.55484062 1.00000000 0.09371645
0.78425379 1.00000000 0.11670259
1.00000000 0.99774533 0.17164207
0.00146788 0.00203896 0.23652650
0.23036158 0.00000000 0.23283948
0.46222339 0.00000000 0.23304595
0.70069243 0.00071847 0.23531235
0.93848448 0.00406031 0.23802082
0.00000000 0.23573417 0.23589563
0.23757517 0.23951050 0.23904602
0.47828284 0.24474267 0.24334061
0.71894526 0.25125005 0.24872691
0.96113979 0.25815861 0.25452861
0.01907318 0.48792773 0.25077504
0.26149153 0.49502468 0.25675792
0.50416272 0.50237622 0.26262629
0.74708129 0.50987720 0.26954958
0.98950423 0.51705419 0.27591968
0.04743391 0.74676746 0.27189560
0.28963494 0.75377334 0.27816869
0.53096641 0.76011589 0.28403952
0.77105976 0.76550350 0.28928445
1.00000000 0.77036985 0.31460543
0.07393620 1.00000000 0.29364750
0.32035313 1.00000000 0.30814219
0.55810175 1.00000000 0.32450676
0.78575880 1.00000000 0.34273436
1.00000000 0.99826842 0.38556868
0.00000000 0.00105516 0.46743458
0.22949301 0.00000000 0.46385778
0.46380588 0.00000000 0.46704125
0.70168364 0.00167773 0.47031553
0.94010940 0.00552940 0.47345111
0.00031046 0.23714040 0.47131471
0.23936836 0.24150125 0.47487960
0.47991173 0.24706157 0.47947129
0.72157060 0.25353060 0.48486493
0.96397780 0.26061582 0.49083825
0.02179045 0.49028406 0.48698432
0.26437788 0.49752133 0.49311312
0.50629156 0.50443365 0.49989209
0.75028803 0.51200599 0.50593768
0.99213886 0.51937870 0.51224914
0.05021554 0.74920297 0.50828720
0.29216260 0.75601629 0.51444876
0.53311169 0.76206754 0.52013088
0.77247099 0.76701442 0.52474282
1.00000000 0.77242394 0.54332979
0.07991815 1.00000000 0.52976452
0.32516592 1.00000000 0.54013932
0.56142401 1.00000000 0.55190474
0.78727392 1.00000000 0.56503995
1.00000000 0.99882123 0.59502040
0.00000000 0.00140256 0.68493983
0.22946318 0.00000000 0.69602817
0.46573262 0.00000000 0.70316075
0.70290410 0.00282124 0.70547227
0.94192107 0.00714910 0.70900918
0.00176065 0.23846874 0.70662635
0.24136419 0.24326974 0.71056484
0.48232757 0.24917145 0.71545385
0.72428221 0.25588225 0.72106975
0.96685955 0.26311049 0.72718889
0.02457849 0.49269924 0.72325102
0.26729103 0.50004346 0.72949784
0.51012350 0.50750732 0.73594294
0.75270767 0.51479891 0.74236304
0.99467421 0.52162755 0.74853285
0.05292496 0.75158420 0.74464944
0.29457553 0.75817131 0.75067368
0.53510556 0.76389705 0.75614400
0.77273717 0.76801498 0.76166711
1.00000000 0.77435501 0.76849711
0.08606949 1.00000000 0.76297430
0.33009361 1.00000000 0.76890558
0.56480882 1.00000000 0.77574188
0.78880062 1.00000000 0.78344762
1.00000000 0.99941917 0.79950296
0.00000000 0.00171106 0.90677205
0.22990683 0.00000000 0.93026189
0.46651110 0.00076660 0.93804102
0.70433937 0.00413756 0.94077382
0.94390504 0.00890799 0.94468626
0.00341017 0.23995765 0.94207342
0.24351685 0.24516517 0.94635978
0.48485819 0.25137435 0.95152073
0.72706563 0.25829357 0.95733260
0.96977062 0.26563121 0.96357178
0.02742287 0.49516186 0.95956637
0.27021748 0.50257941 0.96590557
0.51300689 0.51001759 0.97236701
0.75542255 0.51718476 0.97872704
0.99709589 0.52378928 0.98476203
0.05554773 0.75389971 0.98097356
0.29685931 0.76022699 0.98683468
0.53692583 0.76559383 0.99206569
0.77537869 0.76970860 0.99644306
1.00000000 0.77682322 0.98962607
0.09239016 1.00000000 0.99311265
0.33513702 1.00000000 0.99427410
0.56825798 1.00000000 0.99584840
0.79034464 1.00000000 0.99778466
1.00000000 1.00000000 1.00000000
