assets/luts/DB_Copper_Story_Rec709_100.cube
TITLE "Copper Story Rec709 100"
# Red changes fastest. Full-range normalized input.
LUT_3D_SIZE 5
DOMAIN_MIN 0 0 0
DOMAIN_MAX 1 1 1
0.00700000 0.00700000 0.00700000
0.21576977 0.00000000 0.00112626
0.42238392 0.00000000 0.00146045
0.64955585 0.00000000 0.00103256
0.87412146 0.00550651 0.00545412
0.00000000 0.21849648 0.00598492
0.22192305 0.22673333 0.00657244
0.45096916 0.23633325 0.01556747
0.68284115 0.24810407 0.02532892
0.91671993 0.26150059 0.03653748
0.03288227 0.47128337 0.02926383
0.26730484 0.48512818 0.04089366
0.50271833 0.49980653 0.05337556
0.73838563 0.51473516 0.06626224
0.97356962 0.52933082 0.07910643
0.08918898 0.73857816 0.07096681
0.32401398 0.75290778 0.08368446
0.55735019 0.76610883 0.09574949
0.78846049 0.77759806 0.10671463
1.00000000 0.78682386 0.16472224
0.13698908 0.99970170 0.11034601
0.38130960 1.00000000 0.14615976
0.60968125 1.00000000 0.18743291
0.81850758 1.00000000 0.23340518
1.00000000 0.99549066 0.34328414
0.00293575 0.00407791 0.22305300
0.21072315 0.00000000 0.21567895
0.42444677 0.00000000 0.21609189
0.65138485 0.00143695 0.22062471
0.87696895 0.00812062 0.22604163
0.00000000 0.22146835 0.22179126
0.22515035 0.22902100 0.22809204
0.45656568 0.23948533 0.23668123
0.68789053 0.25250010 0.24745382
0.92227958 0.26631723 0.25905722
0.03814637 0.47585546 0.25155007
0.27298306 0.49004936 0.26351583
0.50832545 0.50475244 0.27525258
0.74416258 0.51975441 0.28909916
0.97900847 0.53410837 0.30183936
0.09486782 0.74353492 0.29379121
0.32926987 0.75754668 0.30633738
0.56193281 0.77023179 0.31807904
0.79211951 0.78100700 0.32856890
1.00000000 0.79073969 0.37921086
0.14787240 1.00000000 0.33729501
0.39070627 1.00000000 0.36628438
0.61620349 1.00000000 0.39901351
0.82151760 1.00000000 0.43546872
1.00000000 0.99653685 0.52113736
0.00000000 0.00211031 0.43486916
0.20898603 0.00000000 0.42771556
0.42761176 0.00000000 0.43408250
0.65336728 0.00335546 0.44063106
0.88021880 0.01105880 0.44690222
0.00062092 0.22428080 0.44262942
0.22873673 0.23300250 0.44975920
0.45982345 0.24412314 0.45894257
0.69314120 0.25706120 0.46972987
0.92795560 0.27123164 0.48167649
0.04358090 0.48056812 0.47396865
0.27875576 0.49504265 0.48622624
0.51258312 0.50886730 0.49978418
0.75057606 0.52401198 0.51187536
0.98427772 0.53875740 0.52449829
0.10043109 0.74840595 0.51657441
0.33432519 0.76203257 0.52889752
0.56622337 0.77413509 0.54026176
0.79494198 0.78402883 0.54948565
1.00000000 0.79484788 0.58665958
0.15983630 1.00000000 0.55952904
0.40033185 1.00000000 0.58027865
0.62284802 1.00000000 0.60380948
0.82454785 1.00000000 0.63007989
1.00000000 0.99764247 0.69004080
0.00000000 0.00280511 0.61987966
0.20892635 0.00000000 0.64205635
0.43146524 0.00000000 0.65632150
0.65580819 0.00564247 0.66094454
0.88384213 0.01429820 0.66801835
0.00352129 0.22693747 0.66325271
0.23272839 0.23653948 0.67112968
0.46465514 0.24834291 0.68090771
0.69856441 0.26176450 0.69213950
0.93371911 0.27622099 0.70437778
0.04915698 0.48539848 0.69650205
0.28458205 0.50008692 0.70899569
0.52024699 0.51501463 0.72188588
0.75541534 0.52959782 0.73472608
0.98934842 0.54325509 0.74706570
0.10584993 0.75316839 0.73929889
0.33915106 0.76634262 0.75134735
0.57021112 0.77779410 0.76228800
0.79547433 0.78602995 0.77333423
1.00000000 0.79871002 0.78699422
0.17213898 1.00000000 0.77594861
0.41018722 1.00000000 0.78781115
0.62961763 1.00000000 0.80148376
0.82760124 1.00000000 0.81689524
1.00000000 0.99883833 0.84900592
0.00000000 0.00342212 0.81354409
0.20981366 0.00000000 0.86052378
0.43302220 0.00153321 0.87608204
0.65867874 0.00827513 0.88154765
0.88781008 0.01781599 0.88937252
0.00682034 0.22991531 0.88414683
0.23703370 0.24033033 0.89271957
0.46971638 0.25274870 0.90304145
0.70413127 0.26658715 0.91466521
0.93954124 0.28126243 0.92714355
0.05484575 0.49032371 0.91913274
0.29043496 0.50515883 0.93181115
0.52601379 0.52003518 0.94473402
0.76084510 0.53436951 0.95745409
0.99419178 0.54757857 0.96952406
0.11109546 0.75779942 0.96194713
0.34371861 0.77045398 0.97366936
0.57385166 0.78118767 0.98413138
0.80075738 0.78941720 0.99288612
1.00000000 0.80364644 0.97925214
0.18478032 1.00000000 0.98622531
0.42027403 1.00000000 0.98854820
0.63651597 1.00000000 0.99169681
0.83068927 1.00000000 0.99556931
1.00000000 1.00000000 1.00000000
