assets/luts/DB_Copper_Story_Rec709_100.cube
TITLE "Copper Story Rec709 100"
# Red changes fastest. Full-range normalized input.
LUT_3D_SIZE 33
DOMAIN_MIN 0 0 0
DOMAIN_MAX 1 1 1
0.00700000 0.00700000 0.00700000
0.03366087 0.00558878 0.00574139
0.06091495 0.00411962 0.00438724
0.08831376 0.00271754 0.00308798
0.11524612 0.00155504 0.00204584
0.14133982 0.00073798 0.00138068
0.16670315 0.00023558 0.00105174
0.19148550 0.00000000 0.00098516
0.21576977 0.00000000 0.00112626
0.24040446 0.00000000 0.00123546
0.26538130 0.00000000 0.00131536
0.29070002 0.00000000 0.00137301
0.31636152 0.00000000 0.00141437
0.34236465 0.00000000 0.00144278
0.36870602 0.00000000 0.00145967
0.39538088 0.00000000 0.00146552
0.42238392 0.00000000 0.00146045
0.44970964 0.00000000 0.00144452
0.47735245 0.00000000 0.00141776
0.50530680 0.00000000 0.00138020
0.53356709 0.00000000 0.00133190
0.56212773 0.00000000 0.00127291
0.59098314 0.00000000 0.00120330
0.62012771 0.00000000 0.00112315
0.64955585 0.00000000 0.00103256
0.67768908 0.00042493 0.00135382
0.70555687 0.00099506 0.00181011
0.73349172 0.00161903 0.00231102
0.76149218 0.00229569 0.00285566
0.78955683 0.00302391 0.00344316
0.81768422 0.00380255 0.00407266
0.84587291 0.00463046 0.00474327
0.87412146 0.00550651 0.00545412
0.00172123 0.03090992 0.00340665
0.02854389 0.02983733 0.00192666
0.05624023 0.02861931 0.00024255
0.08285384 0.02768642 0.00000000
0.10869840 0.02709165 0.00000000
0.13444351 0.02668043 0.00000000
0.16035573 0.02637363 0.00000000
0.18650457 0.02613016 0.00000000
0.21284050 0.02593716 0.00000000
0.23929871 0.02579414 0.00000000
0.26586125 0.02569999 0.00000000
0.29255524 0.02564935 0.00000000
0.31942201 0.02563513 0.00000000
0.34649445 0.02565113 0.00000000
0.37379163 0.02569282 0.00000000
0.40132252 0.02575707 0.00000000
0.42909058 0.02584160 0.00000000
0.45709653 0.02594464 0.00000000
0.48508740 0.02613122 0.00008457
0.51269922 0.02649601 0.00037130
0.54038334 0.02691878 0.00070582
0.56813832 0.02739839 0.00108725
0.59596271 0.02793369 0.00151472
0.62385508 0.02852355 0.00198736
0.65181398 0.02916684 0.00250429
0.67983798 0.02986240 0.00306463
0.70792563 0.03060911 0.00366753
0.73607551 0.03140581 0.00431209
0.76428615 0.03225139 0.00499745
0.79255614 0.03314468 0.00572273
0.82088402 0.03408456 0.00648707
0.84926837 0.03506989 0.00728958
0.87770773 0.03609952 0.00812940
0.00000000 0.05476602 0.00300410
0.02476898 0.05480685 0.00000000
0.05194961 0.05389804 0.00000000
0.07852635 0.05325734 0.00000000
0.10473710 0.05285392 0.00000000
0.13085923 0.05264771 0.00000000
0.15714084 0.05258215 0.00000000
0.18371685 0.05259625 0.00000000
0.21059011 0.05264396 0.00000000
0.23768882 0.05270437 0.00000000
0.26494605 0.05277634 0.00000000
0.29234044 0.05286611 0.00000000
0.31988770 0.05297873 0.00000000
0.34761442 0.05311592 0.00000000
0.37554135 0.05327702 0.00000000
0.40327134 0.05356354 0.00018131
0.43090633 0.05395054 0.00048722
0.45861576 0.05439433 0.00083924
0.48639606 0.05489438 0.00123759
0.51424535 0.05544968 0.00168161
0.54216210 0.05605913 0.00217047
0.57014487 0.05672157 0.00270331
0.59819221 0.05743589 0.00327925
0.62630268 0.05820093 0.00389741
0.65447485 0.05901556 0.00455693
0.68270727 0.05987864 0.00525692
0.71099850 0.06078903 0.00599653
0.73934710 0.06174558 0.00677486
0.76775164 0.06274717 0.00759105
0.79621068 0.06379265 0.00844423
0.82472276 0.06488089 0.00933352
0.85328647 0.06601074 0.01025805
0.88190034 0.06718106 0.01121695
0.00000000 0.07923201 0.00414192
0.02288625 0.08030141 0.00000000
0.05001382 0.07974257 0.00000000
0.07690293 0.07931459 0.00000000
0.10356362 0.07905544 0.00000000
0.13010443 0.07899284 0.00000000
0.15671108 0.07911649 0.00000000
0.18355552 0.07937437 0.00000000
0.21071954 0.07969510 0.00000000
0.23818760 0.08002043 0.00000000
0.26589712 0.08032413 0.00000000
0.29379547 0.08060811 0.00000000
0.32186407 0.08088634 0.00000000
0.34926510 0.08137090 0.00051398
0.37689954 0.08186494 0.00095198
0.40467350 0.08239457 0.00138752
0.43253919 0.08297218 0.00185311
0.46047829 0.08360160 0.00235918
0.48848439 0.08428317 0.00290801
0.51655482 0.08501610 0.00349945
0.54468791 0.08579933 0.00413277
0.57288218 0.08663173 0.00480713
0.60113618 0.08751216 0.00552165
0.62944846 0.08843949 0.00627545
0.65781760 0.08941257 0.00706767
0.68624214 0.09043027 0.00789743
0.71472066 0.09149145 0.00876386
0.74325170 0.09259497 0.00966608
0.77183384 0.09373968 0.01060322
0.80046563 0.09492446 0.01157441
0.82914562 0.09614815 0.01257877
0.85787239 0.09740963 0.01361543
0.88664450 0.09870775 0.01468351
0.00000000 0.10491878 0.00510371
0.02167959 0.10680369 0.00000000
0.04888373 0.10657754 0.00000000
0.07609954 0.10638942 0.00000000
0.10325892 0.10628439 0.00000000
0.13034402 0.10632350 0.00000000
0.15743095 0.10654599 0.00000000
0.18465471 0.10694112 0.00000000
0.21213229 0.10745002 0.00000000
0.23991124 0.10799649 0.00000000
0.26797312 0.10852370 0.00000000
0.29627237 0.10901123 0.00000000
0.32354021 0.10973012 0.00102368
0.35107004 0.11043389 0.00184083
0.37887874 0.11112846 0.00249470
0.40685360 0.11184522 0.00310272
0.43493078 0.11260146 0.00372166
0.46308227 0.11340393 0.00437289
0.49129760 0.11425421 0.00506254
0.51957284 0.11515189 0.00579156
0.54790596 0.11609602 0.00655947
0.57629543 0.11708548 0.00736546
0.60473979 0.11811914 0.00820867
0.63323760 0.11919586 0.00908823
0.66178741 0.12031451 0.01000326
0.69038779 0.12147394 0.01095290
0.71903730 0.12267301 0.01193626
0.74773449 0.12391060 0.01295248
0.77647793 0.12518554 0.01400069
0.80526618 0.12649672 0.01507999
0.83409779 0.12784298 0.01618954
0.86297134 0.12922320 0.01732844
0.89188537 0.13063622 0.01849583
0.00000000 0.13175562 0.00577692
0.02101381 0.13425496 0.00000000
0.04833111 0.13435335 0.00000000
0.07579337 0.13445158 0.00000000
0.10335163 0.13456902 0.00000000
0.13095085 0.13475498 0.00000000
0.15858219 0.13506549 0.00000000
0.18630202 0.13552907 0.00000000
0.21419906 0.13612637 0.00000000
0.24234250 0.13679969 0.00000000
0.27075411 0.13748496 0.00000000
0.29844968 0.13831311 0.00114688
0.32586301 0.13922338 0.00258662
0.35359707 0.14010799 0.00365866
0.38158989 0.14098303 0.00451823
0.40975395 0.14187292 0.00529381
0.43802596 0.14279509 0.00605926
0.46637292 0.14375794 0.00684695
0.49478093 0.14476412 0.00766789
0.52324459 0.14581369 0.00852468
0.55176145 0.14690582 0.00941729
0.58032983 0.14803945 0.01034503
0.60894826 0.14921345 0.01130705
0.63761529 0.15042668 0.01230248
0.66632949 0.15167799 0.01333044
0.69508941 0.15296626 0.01439007
0.72389361 0.15429034 0.01548048
0.75274066 0.15564910 0.01660082
0.78162911 0.15704139 0.01775019
0.81055753 0.15846608 0.01892774
0.83952447 0.15992202 0.02013258
0.86852849 0.16140808 0.02136384
0.89756817 0.16292311 0.02262065
0.00000000 0.15967307 0.00613389
0.02085122 0.16257937 0.00000000
0.04835713 0.16295604 0.00000000
0.07604825 0.16333324 0.00000000
0.10391104 0.16370904 0.00000000
0.13191209 0.16410356 0.00000000
0.16002241 0.16455507 0.00000000
0.18824414 0.16510040 0.00000000
0.21661417 0.16575131 0.00000000
0.24518082 0.16648517 0.00000000
0.27314097 0.16735008 0.00154504
0.30089715 0.16832287 0.00328342
0.32873383 0.16933790 0.00477420
0.35675274 0.17036180 0.00598841
0.38496004 0.17139078 0.00700763
0.41331356 0.17243614 0.00793226
0.44176832 0.17351018 0.00883353
0.47029513 0.17462035 0.00974818
0.49887952 0.17576955 0.01069077
0.52751528 0.17695812 0.01166553
0.55619955 0.17818538 0.01267299
0.58493055 0.17945029 0.01371259
0.61370675 0.18075173 0.01478353
0.64252672 0.18208856 0.01588494
0.67138901 0.18345966 0.01701595
0.70029218 0.18486388 0.01817568
0.72923478 0.18630007 0.01936326
0.75821539 0.18776711 0.02057782
0.78723256 0.18926385 0.02181848
0.81628486 0.19078915 0.02308438
0.84537083 0.19234188 0.02437463
0.87448905 0.19392089 0.02568836
0.90363806 0.19552505 0.02702470
0.00000000 0.18860715 0.00619533
0.02203665 0.19135053 0.00109286
0.04982988 0.19190901 0.00141157
0.07768031 0.19252453 0.00165075
0.10561998 0.19318535 0.00176316
0.13370204 0.19387340 0.00175934
0.16196634 0.19457516 0.00175049
0.19039188 0.19529638 0.00193209
0.21888417 0.19606575 0.00248855
0.24732623 0.19691846 0.00347730
0.27565691 0.19787158 0.00478921
0.30390564 0.19891352 0.00622120
0.33215690 0.20001553 0.00759606
0.36048688 0.20115182 0.00883487
0.38892765 0.20231080 0.00994948
0.41747286 0.20349307 0.01099230
0.44610115 0.20470396 0.01201337
0.47479353 0.20594795 0.01304381
0.50353844 0.20722715 0.01409801
0.53233007 0.20854183 0.01518086
0.56116547 0.20989132 0.01629329
0.59004278 0.21127461 0.01743488
0.61896047 0.21269060 0.01860486
0.64791708 0.21413816 0.01980236
0.67691117 0.21561614 0.02102653
0.70594129 0.21712341 0.02227648
0.73500601 0.21865883 0.02355134
0.76410389 0.22022126 0.02485024
0.79323349 0.22180956 0.02617230
0.82239336 0.22342259 0.02751665
0.85158207 0.22505921 0.02888243
0.88079819 0.22671828 0.03026874
0.91004026 0.22839867 0.03167473
0.00000000 0.21849648 0.00598492
0.02411631 0.22069740 0.00279074
0.05216135 0.22142518 0.00334414
0.08026013 0.22220588 0.00389976
0.10841653 0.22303644 0.00443140
0.13664583 0.22391034 0.00492383
0.16497010 0.22481933 0.00539638
0.19340124 0.22575884 0.00591519
0.22192305 0.22673333 0.00657244
0.25049247 0.22775539 0.00743533
0.27906517 0.22883729 0.00850164
0.30762466 0.22998185 0.00970073
0.33618837 0.23118105 0.01093887
0.36478871 0.23242242 0.01214967
0.39344983 0.23369663 0.01331356
0.42217847 0.23500010 0.01444469
0.45096916 0.23633325 0.01556747
0.47981297 0.23769750 0.01670122
0.50870277 0.23909361 0.01785651
0.53763412 0.24052145 0.01903746
0.56660438 0.24198026 0.02024495
0.59561172 0.24346905 0.02147864
0.62465460 0.24498670 0.02273777
0.65373156 0.24653209 0.02402148
0.68284115 0.24810407 0.02532892
0.71198194 0.24970150 0.02665920
0.74115248 0.25132325 0.02801145
0.77035133 0.25296818 0.02938480
0.79957706 0.25463514 0.03077838
0.82882823 0.25632300 0.03219131
0.85810339 0.25803063 0.03362272
0.88740110 0.25975687 0.03507174
0.91671993 0.26150059 0.03653748
0.00000000 0.24927922 0.00551682
0.02690036 0.25063603 0.00493319
0.05516194 0.25152611 0.00564894
0.08347822 0.25246375 0.00639418
0.11184739 0.25344777 0.00715933
0.14027069 0.25447605 0.00793456
0.16875356 0.25554529 0.00871722
0.19730288 0.25665196 0.00952025
0.22592037 0.25779445 0.01037303
0.25459737 0.25897446 0.01130873
0.28331744 0.26019584 0.01234405
0.31206624 0.26146128 0.01346745
0.34083997 0.26276987 0.01464639
0.36964500 0.26411747 0.01584702
0.39849051 0.26549929 0.01704997
0.42738185 0.26691206 0.01825276
0.45631900 0.26835430 0.01946245
0.48529882 0.26982558 0.02068739
0.51431767 0.27132556 0.02193312
0.54337261 0.27285361 0.02320208
0.57246147 0.27440886 0.02449472
0.60158256 0.27599025 0.02581062
0.63073434 0.27759667 0.02714900
0.65991535 0.27922699 0.02850904
0.68912416 0.28088007 0.02988986
0.71835931 0.28255477 0.03129058
0.74761938 0.28424996 0.03271034
0.77690292 0.28596449 0.03414826
0.80620849 0.28769723 0.03560347
0.83553465 0.28944704 0.03707509
0.86487996 0.29121277 0.03856225
0.89424299 0.29299329 0.04006408
0.92362229 0.29478746 0.04157970
0.00195119 0.28012010 0.00670516
0.03035070 0.28111785 0.00751780
0.05880445 0.28215970 0.00836683
0.08731060 0.28324460 0.00925028
0.11586727 0.28437150 0.01016516
0.14447299 0.28553922 0.01110766
0.17312744 0.28674621 0.01207458
0.20183150 0.28799062 0.01306595
0.23058616 0.28927071 0.01408720
0.25939043 0.29058543 0.01514803
0.28824021 0.29193468 0.01625710
0.31712964 0.29331877 0.01741609
0.34605413 0.29473739 0.01861793
0.37501222 0.29618918 0.01985095
0.40400490 0.29767203 0.02110515
0.43303344 0.29918387 0.02237584
0.46209785 0.30072312 0.02366301
0.49119683 0.30228867 0.02496866
0.52032844 0.30387960 0.02629456
0.54949073 0.30549496 0.02764149
0.57868194 0.30713373 0.02900934
0.60790048 0.30879482 0.03039755
0.63714487 0.31047712 0.03180531
0.66641364 0.31217948 0.03323178
0.69570537 0.31390077 0.03467610
0.72501860 0.31563986 0.03613738
0.75435190 0.31739559 0.03761476
0.78370383 0.31916684 0.03910736
0.81307295 0.32095246 0.04061431
0.84245781 0.32275132 0.04213473
0.87185699 0.32456227 0.04366776
0.90126903 0.32638417 0.04521251
0.93069251 0.32821589 0.04676812
0.00584009 0.31095676 0.00958573
0.03441779 0.31209793 0.01051982
0.06304521 0.31327926 0.01148795
0.09172085 0.31449965 0.01248908
0.12044312 0.31575798 0.01352196
0.14921047 0.31705314 0.01458507
0.17802150 0.31838395 0.01567676
0.20687514 0.31974915 0.01679575
0.23577060 0.32114741 0.01794187
0.26470703 0.32257748 0.01911639
0.29368295 0.32403829 0.02032128
0.32269616 0.32552901 0.02155769
0.35174415 0.32704882 0.02282458
0.38082484 0.32859673 0.02411886
0.40993691 0.33017147 0.02543681
0.43907954 0.33177167 0.02677559
0.46825183 0.33339600 0.02813383
0.49745260 0.33504325 0.02951113
0.52668041 0.33671232 0.03090740
0.55593371 0.33840210 0.03232239
0.58521097 0.34011150 0.03375556
0.61451067 0.34183941 0.03520617
0.64383138 0.34358469 0.03667342
0.67317163 0.34534620 0.03815645
0.70252998 0.34712282 0.03965437
0.73190500 0.34891339 0.04116633
0.76129524 0.35071678 0.04269144
0.79069926 0.35253185 0.04422884
0.82011564 0.35435746 0.04577764
0.84954291 0.35619247 0.04733698
0.87897966 0.35803575 0.04890598
0.90842443 0.35988615 0.05048377
0.93787578 0.36174253 0.05206948
0.01030854 0.34226081 0.01286229
0.03904799 0.34353254 0.01390772
0.06783237 0.34484059 0.01498433
0.09666022 0.34618384 0.01609123
0.12553010 0.34756114 0.01722748
0.15444051 0.34897137 0.01839212
0.18339001 0.35041339 0.01958411
0.21237717 0.35188605 0.02080242
0.24140065 0.35338818 0.02204615
0.27045916 0.35491859 0.02331469
0.29955138 0.35647614 0.02460773
0.32867583 0.35805971 0.02592499
0.35783089 0.35966824 0.02726591
0.38701490 0.36130063 0.02862938
0.41622633 0.36295578 0.03001397
0.44546377 0.36463249 0.03141821
0.47472590 0.36632960 0.03284091
0.50401139 0.36804593 0.03428117
0.53331882 0.36978032 0.03573827
0.56264677 0.37153166 0.03721150
0.59199375 0.37329881 0.03870009
0.62135834 0.37508064 0.04020324
0.65073906 0.37687601 0.04172009
0.68013449 0.37868379 0.04324978
0.70954317 0.38050283 0.04479143
0.73896368 0.38233199 0.04634417
0.76839457 0.38417015 0.04790713
0.79783441 0.38601615 0.04947943
0.82728174 0.38786886 0.05106020
0.85673513 0.38972714 0.05264857
0.88619315 0.39158985 0.05424367
0.91565435 0.39345585 0.05584461
0.94511730 0.39532400 0.05745053
0.01530179 0.37398887 0.01650163
0.04418668 0.37537827 0.01764850
0.07311165 0.37680017 0.01882361
0.10207528 0.37825342 0.02002610
0.13107611 0.37973689 0.02125507
0.16011271 0.38124944 0.02250965
0.18918362 0.38278993 0.02378893
0.21828741 0.38435723 0.02509203
0.24742263 0.38595018 0.02641802
0.27658788 0.38756765 0.02776607
0.30578173 0.38920849 0.02913535
0.33500278 0.39087156 0.03052511
0.36424957 0.39255572 0.03193457
0.39352061 0.39425986 0.03336289
0.42281445 0.39598283 0.03480912
0.45212961 0.39772350 0.03627227
0.48146468 0.39948072 0.03775138
0.51081824 0.40125336 0.03924553
0.54018885 0.40304026 0.04075386
0.56957508 0.40484028 0.04227553
0.59897550 0.40665229 0.04380969
0.62838865 0.40847515 0.04535548
0.65781311 0.41030772 0.04691205
0.68724742 0.41214886 0.04847851
0.71669015 0.41399743 0.05005400
0.74613986 0.41585230 0.05163764
0.77559510 0.41771233 0.05322856
0.80505445 0.41957637 0.05482588
0.83451645 0.42144328 0.05642874
0.86397967 0.42331194 0.05803625
0.89344267 0.42518119 0.05964755
0.92290401 0.42704990 0.06126176
0.95236225 0.42891693 0.06287801
0.02076504 0.40609756 0.02047051
0.04977906 0.40759175 0.02170892
0.07882834 0.40911460 0.02297264
0.10791143 0.41066497 0.02426079
0.13702688 0.41224173 0.02557251
0.16617326 0.41384373 0.02690690
0.19534912 0.41546984 0.02826310
0.22455304 0.41711892 0.02964024
0.25378355 0.41878982 0.03103742
0.28303924 0.42048142 0.03245378
0.31231866 0.42219256 0.03388845
0.34162037 0.42392211 0.03534057
0.37094295 0.42566893 0.03680927
0.40028494 0.42743188 0.03829371
0.42964490 0.42920982 0.03979300
0.45902140 0.43100162 0.04130626
0.48841297 0.43280613 0.04283259
0.51781820 0.43462223 0.04437111
0.54723563 0.43644875 0.04592095
0.57666384 0.43828458 0.04748123
0.60610138 0.44012856 0.04905109
0.63554682 0.44197956 0.05062965
0.66499871 0.44383644 0.05221604
0.69445561 0.44569805 0.05380939
0.72391609 0.44756327 0.05540883
0.75337870 0.44943095 0.05701348
0.78284201 0.45129996 0.05862248
0.81230457 0.45316914 0.06023494
0.84176495 0.45503738 0.06184999
0.87122171 0.45690351 0.06346676
0.90067340 0.45876641 0.06508438
0.93011859 0.46062494 0.06670197
0.95955583 0.46247796 0.06831866
0.02664347 0.43854352 0.02473566
0.05577034 0.44012960 0.02605573
0.08492763 0.44174051 0.02739817
0.11411387 0.44337511 0.02876211
0.14332765 0.44503226 0.03014666
0.17256750 0.44671083 0.03155096
0.20183201 0.44840967 0.03297413
0.23111972 0.45012765 0.03441531
0.26042919 0.45186362 0.03587360
0.28975899 0.45361645 0.03734815
0.31910767 0.45538499 0.03883807
0.34847381 0.45716811 0.04034250
0.37785595 0.45896467 0.04186056
0.40725266 0.46077353 0.04339139
0.43666250 0.46259355 0.04493410
0.46608403 0.46442360 0.04648782
0.49551581 0.46626252 0.04805169
0.52495639 0.46810919 0.04962481
0.55440434 0.46996246 0.05120633
0.58385822 0.47182119 0.05279536
0.61331660 0.47368426 0.05439103
0.64277802 0.47555050 0.05599247
0.67224105 0.47741880 0.05759880
0.70170425 0.47928800 0.05920916
0.73116619 0.48115697 0.06082267
0.76062542 0.48302457 0.06243845
0.79008049 0.48488966 0.06405563
0.81952998 0.48675110 0.06567333
0.84897245 0.48860776 0.06729070
0.87840644 0.49045849 0.06890684
0.90783053 0.49230215 0.07052089
0.93724327 0.49413760 0.07213197
0.96664322 0.49596371 0.07373922
0.03288227 0.47128337 0.02926383
0.06210570 0.47294845 0.03065567
0.09135470 0.47463453 0.03206695
0.12062782 0.47634047 0.03349678
0.14992362 0.47806513 0.03494428
0.17924066 0.47980737 0.03640860
0.20857750 0.48156605 0.03788885
0.23793271 0.48334003 0.03938417
0.26730484 0.48512818 0.04089366
0.29669245 0.48692935 0.04241648
0.32609411 0.48874241 0.04395173
0.35550837 0.49056621 0.04549855
0.38493379 0.49239961 0.04705606
0.41436894 0.49424149 0.04862339
0.44381237 0.49609069 0.05019967
0.47326265 0.49794608 0.05178401
0.50271833 0.49980653 0.05337556
0.53217798 0.50167088 0.05497343
0.56164016 0.50353800 0.05657676
0.59110342 0.50540676 0.05818466
0.62056633 0.50727601 0.05979626
0.65002744 0.50914462 0.06141070
0.67948533 0.51101143 0.06302709
0.70893854 0.51287533 0.06464456
0.73838563 0.51473516 0.06626224
0.76782518 0.51658979 0.06787926
0.79725574 0.51843807 0.06949475
0.82667586 0.52027888 0.07110782
0.85608411 0.52211107 0.07271760
0.88547905 0.52393349 0.07432323
0.91485925 0.52574502 0.07592383
0.94422325 0.52754451 0.07751852
0.97356962 0.52933082 0.07910643
0.03942664 0.50427375 0.03402176
0.06873034 0.50600494 0.03547549
0.09805476 0.50775330 0.03694571
0.12739845 0.50951768 0.03843155
0.15675998 0.51129695 0.03993212
0.18613792 0.51308997 0.04144657
0.21553081 0.51489560 0.04297401
0.24493722 0.51671270 0.04451358
0.27435571 0.51854013 0.04606439
0.30378484 0.52037675 0.04762558
0.33322317 0.52222143 0.04919627
0.36266926 0.52407302 0.05077558
0.39212168 0.52593038 0.05236265
0.42157897 0.52779238 0.05395660
0.45103971 0.52965787 0.05555656
0.48050244 0.53152572 0.05716165
0.50996574 0.53339479 0.05877100
0.53942817 0.53526394 0.06038374
0.56888827 0.53713202 0.06199898
0.59834462 0.53899791 0.06361587
0.62779577 0.54086046 0.06523352
0.65724029 0.54271853 0.06685107
0.68667673 0.54457098 0.06846763
0.71610365 0.54641667 0.07008233
0.74551962 0.54825447 0.07169431
0.77492319 0.55008323 0.07330268
0.80431293 0.55190183 0.07490658
0.83368740 0.55370910 0.07650513
0.86304515 0.55550393 0.07809745
0.89238474 0.55728516 0.07968267
0.92170475 0.55905166 0.08125993
0.95100372 0.56080229 0.08282834
0.98028021 0.56253592 0.08438703
0.04622176 0.53747129 0.03897619
0.07558943 0.53925569 0.04048192
0.10497298 0.54105344 0.04200120
0.13437096 0.54286337 0.04353316
0.16378193 0.54468437 0.04507692
0.19320446 0.54651528 0.04663161
0.22263711 0.54835496 0.04819636
0.25207843 0.55020229 0.04977029
0.28152699 0.55205611 0.05135253
0.31098135 0.55391529 0.05294220
0.34044006 0.55577869 0.05453844
0.36990170 0.55764518 0.05614037
0.39936480 0.55951360 0.05774711
0.42882795 0.56138283 0.05935779
0.45828970 0.56325172 0.06097155
0.48774860 0.56511914 0.06258749
0.51720322 0.56698394 0.06420476
0.54665213 0.56884499 0.06582247
0.57609387 0.57070115 0.06743976
0.60552701 0.57255127 0.06905574
0.63495011 0.57439422 0.07066956
0.66436173 0.57622886 0.07228032
0.69376044 0.57805406 0.07388717
0.72314478 0.57986866 0.07548922
0.75251333 0.58167153 0.07708560
0.78186464 0.58346154 0.07867544
0.81119727 0.58523754 0.08025786
0.84050978 0.58699840 0.08183200
0.86980073 0.58874297 0.08339697
0.89906869 0.59047012 0.08495191
0.92831222 0.59217871 0.08649594
0.95752986 0.59386759 0.08802819
0.98672019 0.59553563 0.08954777
0.05321283 0.57083261 0.04409386
0.08262818 0.57265735 0.04564171
0.11205456 0.57449158 0.04720016
0.14149053 0.57633418 0.04876835
0.17093466 0.57818400 0.05034541
0.20038549 0.58003991 0.05193046
0.22984160 0.58190076 0.05352262
0.25930154 0.58376542 0.05512103
0.28876388 0.58563274 0.05672481
0.31822717 0.58750159 0.05833309
0.34768997 0.58937083 0.05994499
0.37715085 0.59123931 0.06155964
0.40660836 0.59310591 0.06317617
0.43606107 0.59496948 0.06479370
0.46550753 0.59682888 0.06641136
0.49494631 0.59868297 0.06802828
0.52437596 0.60053061 0.06964357
0.55379505 0.60237067 0.07125638
0.58320214 0.60420200 0.07286582
0.61259578 0.60602347 0.07447102
0.64197454 0.60783394 0.07607110
0.67133698 0.60963226 0.07766521
0.70068165 0.61141730 0.07925245
0.73000712 0.61318792 0.08083196
0.75931196 0.61494298 0.08240286
0.78859470 0.61668134 0.08396428
0.81785393 0.61840186 0.08551535
0.84708820 0.62010341 0.08705519
0.87629607 0.62178484 0.08858292
0.90547610 0.62344501 0.09009769
0.93462684 0.62508278 0.09159860
0.96374687 0.62669702 0.09308479
0.99283474 0.62828659 0.09455539
0.06034503 0.60431436 0.04934152
0.08979177 0.60616653 0.05092159
0.11924469 0.60802436 0.05250933
0.14870236 0.60988673 0.05410387
0.17816334 0.61175249 0.05570434
0.20762619 0.61362050 0.05730986
0.23708947 0.61548962 0.05891955
0.26655174 0.61735872 0.06053256
0.29601156 0.61922665 0.06214799
0.32546749 0.62109228 0.06376499
0.35491809 0.62295446 0.06538266
0.38436192 0.62481206 0.06700015
0.41379754 0.62666393 0.06861658
0.44322351 0.62850895 0.07023107
0.47263840 0.63034596 0.07184275
0.50204076 0.63217384 0.07345075
0.53142915 0.63399143 0.07505419
0.56080213 0.63579761 0.07665220
0.59015827 0.63759123 0.07824390
0.61949612 0.63937115 0.07982843
0.64881425 0.64113624 0.08140491
0.67811120 0.64288535 0.08297246
0.70738556 0.64461735 0.08453021
0.73663587 0.64633109 0.08607729
0.76586069 0.64802544 0.08761283
0.79505859 0.64969926 0.08913594
0.82422812 0.65135141 0.09064576
0.85336785 0.65298075 0.09214142
0.88247634 0.65458615 0.09362204
0.91155214 0.65616645 0.09508674
0.94059382 0.65772052 0.09653465
0.96959994 0.65924723 0.09796491
0.99856906 0.66074543 0.09937663
0.06756356 0.63787316 0.05468590
0.09702539 0.63973987 0.05628831
0.12648856 0.64160841 0.05789545
0.15595164 0.64347766 0.05950645
0.18541318 0.64534646 0.06112044
0.21487175 0.64721369 0.06273655
0.24432590 0.64907819 0.06435389
0.27377421 0.65093884 0.06597160
0.30321522 0.65279448 0.06758881
0.33264749 0.65464399 0.06920463
0.36206960 0.65648623 0.07081820
0.39148009 0.65832004 0.07242864
0.42087753 0.66014431 0.07403508
0.45026048 0.66195788 0.07563664
0.47962749 0.66375961 0.07723246
0.50897714 0.66554838 0.07882165
0.53830798 0.66732303 0.08040335
0.56761856 0.66908244 0.08197668
0.59690746 0.67082545 0.08354076
0.62617322 0.67255093 0.08509473
0.65541442 0.67425775 0.08663771
0.68462961 0.67594476 0.08816882
0.71381735 0.67761082 0.08968720
0.74297620 0.67925480 0.09119196
0.77210472 0.68087555 0.09268225
0.80120147 0.68247194 0.09415717
0.83026502 0.68404283 0.09561586
0.85929392 0.68558707 0.09705745
0.88828674 0.68710353 0.09848105
0.91724202 0.68859107 0.09988581
