assets/luts/DB_Editorial_White_Rec709_100.cube
TITLE "Editorial White Rec709 100"
# Red changes fastest. Full-range normalized input.
LUT_3D_SIZE 5
DOMAIN_MIN 0 0 0
DOMAIN_MAX 1 1 1
0.00000000 0.00000000 0.00000000
0.21695150 0.00038414 0.00124836
0.43315590 0.00409386 0.00563032
0.65323031 0.00941121 0.01132239
0.87522259 0.01651962 0.01858642
0.01056557 0.22680868 0.01379346
0.23324859 0.23451735 0.02018181
0.45730453 0.24357309 0.03054222
0.68258631 0.25375809 0.04050917
0.90875548 0.26474927 0.05115697
0.04156759 0.47268128 0.04431837
0.26797847 0.48389457 0.05515630
0.49484195 0.49551890 0.06633950
0.72184811 0.50726237 0.07760852
0.94868706 0.51883312 0.08870392
0.08119391 0.72651022 0.08168171
0.30789504 0.73794561 0.09264947
0.53400623 0.74881012 0.10308971
0.75921760 0.75881188 0.11274295
0.98321923 0.76765899 0.12134977
0.11765112 0.97718182 0.11601118
0.34113538 0.98553610 0.12417260
0.56298720 0.99233760 0.13093369
0.78289667 0.99729443 0.13603498
1.00000000 0.99956472 0.14629622
0.00000000 0.00020368 0.21282140
0.21600802 0.00170572 0.21786044
0.43464487 0.00568071 0.22237101
0.65540538 0.01163903 0.22862600
0.87797848 0.01928930 0.23636487
0.01296799 0.22924391 0.23128546
0.23593550 0.23702693 0.23874202
0.46223889 0.24633974 0.24816230
0.68629683 0.25741461 0.25905979
0.91269271 0.26861421 0.26988604
0.04537279 0.47642516 0.26294416
0.27196716 0.48781208 0.27392317
0.49892201 0.49949235 0.28378892
0.72591439 0.51122254 0.29639104
0.95261461 0.52267153 0.30738645
0.08521459 0.73043964 0.30044947
0.31175012 0.74171388 0.31126717
0.53759048 0.75231813 0.32146924
0.76242577 0.76196049 0.33079620
0.98594608 0.77034910 0.33898863
0.12069624 0.98017498 0.33392376
0.34366087 0.98803466 0.34163872
0.56488781 0.99424243 0.34786523
0.78406715 0.99850642 0.35234383
1.00000000 0.99965244 0.36617268
0.00000000 0.00039142 0.42992627
0.21698508 0.00281541 0.43417993
0.43637867 0.00749634 0.43931273
0.65778950 0.01406198 0.44610075
0.88090767 0.02222046 0.45428454
0.01556370 0.23186317 0.44893226
0.23922648 0.24052904 0.45755993
0.46417504 0.25038907 0.46723013
0.69009606 0.26115305 0.47768091
0.91668302 0.27252738 0.48865565
0.04925380 0.48023868 0.48162954
0.27600482 0.49176310 0.49273037
0.50249468 0.50291046 0.50332624
0.73140619 0.51453613 0.51455645
0.95647505 0.52644491 0.52600886
0.08919083 0.73432544 0.51917615
0.31552503 0.74540488 0.52981387
0.54105369 0.75571653 0.53974292
0.76546734 0.76496638 0.54741742
0.98849698 0.77285798 0.55644963
0.12357669 0.98301129 0.55169461
0.34598595 0.99034270 0.55893317
0.56655226 0.99592309 0.56459518
0.78496574 0.99946056 0.56842117
1.00000000 0.99975417 0.58185548
0.00034022 0.00089936 0.64682388
0.21823173 0.00417561 0.65072134
0.43834513 0.00952933 0.65644536
0.66037053 0.01666864 0.66373648
0.88399803 0.02530166 0.67233526
0.01834234 0.23465406 0.66672927
0.24247616 0.24375842 0.67573969
0.46778934 0.25395834 0.68570387
0.69397201 0.26496194 0.69636234
0.92071426 0.27647735 0.70745566
0.05319847 0.48411040 0.70036433
0.28006749 0.49573966 0.71155154
0.50707334 0.50748255 0.72281986
0.73390725 0.51904667 0.73391039
0.96025610 0.53014188 0.74456102
0.09311051 0.73815621 0.73785159
0.31920763 0.74900718 0.74827941
0.54439804 0.75899007 0.75791556
0.76780651 0.76733876 0.76624734
0.99231710 0.77461724 0.77327923
0.12628034 0.98567931 0.76931355
0.34809847 0.99244880 0.77604580
0.56796843 0.99736813 0.78111338
0.78594406 1.00000000 0.78462399
1.00000000 0.99987489 0.79300494
0.00105380 0.00176092 0.86292655
0.21973463 0.00577541 0.86747341
0.44053210 0.01176826 0.87375872
0.66313633 0.01944757 0.88152302
0.88723742 0.02852147 0.89050687
0.02129275 0.23760498 0.88466620
0.24586183 0.24711412 0.89402962
0.47150505 0.25761971 0.90425867
0.69791250 0.26882985 0.91509391
0.92477429 0.28045268 0.92627589
0.05719467 0.48802889 0.91913838
0.28414492 0.49972949 0.93038218
0.51112678 0.51144461 0.94161880
0.73783035 0.52288239 0.95258880
0.96394575 0.53375094 0.96303274
0.09696147 0.74192050 0.95646562
0.32278578 0.75250934 0.96665361
0.54759918 0.76213081 0.97596163
0.77109175 0.77049300 0.98413040
0.99295476 0.77730355 0.99090109
0.12879504 0.98816762 0.98677042
0.34998631 0.99434151 0.99296644
0.56912416 0.99856613 0.99740967
0.78793116 1.00000000 0.99929964
1.00000000 1.00000000 1.00000000
