assets/luts/DB_Editorial_White_Rec709_100.cube
TITLE "Editorial White Rec709 100"
# Red changes fastest. Full-range normalized input.
LUT_3D_SIZE 9
DOMAIN_MIN 0 0 0
DOMAIN_MAX 1 1 1
0.00000000 0.00000000 0.00000000
0.10737661 0.00000000 0.00031749
0.21695150 0.00038414 0.00124836
0.32396797 0.00218844 0.00344438
0.43315590 0.00409386 0.00563032
0.54293398 0.00651041 0.00826365
0.65323031 0.00941121 0.01132239
0.76400609 0.01275977 0.01477412
0.87522259 0.01651962 0.01858642
0.00147476 0.11049526 0.00359596
0.11176424 0.11241806 0.00000000
0.22617618 0.11378922 0.00190875
0.33251198 0.11790615 0.01192674
0.44281578 0.12158135 0.01611788
0.55417749 0.12548342 0.02005752
0.66593270 0.12974547 0.02430936
0.77803706 0.13433254 0.02884510
0.89045181 0.13920816 0.03363230
0.01056557 0.22680868 0.01379346
0.12156223 0.23049951 0.01722267
0.23324859 0.23451735 0.02018181
0.34528097 0.23883427 0.02537895
0.45730453 0.24357309 0.03054222
0.56981064 0.24854769 0.03543120
0.68258631 0.25375809 0.04050917
0.79558085 0.25917078 0.04576189
0.90875548 0.26474927 0.05115697
0.02425291 0.34805535 0.02758571
0.13658700 0.35285617 0.03230755
0.24920240 0.35791939 0.03725286
0.36206377 0.36320738 0.04239346
0.47512841 0.36868436 0.04770968
0.58835855 0.37431423 0.05315011
0.70171636 0.38006007 0.05868712
0.81516270 0.38588547 0.06428980
0.92865881 0.39175393 0.06992574
0.04156759 0.47268128 0.04431837
0.15469709 0.47821830 0.04967796
0.26797847 0.48389457 0.05515630
0.38137300 0.48967360 0.06072095
0.49484195 0.49551890 0.06633950
0.60834656 0.50139398 0.07197950
0.72184811 0.50726237 0.07760852
0.83530785 0.51308758 0.08319414
0.94868706 0.51883312 0.08870392
0.06103951 0.59929591 0.06276193
0.17452592 0.60515628 0.06839204
0.28803390 0.61103315 0.07403180
0.40152471 0.61689004 0.07964878
0.51495962 0.62269047 0.08521054
0.62829989 0.62839794 0.09068465
0.74150677 0.63397598 0.09603869
0.85454154 0.63938810 0.10124023
0.96736545 0.64459781 0.10625682
0.08119391 0.72651022 0.08168171
0.19459885 0.73228103 0.08721532
0.30789504 0.73794561 0.09264947
0.42104374 0.74346747 0.09795175
0.53400623 0.74881012 0.10308971
0.64674376 0.75393709 0.10803092
0.75921760 0.75881188 0.11274295
0.87138900 0.76339801 0.11719338
0.98321923 0.76765899 0.12134977
0.10055603 0.85293520 0.09984302
0.21344111 0.85820355 0.10491310
0.32608712 0.86324293 0.10977464
0.43845533 0.86801686 0.11439518
0.55050701 0.87248884 0.11874232
0.66220342 0.87662239 0.12278360
0.77350582 0.88038103 0.12648661
0.88437547 0.88372828 0.12981891
0.99477363 0.88662764 0.13274807
0.11765112 0.97718182 0.11601118
0.22957794 0.98153481 0.12025072
0.34113538 0.98553610 0.12417260
0.45228472 0.98914919 0.12774440
0.56298720 0.99233760 0.13093369
0.67320410 0.99506484 0.13370802
0.78289667 0.99729443 0.13603498
0.89202618 0.99898989 0.13788213
1.00000000 0.99956472 0.14629622
0.00000000 0.00010332 0.10586482
0.10767215 0.00018730 0.10868414
0.21582237 0.00117827 0.10984088
0.32446377 0.00277810 0.11164105
0.43386903 0.00485797 0.11397490
0.54382746 0.00744306 0.11675633
0.65429095 0.01050001 0.11995217
0.76522075 0.01399234 0.12352999
0.87657811 0.01788356 0.12745736
0.00246057 0.11100123 0.11245045
0.11214786 0.11301190 0.11442165
0.22735876 0.11409751 0.11537551
0.33460168 0.11868459 0.12057333
0.44411050 0.12285428 0.12490918
0.55558107 0.12689211 0.12896760
0.66745915 0.13126864 0.13331951
0.77967326 0.13595779 0.13794429
0.89218463 0.14092311 0.14280951
0.01173466 0.22800440 0.12251694
0.12244567 0.23191755 0.12569634
0.23477976 0.23565224 0.12258563
0.35118920 0.23893607 0.12721100
0.45959072 0.24504289 0.13906261
0.57158083 0.25029058 0.14462991
0.68442969 0.25557541 0.14977504
0.79748972 0.26104850 0.15507975
0.91071670 0.26667500 0.16051580
0.02586057 0.34965408 0.13666177
0.13829015 0.35454931 0.14145953
0.25088255 0.35972550 0.14618674
0.36396526 0.36504479 0.15028910
0.47725631 0.37052743 0.15649342
0.59034729 0.37625114 0.16250284
0.70372783 0.38203130 0.16808402
0.81719537 0.38787542 0.17370169
0.93069957 0.39375022 0.17934155
0.04345996 0.47454380 0.15362318
0.15664538 0.48013221 0.15902674
0.26996942 0.48584750 0.16453782
0.38339248 0.49165354 0.17011985
0.49687933 0.49751275 0.17574466
0.61038742 0.50338942 0.18139242
0.72387870 0.50924731 0.18701189
0.83731543 0.51504955 0.19257541
0.95065847 0.52075974 0.19805206
0.06306770 0.60128200 0.17217085
0.17656578 0.60715207 0.17780787
0.29007227 0.61302625 0.18344353
0.40354845 0.61886805 0.18904539
0.51695556 0.62464100 0.19458102
0.63025487 0.63030861 0.20001800
0.74340765 0.63583440 0.20532389
0.85637515 0.64118187 0.21046625
0.96911864 0.64631454 0.21541266
0.08320905 0.72847967 0.19107009
0.19658139 0.73421849 0.19657356
0.30983184 0.73983869 0.20196656
0.42292165 0.74530378 0.20721667
0.53581209 0.75057728 0.21229145
0.64846441 0.75562269 0.21715847
0.76083988 0.76040354 0.22178530
0.87289976 0.76488335 0.22613951
0.98460532 0.76902561 0.23018866
0.10240923 0.85474777 0.20908622
0.21521747 0.85994245 0.21408912
0.32777348 0.86489578 0.21887244
0.44003854 0.86957125 0.22340378
0.55197391 0.87393239 0.22765068
0.66354085 0.87794271 0.23158072
0.77470063 0.88156573 0.23516147
0.88541451 0.88476496 0.23836050
0.99564374 0.88750392 0.24114537
0.11919350 0.97869729 0.22498455
0.23099923 0.98293494 0.22911985
0.34242242 0.98680848 0.23292648
0.45342435 0.99028144 0.23637202
0.56396626 0.99331732 0.23942402
0.67400944 0.99587965 0.24205006
0.78351514 0.99793194 0.24421771
0.89244462 0.99943770 0.24589454
1.00000000 0.99960684 0.25674862
0.00000000 0.00020368 0.21282140
0.10758123 0.00055377 0.21633989
0.21600802 0.00170572 0.21786044
0.32504130 0.00342720 0.21988110
0.43464487 0.00568071 0.22237101
0.54477918 0.00843013 0.22529680
0.65540538 0.01163903 0.22862600
0.76648472 0.01527091 0.23232617
0.87797848 0.01928930 0.23636487
0.00324172 0.11168807 0.22073673
0.11303688 0.11411408 0.22345298
0.22361467 0.11691287 0.22666129
0.33435444 0.12033522 0.22997345
0.44540209 0.12418767 0.23375939
0.55702781 0.12834107 0.23791293
0.66902435 0.13282787 0.24236113
0.78134375 0.13761490 0.24707120
0.89394725 0.14266570 0.25201070
0.01296799 0.22924391 0.23128546
0.12422298 0.23317706 0.23523585
0.23593550 0.23702693 0.23874202
0.35297999 0.23981500 0.24118813
0.46223889 0.24633974 0.24816230
0.57340044 0.25205183 0.25384736
0.68629683 0.25741461 0.25905979
0.79941785 0.26294391 0.26441275
0.91269271 0.26861421 0.26988604
0.02750374 0.35128580 0.24576659
0.14002388 0.35627076 0.25064232
0.25224289 0.36158891 0.25505502
0.36564006 0.36636154 0.25297090
0.48328296 0.37080259 0.25861924
0.59293223 0.37800251 0.27127854
0.70575330 0.38400858 0.27748317
0.81923226 0.38986892 0.28311614
0.93274008 0.39574583 0.28875618
0.04537279 0.47642516 0.26294416
0.15860966 0.48206074 0.26838793
0.27196716 0.48781208 0.27392317
0.38529822 0.49366923 0.27923845
0.49892201 0.49949235 0.28378892
0.61261428 0.50532559 0.29026259
0.72591439 0.51122254 0.29639104
0.83931225 0.51700090 0.30194662
0.95261461 0.52267153 0.30738645
0.06510133 0.60327278 0.28158335
0.17860661 0.60914833 0.28722355
0.29210715 0.61501561 0.29285136
0.40556409 0.62083816 0.29843417
0.51893780 0.62657984 0.30393545
0.63219311 0.63220308 0.30932697
0.74528756 0.63767217 0.31458867
0.85818294 0.64295086 0.31966965
0.97084153 0.64800229 0.32454216
0.08521459 0.73043964 0.30044947
0.19854988 0.73614227 0.30591906
0.31175012 0.74171388 0.31126717
0.42477657 0.74711800 0.31646138
0.53759048 0.75231813 0.32146924
0.65015313 0.75727779 0.32625832
0.76242577 0.76196049 0.33079620
0.87436966 0.76632976 0.33505045
0.98594608 0.77034910 0.33898863
0.10423781 0.85653671 0.31830784
0.21696473 0.86165352 0.32323980
0.32942628 0.86651657 0.32794119
0.44158372 0.87108939 0.33237956
0.55339832 0.87533548 0.33652249
0.66483133 0.87921837 0.34033755
0.77584402 0.88270156 0.34379230
0.88639765 0.88574857 0.34685432
0.99645349 0.88832292 0.34949117
0.12069624 0.98017498 0.33392376
0.23237640 0.98429307 0.33795108
0.34366087 0.98803466 0.34163872
0.45451092 0.99136328 0.34495424
0.56488781 0.99424243 0.34786523
0.67475280 0.99663564 0.35033923
0.78406715 0.99850642 0.35234383
0.89279213 0.99981828 0.35384660
1.00000000 0.99965244 0.36617268
0.00000000 0.00029955 0.32084831
0.10782455 0.00087934 0.32429671
0.21646165 0.00222872 0.32599139
0.32569369 0.00413465 0.32817576
0.43548193 0.00656064 0.33081737
0.54578763 0.00947019 0.33388380
0.65657207 0.01282683 0.33734262
0.76779649 0.01659406 0.34116139
0.87942217 0.02073541 0.34530769
0.00396441 0.11245958 0.32908625
0.11394551 0.11506582 0.33188645
0.22443061 0.11814195 0.33510077
0.33538026 0.12165218 0.33869396
0.44675422 0.12556034 0.34263476
0.55851623 0.12982888 0.34689218
0.67062678 0.13442172 0.35143295
0.78304701 0.13930242 0.35622458
0.89573818 0.14443450 0.36123462
0.01424258 0.23053130 0.34008940
0.12576149 0.23457459 0.34415141
0.23764545 0.23894895 0.34857429
0.35012097 0.24351571 0.35332907
0.46259799 0.24855880 0.35806160
0.57519692 0.25385464 0.36310674
0.68818611 0.25927431 0.36836218
0.80136372 0.26485558 0.37375964
0.91468199 0.27056548 0.37926641
0.02918089 0.35294908 0.35489889
0.14180124 0.35801660 0.35985288
0.25452805 0.36331890 0.36499888
0.36737907 0.36825610 0.36952293
0.48539123 0.37199354 0.37290382
0.59584607 0.37955509 0.38062132
0.70780675 0.38598423 0.38688365
0.82127190 0.39186451 0.39253187
0.93477884 0.39773935 0.39816837
0.04730458 0.47832393 0.37228004
0.16058844 0.48400247 0.37776030
0.27397448 0.48978518 0.38332175
0.38684494 0.49571410 0.38828398
0.50047232 0.50083433 0.38677767
0.61850369 0.50560482 0.39265515
0.72851067 0.51298901 0.40519235
0.84130198 0.51893850 0.41130259
0.95455397 0.52456707 0.41670581
0.06713888 0.60526681 0.39099816
0.18064689 0.61114364 0.39663779
0.29413700 0.61699981 0.40225402
0.40756541 0.62280010 0.40780932
0.52078016 0.62853418 0.41299992
0.63409675 0.63406466 0.41729409
0.74732691 0.63943244 0.42330711
0.85997467 0.64469044 0.42883168
0.97253265 0.64965962 0.43364400
0.08720902 0.73238871 0.40981858
0.20050280 0.73805093 0.41525055
0.31364836 0.74356976 0.42055003
0.42660697 0.74890869 0.42568459
0.53933978 0.75403128 0.43062159
0.65180713 0.75890142 0.43532463
0.76397389 0.76348152 0.43976534
0.87579760 0.76773575 0.44392343
0.98724000 0.77162801 0.44774838
0.10604026 0.85830060 0.42750660
0.21868140 0.86333532 0.43236390
0.33104401 0.86810390 0.43697960
0.44308937 0.87256985 0.44132128
0.55477872 0.87669668 0.44535650
0.66607333 0.88044792 0.44905283
0.77693447 0.88378708 0.45237784
0.88732339 0.88667766 0.45529911
0.99720136 0.88908319 0.45778419
0.12215781 0.98161346 0.44282754
0.23370793 0.98560777 0.44674314
0.34484922 0.98921321 0.45030804
0.45554292 0.99239328 0.45348982
0.56575031 0.99511150 0.45625604
0.67543265 0.99733138 0.45857427
0.78455119 0.99901643 0.46041208
0.89316316 1.00000000 0.46274405
1.00000000 0.99970155 0.47454831
0.00000000 0.00039142 0.42992627
0.10814160 0.00127292 0.43231531
0.21698508 0.00281541 0.43417993
0.32641036 0.00490204 0.43652321
0.43637867 0.00749634 0.43931273
0.54685130 0.01056181 0.44251606
0.65778950 0.01406198 0.44610075
0.76915453 0.01796036 0.45003439
0.88090767 0.02222046 0.45428454
0.00474816 0.11328968 0.43748883
0.11490456 0.11605974 0.44043275
0.22555117 0.11928770 0.44377868
0.33664925 0.12293706 0.44749416
0.44816006 0.12697136 0.45154678
0.56004487 0.13135409 0.45590411
0.67226493 0.13604878 0.46053371
0.78478151 0.14101894 0.46540314
0.89755588 0.14622808 0.47047999
0.01556370 0.23186317 0.44893226
0.12721515 0.23602854 0.45309957
0.23922648 0.24052904 0.45755993
0.35155957 0.24532778 0.46228184
0.46417504 0.25038907 0.46723013
0.57703264 0.25567669 0.47237350
0.69009606 0.26115305 0.47768091
0.80332580 0.26678209 0.48311913
0.91668302 0.27252738 0.48865565
0.03089050 0.35464251 0.46405739
0.14359862 0.35979029 0.46908106
0.25653472 0.36515048 0.47429004
0.36964977 0.37066736 0.47970695
0.48316477 0.37619975 0.48530586
0.59652359 0.38205244 0.49072789
0.70981706 0.38798215 0.49630804
0.82331267 0.39386080 0.50194766
0.93681431 0.39972934 0.50757684
0.04925380 0.48023868 0.48162954
0.16258019 0.48595597 0.48714254
0.27600482 0.49176310 0.49273037
0.38934667 0.49763022 0.49836170
0.50249468 0.50291046 0.50332624
0.62065031 0.50685110 0.50702882
0.73140619 0.51453613 0.51455645
0.84329837 0.52085464 0.52064280
0.95647505 0.52644491 0.52600886
0.06917883 0.60726267 0.50041402
0.18268512 0.61313657 0.50604934
0.29616033 0.61897742 0.51165025
0.40955530 0.62475079 0.51718012
0.52223032 0.63049786 0.52199522
0.63533970 0.63528949 0.52050503
0.75289761 0.63955880 0.52584045
0.86230018 0.64620642 0.53742184
0.97419564 0.65128346 0.54271315
0.08919083 0.73432544 0.51917615
0.20243862 0.73994306 0.52456676
0.31552503 0.74540488 0.52981387
0.42841133 0.75067443 0.53488503
0.54105369 0.75571653 0.53974292
0.65329929 0.76052384 0.54409325
0.76546734 0.76496638 0.54741742
0.87736621 0.76905163 0.55224760
0.98849698 0.77285798 0.55644963
0.10781504 0.86003799 0.53668124
0.22036594 0.86498642 0.54146013
0.33262516 0.86965632 0.54598641
0.44455395 0.87401120 0.55022765
0.55611359 0.87801457 0.55415142
0.66726522 0.88162999 0.55772509
0.77796923 0.88482141 0.56091235
0.88819048 0.88755119 0.56368471
0.99788628 0.88978327 0.56602168
0.12357669 0.98301129 0.55169461
0.23499232 0.98687763 0.55549474
0.34598595 0.99034270 0.55893317
0.45651884 0.99337002 0.56197746
0.56655226 0.99592309 0.56459518
0.67604747 0.99796543 0.56675389
0.78496574 0.99946056 0.56842117
0.89363586 1.00000000 0.57216722
1.00000000 0.99975417 0.58185548
0.00009217 0.00057035 0.53886212
0.10853021 0.00173347 0.54039285
0.21757562 0.00346484 0.54242367
0.32718965 0.00572797 0.54492213
0.43733358 0.00848638 0.54785582
0.54796866 0.01170357 0.55119230
0.65905616 0.01534306 0.55489913
0.77055734 0.01936838 0.55894389
0.88243346 0.02374302 0.56329415
0.00559291 0.11417680 0.54594151
0.11592013 0.11710645 0.54902559
0.22672441 0.12048161 0.55250065
0.33796700 0.12426579 0.55633427
0.44960916 0.12842251 0.56049401
0.56161217 0.13291528 0.56494743
0.67393727 0.13770761 0.56966212
0.78654575 0.14276302 0.57460563
0.89939885 0.14804502 0.57974554
0.01693079 0.23323790 0.55781264
0.12870881 0.23752118 0.56208305
0.24083357 0.24212723 0.56663535
0.35326632 0.24701957 0.57143709
0.46596834 0.25216170 0.57645586
0.57890088 0.25751714 0.58165921
0.69202521 0.26304940 0.58701472
0.80530259 0.26872201 0.59248996
0.91869428 0.27449848 0.59805249
0.03263106 0.35636463 0.57324083
0.14542148 0.36158865 0.57833055
0.25842833 0.36701269 0.58359305
0.37161284 0.37260024 0.58899607
0.48493686 0.37831440 0.59450809
0.59836112 0.38411952 0.60009395
0.71184532 0.38997938 0.60572231
0.82535310 0.39585634 0.61136219
0.93884499 0.40171437 0.61698033
0.05121894 0.48216798 0.59099139
0.16458339 0.48791982 0.59653340
0.27803393 0.49374895 0.60213909
0.39153019 0.49961884 0.60777760
0.50501976 0.50547262 0.61347441
0.61871980 0.51116896 0.61921003
0.73210180 0.51701956 0.62459491
0.84523132 0.52277335 0.62998821
0.95837625 0.52830366 0.63529437
0.07121967 0.60925892 0.60982965
0.18471975 0.61512569 0.61545692
0.29817563 0.62094701 0.62103877
0.41154751 0.62668655 0.62654293
0.52464973 0.63231450 0.63194645
0.63729845 0.63720100 0.63671376
0.75481502 0.64060564 0.64006939
0.86490222 0.64748835 0.64657374
0.97584423 0.65286624 0.65174955
0.09115850 0.73624842 0.62852091
0.20435583 0.74181722 0.63386642
0.31737863 0.74721783 0.63905742
0.43018816 0.75241378 0.64406146
0.54273517 0.75737073 0.64884230
0.65437755 0.76214496 0.65280070
0.76630536 0.76594587 0.65065213
0.88251094 0.76888057 0.65469683
0.99027489 0.77385878 0.66458480
0.10956066 0.86174747 0.64583049
0.22201684 0.86660540 0.65052722
0.33416819 0.87117241 0.65496034
0.44597596 0.87541200 0.65909740
0.55740141 0.87928771 0.66290597
0.66840078 0.88276448 0.66634891
0.77882651 0.88584170 0.66914056
0.88901167 0.88840216 0.67077175
0.99870422 0.89038685 0.67370472
0.12495138 0.98436705 0.66052370
0.23622803 0.98810121 0.66420464
0.34706954 0.99142171 0.66751285
0.45743715 0.99429206 0.67041591
0.56729214 0.99667577 0.67288138
0.67659576 0.99853637 0.67487684
0.78530917 0.99983741 0.67636967
0.89411145 1.00000000 0.68058597
1.00000000 0.99981035 0.68807294
0.00034022 0.00089936 0.64682388
0.10898887 0.00225956 0.64852807
0.21823173 0.00417561 0.65072134
0.32803006 0.00661103 0.65337125
0.43834513 0.00952933 0.65644536
0.54913820 0.01289403 0.65991125
0.66037053 0.01666864 0.66373648
0.77200339 0.02081668 0.66788863
0.88399803 0.02530166 0.67233526
0.00649715 0.11511950 0.65444302
0.11699073 0.11820454 0.65766352
0.22794820 0.12172270 0.66126399
0.33933083 0.12563749 0.66521199
0.45109988 0.12991242 0.66947510
0.56321662 0.13451101 0.67402089
0.67564230 0.13939677 0.67881692
0.78833819 0.14453323 0.68383077
0.90126556 0.14988389 0.68902999
0.01834234 0.23465406 0.66672927
0.13024246 0.23905105 0.67109905
0.24247616 0.24375842 0.67573969
0.35500470 0.24873967 0.68061878
0.46778934 0.25395834 0.68570387
0.58079136 0.25937792 0.69096253
0.69397201 0.26496194 0.69636234
0.80729255 0.27067391 0.70187086
0.92071426 0.27647735 0.70745566
0.03440104 0.35811404 0.68244793
0.14726931 0.36341007 0.68759997
0.26034084 0.36889375 0.69291377
0.37357691 0.37452857 0.69835691
0.48693876 0.38027806 0.70389696
0.60038767 0.38610574 0.70950148
0.71388490 0.39197512 0.71513804
0.82739171 0.39784970 0.72077421
0.94086936 0.40369302 0.72637756
0.05319847 0.48411040 0.70036433
0.16659651 0.48989258 0.70593160
0.28006749 0.49573966 0.71155154
0.39357269 0.50161516 0.71719172
0.50707334 0.50748255 0.72281986
0.62053127 0.51330493 0.72840450
0.73390725 0.51904667 0.73391039
0.84716101 0.52467153 0.73930620
0.96025610 0.53014188 0.74456102
0.07325988 0.61125413 0.71924378
0.18674929 0.61710956 0.72485926
0.30018134 0.62290715 0.73041831
0.41351729 0.62861041 0.73588850
0.52671668 0.63418283 0.74123905
0.63972532 0.63956806 0.74650014
0.75275977 0.64462729 0.75165995
0.86530320 0.64966359 0.75628522
0.97740851 0.65443136 0.76077218
0.09311051 0.73815621 0.73785159
0.20625291 0.74367198 0.74314826
0.31920763 0.74900718 0.74827941
0.43193594 0.75412532 0.75321258
0.54439804 0.75899007 0.75791556
0.65640812 0.76357524 0.76237528
0.76780651 0.76733876 0.76624734
0.88394320 0.76947513 0.76853177
0.99231710 0.77461724 0.77327923
0.11127558 0.86342761 0.75495307
0.22363258 0.86819083 0.75956392
0.33567160 0.87265074 0.76390013
0.44735388 0.87677084 0.76792927
0.55864068 0.88051467 0.77161892
0.66948293 0.88384814 0.77493319
0.77926516 0.88686013 0.77731241
0.88943248 0.88902234 0.77371806
1.00000000 0.89033857 0.78025586
0.12628034 0.98567931 0.76931355
0.23741356 0.98927708 0.77287154
0.34809847 0.99244880 0.77604580
0.45829634 0.99515798 0.77880389
0.56796843 0.99736813 0.78111338
0.67707598 0.99904278 0.78294184
0.78594406 1.00000000 0.78462399
0.89457333 1.00000000 0.78795814
1.00000000 0.99987489 0.79300494
0.00066127 0.00129670 0.75484577
0.10951606 0.00284976 0.75671970
0.21895190 0.00494628 0.75907168
0.32893007 0.00754978 0.76186928
0.43941181 0.01062377 0.76508008
0.55035840 0.01413177 0.76867164
0.66173109 0.01803729 0.77261154
0.77349116 0.02230385 0.77686733
0.88559985 0.02689496 0.78140659
0.00745936 0.11611636 0.76299210
0.11811482 0.11935258 0.76634527
0.22922102 0.12300953 0.77006740
0.34073923 0.12705072 0.77412606
0.45263070 0.13143965 0.77848880
0.56485670 0.13613986 0.78312321
0.67737849 0.14111486 0.78799685
0.79015734 0.14632815 0.79307729
0.90315450 0.15174325 0.79833209
0.01979683 0.23611023 0.77568088
0.13181458 0.24061672 0.78014628
0.24415275 0.24542119 0.78487154
0.35677261 0.25048716 0.78982422
0.46963542 0.25577815 0.79497189
0.58270245 0.26125767 0.80028213
0.69593495 0.26688923 0.80572249
0.80929419 0.27263636 0.81126055
0.92274143 0.27846256 0.81686388
0.03619893 0.35988929 0.79167744
0.14914057 0.36525314 0.79688805
0.26227233 0.37079224 0.80224941
0.37555545 0.37647010 0.80772910
0.48895122 0.38225023 0.81329467
0.60242088 0.38809616 0.81891371
0.71592571 0.39397140 0.82455378
0.82942695 0.39983945 0.83018244
0.94288589 0.40566385 0.83576727
0.05519089 0.48606452 0.80974709
0.16861804 0.49187283 0.81533588
0.28210499 0.49773365 0.82096633
0.39561300 0.50361050 0.82660600
0.50910333 0.50946688 0.83222246
0.62253724 0.51526632 0.83778327
0.73587600 0.52097233 0.84325602
0.84908087 0.52654842 0.84860826
0.96211311 0.53195811 0.85380757
0.07529795 0.61324688 0.82865514
0.18877222 0.61908676 0.83425510
0.30217598 0.62485641 0.83978761
0.41547047 0.63051934 0.84522023
0.52861698 0.63603908 0.85052056
0.64157673 0.64137910 0.85565631
0.75431153 0.64650250 0.86059605
0.86678221 0.65137363 0.86530444
0.97894845 0.65595626 0.86975017
0.09504534 0.74004738 0.84716691
0.20812834 0.74550592 0.85241101
0.32101052 0.75077149 0.85747856
0.43365312 0.75580761 0.86233713
0.54601742 0.76057780 0.86695429
0.65806296 0.76504556 0.87129937
0.76973634 0.76915700 0.87540760
0.88125840 0.77277868 0.87927399
0.99209835 0.77618796 0.88242141
0.11295830 0.86507697 0.86404772
0.22521165 0.86974128 0.86856894
0.33713386 0.87408988 0.87280450
0.44868618 0.87808629 0.87672199
0.55982988 0.88169402 0.88028896
0.67052519 0.88487678 0.88347322
0.78059273 0.88761590 0.88627034
0.89003499 0.88953475 0.88848881
1.00000000 0.89077943 0.89005838
0.12756207 0.98694665 0.87806288
0.23854738 0.99040382 0.88149419
0.34907124 0.99342254 0.88453075
0.45909489 0.99596634 0.88714013
0.56857961 0.99799873 0.88928990
0.67748664 0.99948321 0.89094762
0.78693187 1.00000000 0.89247404
0.89499640 1.00000000 0.89428717
1.00000000 0.99995793 0.89623584
0.00105380 0.00176092 0.86292655
0.11011026 0.00350263 0.86496646
0.21973463 0.00577541 0.86747341
0.32988815 0.00854279 0.87041498
0.44053210 0.01176826 0.87375872
0.55162774 0.01541535 0.87747221
0.66313633 0.01944757 0.88152302
0.77501914 0.02382844 0.88587872
0.88723742 0.02852147 0.89050687
0.00847802 0.11716596 0.87158746
0.11929090 0.12054915 0.87506958
0.23054136 0.12434068 0.87890963
0.34219067 0.12850405 0.88307519
0.45420010 0.13300279 0.88753383
0.56653089 0.13780041 0.89225312
0.67914433 0.14286042 0.89720062
0.79200166 0.14814634 0.90234391
0.90506415 0.15362168 0.90765056
0.02129275 0.23760498 0.88466620
0.13342365 0.24221675 0.88922349
0.24586183 0.24711412 0.89402962
0.35856854 0.25226060 0.89905215
0.47150505 0.25761971 0.90425867
0.58463262 0.26315495 0.90961673
0.69791250 0.26882985 0.91509391
0.81130597 0.27460792 0.92065777
0.92477429 0.28045268 0.92627589
0.03802322 0.36168897 0.90092807
0.15103377 0.36711642 0.90619351
0.26422127 0.37270673 0.91159869
0.37754699 0.37842342 0.91711119
0.49097220 0.38422999 0.92269855
0.60445815 0.39008996 0.92832837
0.71796610 0.39596685 0.93396820
0.83145732 0.40182417 0.93958561
0.94489308 0.40762544 0.94514818
0.05719467 0.48802889 0.91913838
0.17064647 0.49385913 0.92474496
0.28414492 0.49972949 0.93038218
0.39765126 0.50560347 0.93601760
0.51112678 0.51144461 0.94161880
0.62453272 0.51721641 0.94715334
0.73783035 0.52288239 0.95258880
0.85098094 0.52840606 0.95789275
0.96394575 0.53375094 0.96303274
0.07733234 0.61523575 0.93806246
0.19078701 0.62105586 0.94364315
0.30415801 0.62679336 0.94914538
0.41740659 0.63241176 0.95453671
0.53049403 0.63787456 0.95978472
0.64338158 0.64314529 0.96485697
0.75603050 0.64818746 0.96972104
0.86840207 0.65296458 0.97434449
0.98045754 0.65744017 0.97869489
0.09696147 0.74192050 0.95646562
0.20998062 0.74731760 0.96165340
0.32278578 0.75250934 0.96665361
0.43533821 0.75745924 0.97143383
0.54759918 0.76213081 0.97596163
0.65952995 0.76648757 0.98020457
0.77109175 0.77049300 0.98413040
0.88224643 0.77411023 0.98770773
0.99295476 0.77730355 0.99090109
0.11460729 0.86669413 0.97311317
0.22675253 0.87125531 0.97754101
0.33855347 0.87548840 0.98167219
0.44997136 0.87935690 0.98547428
0.56096748 0.88282434 0.98891484
0.67150308 0.88585423 0.99196145
0.78153779 0.88841016 0.99458352
0.89102274 0.89044274 0.99682024
1.00000000 0.89190216 0.99848481
0.12879504 0.98816762 0.98677042
0.23962798 0.99147998 0.99007131
0.34998631 0.99434151 0.99296644
0.45983128 0.99671572 0.99542337
0.56912416 0.99856613 0.99740967
0.67782621 0.99985625 0.99889292
0.78793116 1.00000000 0.99929964
0.89554102 1.00000000 0.99962461
1.00000000 1.00000000 1.00000000
