assets/luts/DB_Editorial_White_Rec709_50.cube
TITLE "Editorial White Rec709 50"
# Red changes fastest. Full-range normalized input.
LUT_3D_SIZE 9
DOMAIN_MIN 0 0 0
DOMAIN_MAX 1 1 1
0.00000000 0.00000000 0.00000000
0.11618831 0.00000000 0.00015875
0.23347575 0.00019207 0.00062418
0.34948399 0.00109422 0.00172219
0.46657795 0.00204693 0.00281516
0.58396699 0.00325521 0.00413182
0.70161515 0.00470560 0.00566119
0.81950304 0.00637988 0.00738706
0.93761130 0.00825981 0.00929321
0.00073738 0.11774763 0.00179798
0.11838212 0.11870903 0.00000000
0.23808809 0.11939461 0.00095437
0.35375599 0.12145307 0.00596337
0.47140789 0.12329067 0.00805894
0.58958875 0.12524171 0.01002876
0.70796635 0.12737273 0.01215468
0.82651853 0.12966627 0.01442255
0.94522591 0.13210408 0.01681615
0.00528279 0.23840434 0.00689673
0.12328111 0.24024975 0.00861134
0.24162429 0.24225867 0.01009091
0.36014049 0.24441714 0.01268948
0.47865227 0.24678655 0.01527111
0.59740532 0.24927385 0.01771560
0.71629315 0.25187905 0.02025459
0.83529042 0.25458539 0.02288095
0.95437774 0.25737464 0.02557849
0.01212646 0.36152768 0.01379286
0.13079350 0.36392809 0.01615378
0.24960120 0.36645970 0.01862643
0.36853189 0.36910369 0.02119673
0.48756421 0.37184218 0.02385484
0.60667928 0.37465711 0.02657506
0.72585818 0.37753004 0.02934356
0.84508135 0.38044273 0.03214490
0.96432941 0.38337697 0.03496287
0.02078379 0.48634064 0.02215919
0.13984854 0.48910915 0.02483898
0.25898924 0.49194729 0.02757815
0.37818650 0.49483680 0.03036048
0.49742097 0.49775945 0.03316975
0.61667328 0.50069699 0.03598975
0.73592405 0.50363119 0.03880426
0.85515393 0.50654379 0.04159707
0.97434353 0.50941656 0.04435196
0.03051975 0.61214796 0.03138097
0.14976296 0.61507814 0.03419602
0.26901695 0.61801657 0.03701590
0.38826236 0.62094502 0.03982439
0.50747981 0.62384523 0.04260527
0.62664994 0.62669897 0.04534233
0.74575339 0.62948799 0.04801935
0.86477077 0.63219405 0.05062011
0.98368273 0.63479891 0.05312841
0.04059695 0.73825511 0.04084086
0.15979942 0.74114052 0.04360766
0.27894752 0.74397281 0.04632474
0.39802187 0.74673373 0.04897587
0.51700312 0.74940506 0.05154485
0.63587188 0.75196854 0.05401546
0.75460880 0.75440594 0.05637148
0.87319450 0.75669900 0.05859669
0.99160962 0.75882950 0.06067488
0.05027802 0.86396760 0.04992151
0.16922055 0.86660178 0.05245655
0.28804356 0.86912147 0.05488732
0.40672767 0.87150843 0.05719759
0.52525351 0.87374442 0.05937116
0.64360171 0.87581120 0.06139180
0.76175291 0.87769052 0.06324331
0.87968773 0.87936414 0.06490946
0.99738682 0.88081382 0.06637403
0.05882556 0.98859091 0.05800559
0.17728897 0.99076741 0.06012536
0.29556769 0.99276805 0.06208630
0.41364236 0.99457459 0.06387220
0.53149360 0.99616880 0.06546684
0.64910205 0.99753242 0.06685401
0.76644833 0.99864722 0.06801749
0.88351309 0.99949494 0.06894107
1.00000000 0.99978236 0.07314811
0.00000000 0.00005166 0.11543241
0.11633607 0.00009365 0.11684207
0.23291118 0.00058914 0.11742044
0.34973189 0.00138905 0.11832053
0.46693452 0.00242898 0.11948745
0.58441373 0.00372153 0.12087816
0.70214548 0.00525000 0.12247608
0.82011037 0.00699617 0.12426499
0.93828906 0.00894178 0.12622868
0.00123028 0.11800062 0.11872523
0.11857393 0.11900595 0.11971082
0.23867938 0.11954875 0.12018776
0.35480084 0.12184229 0.12278666
0.47205525 0.12392714 0.12495459
0.59029054 0.12594605 0.12698380
0.70872958 0.12813432 0.12915976
0.82733663 0.13047890 0.13147214
0.94609231 0.13296155 0.13390475
0.00586733 0.23900220 0.12375847
0.12372284 0.24095878 0.12534817
0.24238988 0.24282612 0.12379282
0.36309460 0.24446803 0.12610550
0.47979536 0.24752145 0.13203130
0.59829042 0.25014529 0.13481496
0.71721484 0.25278770 0.13738752
0.83624486 0.25552425 0.14003987
0.95535835 0.25833750 0.14275790
0.01293028 0.36232704 0.13083089
0.13164507 0.36477466 0.13322977
0.25044127 0.36736275 0.13559337
0.36948263 0.37002240 0.13764455
0.48862816 0.37276371 0.14074671
0.60767364 0.37562557 0.14375142
0.72686391 0.37851565 0.14654201
0.84609768 0.38143771 0.14935084
0.96534979 0.38437511 0.15217077
0.02172998 0.48727190 0.13931159
0.14082269 0.49006610 0.14201337
0.25998471 0.49292375 0.14476891
0.37919624 0.49582677 0.14755993
0.49843967 0.49875637 0.15037233
0.61769371 0.50169471 0.15319621
0.73693935 0.50462365 0.15600595
0.85615771 0.50752478 0.15878771
0.97532924 0.51037987 0.16152603
0.03153385 0.61314100 0.14858543
0.15078289 0.61607603 0.15140394
0.27003614 0.61901312 0.15422177
0.38927422 0.62193403 0.15702270
0.50847778 0.62482050 0.15979051
0.62762743 0.62765431 0.16250900
0.74670382 0.63041720 0.16516194
0.86568757 0.63309093 0.16773313
0.98455932 0.63565727 0.17020633
0.04160452 0.73923983 0.15803505
0.16079070 0.74210925 0.16078678
0.27991592 0.74491935 0.16348328
0.39896083 0.74765189 0.16610834
0.51790604 0.75028864 0.16864573
0.63673220 0.75281135 0.17107924
0.75541994 0.75520177 0.17339265
0.87394988 0.75744167 0.17556975
0.99230266 0.75951281 0.17759433
0.05120462 0.86487389 0.16704311
0.17010873 0.86747123 0.16954456
0.28888674 0.86994789 0.17193622
0.40751927 0.87228562 0.17420189
0.52598696 0.87446619 0.17632534
0.64427043 0.87647136 0.17829036
0.76235032 0.87828287 0.18008074
0.88020725 0.87988248 0.18168025
0.99782187 0.88125196 0.18307269
0.05959675 0.98934865 0.17499228
0.17799961 0.99146747 0.17705993
0.29621121 0.99340424 0.17896324
0.41421217 0.99514072 0.18068601
0.53198313 0.99665866 0.18221201
0.64950472 0.99793983 0.18352503
0.76675757 0.99896597 0.18460886
0.88372231 0.99971885 0.18544727
1.00000000 0.99980342 0.19087431
0.00000000 0.00010184 0.23141070
0.11629061 0.00027688 0.23316995
0.23300401 0.00085286 0.23393022
0.35002065 0.00171360 0.23494055
0.46732243 0.00284035 0.23618550
0.58488959 0.00421506 0.23764840
0.70270269 0.00581951 0.23931300
0.82074236 0.00763546 0.24116308
0.93898924 0.00964465 0.24318244
0.00162086 0.11834404 0.23536837
0.11901844 0.11955704 0.23672649
0.23680733 0.12095644 0.23833064
0.35467722 0.12266761 0.23998673
0.47270105 0.12459383 0.24187969
0.59101390 0.12667054 0.24395647
0.70951217 0.12891393 0.24618057
0.82817188 0.13130745 0.24853560
0.94697363 0.13383285 0.25100535
0.00648399 0.23962196 0.24064273
0.12461149 0.24158853 0.24261792
0.24296775 0.24351346 0.24437101
0.36398999 0.24490750 0.24559406
0.48111944 0.24816987 0.24908115
0.59920022 0.25102591 0.25192368
0.71814841 0.25370731 0.25452989
0.83720893 0.25647195 0.25720638
0.95634636 0.25930711 0.25994302
0.01375187 0.36314290 0.24788330
0.13251194 0.36563538 0.25032116
0.25112145 0.36829446 0.25252751
0.37032003 0.37068077 0.25148545
0.49164148 0.37290129 0.25430962
0.60896612 0.37650125 0.26063927
0.72787665 0.37950429 0.26374158
0.84711613 0.38243446 0.26655807
0.96637004 0.38537292 0.26937809
0.02268640 0.48821258 0.25647208
0.14180483 0.49103037 0.25919397
0.26098358 0.49390604 0.26196158
0.38014911 0.49683462 0.26461923
0.49946101 0.49974617 0.26689446
0.61880714 0.50266280 0.27013129
0.73795719 0.50561127 0.27319552
0.85715612 0.50850045 0.27597331
0.97630731 0.51133577 0.27869322
0.03255066 0.61413639 0.26579168
0.15180331 0.61707417 0.26861177
0.27105358 0.62000780 0.27142568
0.39028205 0.62291908 0.27421709
0.50946890 0.62578992 0.27696773
0.62859655 0.62860154 0.27966349
0.74764378 0.63133608 0.28229434
0.86659147 0.63397543 0.28483483
0.98542077 0.63650115 0.28727108
0.04260729 0.74021982 0.27522474
0.16177494 0.74307113 0.27795953
0.28087506 0.74585694 0.28063359
0.39988828 0.74855900 0.28323069
0.51879524 0.75115906 0.28573462
0.63757656 0.75363889 0.28812916
0.75621288 0.75598025 0.29039810
0.87468483 0.75816488 0.29252523
0.99297304 0.76017455 0.29449431
0.05211891 0.86576836 0.28415392
0.17098237 0.86832676 0.28661990
0.28971314 0.87075829 0.28897059
0.40829186 0.87304469 0.29118978
0.52669916 0.87516774 0.29326125
0.64491567 0.87710918 0.29516878
0.76292201 0.87885078 0.29689615
0.88069883 0.88037428 0.29842716
0.99822675 0.88166146 0.29974558
0.06034812 0.99008749 0.29196188
0.17868820 0.99214653 0.29397554
0.29683044 0.99401733 0.29581936
0.41475546 0.99568164 0.29747712
0.53244390 0.99712122 0.29893261
0.64987640 0.99831782 0.30016962
0.76703358 0.99925321 0.30117192
0.88389607 0.99990914 0.30192330
1.00000000 0.99982622 0.30808634
0.00000000 0.00014977 0.34792416
0.11641228 0.00043967 0.34964835
0.23323083 0.00111436 0.35049570
0.35034684 0.00206733 0.35158788
0.46774096 0.00328032 0.35290869
0.58539382 0.00473509 0.35444190
0.70328603 0.00641341 0.35617131
0.82139824 0.00829703 0.35808070
0.93971108 0.01036771 0.36015384
0.00198220 0.11872979 0.35204313
0.11947275 0.12003291 0.35344322
0.23721530 0.12157097 0.35505038
0.35519013 0.12332609 0.35684698
0.47337711 0.12528017 0.35881738
0.59175812 0.12741444 0.36094609
0.71031339 0.12971086 0.36321648
0.82902350 0.13215121 0.36561229
0.94786909 0.13471725 0.36811731
0.00712129 0.24026565 0.35754470
0.12538074 0.24228730 0.35957570
0.24382272 0.24447448 0.36178715
0.36256048 0.24675785 0.36416454
0.48129899 0.24927940 0.36653080
0.60009846 0.25192732 0.36905337
0.71909305 0.25463715 0.37168109
0.83818186 0.25742779 0.37437982
0.95734099 0.26028274 0.37713320
0.01459045 0.36397454 0.36494944
0.13340062 0.36650830 0.36742644
0.25226402 0.36915945 0.36999944
0.37118953 0.37162805 0.37226147
0.49269562 0.37349677 0.37395191
0.61042303 0.37727755 0.37781066
0.72890338 0.38049211 0.38094182
0.84813595 0.38343225 0.38376594
0.96738942 0.38636967 0.38658418
0.02365229 0.48916197 0.37364002
0.14279422 0.49200124 0.37638015
0.26198724 0.49489259 0.37916088
0.38092247 0.49785705 0.38164199
0.50023616 0.50041717 0.38088883
0.62175184 0.50280241 0.38382758
0.73925534 0.50649450 0.39009618
0.85815099 0.50946925 0.39315130
0.97727698 0.51228354 0.39585290
0.03356944 0.61513341 0.38299908
0.15282345 0.61807182 0.38581890
0.27206850 0.62099991 0.38862701
0.39128271 0.62390005 0.39140466
0.51039008 0.62676709 0.39399996
0.62954837 0.62953233 0.39614704
0.74866345 0.63221622 0.39915355
0.86748733 0.63484522 0.40191584
0.98626632 0.63732981 0.40432200
0.04360451 0.74119435 0.39240929
0.16275140 0.74402547 0.39512528
0.28182418 0.74678488 0.39777502
0.40080349 0.74945434 0.40034229
0.51966989 0.75201564 0.40281080
0.63840356 0.75445071 0.40516231
0.75698695 0.75674076 0.40738267
0.87539880 0.75886787 0.40946171
0.99362000 0.76081401 0.41137419
0.05302013 0.86665030 0.40125330
0.17184070 0.86916766 0.40368195
0.29052201 0.87155195 0.40598980
0.40904468 0.87378492 0.40816064
0.52738936 0.87584834 0.41017825
0.64553667 0.87772396 0.41202642
0.76346723 0.87939354 0.41368892
0.88116170 0.88083883 0.41514955
0.99860068 0.88204159 0.41639209
0.06107890 0.99080673 0.40891377
0.17935397 0.99280389 0.41087157
0.29742461 0.99460661 0.41265402
0.41527146 0.99619664 0.41424491
0.53287516 0.99755575 0.41562802
0.65021632 0.99866569 0.41678713
0.76727560 0.99950822 0.41770604
0.88408158 1.00000000 0.41887202
1.00000000 0.99985077 0.42477415
0.00000000 0.00019571 0.46496314
0.11657080 0.00063646 0.46615765
0.23349254 0.00140770 0.46708996
0.35070518 0.00245102 0.46826161
0.46818934 0.00374817 0.46965637
0.58592565 0.00528091 0.47125803
0.70389475 0.00703099 0.47305038
0.82207727 0.00898018 0.47501720
0.94045383 0.01111023 0.47714227
0.00237408 0.11914484 0.46874441
0.11995228 0.12052987 0.47021638
0.23777558 0.12214385 0.47188934
0.35582462 0.12396853 0.47374708
0.47408003 0.12598568 0.47577339
0.59252243 0.12817705 0.47795205
0.71113246 0.13052439 0.48026685
0.82989076 0.13300947 0.48270157
0.94877794 0.13561404 0.48523999
0.00778185 0.24093158 0.47446613
0.12610758 0.24301427 0.47654978
0.24461324 0.24526452 0.47877997
0.36327978 0.24766389 0.48114092
0.48208752 0.25019453 0.48361507
0.60101632 0.25283835 0.48618675
0.72004803 0.25557653 0.48884046
0.83916290 0.25839105 0.49155956
0.95834151 0.26126369 0.49432783
0.01544525 0.36482125 0.48202869
0.13429931 0.36739514 0.48454053
0.25326736 0.37007524 0.48714502
0.37232489 0.37283368 0.48985348
0.49158239 0.37559987 0.49265293
0.61076179 0.37852622 0.49536395
0.72990853 0.38149108 0.49815402
0.84915634 0.38443040 0.50097383
0.96840716 0.38736467 0.50378842
0.02462690 0.49011934 0.49081477
0.14379010 0.49297799 0.49357127
0.26300241 0.49588155 0.49636519
0.38217333 0.49881511 0.49918085
0.50124734 0.50145523 0.50166312
0.62282515 0.50342555 0.50351441
0.74070310 0.50726806 0.50727823
0.85914918 0.51042732 0.51032140
0.97823753 0.51322246 0.51300443
0.03458942 0.61613133 0.50020701
0.15384256 0.61906829 0.50302467
0.27308017 0.62198871 0.50582513
0.39227765 0.62487540 0.50859006
0.51111516 0.62774893 0.51099761
0.63016985 0.63014475 0.51025252
0.75144880 0.63227940 0.51292023
0.86865009 0.63560321 0.51871092
0.98709782 0.63814173 0.52135658
0.04459542 0.74216272 0.50958807
0.16371931 0.74497153 0.51228338
0.28276252 0.74770244 0.51490694
0.40170567 0.75033721 0.51744252
0.52052684 0.75285826 0.51987146
0.63914964 0.75526192 0.52204662
0.75773367 0.75748319 0.52370871
0.87618311 0.75952582 0.52612380
0.99424849 0.76142899 0.52822481
0.05390752 0.86751900 0.51834062
0.17268297 0.86999321 0.52073006
0.29131258 0.87232816 0.52299320
0.40977698 0.87450560 0.52511382
0.52805680 0.87650728 0.52707571
0.64613261 0.87831500 0.52886255
0.76398462 0.87991070 0.53045617
0.88159524 0.88127559 0.53184236
0.99894314 0.88239164 0.53301084
0.06178835 0.99150564 0.52584730
0.17999616 0.99343882 0.52774737
0.29799297 0.99517135 0.52946659
0.41575942 0.99668501 0.53098873
0.53327613 0.99796154 0.53229759
0.65052374 0.99898271 0.53337695
0.76748287 0.99973028 0.53421059
0.88431793 1.00000000 0.53608361
1.00000000 0.99987708 0.54092774
0.00004608 0.00028517 0.58193106
0.11676510 0.00086674 0.58269643
0.23378781 0.00173242 0.58371183
0.35109483 0.00286399 0.58496107
0.46866679 0.00424319 0.58642791
0.58648433 0.00585178 0.58809615
0.70452808 0.00767153 0.58994957
0.82277867 0.00968419 0.59197195
0.94121673 0.01187151 0.59414708
0.00279645 0.11958840 0.58547075
0.12046007 0.12105323 0.58701279
0.23836220 0.12274081 0.58875033
0.35648350 0.12463290 0.59066714
0.47480458 0.12671125 0.59274700
0.59330608 0.12895764 0.59497372
0.71196864 0.13135380 0.59733106
0.83077287 0.13388151 0.59980281
0.94969942 0.13652251 0.60237277
0.00846540 0.24161895 0.59140632
0.12685441 0.24376059 0.59354152
0.24541678 0.24606362 0.59581767
0.36413316 0.24850978 0.59821855
0.48298417 0.25108085 0.60072793
0.60195044 0.25375857 0.60332961
0.72101260 0.25652470 0.60600736
0.84015129 0.25936101 0.60874498
0.95934714 0.26224924 0.61152624
0.01631553 0.36568232 0.59912041
0.13521074 0.36829432 0.60166527
0.25421417 0.37100634 0.60429653
0.37330642 0.37380012 0.60699803
0.49246843 0.37665720 0.60975404
0.61168056 0.37955976 0.61254697
0.73092266 0.38248969 0.61536116
0.85017655 0.38542817 0.61818110
0.96942250 0.38835719 0.62099016
0.02560947 0.49108399 0.60799570
0.14479169 0.49395991 0.61076670
0.26401697 0.49687448 0.61356955
0.38326510 0.49980942 0.61638880
0.50250988 0.50273631 0.61923721
0.62185990 0.50558448 0.62210502
0.74105090 0.50850978 0.62479745
0.86011566 0.51138667 0.62749411
0.97918813 0.51415183 0.63014718
0.03560984 0.61712946 0.61741482
0.15485988 0.62006284 0.62022846
0.27408781 0.62297350 0.62301939
0.39327375 0.62584328 0.62577147
0.51232486 0.62865725 0.62847322
0.63114922 0.63110050 0.63085688
0.75240751 0.63280282 0.63253469
0.86995111 0.63624417 0.63578687
0.98792211 0.63893312 0.63837477
0.04557925 0.74312421 0.62676045
0.16467791 0.74590861 0.62943321
0.28368932 0.74860892 0.63202871
0.40259408 0.75120689 0.63453073
0.52136759 0.75368537 0.63692115
0.63968878 0.75607248 0.63890035
0.75815268 0.75797294 0.63782606
0.87875547 0.75944029 0.63984841
0.99513745 0.76192939 0.64479240
0.05478033 0.86837374 0.63541524
0.17350842 0.87080270 0.63776361
0.29208409 0.87308620 0.63998017
0.41048798 0.87520600 0.64204870
0.52870070 0.87714385 0.64395299
0.64670039 0.87888224 0.64567446
0.76441326 0.88042085 0.64707028
0.88200584 0.88170108 0.64788587
0.99935211 0.88269342 0.64935236
0.06247569 0.99218353 0.64276185
0.18061402 0.99405061 0.64460232
0.29853477 0.99571085 0.64625642
0.41621858 0.99714603 0.64770795
0.53364607 0.99833789 0.64894069
0.65079788 0.99926819 0.64993842
0.76765459 0.99991871 0.65068483
0.88455573 1.00000000 0.65279298
1.00000000 0.99990518 0.65653647
0.00017011 0.00044968 0.69841194
0.11699443 0.00112978 0.69926404
0.23411586 0.00208781 0.70036067
0.35151503 0.00330551 0.70168562
0.46917257 0.00476467 0.70322268
0.58706910 0.00644701 0.70495562
0.70518527 0.00833432 0.70686824
0.82350169 0.01040834 0.70894431
0.94199901 0.01265083 0.71116763
0.00324857 0.12005975 0.70222151
0.12099536 0.12160227 0.70383176
0.23897410 0.12336135 0.70563199
0.35716541 0.12531874 0.70760600
0.47554994 0.12745621 0.70973755
0.59410831 0.12975550 0.71201045
0.71282115 0.13219839 0.71440846
0.83166910 0.13476661 0.71691538
0.95063278 0.13744194 0.71951500
0.00917117 0.24232703 0.70836463
0.12762123 0.24452553 0.71054952
0.24623808 0.24687921 0.71286985
0.36500235 0.24936984 0.71530939
0.48389467 0.25197917 0.71785193
0.60289568 0.25468896 0.72048126
0.72198601 0.25748097 0.72318117
0.84114628 0.26033696 0.72593543
0.96035713 0.26323867 0.72872783
0.01720052 0.36655702 0.71622397
0.13613465 0.36920504 0.71879998
0.25517042 0.37194687 0.72145689
0.37428845 0.37476429 0.72417846
0.49346938 0.37763903 0.72694848
0.61269384 0.38055287 0.72975074
0.73194245 0.38348756 0.73256902
0.85119585 0.38642485 0.73538710
0.97043468 0.38934651 0.73818878
0.02659924 0.49205520 0.72518217
0.14579825 0.49494629 0.72796580
0.26503375 0.49786983 0.73077577
0.38428635 0.50080758 0.73359586
0.50353667 0.50374128 0.73640993
0.62276563 0.50665247 0.73920225
0.74195363 0.50952333 0.74195519
0.86108050 0.51233576 0.74465310
0.98012805 0.51507094 0.74728051
0.03662994 0.61812707 0.73462189
0.15587465 0.62105478 0.73742963
0.27509067 0.62395357 0.74020916
0.39425864 0.62680521 0.74294425
0.51335834 0.62959141 0.74561953
0.63236266 0.63228403 0.74825007
0.75137988 0.63481364 0.75082998
0.87015160 0.63733179 0.75314261
0.98870425 0.63971568 0.75538609
0.04655525 0.74407810 0.74392579
0.16562645 0.74683599 0.74657413
0.28460382 0.74950359 0.74913970
0.40346797 0.75206266 0.75160629
0.52219902 0.75449503 0.75395778
0.64070406 0.75678762 0.75618764
0.75890326 0.75866938 0.75812367
0.87947160 0.75973756 0.75926589
0.99615855 0.76230862 0.76163962
0.05563779 0.86921380 0.75247654
0.17431629 0.87159542 0.75478196
0.29283580 0.87382537 0.75695006
0.41117694 0.87588542 0.75896464
0.52932034 0.87775733 0.76080946
0.64724146 0.87942407 0.76246660
0.76463258 0.88093006 0.76365621
0.88221624 0.88201117 0.76185903
1.00000000 0.88266929 0.76512793
0.06314017 0.99283966 0.75965677
0.18120678 0.99463854 0.76143577
0.29904924 0.99622440 0.76302290
0.41664817 0.99757899 0.76440194
0.53398421 0.99868407 0.76555669
0.65103799 0.99952139 0.76647092
0.76797203 1.00000000 0.76731199
0.88478666 1.00000000 0.76897907
1.00000000 0.99993745 0.77150247
0.00033063 0.00064835 0.81492289
0.11725803 0.00142488 0.81585985
0.23447595 0.00247314 0.81703584
0.35196503 0.00377489 0.81843464
0.46970591 0.00531188 0.82004004
0.58767920 0.00706588 0.82183582
0.70586555 0.00901864 0.82380577
0.82424558 0.01115192 0.82593366
0.94279993 0.01344748 0.82820329
0.00372968 0.12055818 0.81899605
0.12155741 0.12217629 0.82067264
0.23961051 0.12400476 0.82253370
0.35786961 0.12602536 0.82456303
0.47631535 0.12821983 0.82674440
0.59492835 0.13056993 0.82906161
0.71368925 0.13305743 0.83149842
0.83257867 0.13566407 0.83403864
0.95157725 0.13837163 0.83666605
0.00989842 0.24305512 0.82534044
0.12840729 0.24530836 0.82757314
0.24707637 0.24771059 0.82993577
0.36588630 0.25024358 0.83241211
0.48481771 0.25288907 0.83498595
0.60385122 0.25562883 0.83764106
0.72296747 0.25844462 0.84036125
0.84214709 0.26131818 0.84313028
0.96137072 0.26423128 0.84593194
0.01809947 0.36744465 0.83333872
0.13707029 0.37012657 0.83594402
0.25613616 0.37289612 0.83862471
0.37527773 0.37573505 0.84136455
0.49447561 0.37862512 0.84414734
0.61371044 0.38154808 0.84695685
0.73296285 0.38448570 0.84977689
0.85221348 0.38741973 0.85259122
0.97144295 0.39033192 0.85538363
0.02759544 0.49303226 0.84237354
0.14680902 0.49593641 0.84516794
0.26605249 0.49886683 0.84798316
0.38530650 0.50180525 0.85080300
0.50455166 0.50473344 0.85361123
0.62376862 0.50763316 0.85639164
0.74293800 0.51048616 0.85912801
0.86204043 0.51327421 0.86180413
0.98105656 0.51597906 0.86440379
0.03764897 0.61912344 0.85182757
0.15688611 0.62204338 0.85462755
0.27608799 0.62492820 0.85739380
0.39523524 0.62775967 0.86011012
0.51430849 0.63051954 0.86276028
0.63328836 0.63318955 0.86532815
0.75215577 0.63575125 0.86779803
0.87089111 0.63818682 0.87015222
0.98947423 0.64047813 0.87237508
0.04752267 0.74502369 0.86108346
0.16656417 0.74775296 0.86370551
0.28550526 0.75038575 0.86623928
0.40432656 0.75290381 0.86866856
0.52300871 0.75528890 0.87097714
0.64153148 0.75752278 0.87314969
0.75986817 0.75957850 0.87520380
0.87812920 0.76138934 0.87713700
0.99604918 0.76309398 0.87871071
0.05647915 0.87003849 0.86952386
0.17510583 0.87237064 0.87178447
0.29356693 0.87454494 0.87390225
0.41184309 0.87654314 0.87586099
0.52991494 0.87834701 0.87764448
0.64776260 0.87993839 0.87923661
0.76529636 0.88130795 0.88063517
0.88251749 0.88226738 0.88174440
1.00000000 0.88288971 0.88252919
0.06378103 0.99347332 0.87653144
0.18177369 0.99520191 0.87824709
0.29953562 0.99671127 0.87976538
0.41704744 0.99798317 0.88107007
0.53428980 0.99899936 0.88214495
0.65124332 0.99974161 0.88297381
0.76846594 1.00000000 0.88373702
0.88499820 1.00000000 0.88464359
1.00000000 0.99997896 0.88561792
0.00052690 0.00088046 0.93146327
0.11755513 0.00175132 0.93248323
0.23486731 0.00288771 0.93373671
0.35244408 0.00427139 0.93520749
0.47026605 0.00588413 0.93687936
0.58831387 0.00770768 0.93873611
0.70656817 0.00972379 0.94076151
0.82500957 0.01191422 0.94293936
0.94361871 0.01426074 0.94525344
0.00423901 0.12108298 0.93579373
0.12214545 0.12277457 0.93753479
0.24027068 0.12467034 0.93945481
0.35859534 0.12675203 0.94153759
0.47710005 0.12900140 0.94376692
0.59576545 0.13140020 0.94612656
0.71457216 0.13393021 0.94860031
0.83350083 0.13657317 0.95117196
0.95253208 0.13931084 0.95382528
0.01064637 0.24380249 0.94233310
0.12921183 0.24610838 0.94461174
0.24793092 0.24855706 0.94701481
0.36678427 0.25113030 0.94952608
0.48575252 0.25380985 0.95212933
0.60481631 0.25657748 0.95480837
0.72395625 0.25941493 0.95754696
0.84315299 0.26230396 0.96032889
0.96238715 0.26522634 0.96313795
0.01901161 0.36834448 0.95046403
0.13801688 0.37105821 0.95309676
0.25711064 0.37385337 0.95579935
0.37627350 0.37671171 0.95855559
0.49548610 0.37961499 0.96134928
0.61472907 0.38254498 0.96416418
0.73398305 0.38548342 0.96698410
0.85322866 0.38841209 0.96979281
0.97244654 0.39131272 0.97257409
0.02859733 0.49401445 0.95956919
0.14782324 0.49692957 0.96237248
0.26707246 0.49986474 0.96519109
0.38632563 0.50280174 0.96800880
0.50556339 0.50572231 0.97080940
0.62476636 0.50860821 0.97357667
0.74391518 0.51144120 0.97629440
0.86299047 0.51420303 0.97894637
0.98197287 0.51687547 0.98151637
0.03866617 0.62011787 0.96903123
0.15789351 0.62302793 0.97182158
0.27707900 0.62589668 0.97457269
0.39620330 0.62870588 0.97726836
0.51524701 0.63143728 0.97989236
0.63419079 0.63407264 0.98242849
0.75301525 0.63659373 0.98486052
0.87170104 0.63898229 0.98717224
0.99022877 0.64122009 0.98934744
0.04848073 0.74596025 0.97823281
0.16749031 0.74865880 0.98082670
0.28639289 0.75125467 0.98332681
0.40516911 0.75372962 0.98571692
0.52379959 0.75606540 0.98798081
0.64226498 0.75824378 0.99010228
0.76054588 0.76024650 0.99206520
0.87862322 0.76205511 0.99385387
0.99647738 0.76365177 0.99545055
0.05730364 0.87084706 0.98655658
0.17587627 0.87312766 0.98877051
0.29427673 0.87524420 0.99083610
0.41248568 0.87717845 0.99273714
0.53048374 0.87891217 0.99445742
0.64825154 0.88042711 0.99598072
0.76576890 0.88170508 0.99729176
0.88301137 0.88272137 0.99841012
1.00000000 0.88345108 0.99924241
0.06439752 0.99408381 0.99338521
0.18231399 0.99573999 0.99503566
0.29999316 0.99717076 0.99648322
0.41741564 0.99835786 0.99771168
0.53456208 0.99928306 0.99870484
0.65141310 0.99992812 0.99944646
0.76896558 1.00000000 0.99964982
0.88527051 1.00000000 0.99981231
1.00000000 1.00000000 1.00000000
