assets/luts/DB_Editorial_White_Rec709_100.cube
TITLE "Editorial White Rec709 100"
# Red changes fastest. Full-range normalized input.
LUT_3D_SIZE 33
DOMAIN_MIN 0 0 0
DOMAIN_MAX 1 1 1
0.00000000 0.00000000 0.00000000
0.02657271 0.00000000 0.00009267
0.05330301 0.00000000 0.00016441
0.08022269 0.00000000 0.00023226
0.10737661 0.00000000 0.00031749
0.13479090 0.00000000 0.00043286
0.16245400 0.00000000 0.00057482
0.19032729 0.00000000 0.00072693
0.21695150 0.00038414 0.00124836
0.24320163 0.00091010 0.00189166
0.26987003 0.00136281 0.00244619
0.29683379 0.00177711 0.00295073
0.32396797 0.00218844 0.00344438
0.35119399 0.00261880 0.00395142
0.37847500 0.00307809 0.00448279
0.40579715 0.00356959 0.00504218
0.43315590 0.00409386 0.00563032
0.46054969 0.00465062 0.00624701
0.48797772 0.00523933 0.00689179
0.51543935 0.00585946 0.00756417
0.54293398 0.00651041 0.00826365
0.57046099 0.00719164 0.00898972
0.59801979 0.00790256 0.00974186
0.62560976 0.00864260 0.01051959
0.65323031 0.00941121 0.01132239
0.68088082 0.01020779 0.01214974
0.70856069 0.01103180 0.01300115
0.73626931 0.01188264 0.01387612
0.76400609 0.01275977 0.01477412
0.79177041 0.01366260 0.01569466
0.81956167 0.01459056 0.01663723
0.84737927 0.01554309 0.01760131
0.87522259 0.01651962 0.01858642
0.00000000 0.02680765 0.00054008
0.02674663 0.02697522 0.00000000
0.05405882 0.02695335 0.00000000
0.08143770 0.02696547 0.00000000
0.10902640 0.02699939 0.00000000
0.13697424 0.02703244 0.00000000
0.16534167 0.02704439 0.00000000
0.19394106 0.02706091 0.00005638
0.21939409 0.02791737 0.00154339
0.24516946 0.02873068 0.00280065
0.27149863 0.02943266 0.00377677
0.29831491 0.03004062 0.00454589
0.32544531 0.03060273 0.00520900
0.35274413 0.03115970 0.00583953
0.38012886 0.03173434 0.00647571
0.40756381 0.03233610 0.00713285
0.43503639 0.03296784 0.00781562
0.46254267 0.03362994 0.00852492
0.49008130 0.03432205 0.00926055
0.51765151 0.03504364 0.01002207
0.54525268 0.03579415 0.01080898
0.57288420 0.03657300 0.01162078
0.60054547 0.03737964 0.01245695
0.62823588 0.03821348 0.01331700
0.65595483 0.03907396 0.01420041
0.68370170 0.03996051 0.01510667
0.71147590 0.04087256 0.01603529
0.73927682 0.04180953 0.01698575
0.76710385 0.04277086 0.01795755
0.79495639 0.04375598 0.01895018
0.82283384 0.04476432 0.01996313
0.85073558 0.04579530 0.02099590
0.87866102 0.04684836 0.02204798
0.00000000 0.05427521 0.00108078
0.02659923 0.05469618 0.00000000
0.05431625 0.05468917 0.00000000
0.08202474 0.05472148 0.00000000
0.10982022 0.05480965 0.00000000
0.13787156 0.05494738 0.00000000
0.16631890 0.05510734 0.00000000
0.19518539 0.05525710 0.00000000
0.22230274 0.05586022 0.00131760
0.24781134 0.05688306 0.00346057
0.27378221 0.05782451 0.00511326
0.30035230 0.05864224 0.00631887
0.32739222 0.05936988 0.00724037
0.35471254 0.06005914 0.00802943
0.38217556 0.06074780 0.00877912
0.40971030 0.06145509 0.00953250
0.43728820 0.06218831 0.01030521
0.46489976 0.06294941 0.01110161
0.49254206 0.06373848 0.01192240
0.52021399 0.06455509 0.01276733
0.54791486 0.06539870 0.01363594
0.57564404 0.06626873 0.01452773
0.60340094 0.06716463 0.01544219
0.63118493 0.06808582 0.01637882
0.65899543 0.06903173 0.01733710
0.68683182 0.07000178 0.01831654
0.71469350 0.07099542 0.01931663
0.74257986 0.07201207 0.02033686
0.77049030 0.07305116 0.02137672
0.79842421 0.07411211 0.02243570
0.82638099 0.07519437 0.02351331
0.85436003 0.07629736 0.02460902
0.88236073 0.07742050 0.02572235
0.00000000 0.08238030 0.00163630
0.02694292 0.08283617 0.00092336
0.05453189 0.08311941 0.00000000
0.08266481 0.08315938 0.00000000
0.11080779 0.08325234 0.00000000
0.13907785 0.08342339 0.00000000
0.16763407 0.08366613 0.00000000
0.19657666 0.08394490 0.00000000
0.22474763 0.08444921 0.00104794
0.25054962 0.08550781 0.00399333
0.27645362 0.08659038 0.00641752
0.30285291 0.08758278 0.00819792
0.32978011 0.08847097 0.00948164
0.35708300 0.08929392 0.01048369
0.38459678 0.09009558 0.01136699
0.41221546 0.09090436 0.01221985
0.43988885 0.09173342 0.01307932
0.46759805 0.09258729 0.01395768
0.49533700 0.09346691 0.01485801
0.52310377 0.09437210 0.01578064
0.55089748 0.09530236 0.01672521
0.57871747 0.09625712 0.01769126
0.60656314 0.09723583 0.01867828
0.63443387 0.09823791 0.01968575
0.66232907 0.09926280 0.02071319
0.69024812 0.10030991 0.02176007
0.71819043 0.10137869 0.02282589
0.74615538 0.10246856 0.02391015
0.77414238 0.10357895 0.02501233
0.80215081 0.10470929 0.02613194
0.83018007 0.10585902 0.02726846
0.85822956 0.10702756 0.02842139
0.88629867 0.10821434 0.02959022
0.00147476 0.11049526 0.00359596
0.02845596 0.11108518 0.00331502
0.05562788 0.11167921 0.00242164
0.08333354 0.11217527 0.00090284
0.11176424 0.11241806 0.00000000
0.14038382 0.11259195 0.00000000
0.16916537 0.11285204 0.00000000
0.19822737 0.11318601 0.00000000
0.22617618 0.11378922 0.00190875
0.25278248 0.11473764 0.00507526
0.27908733 0.11582059 0.00797981
0.30559193 0.11689836 0.01026006
0.33251198 0.11790615 0.01192674
0.35981403 0.11884806 0.01317691
0.38736747 0.11975673 0.01421458
0.41505696 0.12066206 0.01517318
0.44281578 0.12158135 0.01611788
0.47061465 0.12252183 0.01707365
0.49844311 0.12348564 0.01804806
0.52629781 0.12447297 0.01904270
0.55417749 0.12548342 0.02005752
0.58208144 0.12651647 0.02109209
0.61000903 0.12757154 0.02214593
0.63795965 0.12864806 0.02321852
0.66593270 0.12974547 0.02430936
0.69392757 0.13086319 0.02541795
0.72194366 0.13200065 0.02654377
0.74998035 0.13315729 0.02768633
0.77803706 0.13433254 0.02884510
0.80611316 0.13552582 0.03001960
0.83420806 0.13673656 0.03120930
0.86232114 0.13796420 0.03241370
0.89045181 0.13920816 0.03363230
0.00333790 0.13900195 0.00586026
0.03053537 0.13966317 0.00606108
0.05774396 0.14037416 0.00585606
0.08514405 0.14108400 0.00512254
0.11297991 0.14171700 0.00395990
0.14137644 0.14222404 0.00279842
0.17015268 0.14264065 0.00228691
0.19884551 0.14308918 0.00294797
0.22699410 0.14370357 0.00483945
0.25445190 0.14453816 0.00751503
0.28144376 0.14554308 0.01031955
0.30835036 0.14661822 0.01275772
0.33545276 0.14768424 0.01466218
0.36283624 0.14871289 0.01612029
0.39045042 0.14971366 0.01730811
0.41820869 0.15070743 0.01837319
0.44604559 0.15171051 0.01940114
0.47392656 0.15273132 0.02043004
0.50183738 0.15377294 0.02147321
0.52977306 0.15483599 0.02253422
0.55773186 0.15592019 0.02361357
0.58571291 0.15702507 0.02471093
0.61371557 0.15815004 0.02582585
0.64173923 0.15929456 0.02695783
0.66978328 0.16045803 0.02810634
0.69784712 0.16163991 0.02927090
0.72593014 0.16283961 0.03045099
0.75403172 0.16405657 0.03164610
0.78215128 0.16529022 0.03285574
0.81028821 0.16653998 0.03407938
0.83844189 0.16780529 0.03531653
0.86661173 0.16908558 0.03656668
0.89479711 0.17038027 0.03782932
0.00546733 0.16791138 0.00830045
0.03289562 0.16863396 0.00885482
0.06030360 0.16940743 0.00921976
0.08774520 0.17021830 0.00927901
0.11534390 0.17103034 0.00899382
0.14323820 0.17179783 0.00851206
0.17146218 0.17249999 0.00819508
0.19986048 0.17317010 0.00847579
0.22814941 0.17388427 0.00960526
0.25610297 0.17471115 0.01148469
0.28370041 0.17566653 0.01373290
0.31110620 0.17671270 0.01592730
0.33852643 0.17779503 0.01781478
0.36608548 0.17887712 0.01935796
0.39380304 0.17994988 0.02064953
0.42164092 0.18102060 0.02180596
0.44955352 0.18209970 0.02291079
0.47751042 0.18319416 0.02400762
0.50549673 0.18430713 0.02511414
0.53350650 0.18543945 0.02623590
0.56153754 0.18659096 0.02737405
0.58958884 0.18776121 0.02852848
0.61765973 0.18894965 0.02969876
0.64574957 0.19015570 0.03088437
0.67385778 0.19137880 0.03208483
0.70198373 0.19261838 0.03329962
0.73012682 0.19387387 0.03452824
0.75828645 0.19514469 0.03577018
0.78646202 0.19643029 0.03702494
0.81465292 0.19773008 0.03829200
0.84285853 0.19904351 0.03957086
0.87107827 0.20036999 0.04086102
0.89931151 0.20170896 0.04216196
0.00786727 0.19719306 0.01093154
0.03546904 0.19798905 0.01169373
0.06307072 0.19882379 0.01240016
0.09067658 0.19969707 0.01298647
0.11832289 0.20059901 0.01339709
0.14607772 0.20150846 0.01364245
0.17400251 0.20240290 0.01385000
0.20209156 0.20327678 0.01424738
0.23024678 0.20415206 0.01505270
0.25832948 0.20506679 0.01633830
0.28625402 0.20604895 0.01798124
0.31403833 0.20709918 0.01974564
0.34177172 0.20819634 0.02142278
0.36954291 0.20931625 0.02291797
0.39739457 0.21044522 0.02424366
0.42532524 0.21158120 0.02546124
0.45331440 0.21272775 0.02663010
0.48134258 0.21388880 0.02778768
0.50939797 0.21506654 0.02895165
0.53747505 0.21626166 0.03012844
0.56557148 0.21747403 0.03131969
0.59368618 0.21870321 0.03252546
0.62181844 0.21994864 0.03374535
0.64996763 0.22120978 0.03497887
0.67813313 0.22248605 0.03622554
0.70631435 0.22377688 0.03748483
0.73451067 0.22508171 0.03875625
0.76272150 0.22639995 0.04003928
0.79094622 0.22773104 0.04133342
0.81918424 0.22907442 0.04263816
0.84743494 0.23042950 0.04395300
0.87569772 0.23179573 0.04527743
0.90397198 0.23317253 0.04661094
0.01056557 0.22680868 0.01379346
0.03829102 0.22768653 0.01467672
0.06603361 0.22859389 0.01556006
0.09378924 0.22953193 0.01641890
0.12156223 0.23049951 0.01722267
0.14937178 0.23149075 0.01795322
0.17724788 0.23249541 0.01863273
0.20521105 0.23350436 0.01933901
0.23324859 0.23451735 0.02018181
0.26131251 0.23554532 0.02124282
0.28934854 0.23660347 0.02252208
0.31733245 0.23770060 0.02393771
0.34528097 0.23883427 0.02537895
0.37323147 0.23999509 0.02676639
0.40121419 0.24117412 0.02807614
0.42923987 0.24236694 0.02932493
0.45730453 0.24357309 0.03054222
0.48539956 0.24479365 0.03175170
0.51351794 0.24602951 0.03296664
0.54165564 0.24728093 0.03419260
0.56981064 0.24854769 0.03543120
0.59798190 0.24982934 0.03668256
0.62616868 0.25112533 0.03794633
0.65437035 0.25243511 0.03922204
0.68258631 0.25375809 0.04050917
0.71081594 0.25509373 0.04180723
0.73905865 0.25644143 0.04311571
0.76731382 0.25780064 0.04443410
0.79558085 0.25917078 0.04576189
0.82385913 0.26055128 0.04709858
0.85214807 0.26194158 0.04844366
0.88044705 0.26334110 0.04979663
0.90875548 0.26474927 0.05115697
0.01356901 0.25672682 0.01690092
0.04139209 0.25768662 0.01786855
0.06923814 0.25867116 0.01885224
0.09710467 0.25968064 0.01984491
0.12499026 0.26071505 0.02083563
0.15289732 0.26177325 0.02181307
0.18083376 0.26285227 0.02277424
0.20880990 0.26394781 0.02373478
0.23683023 0.26505670 0.02473023
0.26488639 0.26617938 0.02580121
0.29295964 0.26731993 0.02696904
0.32103281 0.26848304 0.02822110
0.34910109 0.26967051 0.02951911
0.37717244 0.27088049 0.03082269
0.40525892 0.27210939 0.03210859
0.43336840 0.27335424 0.03337401
0.46150239 0.27461355 0.03462784
0.48965849 0.27588693 0.03588073
0.51783354 0.27717433 0.03713998
0.54602520 0.27847556 0.03840912
0.57423197 0.27979025 0.03968928
0.60245294 0.28111791 0.04098050
0.63068739 0.28245801 0.04228242
0.65893470 0.28380997 0.04359457
0.68719426 0.28517322 0.04491644
0.71546546 0.28654720 0.04624753
0.74374770 0.28793134 0.04758733
0.77204036 0.28932506 0.04893534
0.80034285 0.29072779 0.05029105
0.82865456 0.29213897 0.05165396
0.85697488 0.29355803 0.05302355
0.88530321 0.29498439 0.05439932
0.91363895 0.29641749 0.05578076
0.01686531 0.28692225 0.02024671
0.04477342 0.28795948 0.02128454
0.07270458 0.28901879 0.02234076
0.10065768 0.29009982 0.02341351
0.12863153 0.29120223 0.02449976
0.15662547 0.29232559 0.02559542
0.18464027 0.29346902 0.02669709
0.21267824 0.29463106 0.02780527
0.24074188 0.29580998 0.02892699
0.26883125 0.29700463 0.03007455
0.29694246 0.29821499 0.03125920
0.32506941 0.29944202 0.03248379
0.35320745 0.30068656 0.03374043
0.38135587 0.30194849 0.03501548
0.40951703 0.30322674 0.03629721
0.43769371 0.30451990 0.03758032
0.46588714 0.30582682 0.03886526
0.49409693 0.30714678 0.04015501
0.52232187 0.30847926 0.04145232
0.55056070 0.30982383 0.04275872
0.57881242 0.31117999 0.04407466
0.60707626 0.31254722 0.04539999
0.63535154 0.31392497 0.04673432
0.66363764 0.31531266 0.04807717
0.69193395 0.31670973 0.04942804
0.72023987 0.31811560 0.05078643
0.74855478 0.31952972 0.05215183
0.77687809 0.32095150 0.05352373
0.80520919 0.32238038 0.05490162
0.83354747 0.32381579 0.05628500
0.86189233 0.32525715 0.05767337
0.89024316 0.32670390 0.05906621
0.91859936 0.32815547 0.06046301
0.02043413 0.31737238 0.02381456
0.04841919 0.31848101 0.02491516
0.07642568 0.31960966 0.02603312
0.10445289 0.32075780 0.02716774
0.13250008 0.32192492 0.02831806
0.16056649 0.32311052 0.02948277
0.18865158 0.32431403 0.03066040
0.21675521 0.32553477 0.03184994
0.24487760 0.32677191 0.03305171
0.27301882 0.32802458 0.03426780
0.30117819 0.32929212 0.03550125
0.32935408 0.33057418 0.03675406
0.35754455 0.33187057 0.03802560
0.38574823 0.33318105 0.03931264
0.41396474 0.33450509 0.04061117
0.44219425 0.33584198 0.04191822
0.47043688 0.33719097 0.04323262
0.49869235 0.33855136 0.04455446
0.52696002 0.33992257 0.04588420
0.55523914 0.34130404 0.04722208
0.58352896 0.34269522 0.04856803
0.61182882 0.34409557 0.04992173
0.64013808 0.34550451 0.05128274
0.66845612 0.34692148 0.05265056
0.69678233 0.34834591 0.05402470
0.72511612 0.34977723 0.05540465
0.75345686 0.35121488 0.05678991
0.78180396 0.35265827 0.05817996
0.81015682 0.35410684 0.05957430
0.83851482 0.35556002 0.06097243
0.86687737 0.35701724 0.06237383
0.89524385 0.35847793 0.06377800
0.92361366 0.35994152 0.06518444
0.02425291 0.34805535 0.02758571
0.05230788 0.34922899 0.02874308
0.08038230 0.35042072 0.02991621
0.10847555 0.35162997 0.03110456
0.13658700 0.35285617 0.03230755
0.16471601 0.35409879 0.03352457
0.19286194 0.35535725 0.03475490
0.22102423 0.35663099 0.03599785
0.24920240 0.35791939 0.03725286
0.27739602 0.35922184 0.03851975
0.30560460 0.36053769 0.03979871
0.33382747 0.36186638 0.04108999
0.36206377 0.36320738 0.04239346
0.39031264 0.36456022 0.04370837
0.41857338 0.36592438 0.04503348
0.44684545 0.36729930 0.04636756
0.47512841 0.36868436 0.04770968
0.50342179 0.37007897 0.04905932
0.53172503 0.37148253 0.05041615
0.56003749 0.37289447 0.05177987
0.58835855 0.37431423 0.05315011
0.61668758 0.37574124 0.05452644
0.64502397 0.37717493 0.05590839
0.67336710 0.37861473 0.05729545
0.70171636 0.38006007 0.05868712
0.73007116 0.38151039 0.06008290
0.75843089 0.38296510 0.06148227
0.78679494 0.38442365 0.06288474
0.81516270 0.38588547 0.06428980
0.84353357 0.38734997 0.06569693
0.87190696 0.38881660 0.06710564
0.90028224 0.39028477 0.06851541
0.92865881 0.39175393 0.06992574
0.02829869 0.37894943 0.03154096
0.05641670 0.38018164 0.03274934
0.08455213 0.38143001 0.03397178
0.11270436 0.38269399 0.03520776
0.14087280 0.38397299 0.03645678
0.16905683 0.38526645 0.03771831
0.19725584 0.38657380 0.03899182
0.22546922 0.38789448 0.04027675
0.25369638 0.38922791 0.04157258
0.28193674 0.39057351 0.04287881
0.31018972 0.39193071 0.04419502
0.33845473 0.39329892 0.04552085
0.36673115 0.39467757 0.04685590
0.39501833 0.39606612 0.04819971
0.42331561 0.39746399 0.04955169
0.45162238 0.39887063 0.05091119
0.47993806 0.40028547 0.05227757
0.50826208 0.40170793 0.05365029
0.53659383 0.40313744 0.05502884
0.56493272 0.40457343 0.05641277
0.59327815 0.40601531 0.05780159
0.62162950 0.40746253 0.05919482
0.64998616 0.40891452 0.06059197
0.67834753 0.41037070 0.06199253
0.70671300 0.41183050 0.06339600
0.73508197 0.41329336 0.06480187
0.76345382 0.41475870 0.06620964
0.79182796 0.41622596 0.06761879
0.82020379 0.41769456 0.06902882
0.84858068 0.41916393 0.07043923
0.87695805 0.42063351 0.07184951
0.90533528 0.42210272 0.07325914
0.93371177 0.42357100 0.07466763
0.03254842 0.41003291 0.03566101
0.06072262 0.41131724 0.03691466
0.08891219 0.41261581 0.03818067
0.11711655 0.41392807 0.03945852
0.14533507 0.41525343 0.04074770
0.17356716 0.41659133 0.04204772
0.20181220 0.41794120 0.04335806
0.23006960 0.41930247 0.04467820
0.25833874 0.42067457 0.04600764
0.28661903 0.42205692 0.04734586
0.31490986 0.42344897 0.04869236
0.34321063 0.42485013 0.05004667
0.37152074 0.42625983 0.05140828
0.39983957 0.42767751 0.05277671
0.42816652 0.42910260 0.05415145
0.45650098 0.43053452 0.05553197
0.48484234 0.43197271 0.05691776
0.51318999 0.43341661 0.05830828
0.54154334 0.43486563 0.05970302
0.56990178 0.43631920 0.06110148
0.59826471 0.43777677 0.06250317
0.62663153 0.43923775 0.06390757
0.65500162 0.44070158 0.06531419
0.68337437 0.44216768 0.06672252
0.71174920 0.44363550 0.06813206
0.74012548 0.44510444 0.06954228
0.76850262 0.44657396 0.07095270
0.79688001 0.44804347 0.07236280
0.82525704 0.44951241 0.07377208
0.85363311 0.45098020 0.07518003
0.88200761 0.45244628 0.07658614
0.91037994 0.45391008 0.07798991
0.93874949 0.45537102 0.07939082
0.03697907 0.44128410 0.03992658
0.06520260 0.44261409 0.04121977
0.09343948 0.44395641 0.04252360
0.12168909 0.44531050 0.04383758
0.14995084 0.44667577 0.04516119
0.17822412 0.44805167 0.04649393
0.20650832 0.44943761 0.04783528
0.23480285 0.45083304 0.04918475
0.26310708 0.45223737 0.05054182
0.29142042 0.45365005 0.05190599
0.31974226 0.45507050 0.05327675
0.34807201 0.45649814 0.05465360
0.37640904 0.45793242 0.05603602
0.40475276 0.45937276 0.05742352
0.43310257 0.46081858 0.05881560
0.46145785 0.46226933 0.06021174
0.48981800 0.46372442 0.06161143
0.51818241 0.46518329 0.06301417
0.54655049 0.46664538 0.06441944
0.57492162 0.46811010 0.06582674
0.60329520 0.46957689 0.06723557
0.63167062 0.47104519 0.06864541
0.66004729 0.47251441 0.07005577
0.68842459 0.47398399 0.07146613
0.71680191 0.47545335 0.07287599
0.74517866 0.47692194 0.07428485
0.77355423 0.47838918 0.07569218
0.80192802 0.47985449 0.07709750
0.83029941 0.48131732 0.07850028
0.85866780 0.48277708 0.07990004
0.88703259 0.48423321 0.08129625
0.91539317 0.48568514 0.08268841
0.94374894 0.48713230 0.08407601
0.04156759 0.47268128 0.04431837
0.06983360 0.47405049 0.04564536
0.09811093 0.47543011 0.04698129
0.12639896 0.47681957 0.04832566
0.15469709 0.47821830 0.04967796
0.18300471 0.47962574 0.05103768
0.21132121 0.48104131 0.05240431
0.23964600 0.48246445 0.05377735
0.26797847 0.48389457 0.05515630
0.29631801 0.48533112 0.05654064
0.32466402 0.48677352 0.05792986
0.35301588 0.48822120 0.05932347
0.38137300 0.48967360 0.06072095
0.40973478 0.49113014 0.06212180
0.43810059 0.49259024 0.06352551
0.46646985 0.49405336 0.06493158
0.49484195 0.49551890 0.06633950
0.52321627 0.49698630 0.06774875
0.55159221 0.49845500 0.06915884
0.57996918 0.49992442 0.07056926
0.60834656 0.50139398 0.07197950
0.63672375 0.50286314 0.07338905
0.66510014 0.50433130 0.07479741
0.69347513 0.50579790 0.07620407
0.72184811 0.50726237 0.07760852
0.75021848 0.50872415 0.07901026
0.77858563 0.51018266 0.08040878
0.80694895 0.51163732 0.08180358
0.83530785 0.51308758 0.08319414
0.86366172 0.51453286 0.08457996
0.89200994 0.51597259 0.08596054
0.92035192 0.51740620 0.08733536
0.94868706 0.51883312 0.08870392
0.04629093 0.50420275 0.04881709
0.07459259 0.50560472 0.05017215
0.10290351 0.50701519 0.05153445
0.13122310 0.50843358 0.05290347
0.15955076 0.50985932 0.05427872
0.18788587 0.51129185 0.05565969
0.21622783 0.51273060 0.05704586
0.24457604 0.51417499 0.05843675
0.27292989 0.51562445 0.05983182
0.30128878 0.51707842 0.06123059
0.32965209 0.51853633 0.06263254
0.35801923 0.51999759 0.06403717
0.38638959 0.52146166 0.06544397
0.41476257 0.52292794 0.06685243
0.44313755 0.52439588 0.06826205
0.47151394 0.52586491 0.06967231
0.49989113 0.52733445 0.07108272
0.52826850 0.52880393 0.07249277
0.55664547 0.53027278 0.07390195
0.58502142 0.53174044 0.07530975
0.61339575 0.53320634 0.07671566
0.64176785 0.53466990 0.07811919
0.67013712 0.53613055 0.07951981
0.69850295 0.53758772 0.08091704
0.72686473 0.53904085 0.08231035
0.75522187 0.54048936 0.08369924
0.78357375 0.54193269 0.08508321
0.81191977 0.54337025 0.08646175
0.84025933 0.54480149 0.08783435
0.86859182 0.54622584 0.08920051
0.89691663 0.54764271 0.09055971
0.92523317 0.54905155 0.09191146
0.95354081 0.55045179 0.09325524
0.05112606 0.53582682 0.05340346
0.07945650 0.53725510 0.05478085
0.10779418 0.53868996 0.05616377
0.13613849 0.54013083 0.05755172
0.16448882 0.54157713 0.05894418
0.19284457 0.54302830 0.06034066
0.22120514 0.54448377 0.06174065
0.24956992 0.54594296 0.06314363
0.27793830 0.54740531 0.06454911
0.30630968 0.54887025 0.06595657
0.33468346 0.55033720 0.06736551
0.36305902 0.55180561 0.06877542
0.39143577 0.55327488 0.07018580
0.41981310 0.55474447 0.07159614
0.44819040 0.55621379 0.07300593
0.47656706 0.55768228 0.07441466
0.50494249 0.55914936 0.07582183
0.53331608 0.56061447 0.07722694
0.56168722 0.56207703 0.07862947
0.59005530 0.56353648 0.08002891
0.61841973 0.56499225 0.08142477
0.64677989 0.56644377 0.08281653
0.67513519 0.56789045 0.08420369
0.70348501 0.56933175 0.08558574
0.73182875 0.57076708 0.08696218
0.76016580 0.57219587 0.08833249
0.78849556 0.57361757 0.08969618
0.81681743 0.57503158 0.09105273
0.84513080 0.57643735 0.09240163
0.87343506 0.57783431 0.09374239
0.90172961 0.57922188 0.09507449
0.93001385 0.58059950 0.09639743
0.95828716 0.58196659 0.09771070
0.05604993 0.56753177 0.05805817
0.08440231 0.56897991 0.05945215
0.11275989 0.57043271 0.06084997
0.14112206 0.57188961 0.06225110
0.16948822 0.57335001 0.06365505
0.19785776 0.57481337 0.06506131
0.22623009 0.57627911 0.06646937
0.25460458 0.57774666 0.06787872
0.28298065 0.57921545 0.06928887
0.31135768 0.58068490 0.07069929
0.33973507 0.58215445 0.07210948
0.36811220 0.58362354 0.07351895
0.39648849 0.58509158 0.07492717
0.42486332 0.58655801 0.07633365
0.45323609 0.58802226 0.07773787
0.48160618 0.58948376 0.07913934
0.50997301 0.59094193 0.08053754
0.53833595 0.59239622 0.08193196
0.56669441 0.59384604 0.08332211
0.59504778 0.59529083 0.08470747
0.62339546 0.59673002 0.08608753
0.65173683 0.59816304 0.08746180
0.68007130 0.59958931 0.08882976
0.70839826 0.60100828 0.09019090
0.73671711 0.60241936 0.09154473
0.76502723 0.60382199 0.09289072
0.79332803 0.60521559 0.09422839
0.82161889 0.60659961 0.09555721
0.84989922 0.60797346 0.09687669
0.87816840 0.60933658 0.09818631
0.90642584 0.61068839 0.09948557
0.93467093 0.61202834 0.10077397
0.96290305 0.61335584 0.10205099
0.06103951 0.59929591 0.06276193
0.08940697 0.60075746 0.06416678
0.11777759 0.60222175 0.06557375
0.14615078 0.60368821 0.06698234
0.17452592 0.60515628 0.06839204
0.20290240 0.60662537 0.06980234
0.23127963 0.60809493 0.07121274
0.25965700 0.60956438 0.07262273
0.28803390 0.61103315 0.07403180
0.31640973 0.61250067 0.07543945
0.34478387 0.61396637 0.07684516
0.37315574 0.61542969 0.07824844
0.40152471 0.61689004 0.07964878
0.42989019 0.61834687 0.08104566
0.45825158 0.61979959 0.08243858
0.48660825 0.62124765 0.08382705
0.51495962 0.62269047 0.08521054
0.54330507 0.62412748 0.08658855
0.57164401 0.62555810 0.08796058
0.59997581 0.62698178 0.08932611
0.62829989 0.62839794 0.09068465
0.65661562 0.62980601 0.09203569
0.68492242 0.63120542 0.09337871
0.71321967 0.63259560 0.09471322
0.74150677 0.63397598 0.09603869
0.76978311 0.63534599 0.09735464
0.79804809 0.63670506 0.09866055
0.82630110 0.63805262 0.09995592
0.85454154 0.63938810 0.10124023
0.88276880 0.64071093 0.10251298
0.91098227 0.64202054 0.10377367
0.93918136 0.64331636 0.10502179
0.96736545 0.64459781 0.10625682
0.06607173 0.63109753 0.06749546
0.09444743 0.63256603 0.06890544
0.12282426 0.63403536 0.07031583
0.15120161 0.63550495 0.07172614
0.17957887 0.63697421 0.07313585
0.20795545 0.63844260 0.07454446
0.23633074 0.63990952 0.07595147
0.26470412 0.64137442 0.07735635
0.29307501 0.64283672 0.07875862
0.32144278 0.64429586 0.08015776
0.34980684 0.64575126 0.08155326
0.37816658 0.64720235 0.08294462
0.40652139 0.64864856 0.08433133
0.43487068 0.65008933 0.08571288
0.46321382 0.65152408 0.08708878
0.49155023 0.65295225 0.08845850
0.51987929 0.65437326 0.08982155
0.54820040 0.65578654 0.09117741
0.57651296 0.65719152 0.09252559
0.60481635 0.65858764 0.09386557
0.63310997 0.65997431 0.09519685
0.66139323 0.66135098 0.09651891
0.68966550 0.66271708 0.09783127
0.71792619 0.66407202 0.09913339
0.74617470 0.66541525 0.10042479
0.77441040 0.66674619 0.10170496
0.80263272 0.66806427 0.10297338
0.83084102 0.66936893 0.10422955
0.85903472 0.67065958 0.10547296
0.88721320 0.67193567 0.10670311
