assets/luts/DB_Editorial_White_Rec709_50.cube
TITLE "Editorial White Rec709 50"
# Red changes fastest. Full-range normalized input.
LUT_3D_SIZE 5
DOMAIN_MIN 0 0 0
DOMAIN_MAX 1 1 1
0.00000000 0.00000000 0.00000000
0.23347575 0.00019207 0.00062418
0.46657795 0.00204693 0.00281516
0.70161515 0.00470560 0.00566119
0.93761130 0.00825981 0.00929321
0.00528279 0.23840434 0.00689673
0.24162429 0.24225867 0.01009091
0.47865227 0.24678655 0.01527111
0.71629315 0.25187905 0.02025459
0.95437774 0.25737464 0.02557849
0.02078379 0.48634064 0.02215919
0.25898924 0.49194729 0.02757815
0.49742097 0.49775945 0.03316975
0.73592405 0.50363119 0.03880426
0.97434353 0.50941656 0.04435196
0.04059695 0.73825511 0.04084086
0.27894752 0.74397281 0.04632474
0.51700312 0.74940506 0.05154485
0.75460880 0.75440594 0.05637148
0.99160962 0.75882950 0.06067488
0.05882556 0.98859091 0.05800559
0.29556769 0.99276805 0.06208630
0.53149360 0.99616880 0.06546684
0.76644833 0.99864722 0.06801749
1.00000000 0.99978236 0.07314811
0.00000000 0.00010184 0.23141070
0.23300401 0.00085286 0.23393022
0.46732243 0.00284035 0.23618550
0.70270269 0.00581951 0.23931300
0.93898924 0.00964465 0.24318244
0.00648399 0.23962196 0.24064273
0.24296775 0.24351346 0.24437101
0.48111944 0.24816987 0.24908115
0.71814841 0.25370731 0.25452989
0.95634636 0.25930711 0.25994302
0.02268640 0.48821258 0.25647208
0.26098358 0.49390604 0.26196158
0.49946101 0.49974617 0.26689446
0.73795719 0.50561127 0.27319552
0.97630731 0.51133577 0.27869322
0.04260729 0.74021982 0.27522474
0.28087506 0.74585694 0.28063359
0.51879524 0.75115906 0.28573462
0.75621288 0.75598025 0.29039810
0.99297304 0.76017455 0.29449431
0.06034812 0.99008749 0.29196188
0.29683044 0.99401733 0.29581936
0.53244390 0.99712122 0.29893261
0.76703358 0.99925321 0.30117192
1.00000000 0.99982622 0.30808634
0.00000000 0.00019571 0.46496314
0.23349254 0.00140770 0.46708996
0.46818934 0.00374817 0.46965637
0.70389475 0.00703099 0.47305038
0.94045383 0.01111023 0.47714227
0.00778185 0.24093158 0.47446613
0.24461324 0.24526452 0.47877997
0.48208752 0.25019453 0.48361507
0.72004803 0.25557653 0.48884046
0.95834151 0.26126369 0.49432783
0.02462690 0.49011934 0.49081477
0.26300241 0.49588155 0.49636519
0.50124734 0.50145523 0.50166312
0.74070310 0.50726806 0.50727823
0.97823753 0.51322246 0.51300443
0.04459542 0.74216272 0.50958807
0.28276252 0.74770244 0.51490694
0.52052684 0.75285826 0.51987146
0.75773367 0.75748319 0.52370871
0.99424849 0.76142899 0.52822481
0.06178835 0.99150564 0.52584730
0.29799297 0.99517135 0.52946659
0.53327613 0.99796154 0.53229759
0.76748287 0.99973028 0.53421059
1.00000000 0.99987708 0.54092774
0.00017011 0.00044968 0.69841194
0.23411586 0.00208781 0.70036067
0.46917257 0.00476467 0.70322268
0.70518527 0.00833432 0.70686824
0.94199901 0.01265083 0.71116763
0.00917117 0.24232703 0.70836463
0.24623808 0.24687921 0.71286985
0.48389467 0.25197917 0.71785193
0.72198601 0.25748097 0.72318117
0.96035713 0.26323867 0.72872783
0.02659924 0.49205520 0.72518217
0.26503375 0.49786983 0.73077577
0.50353667 0.50374128 0.73640993
0.74195363 0.50952333 0.74195519
0.98012805 0.51507094 0.74728051
0.04655525 0.74407810 0.74392579
0.28460382 0.74950359 0.74913970
0.52219902 0.75449503 0.75395778
0.75890326 0.75866938 0.75812367
0.99615855 0.76230862 0.76163962
0.06314017 0.99283966 0.75965677
0.29904924 0.99622440 0.76302290
0.53398421 0.99868407 0.76555669
0.76797203 1.00000000 0.76731199
1.00000000 0.99993745 0.77150247
0.00052690 0.00088046 0.93146327
0.23486731 0.00288771 0.93373671
0.47026605 0.00588413 0.93687936
0.70656817 0.00972379 0.94076151
0.94361871 0.01426074 0.94525344
0.01064637 0.24380249 0.94233310
0.24793092 0.24855706 0.94701481
0.48575252 0.25380985 0.95212933
0.72395625 0.25941493 0.95754696
0.96238715 0.26522634 0.96313795
0.02859733 0.49401445 0.95956919
0.26707246 0.49986474 0.96519109
0.50556339 0.50572231 0.97080940
0.74391518 0.51144120 0.97629440
0.98197287 0.51687547 0.98151637
0.04848073 0.74596025 0.97823281
0.28639289 0.75125467 0.98332681
0.52379959 0.75606540 0.98798081
0.76054588 0.76024650 0.99206520
0.99647738 0.76365177 0.99545055
0.06439752 0.99408381 0.99338521
0.29999316 0.99717076 0.99648322
0.53456208 0.99928306 0.99870484
0.76896558 1.00000000 0.99964982
1.00000000 1.00000000 1.00000000
