assets/luts/DB_Editorial_White_Rec709_50.cube
TITLE "Editorial White Rec709 50"
# Red changes fastest. Full-range normalized input.
LUT_3D_SIZE 33
DOMAIN_MIN 0 0 0
DOMAIN_MAX 1 1 1
0.00000000 0.00000000 0.00000000
0.02891136 0.00000000 0.00004633
0.05790151 0.00000000 0.00008220
0.08698635 0.00000000 0.00011613
0.11618831 0.00000000 0.00015875
0.14552045 0.00000000 0.00021643
0.17497700 0.00000000 0.00028741
0.20453865 0.00000000 0.00036347
0.23347575 0.00019207 0.00062418
0.26222581 0.00045505 0.00094583
0.29118501 0.00068140 0.00122310
0.32029190 0.00088856 0.00147536
0.34948399 0.00109422 0.00172219
0.37872199 0.00130940 0.00197571
0.40798750 0.00153904 0.00224139
0.43727357 0.00178480 0.00252109
0.46657795 0.00204693 0.00281516
0.49589984 0.00232531 0.00312350
0.52523886 0.00261967 0.00344589
0.55459468 0.00292973 0.00378208
0.58396699 0.00325521 0.00413182
0.61335550 0.00359582 0.00449486
0.64275989 0.00395128 0.00487093
0.67217988 0.00432130 0.00525980
0.70161515 0.00470560 0.00566119
0.73106541 0.00510390 0.00607487
0.76053034 0.00551590 0.00650058
0.79000966 0.00594132 0.00693806
0.81950304 0.00637988 0.00738706
0.84901020 0.00683130 0.00784733
0.87853084 0.00729528 0.00831861
0.90806463 0.00777155 0.00880066
0.93761130 0.00825981 0.00929321
0.00000000 0.02902883 0.00027004
0.02899831 0.02911261 0.00000000
0.05827941 0.02910167 0.00000000
0.08759385 0.02910773 0.00000000
0.11701320 0.02912470 0.00000000
0.14661212 0.02914122 0.00000000
0.17642083 0.02914720 0.00000000
0.20634553 0.02915546 0.00002819
0.23469704 0.02958369 0.00077170
0.26320973 0.02999034 0.00140032
0.29199931 0.03034133 0.00188838
0.32103246 0.03064531 0.00227294
0.35022265 0.03092636 0.00260450
0.37949706 0.03120485 0.00291976
0.40881443 0.03149217 0.00323786
0.43815690 0.03179305 0.00356642
0.46751819 0.03210892 0.00390781
0.49689634 0.03243997 0.00426246
0.52629065 0.03278602 0.00463028
0.55570075 0.03314682 0.00501104
0.58512634 0.03352207 0.00540449
0.61456710 0.03391150 0.00581039
0.64402274 0.03431482 0.00622848
0.67349294 0.03473174 0.00665850
0.70297741 0.03516198 0.00710020
0.73247585 0.03560525 0.00755334
0.76198795 0.03606128 0.00801764
0.79151341 0.03652976 0.00849288
0.82105193 0.03701043 0.00897877
0.85060320 0.03750299 0.00947509
0.88016692 0.03800716 0.00998157
0.90974279 0.03852265 0.01049795
0.93933051 0.03904918 0.01102399
0.00000000 0.05838761 0.00054039
0.02892461 0.05859809 0.00000000
0.05840812 0.05859458 0.00000000
0.08788737 0.05861074 0.00000000
0.11741011 0.05865482 0.00000000
0.14706078 0.05872369 0.00000000
0.17690945 0.05880367 0.00000000
0.20696769 0.05887855 0.00000000
0.23615137 0.05918011 0.00065880
0.26453067 0.05969153 0.00173029
0.29314111 0.06016226 0.00255663
0.32205115 0.06057112 0.00315943
0.35119611 0.06093494 0.00362018
0.38048127 0.06127957 0.00401471
0.40983778 0.06162390 0.00438956
0.43923015 0.06197754 0.00476625
0.46864410 0.06234415 0.00515261
0.49807488 0.06272470 0.00555080
0.52752103 0.06311924 0.00596120
0.55698200 0.06352755 0.00638366
0.58645743 0.06394935 0.00681797
0.61594702 0.06438437 0.00726386
0.64545047 0.06483232 0.00772109
0.67496747 0.06529291 0.00818941
0.70449771 0.06576586 0.00866855
0.73404091 0.06625089 0.00915827
0.76359675 0.06674771 0.00965832
0.79316493 0.06725603 0.01016843
0.82274515 0.06777558 0.01068836
0.85233710 0.06830606 0.01121785
0.88194049 0.06884718 0.01175665
0.91155501 0.06939868 0.01230451
0.94118036 0.06996025 0.01286117
0.00000000 0.08806515 0.00081815
0.02909646 0.08829308 0.00046168
0.05851595 0.08843470 0.00000000
0.08820741 0.08845469 0.00000000
0.11790390 0.08850117 0.00000000
0.14766393 0.08858669 0.00000000
0.17756704 0.08870807 0.00000000
0.20766333 0.08884745 0.00000000
0.23737382 0.08909961 0.00052397
0.26589981 0.08962891 0.00199666
0.29447681 0.09017019 0.00320876
0.32330146 0.09066639 0.00409896
0.35239005 0.09111049 0.00474082
0.38166650 0.09152196 0.00524184
0.41104839 0.09192279 0.00568350
0.44048273 0.09232718 0.00610993
0.46994443 0.09274171 0.00653966
0.49942403 0.09316864 0.00697884
0.52891850 0.09360846 0.00742900
0.55842689 0.09406105 0.00789032
0.58794874 0.09452618 0.00836261
0.61748374 0.09500356 0.00884563
0.64703157 0.09549292 0.00933914
0.67659194 0.09599396 0.00984288
0.70616453 0.09650640 0.01035659
0.73574906 0.09702996 0.01088003
0.76534521 0.09756434 0.01141295
0.79495269 0.09810928 0.01195507
0.82457119 0.09866447 0.01250617
0.85420041 0.09922965 0.01306597
0.88384004 0.09980451 0.01363423
0.91348978 0.10038878 0.01421069
0.94314934 0.10098217 0.01479511
0.00073738 0.11774763 0.00179798
0.02985298 0.11804259 0.00165751
0.05906394 0.11833961 0.00121082
0.08854177 0.11858763 0.00045142
0.11838212 0.11870903 0.00000000
0.14831691 0.11879598 0.00000000
0.17833269 0.11892602 0.00000000
0.20848868 0.11909300 0.00000000
0.23808809 0.11939461 0.00095437
0.26701624 0.11986882 0.00253763
0.29579367 0.12041029 0.00398990
0.32467096 0.12094918 0.00513003
0.35375599 0.12145307 0.00596337
0.38303202 0.12192403 0.00658846
0.41243373 0.12237837 0.00710729
0.44190348 0.12283103 0.00758659
0.47140789 0.12329067 0.00805894
0.50093233 0.12376091 0.00853683
0.53047156 0.12424282 0.00902403
0.56002390 0.12473648 0.00952135
0.58958875 0.12524171 0.01002876
0.61916572 0.12575823 0.01054605
0.64875452 0.12628577 0.01107296
0.67835483 0.12682403 0.01160926
0.70796635 0.12737273 0.01215468
0.73758879 0.12793159 0.01270898
0.76722183 0.12850033 0.01327189
0.79686518 0.12907865 0.01384316
0.82651853 0.12966627 0.01442255
0.85618158 0.13026291 0.01500980
0.88585403 0.13086828 0.01560465
0.91553557 0.13148210 0.01620685
0.94522591 0.13210408 0.01681615
0.00166895 0.14762597 0.00293013
0.03089269 0.14795659 0.00303054
0.06012198 0.14831208 0.00292803
0.08944703 0.14866700 0.00256127
0.11898995 0.14898350 0.00197995
0.14881322 0.14923702 0.00139921
0.17882634 0.14944533 0.00114345
0.20879776 0.14966959 0.00147399
0.23849705 0.14997678 0.00241973
0.26785095 0.15039408 0.00375751
0.29697188 0.15089654 0.00515977
0.32605018 0.15143411 0.00637886
0.35522638 0.15196712 0.00733109
0.38454312 0.15248145 0.00806015
0.41397521 0.15298183 0.00865405
0.44347935 0.15347872 0.00918659
0.47302279 0.15398026 0.00970057
0.50258828 0.15449066 0.01021502
0.53216869 0.15501147 0.01073661
0.56176153 0.15554299 0.01126711
0.59136593 0.15608510 0.01180678
0.62098146 0.15663753 0.01235547
0.65060779 0.15720002 0.01291293
0.68024462 0.15777228 0.01347891
0.70989164 0.15835402 0.01405317
0.73954856 0.15894496 0.01463545
0.76921507 0.15954481 0.01522549
0.79889086 0.16015329 0.01582305
0.82857564 0.16077011 0.01642787
0.85826910 0.16139499 0.01703969
0.88797094 0.16202765 0.01765826
0.91768086 0.16266779 0.01828334
0.94739855 0.16331513 0.01891466
0.00273367 0.17770569 0.00415022
0.03207281 0.17806698 0.00442741
0.06140180 0.17845372 0.00460988
0.09074760 0.17885915 0.00463950
0.12017195 0.17926517 0.00449691
0.14974410 0.17964891 0.00425603
0.17948109 0.18000000 0.00409754
0.20930524 0.18033505 0.00423790
0.23907470 0.18069214 0.00480263
0.26867648 0.18110557 0.00574235
0.29810021 0.18158327 0.00686645
0.32742810 0.18210635 0.00796365
0.35676321 0.18264752 0.00890739
0.38616774 0.18318856 0.00967898
0.41565152 0.18372494 0.01032476
0.44519546 0.18426030 0.01090298
0.47477676 0.18479985 0.01145539
0.50438021 0.18534708 0.01200381
0.53399836 0.18590357 0.01255707
0.56362825 0.18646972 0.01311795
0.59326877 0.18704548 0.01368703
0.62291942 0.18763061 0.01426424
0.65257986 0.18822482 0.01484938
0.68224979 0.18882785 0.01544219
0.71192889 0.18943940 0.01604242
0.74161686 0.19005919 0.01664981
0.77131341 0.19068693 0.01726412
0.80101823 0.19132235 0.01788509
0.83073101 0.19196514 0.01851247
0.86045146 0.19261504 0.01914600
0.89017927 0.19327175 0.01978543
0.91991413 0.19393499 0.02043051
0.94965576 0.19460448 0.02108098
0.00393364 0.20797153 0.00546577
0.03335952 0.20836953 0.00584686
0.06278536 0.20878689 0.00620008
0.09221329 0.20922354 0.00649324
0.12166145 0.20967451 0.00669855
0.15116386 0.21012923 0.00682122
0.18075126 0.21057645 0.00692500
0.21042078 0.21101339 0.00712369
0.24012339 0.21145103 0.00752635
0.26978974 0.21190839 0.00816915
0.29937701 0.21239947 0.00899062
0.32889416 0.21292459 0.00987282
0.35838586 0.21347317 0.01071139
0.38789646 0.21403312 0.01145899
0.41744729 0.21459761 0.01212183
0.44703762 0.21516560 0.01273062
0.47665720 0.21573888 0.01331505
0.50629629 0.21631940 0.01389384
0.53594899 0.21690827 0.01447583
0.56561252 0.21750583 0.01506422
0.59528574 0.21811202 0.01565985
0.62496809 0.21872660 0.01626273
0.65465922 0.21934932 0.01687267
0.68435881 0.21997989 0.01748944
0.71406657 0.22061803 0.01811277
0.74378217 0.22126344 0.01874242
0.77350534 0.22191585 0.01937812
0.80323575 0.22257497 0.02001964
0.83297311 0.22324052 0.02066671
0.86271712 0.22391221 0.02131908
0.89246747 0.22458975 0.02197650
0.92222386 0.22527287 0.02263872
0.95198599 0.22596126 0.02330547
0.00528279 0.23840434 0.00689673
0.03477051 0.23884327 0.00733836
0.06426680 0.23929694 0.00778003
0.09376962 0.23976596 0.00820945
0.12328111 0.24024975 0.00861134
0.15281089 0.24074538 0.00897661
0.18237394 0.24124770 0.00931636
0.21198053 0.24175218 0.00966950
0.24162429 0.24225867 0.01009091
0.27128126 0.24277266 0.01062141
0.30092427 0.24330174 0.01126104
0.33054123 0.24385030 0.01196886
0.36014049 0.24441714 0.01268948
0.38974074 0.24499754 0.01338320
0.41935710 0.24558706 0.01403807
0.44899493 0.24618347 0.01466246
0.47865227 0.24678655 0.01527111
0.50832478 0.24739682 0.01587585
0.53800897 0.24801475 0.01648332
0.56770282 0.24864047 0.01709630
0.59740532 0.24927385 0.01771560
0.62711595 0.24991467 0.01834128
0.65683434 0.25056267 0.01897317
0.68656018 0.25121755 0.01961102
0.71629315 0.25187905 0.02025459
0.74603297 0.25254686 0.02090362
0.77577932 0.25322072 0.02155785
0.80553191 0.25390032 0.02221705
0.83529042 0.25458539 0.02288095
0.86505457 0.25527564 0.02354929
0.89482404 0.25597079 0.02422183
0.92459853 0.25667055 0.02489832
0.95437774 0.25737464 0.02557849
0.00678451 0.26898841 0.00845046
0.03632104 0.26946831 0.00893427
0.06586907 0.26996058 0.00942612
0.09542733 0.27046532 0.00992245
0.12499513 0.27098252 0.01041782
0.15457366 0.27151163 0.01090653
0.18416688 0.27205113 0.01138712
0.21377995 0.27259890 0.01186739
0.24341512 0.27315335 0.01236511
0.27306819 0.27371469 0.01290061
0.30272982 0.27428497 0.01348452
0.33239140 0.27486652 0.01411055
0.36205055 0.27546025 0.01475956
0.39171122 0.27606524 0.01541134
0.42137946 0.27667970 0.01605429
0.45105920 0.27730212 0.01668700
0.48075120 0.27793177 0.01731392
0.51045424 0.27856847 0.01794036
0.54016677 0.27921216 0.01856999
0.56988760 0.27986278 0.01920456
0.59961599 0.28052012 0.01984464
0.62935147 0.28118396 0.02049025
0.65909370 0.28185400 0.02114121
0.68884235 0.28252998 0.02179728
0.71859713 0.28321161 0.02245822
0.74835773 0.28389860 0.02312376
0.77812385 0.28459067 0.02379367
0.80789518 0.28528753 0.02446767
0.83767143 0.28598890 0.02514553
0.86745228 0.28669449 0.02582698
0.89723744 0.28740401 0.02651177
0.92702661 0.28811720 0.02719966
0.95681947 0.28883374 0.02789038
0.00843266 0.29971113 0.01012335
0.03801171 0.30022974 0.01064227
0.06760229 0.30075940 0.01117038
0.09720384 0.30129991 0.01170676
0.12681576 0.30185111 0.01224988
0.15643774 0.30241279 0.01279771
0.18607013 0.30298451 0.01334855
0.21571412 0.30356553 0.01390263
0.24537094 0.30415499 0.01446349
0.27504062 0.30475231 0.01503727
0.30472123 0.30535750 0.01562960
0.33440971 0.30597101 0.01624189
0.36410373 0.30659328 0.01687021
0.39380294 0.30722425 0.01750774
0.42350852 0.30786337 0.01814860
0.45322185 0.30850995 0.01879016
0.48294357 0.30916341 0.01943263
0.51267347 0.30982339 0.02007750
0.54241093 0.31048963 0.02072616
0.57215535 0.31116191 0.02137936
0.60190621 0.31184000 0.02203733
0.63166313 0.31252361 0.02269999
0.66142577 0.31321248 0.02336716
0.69119382 0.31390633 0.02403859
0.72096698 0.31460486 0.02471402
0.75074493 0.31530780 0.02539322
0.78052739 0.31601486 0.02607591
0.81031405 0.31672575 0.02676186
0.84010459 0.31744019 0.02745081
0.86989873 0.31815789 0.02814250
0.89969616 0.31887858 0.02883668
0.92949658 0.31960195 0.02953310
0.95929968 0.32032774 0.03023151
0.01021706 0.33056119 0.01190728
0.03983460 0.33111551 0.01245758
0.06946284 0.33167983 0.01301656
0.09910145 0.33225390 0.01358387
0.12875004 0.33283746 0.01415903
0.15840824 0.33343026 0.01474138
0.18807579 0.33403202 0.01533020
0.21775261 0.33464239 0.01592497
0.24743880 0.33526095 0.01652586
0.27713441 0.33588729 0.01713390
0.30683909 0.33652106 0.01775062
0.33655204 0.33716209 0.01837703
0.36627227 0.33781029 0.01901280
0.39599912 0.33846552 0.01965632
0.42573237 0.33912755 0.02030558
0.45547213 0.33979599 0.02095911
0.48521844 0.34047048 0.02161631
0.51497118 0.34115068 0.02227723
0.54473001 0.34183628 0.02294210
0.57449457 0.34252702 0.02361104
0.60426448 0.34322261 0.02428402
0.63403941 0.34392278 0.02496087
0.66381904 0.34462725 0.02564137
0.69360306 0.34533574 0.02632528
0.72339117 0.34604796 0.02701235
0.75318306 0.34676362 0.02770233
0.78297843 0.34748244 0.02839495
0.81277698 0.34820413 0.02908998
0.84257841 0.34892842 0.02978715
0.87238241 0.34965501 0.03048621
0.90218868 0.35038362 0.03118691
0.93199692 0.35111397 0.03188900
0.96180683 0.35184576 0.03259222
0.01212646 0.36152768 0.01379286
0.04177894 0.36211450 0.01437154
0.07144115 0.36271036 0.01495810
0.10111278 0.36331498 0.01555228
0.13079350 0.36392809 0.01615378
0.16048300 0.36454939 0.01676229
0.19018097 0.36517862 0.01737745
0.21988712 0.36581549 0.01799892
0.24960120 0.36645970 0.01862643
0.27932301 0.36711092 0.01925988
0.30905230 0.36776885 0.01989936
0.33878874 0.36843319 0.02054500
0.36853189 0.36910369 0.02119673
0.39828132 0.36978011 0.02185418
0.42803669 0.37046219 0.02251674
0.45779772 0.37114965 0.02318378
0.48756421 0.37184218 0.02385484
0.51733590 0.37253948 0.02452966
0.54711251 0.37324126 0.02520808
0.57689375 0.37394724 0.02588993
0.60667928 0.37465711 0.02657506
0.63646879 0.37537062 0.02726322
0.66626198 0.37608746 0.02795419
0.69605855 0.37680736 0.02864772
0.72585818 0.37753004 0.02934356
0.75566058 0.37825519 0.03004145
0.78546544 0.37898255 0.03074114
0.81527247 0.37971183 0.03144237
0.84508135 0.38044273 0.03214490
0.87489179 0.38117499 0.03284847
0.90470348 0.38190830 0.03355282
0.93451612 0.38264239 0.03425770
0.96432941 0.38337697 0.03496287
0.01414934 0.39259971 0.01577048
0.04383335 0.39321582 0.01637467
0.07352606 0.39384001 0.01698589
0.10322718 0.39447199 0.01760388
0.13293640 0.39511149 0.01822839
0.16265342 0.39575822 0.01885915
0.19237792 0.39641190 0.01949591
0.22210961 0.39707224 0.02013838
0.25184819 0.39773895 0.02078629
0.28159337 0.39841176 0.02143941
0.31134486 0.39909036 0.02209751
0.34110237 0.39977446 0.02276042
0.37086558 0.40046379 0.02342795
0.40063416 0.40115806 0.02409986
0.43040780 0.40185699 0.02477585
0.46018619 0.40256032 0.02545559
0.48996903 0.40326774 0.02613879
0.51975604 0.40397897 0.02682515
0.54954691 0.40469372 0.02751442
0.57934136 0.40541171 0.02820638
0.60913908 0.40613266 0.02890079
0.63893975 0.40685627 0.02959741
0.66874308 0.40758226 0.03029598
0.69854876 0.40831035 0.03099627
0.72835650 0.40904025 0.03169800
0.75816598 0.40977168 0.03240094
0.78797691 0.41050435 0.03310482
0.81778898 0.41123798 0.03380939
0.84760189 0.41197228 0.03451441
0.87741534 0.41270697 0.03521962
0.90722903 0.41344176 0.03592475
0.93704264 0.41417636 0.03662957
0.96685589 0.41491050 0.03733382
0.01627421 0.42376646 0.01783051
0.04598631 0.42440862 0.01845733
0.07570610 0.42505791 0.01909033
0.10543327 0.42571403 0.01972926
0.13516753 0.42637672 0.02037385
0.16490858 0.42704567 0.02102386
0.19465610 0.42772060 0.02167903
0.22440980 0.42840123 0.02233910
0.25416937 0.42908728 0.02300382
0.28393451 0.42977846 0.02367293
0.31370493 0.43047448 0.02434618
0.34348031 0.43117506 0.02502333
0.37326037 0.43187992 0.02570414
0.40304479 0.43258876 0.02638835
0.43283326 0.43330130 0.02707572
0.46262549 0.43401726 0.02776599
0.49242117 0.43473636 0.02845888
0.52222000 0.43545830 0.02915414
0.55202167 0.43618281 0.02985151
0.58182589 0.43690960 0.03055074
0.61163236 0.43763838 0.03125158
0.64144076 0.43836888 0.03195379
0.67125081 0.43910079 0.03265710
0.70106219 0.43983384 0.03336126
0.73087460 0.44056775 0.03406603
0.76068774 0.44130222 0.03477114
0.79050131 0.44203698 0.03547635
0.82031500 0.44277174 0.03618140
0.85012852 0.44350620 0.03688604
0.87994155 0.44424010 0.03759001
0.90975380 0.44497314 0.03829307
0.93956497 0.44570504 0.03899495
0.96937475 0.44643551 0.03969541
0.01848953 0.45501705 0.01996329
0.04822630 0.45568204 0.02060988
0.07796974 0.45635321 0.02126180
0.10771955 0.45703025 0.02191879
0.13747542 0.45771289 0.02258060
0.16723706 0.45840083 0.02324696
0.19700416 0.45909381 0.02391764
0.22677642 0.45979152 0.02459237
0.25655354 0.46049369 0.02527091
0.28633521 0.46120003 0.02595300
0.31612113 0.46191025 0.02663838
0.34591100 0.46262407 0.02732680
0.37570452 0.46334121 0.02801801
0.40550138 0.46406138 0.02871176
0.43530128 0.46478429 0.02940780
0.46510392 0.46550966 0.03010587
0.49490900 0.46623721 0.03080571
0.52471621 0.46696665 0.03150708
0.55452524 0.46769769 0.03220972
0.58433581 0.46843005 0.03291337
0.61414760 0.46916345 0.03361778
0.64396031 0.46989759 0.03432271
0.67377364 0.47063220 0.03502789
0.70358729 0.47136699 0.03573307
0.73340096 0.47210168 0.03643800
0.76321433 0.47283597 0.03714242
0.79302712 0.47356959 0.03784609
0.82283901 0.47430225 0.03854875
0.85264970 0.47503366 0.03925014
0.88245890 0.47576354 0.03995002
0.91226629 0.47649161 0.04064812
0.94207158 0.47721757 0.04134420
0.97187447 0.47794115 0.04203801
0.02078379 0.48634064 0.02215919
0.05054180 0.48702524 0.02282268
0.08030546 0.48771505 0.02349065
0.11007448 0.48840978 0.02416283
0.13984854 0.48910915 0.02483898
0.16962735 0.48981287 0.02551884
0.19941061 0.49052066 0.02620216
0.22919800 0.49123222 0.02688868
0.25898924 0.49194729 0.02757815
0.28878401 0.49266556 0.02827032
0.31858201 0.49338676 0.02896493
0.34838294 0.49411060 0.02966173
0.37818650 0.49483680 0.03036048
0.40799239 0.49556507 0.03106090
0.43780030 0.49629512 0.03176276
0.46760993 0.49702668 0.03246579
0.49742097 0.49775945 0.03316975
0.52723313 0.49849315 0.03387438
0.55704611 0.49922750 0.03457942
0.58685959 0.49996221 0.03528463
0.61667328 0.50069699 0.03598975
0.64648687 0.50143157 0.03669452
0.67630007 0.50216565 0.03739870
0.70611256 0.50289895 0.03810203
0.73592405 0.50363119 0.03880426
0.76573424 0.50436207 0.03950513
0.79554281 0.50509133 0.04020439
0.82534948 0.50581866 0.04090179
0.85515393 0.50654379 0.04159707
0.88495586 0.50726643 0.04228998
0.91475497 0.50798629 0.04298027
0.94455096 0.50870310 0.04366768
0.97434353 0.50941656 0.04435196
0.02314547 0.51772638 0.02440855
0.05292129 0.51842736 0.02508608
0.08270176 0.51913259 0.02576722
0.11248655 0.51984179 0.02645174
0.14227538 0.52055466 0.02713936
0.17206794 0.52127093 0.02782984
0.20186392 0.52199030 0.02852293
0.23166302 0.52271249 0.02921837
0.26146495 0.52343723 0.02991591
0.29126939 0.52416421 0.03061530
0.32107605 0.52489316 0.03131627
0.35088462 0.52562380 0.03201858
0.38069480 0.52635583 0.03272198
0.41050628 0.52708897 0.03342621
0.44031878 0.52782294 0.03413102
0.47013197 0.52855745 0.03483616
0.49994556 0.52929222 0.03554136
0.52975925 0.53002696 0.03624639
0.55957274 0.53076139 0.03695097
0.58938571 0.53149522 0.03765487
0.61919788 0.53222817 0.03835783
0.64900893 0.53295995 0.03905959
0.67881856 0.53369027 0.03975991
0.70862647 0.53441886 0.04045852
0.73843237 0.53514543 0.04115517
0.76823593 0.53586968 0.04184962
0.79803688 0.53659134 0.04254161
0.82783489 0.53731013 0.04323088
0.85762967 0.53802575 0.04391718
0.88742091 0.53873792 0.04460025
0.91720832 0.53944636 0.04527986
0.94699158 0.54015078 0.04595573
0.97677041 0.54085089 0.04662762
0.02556303 0.54916341 0.02670173
0.05535325 0.54987755 0.02739042
0.08514709 0.55059498 0.02808188
0.11494424 0.55131541 0.02877586
0.14474441 0.55203856 0.02947209
0.17454729 0.55276415 0.03017033
0.20435257 0.55349188 0.03087032
0.23415996 0.55422148 0.03157182
0.26396915 0.55495266 0.03227455
0.29377984 0.55568512 0.03297829
0.32359173 0.55641860 0.03368276
0.35340451 0.55715280 0.03438771
0.38321789 0.55788744 0.03509290
0.41303155 0.55862223 0.03579807
0.44284520 0.55935689 0.03650296
0.47265853 0.56009114 0.03720733
0.50247125 0.56082468 0.03791092
0.53228304 0.56155723 0.03861347
0.56209361 0.56228852 0.03931473
0.59190265 0.56301824 0.04001446
0.62170987 0.56374613 0.04071238
0.65151495 0.56447188 0.04140827
0.68131759 0.56519523 0.04210185
0.71111750 0.56591587 0.04279287
0.74091437 0.56663354 0.04348109
0.77070790 0.56734794 0.04416625
0.80049778 0.56805878 0.04484809
0.83028372 0.56876579 0.04552636
0.86006540 0.56946868 0.04620082
0.88984253 0.57016716 0.04687119
0.91961481 0.57086094 0.04753725
0.94938192 0.57154975 0.04819871
0.97914358 0.57223330 0.04885535
0.02802497 0.58064089 0.02902908
0.05782616 0.58136496 0.02972608
0.08762994 0.58209136 0.03042498
0.11743603 0.58281980 0.03112555
0.14724411 0.58355001 0.03182753
0.17705388 0.58428169 0.03253066
0.20686504 0.58501456 0.03323469
0.23667729 0.58574833 0.03393936
0.26649032 0.58648272 0.03464443
0.29630384 0.58721745 0.03534964
0.32611753 0.58795223 0.03605474
0.35593110 0.58868677 0.03675947
0.38574425 0.58942079 0.03746358
0.41555666 0.59015401 0.03816682
0.44536804 0.59088613 0.03886894
0.47517809 0.59161688 0.03956967
0.50498650 0.59234597 0.04026877
0.53479298 0.59307311 0.04096598
0.56459721 0.59379802 0.04166105
0.59439889 0.59452042 0.04235373
0.62419773 0.59524001 0.04304377
0.65399342 0.59595652 0.04373090
0.68378565 0.59666966 0.04441488
0.71357413 0.59737914 0.04509545
0.74335855 0.59808468 0.04577236
0.77313861 0.59878599 0.04644536
0.80291401 0.59948280 0.04711419
0.83268445 0.60017480 0.04777861
0.86244961 0.60086173 0.04843834
0.89220920 0.60154329 0.04909316
0.92196292 0.60221920 0.04974279
0.95171046 0.60288917 0.05038698
0.98145153 0.60355292 0.05102549
0.03051975 0.61214796 0.03138097
0.06032848 0.61287873 0.03208339
0.09013880 0.61361088 0.03278688
0.11995039 0.61434411 0.03349117
0.14976296 0.61507814 0.03419602
0.17957620 0.61581269 0.03490117
0.20938982 0.61654747 0.03560637
0.23920350 0.61728219 0.03631136
0.26901695 0.61801657 0.03701590
0.29882986 0.61875034 0.03771972
0.32864194 0.61948319 0.03842258
0.35845287 0.62021484 0.03912422
0.38826236 0.62094502 0.03982439
0.41807010 0.62167343 0.04052283
0.44787579 0.62239980 0.04121929
0.47767913 0.62312383 0.04191352
0.50747981 0.62384523 0.04260527
0.53727754 0.62456374 0.04329427
0.56707200 0.62527905 0.04398029
0.59686291 0.62599089 0.04466306
0.62664994 0.62669897 0.04534233
0.65643281 0.62740301 0.04601784
0.68621121 0.62810271 0.04668936
0.71598484 0.62879780 0.04735661
0.74575339 0.62948799 0.04801935
0.77551656 0.63017300 0.04867732
0.80527405 0.63085253 0.04933028
0.83502555 0.63152631 0.04997796
0.86477077 0.63219405 0.05062011
0.89450940 0.63285547 0.05125649
0.92424114 0.63351027 0.05188683
0.95396568 0.63415818 0.05251089
0.98368273 0.63479891 0.05312841
0.03303587 0.64367376 0.03374773
0.06284872 0.64440802 0.03445272
0.09266213 0.64514268 0.03515792
0.12247580 0.64587747 0.03586307
0.15228944 0.64661211 0.03656793
0.18210273 0.64734630 0.03727223
0.21191537 0.64807976 0.03797573
0.24172706 0.64881221 0.03867818
0.27153750 0.64954336 0.03937931
0.30134639 0.65027293 0.04007888
0.33115342 0.65100063 0.04077663
0.36095829 0.65172617 0.04147231
0.39076070 0.65244928 0.04216566
0.42056034 0.65316967 0.04285644
0.45035691 0.65388704 0.04354439
0.48015012 0.65460112 0.04422925
0.50993965 0.65531163 0.04491077
0.53972520 0.65601827 0.04558871
0.56950648 0.65672076 0.04626279
0.59928317 0.65741882 0.04693278
0.62905499 0.65811216 0.04759842
0.65882161 0.65880049 0.04825946
0.68858275 0.65948354 0.04891563
0.71833810 0.66016101 0.04956670
0.74808735 0.66083263 0.05021240
0.77783020 0.66149810 0.05085248
0.80756636 0.66215714 0.05148669
0.83729551 0.66280946 0.05211477
0.86701736 0.66345479 0.05273648
0.89673160 0.66409283 0.05335155
