assets/luts/DB_Forest_Rain_Rec709_50.cube
TITLE "Forest Rain Rec709 50"
# Red changes fastest. Full-range normalized input.
LUT_3D_SIZE 5
DOMAIN_MIN 0 0 0
DOMAIN_MAX 1 1 1
0.00400000 0.00400000 0.00400000
0.23539776 0.00303766 0.00283705
0.46740437 0.00422956 0.00362034
0.70206679 0.00657012 0.00541383
0.93837150 0.01011091 0.00829598
0.00032366 0.24185155 0.00634391
0.23731742 0.24564809 0.00894923
0.47531692 0.25060849 0.01365786
0.71450958 0.25614398 0.01842539
0.95451533 0.26216123 0.02368413
0.01421208 0.49240972 0.02029131
0.25444976 0.49855064 0.02568839
0.49515506 0.50488618 0.03134597
0.73607954 0.51120364 0.03708889
0.97697477 0.51729034 0.04274199
0.03620262 0.74757750 0.03916660
0.27702551 0.75352737 0.04474351
0.51748025 0.75895636 0.04999167
0.75731843 0.76365177 0.05473594
0.99629158 0.76740090 0.05880115
0.05683850 0.99925743 0.05630377
0.30127580 1.00000000 0.06872633
0.54136162 1.00000000 0.08460755
0.77420995 1.00000000 0.10207617
0.99880260 1.00000000 0.12111681
0.00256036 0.00356744 0.23763903
0.23394786 0.00344507 0.23723841
0.46738898 0.00487664 0.23821647
0.70263701 0.00764864 0.24039932
0.93944293 0.01154867 0.24361134
0.00108728 0.24306909 0.24145880
0.23897861 0.24640276 0.24446939
0.47780355 0.25192264 0.24899133
0.71643043 0.25814375 0.25428404
0.95665354 0.26427725 0.25967256
0.01622182 0.49446019 0.25620410
0.25664466 0.50069073 0.26170700
0.49757292 0.50685195 0.26683089
0.73840218 0.51330384 0.27314007
0.97922494 0.51926719 0.27873031
0.03850482 0.74964332 0.27520654
0.27923054 0.75544014 0.28069145
0.51950375 0.76064385 0.28578813
0.75907602 0.76504175 0.29032142
0.99769890 0.76842115 0.29411618
0.05990832 1.00000000 0.29274954
0.30541217 1.00000000 0.30405030
0.54446363 1.00000000 0.31661682
0.77604207 1.00000000 0.33044088
0.99913084 1.00000000 0.34550251
0.00138637 0.00333859 0.47145722
0.23349896 0.00376788 0.47154435
0.46758195 0.00567833 0.47295150
0.70338691 0.00885727 0.47550350
0.94066539 0.01309199 0.47902519
0.00201929 0.24440796 0.47668259
0.23977255 0.24897421 0.48051389
0.47866107 0.25430574 0.48507622
0.71843452 0.26019112 0.49019345
0.95884638 0.26641632 0.49569153
0.01830441 0.49654929 0.49216028
0.25888644 0.50284547 0.49775343
0.50014396 0.50798057 0.50323736
0.74148579 0.51482903 0.50895473
0.98143338 0.52118456 0.51468120
0.04078348 0.75166526 0.51122190
0.28138338 0.75728451 0.51659461
0.52144454 0.76223823 0.52151772
0.76076654 0.76617512 0.52531837
0.99897331 0.76929685 0.52931913
0.06499259 1.00000000 0.52892163
0.30965594 1.00000000 0.53701273
0.54763047 1.00000000 0.54604236
0.77789700 1.00000000 0.55599801
0.99944051 1.00000000 0.56685492
0.00046827 0.00330508 0.70544791
0.23327788 0.00426123 0.70600297
0.46797351 0.00662632 0.70781856
0.70430674 0.01018766 0.71071951
0.94202913 0.01473255 0.71453068
0.00311051 0.24585963 0.71201088
0.24127695 0.25070979 0.71610993
0.48049365 0.25625338 0.72088027
0.72051219 0.26227772 0.72614673
0.96108412 0.26857010 0.73173417
0.02045012 0.49866871 0.72815298
0.26116184 0.50500587 0.73381378
0.50208807 0.51132092 0.73955670
0.74298092 0.51740080 0.74520684
0.98359029 0.52303414 0.75058782
0.04302887 0.75363499 0.74720583
0.28347431 0.75905214 0.75244614
0.52329811 0.76373164 0.75717937
0.76223733 0.76656809 0.76138665
1.00000000 0.76981660 0.76454440
0.07022541 1.00000000 0.76284057
0.31400536 1.00000000 0.76750076
0.55086058 1.00000000 0.77277073
0.77977262 1.00000000 0.77863287
0.99974004 1.00000000 0.78486564
0.00000000 0.00364056 0.93720202
0.23327431 0.00491708 0.94060697
0.46855394 0.00771228 0.94281080
0.70538680 0.01163149 0.94604051
0.94352443 0.01646202 0.95012095
0.00435151 0.24741581 0.94743679
0.24290248 0.25252531 0.95178345
0.48241935 0.25825602 0.95674192
0.72265368 0.26439523 0.96213703
0.96335704 0.27073027 0.96779363
0.02264923 0.50081012 0.96417535
0.26346165 0.50716363 0.96988365
0.50440421 0.51342284 0.97561452
0.74522847 0.51937505 0.98119279
0.98568600 0.52480758 0.98644330
0.04523127 0.75554419 0.98315147
0.28549359 0.76073470 0.98823917
0.52505028 0.76511540 0.99276019
0.76365291 0.76847357 0.99653945
1.00000000 0.77101344 0.99837159
0.07560489 1.00000000 0.99439385
0.31845873 1.00000000 0.99540136
0.55415246 1.00000000 0.99668828
0.78166990 1.00000000 0.99823291
1.00000000 1.00000000 1.00000000
