assets/luts/DB_Forest_Rain_Rec709_50.cube
TITLE "Forest Rain Rec709 50"
# Red changes fastest. Full-range normalized input.
LUT_3D_SIZE 9
DOMAIN_MIN 0 0 0
DOMAIN_MAX 1 1 1
0.00400000 0.00400000 0.00400000
0.12144516 0.00259916 0.00254452
0.23539776 0.00303766 0.00283705
0.35078206 0.00357054 0.00318153
0.46740437 0.00422956 0.00362034
0.58451476 0.00523652 0.00437006
0.70206679 0.00657012 0.00541383
0.82002939 0.00820377 0.00672977
0.93837150 0.01011091 0.00829598
0.00000000 0.12053370 0.00372496
0.11720821 0.12081347 0.00033762
0.23630075 0.12141305 0.00122926
0.35150502 0.12405267 0.00557935
0.46927665 0.12592675 0.00727025
0.58774643 0.12792793 0.00892404
0.70655615 0.13016524 0.01079634
0.82567197 0.13261317 0.01286715
0.94506282 0.13524514 0.01511457
0.00032366 0.24185155 0.00634391
0.11854879 0.24367415 0.00771184
0.23731742 0.24564809 0.00894923
0.35622633 0.24802126 0.01128007
0.47531692 0.25060849 0.01365786
0.59479364 0.25330383 0.01597232
0.71450958 0.25614398 0.01842539
0.83442717 0.25910530 0.02100328
0.95451533 0.26216123 0.02368413
0.00566452 0.36604831 0.01228575
0.12498364 0.36863288 0.01448724
0.24455513 0.37138191 0.01684745
0.36434902 0.37426875 0.01934643
0.48433179 0.37726814 0.02196782
0.60447405 0.38035207 0.02468141
0.72474480 0.38349417 0.02746742
0.84511272 0.38666801 0.03030462
0.96554673 0.38984702 0.03317112
0.01421208 0.49240972 0.02029131
0.13425694 0.49544256 0.02294634
0.25444976 0.49855064 0.02568839
0.37475948 0.50170738 0.02849556
0.49515506 0.50488618 0.03134597
0.61560543 0.50806046 0.03421771
0.73607954 0.51120364 0.03708889
0.85654634 0.51428913 0.03993761
0.97697477 0.51729034 0.04274199
0.02478554 0.61992351 0.02952944
0.14520466 0.62310374 0.03239015
0.26566727 0.62626978 0.03526422
0.38614231 0.62939504 0.03812976
0.50659874 0.63245292 0.04096487
0.62700549 0.63541685 0.04374767
0.74733151 0.63826023 0.04645625
0.86754574 0.64095649 0.04906872
0.98761714 0.64347902 0.05156318
0.03620262 0.74757750 0.03916660
0.15664455 0.75060425 0.04198520
0.27702551 0.75352737 0.04474351
0.39731443 0.75632027 0.04741963
0.51748025 0.75895636 0.04999167
0.63749194 0.76140905 0.05243774
0.75731843 0.76365177 0.05473594
0.87692866 0.76565791 0.05686438
0.99629158 0.76740090 0.05880115
0.04728103 0.87435953 0.04836922
0.16739434 0.87693193 0.05089794
0.28734219 0.87931125 0.05329270
0.40709354 0.88147092 0.05553163
0.52661733 0.88338433 0.05759283
0.64588251 0.88502492 0.05945439
0.76485802 0.88636608 0.06109443
0.88351280 0.88738124 0.06249104
1.00000000 0.88759096 0.07345500
0.05683850 0.99925743 0.05630377
0.17883808 1.00000000 0.06138269
0.30127580 1.00000000 0.06872633
0.42215960 1.00000000 0.07646801
0.54136162 1.00000000 0.08460755
0.65875420 1.00000000 0.09314412
0.77420995 1.00000000 0.10207617
0.88760171 1.00000000 0.11140142
0.99880260 1.00000000 0.12111681
0.00324477 0.00375405 0.12082911
0.11860258 0.00327998 0.12037846
0.23435466 0.00331132 0.12016312
0.35057270 0.00375487 0.12035723
0.46737003 0.00453325 0.12090062
0.58463389 0.00565412 0.12175265
0.70232883 0.00709260 0.12289131
0.82042380 0.00882211 0.12429470
0.93888773 0.01081607 0.12594092
0.00000000 0.12083590 0.12030921
0.11663729 0.12141917 0.12076504
0.23672770 0.12141078 0.12068147
0.35233639 0.12434352 0.12303588
0.46973029 0.12657172 0.12486113
0.58830442 0.12866245 0.12659626
0.70722155 0.13097428 0.12853843
0.82643425 0.13348769 0.13067167
0.94591145 0.13617611 0.13297410
0.00068153 0.24244458 0.12388594
0.11894813 0.24428471 0.12514455
0.23912514 0.24495431 0.12348170
0.35982972 0.24700945 0.12566291
0.47644958 0.25133183 0.13120374
0.59567388 0.25425184 0.13384815
0.71545898 0.25713740 0.13634795
0.83543797 0.26013384 0.13896326
0.95557699 0.26321584 0.14167410
0.00640150 0.36690593 0.13007404
0.12580846 0.36954922 0.13233021
0.24544269 0.37232313 0.13461055
0.36546920 0.37510135 0.13666677
0.48549400 0.37822063 0.13969835
0.60555801 0.38141058 0.14267252
0.72585887 0.38456978 0.14548628
0.84625269 0.38774837 0.14833591
0.96670209 0.39092309 0.15120739
0.01520724 0.49342960 0.13824186
0.13530583 0.49649098 0.14092889
0.25554179 0.49961855 0.14369543
0.37588400 0.50278549 0.14651778
0.49630252 0.50596521 0.14937592
0.61676403 0.50913255 0.15225327
0.73723889 0.51225929 0.15511993
0.85769613 0.51531914 0.15795606
0.97810446 0.51828568 0.16074040
0.02591951 0.62100347 0.14755810
0.14635688 0.62418187 0.15042580
0.26682720 0.62733704 0.15329942
0.38729940 0.63044239 0.15615709
0.50774243 0.63347135 0.15897689
0.62812525 0.63639732 0.16173693
0.74841679 0.63919372 0.16441533
0.86858600 0.64183396 0.16699018
0.98860183 0.64429146 0.16943959
0.03735605 0.74861537 0.15718921
0.15778076 0.75160991 0.15998979
0.27813394 0.75449179 0.16272264
0.39838454 0.75723442 0.16536588
0.51850150 0.75981120 0.16789759
0.63845377 0.76219557 0.17029590
0.75821030 0.76436092 0.17253890
0.87774003 0.76628068 0.17460470
0.99701190 0.76792826 0.17647141
0.04833457 0.87525313 0.16630165
0.16839517 0.87776294 0.16878733
0.28827978 0.88007065 0.17113163
0.40795733 0.88214967 0.17331265
0.52739678 0.88397341 0.17530850
0.64656706 0.88551529 0.17709729
0.76543713 0.88674872 0.17865712
0.88397593 0.88764712 0.17996609
1.00000000 0.88774877 0.19165063
0.05767280 0.99990458 0.17406186
0.18110424 1.00000000 0.18008650
0.30333044 1.00000000 0.18667646
0.42397310 1.00000000 0.19362379
0.54290442 1.00000000 0.20092807
0.65999685 1.00000000 0.20858820
0.77512307 1.00000000 0.21660235
0.88815604 1.00000000 0.22496795
0.99896897 1.00000000 0.23368166
0.00256036 0.00356744 0.23763903
0.11798178 0.00329872 0.23725572
0.23394786 0.00344507 0.23723841
0.35042688 0.00398008 0.23756575
0.46738898 0.00487664 0.23821647
0.58480273 0.00610835 0.23916830
0.70263701 0.00764864 0.24039932
0.82086076 0.00947095 0.24188763
0.93944293 0.01154867 0.24361134
0.00000000 0.12118016 0.23672706
0.11629535 0.12233101 0.23855233
0.23402048 0.12358038 0.23964697
0.35194297 0.12528369 0.24092180
0.47019977 0.12725696 0.24248896
0.58890004 0.12942330 0.24429305
0.70792103 0.13180657 0.24630256
0.82722704 0.13438240 0.24849571
0.94678700 0.13712421 0.25085061
0.00108728 0.24306909 0.24145880
0.11954828 0.24505556 0.24311110
0.23897861 0.24640276 0.24446939
0.36081913 0.24734064 0.24549392
0.47780355 0.25192264 0.24899133
0.59659065 0.25521017 0.25173796
0.71643043 0.25814375 0.25428404
0.83646723 0.26117223 0.25693426
0.95665354 0.26427725 0.25967256
0.00716997 0.36778456 0.24788253
0.12666098 0.37048330 0.25019335
0.24628759 0.37319034 0.25233530
0.36761696 0.37424737 0.25157952
0.48934430 0.37711146 0.25446091
0.60697651 0.38228682 0.26041455
0.72698562 0.38564667 0.26350844
0.84739908 0.38882829 0.26636972
0.96786028 0.39199564 0.26924365
0.01622182 0.49446019 0.25620410
0.13637055 0.49754702 0.25892062
0.25664466 0.50069073 0.26170700
0.37699432 0.50383475 0.26442196
0.49757292 0.50685195 0.26683089
0.61804398 0.51010977 0.27006145
0.73840218 0.51330384 0.27314007
0.85884030 0.51633837 0.27596852
0.97922494 0.51926719 0.27873031
0.02706086 0.62208383 0.26558996
0.14751290 0.62525731 0.26846212
0.26798734 0.62839855 0.27133279
0.38845308 0.63148093 0.27417996
0.50887890 0.63447764 0.27698008
0.62923497 0.63736210 0.27971298
0.74948820 0.64010904 0.28236184
0.86960857 0.64269036 0.28489716
0.98956524 0.64507975 0.28729900
0.03850482 0.74964332 0.27520654
0.15890871 0.75260258 0.27798657
0.27923054 0.75544014 0.28069145
0.39943924 0.75812943 0.28329926
0.51950375 0.76064385 0.28578813
0.63939303 0.76295682 0.28813615
0.75907602 0.76504175 0.29032142
0.87852166 0.76687206 0.29232207
0.99769890 0.76842115 0.29411618
0.04937140 0.87612649 0.28422029
0.16937571 0.87857064 0.28666041
0.28919348 0.88080367 0.28895172
0.40879366 0.88279898 0.29107231
0.52814518 0.88452998 0.29300030
0.64721699 0.88597009 0.29471379
0.76597804 0.88709273 0.29619088
0.88439728 0.88787130 0.29740968
1.00000000 0.88791508 0.30915086
0.05990832 1.00000000 0.29274954
0.18340286 1.00000000 0.29824162
0.30541217 1.00000000 0.30405030
0.42580833 1.00000000 0.31017559
0.54446363 1.00000000 0.31661682
0.66125062 1.00000000 0.32337261
0.77604207 1.00000000 0.33044088
0.88871104 1.00000000 0.33781874
0.99913084 1.00000000 0.34550251
0.00194077 0.00342808 0.35452610
0.11755034 0.00330345 0.35426924
0.23369411 0.00358474 0.35437170
0.35034103 0.00424534 0.35481160
0.46746003 0.00525868 0.35556705
0.58502008 0.00659817 0.35661615
0.70299011 0.00823722 0.35793700
0.82133906 0.01014924 0.35950771
0.94003589 0.01230766 0.36130638
0.00000000 0.12155691 0.35325976
0.11641267 0.12276996 0.35591621
0.23412598 0.12422126 0.35706727
0.35223777 0.12596273 0.35848145
0.47071640 0.12796788 0.36013733
0.58953210 0.13020943 0.36201354
0.70865338 0.13266107 0.36408787
0.82804911 0.13529625 0.36633841
0.94768825 0.13808838 0.36874325
0.00153289 0.24372391 0.35905720
0.12013788 0.24581765 0.36079662
0.23908039 0.24811342 0.36276745
0.35846609 0.25051106 0.36494390
0.47788911 0.25328731 0.36720614
0.59750629 0.25619610 0.36965273
0.71742268 0.25916200 0.37223284
0.83751373 0.26221946 0.37491542
0.95774374 0.26534443 0.37767866
0.00796870 0.36868317 0.36571036
0.12754443 0.37143518 0.36807544
0.24731419 0.37428897 0.37057137
0.36786661 0.37618012 0.37274838
0.49062760 0.37761465 0.37454138
0.60858983 0.38300712 0.37839907
0.72813170 0.38671913 0.38153317
0.84855067 0.38990670 0.38440519
0.96902007 0.39306363 0.38727904
0.01725462 0.49550043 0.37417720
0.13744992 0.49860967 0.37692067
0.25775837 0.50176623 0.37972687
0.37802880 0.50478393 0.38229673
0.49960020 0.50591809 0.38218090
0.62173444 0.50894591 0.38520387
0.73986256 0.51415043 0.39092347
0.85998018 0.51734447 0.39397255
0.98033498 0.52023384 0.39671086
0.02820838 0.62316353 0.38362417
0.14867151 0.62632904 0.38649828
0.26914648 0.62945327 0.38936345
0.38960058 0.63250931 0.39219570
0.50997532 0.63544208 0.39486362
0.63041116 0.63813237 0.39714646
0.75064966 0.64092167 0.40008490
0.87061781 0.64352152 0.40278183
0.99050619 0.64584285 0.40514055
0.03964770 0.75066029 0.39321772
0.16002720 0.75358121 0.39597468
0.28031409 0.75637140 0.39864905
0.40047731 0.75900428 0.40121893
0.52048575 0.76145327 0.40366234
0.64030811 0.76369159 0.40595580
0.75991467 0.76569264 0.40807904
0.87927255 0.76743088 0.41001501
0.99835137 0.76887854 0.41173460
0.05039029 0.87697856 0.40212430
0.17033474 0.87935400 0.40451634
0.29008210 0.88150927 0.40675212
0.40960131 0.88341780 0.40880976
0.52886132 0.88505300 0.41066736
0.64783108 0.88638828 0.41230302
0.76647953 0.88739705 0.41369485
0.88477562 0.88805272 0.41482095
1.00000000 0.88809011 0.42593902
0.06243177 1.00000000 0.41111020
0.18573369 1.00000000 0.41583398
0.30752074 1.00000000 0.42083376
0.42766506 1.00000000 0.42610928
0.54603905 1.00000000 0.43165964
0.66251532 1.00000000 0.43748318
0.77696677 1.00000000 0.44357752
0.88926654 1.00000000 0.44993947
0.99928807 1.00000000 0.45656505
0.00138637 0.00333859 0.47145722
0.11718084 0.00335479 0.47132483
0.23349896 0.00376788 0.47154435
0.35030968 0.00455125 0.47209387
0.46758195 0.00567833 0.47295150
0.58528471 0.00712253 0.47409534
0.70338691 0.00885727 0.47550350
0.82185748 0.01085595 0.47715408
0.94066539 0.01309199 0.47902519
0.00000000 0.12196801 0.47003431
0.11658776 0.12322880 0.47333595
0.23443953 0.12478186 0.47457855
0.35267944 0.12661576 0.47607750
0.47127642 0.12870394 0.47781091
0.59019942 0.13101979 0.47975687
0.70941738 0.13353674 0.48189350
0.82889926 0.13622820 0.48419890
0.94861400 0.13906758 0.48665117
0.00201929 0.24440796 0.47668259
0.12073856 0.24658210 0.47849591
0.23977255 0.24897421 0.48051389
0.35909062 0.25155736 0.48271497
0.47866107 0.25430574 0.48507622
0.59845230 0.25719279 0.48757616
0.71843452 0.26019112 0.49019345
0.83857626 0.26327448 0.49290588
0.95884638 0.26641632 0.49569153
0.00879647 0.36960071 0.48355667
0.12845097 0.37240251 0.48597118
0.24831537 0.37533243 0.48851720
0.36836996 0.37833445 0.49119388
0.48871547 0.38130487 0.49398171
0.60896419 0.38455528 0.49673431
0.72926060 0.38780553 0.49956994
0.84970621 0.39098260 0.50244148
0.97018026 0.39412604 0.50531272
0.01830441 0.49654929 0.49216028
0.13854270 0.49967787 0.49492819
0.25888644 0.50284547 0.49775343
0.37927173 0.50598539 0.50061468
0.50014396 0.50798057 0.50323736
0.62306124 0.50945868 0.50538338
0.74148579 0.51482903 0.50895473
0.86112199 0.51833182 0.51196790
0.98143338 0.52118456 0.51468120
0.02936084 0.62424153 0.50165988
0.14983148 0.62739601 0.50453341
0.27030341 0.63050017 0.50739056
0.39074207 0.63352662 0.51020785
0.51095537 0.63629794 0.51273260
0.63199142 0.63719192 0.51283562
0.75389007 0.63973966 0.51547239
0.87188444 0.64415546 0.52044217
0.99142585 0.64657850 0.52296193
0.04078348 0.75166526 0.51122190
0.16113501 0.75454476 0.51395327
0.28138338 0.75728451 0.51659461
0.40149753 0.75985792 0.51912402
0.52144454 0.76223823 0.52151772
0.64115735 0.76437819 0.52365311
0.76076654 0.76617512 0.52531837
0.88008442 0.76788929 0.52748428
0.99897331 0.76929685 0.52931913
0.05139004 0.87780831 0.52001281
0.17127103 0.88011196 0.52235424
0.29094439 0.88218642 0.52453198
0.41037906 0.88400511 0.52652414
0.52954399 0.88554143 0.52830882
0.64840807 0.88676881 0.52986405
0.76693993 0.88766061 0.53116640
0.88510995 0.88819010 0.53219550
1.00000000 0.88827395 0.54199845
0.06499259 1.00000000 0.52892163
0.18809652 1.00000000 0.53284953
0.30965594 1.00000000 0.53701273
0.42954310 1.00000000 0.54141073
0.54763047 1.00000000 0.54604236
0.66379078 1.00000000 0.55090568
0.77789700 1.00000000 0.55599801
0.88982240 1.00000000 0.56131587
0.99944051 1.00000000 0.56685492
0.00089594 0.00329794 0.58843144
0.11687172 0.00345190 0.58842102
0.23336062 0.00399372 0.58875506
0.35033157 0.00489680 0.58941167
0.46775352 0.00613456 0.59036895
0.58559541 0.00768041 0.59160501
0.70382619 0.00950776 0.59309796
0.82241481 0.01159004 0.59482589
0.94133020 0.01390064 0.59676691
0.00000000 0.12240397 0.58713170
0.11681120 0.12372308 0.59078784
0.23479826 0.12537450 0.59211995
0.35316292 0.12729773 0.59370098
0.47187410 0.12946621 0.59550903
0.59090075 0.13185334 0.59752220
0.71021183 0.13443254 0.59971860
0.82977627 0.13717721 0.60207633
0.94956301 0.14006078 0.60457350
0.00254557 0.24512021 0.59433410
0.12137520 0.24737137 0.59621936
0.24050900 0.24983150 0.59830177
0.35991591 0.25247402 0.60055944
0.47956488 0.25527234 0.60297047
0.59942485 0.25819987 0.60551297
0.71946477 0.26123003 0.60816504
0.83965359 0.26433623 0.61090479
0.95996025 0.26749189 0.61371032
0.00965207 0.37053615 0.60142061
0.12938145 0.37338459 0.60388203
0.24931054 0.37635256 0.60646696
0.36940827 0.37941344 0.60915355
0.48964398 0.38254028 0.61192030
0.60998604 0.38570734 0.61474419
0.73040281 0.38888804 0.61760375
0.85086450 0.39205493 0.62047771
0.97133962 0.39518180 0.62334383
0.01936999 0.49760573 0.61015249
0.13964768 0.50075058 0.61294231
0.26002060 0.50392552 0.61578197
0.38045728 0.50710349 0.61865025
0.50093411 0.51022725 0.62155100
0.62154469 0.51319463 0.62447285
0.74193931 0.51632071 0.62722452
0.86223103 0.51931851 0.62996197
0.98251888 0.52211834 0.63264048
0.03051703 0.62531680 0.61969622
0.15099160 0.62845717 0.62256664
0.27145691 0.63153820 0.62541325
0.39188158 0.63453321 0.62821424
0.51219250 0.63737789 0.63095864
0.63265332 0.63903345 0.63357167
0.75502821 0.64009862 0.63557942
0.87328200 0.64462044 0.63835399
0.99233007 0.64728149 0.64076331
0.04191094 0.75265717 0.62921822
0.16223092 0.75549219 0.63192147
0.28243720 0.75817844 0.63452726
0.40249870 0.76068932 0.63701367
0.52238048 0.76299771 0.63935763
0.64185086 0.76496480 0.64134664
0.76170714 0.76529430 0.64109347
0.88270113 0.76671956 0.64284706
0.99981887 0.76953473 0.64668236
0.05236942 0.87861469 0.63788497
0.17218338 0.88084349 0.64017326
0.29177916 0.88283407 0.64229043
0.41112571 0.88455984 0.64421459
0.53019196 0.88599423 0.64592383
0.64894486 0.88711072 0.64739449
0.76731204 0.88787616 0.64850799
0.88542164 0.88821268 0.64905151
1.00000000 0.88843240 0.65731690
0.06759055 1.00000000 0.64616977
0.19049110 1.00000000 0.64927418
0.31181755 1.00000000 0.65257310
0.43144223 1.00000000 0.65606579
0.54923771 1.00000000 0.65975079
0.66507680 1.00000000 0.66362589
0.77883258 1.00000000 0.66768807
0.89037828 1.00000000 0.67193296
0.99958812 1.00000000 0.67635640
0.00046827 0.00330508 0.70544791
0.11662179 0.00359375 0.70555693
0.23327788 0.00426123 0.70600297
0.35040547 0.00528095 0.70676415
0.46797351 0.00662632 0.70781856
0.58595096 0.00827075 0.70914431
0.70430674 0.01018766 0.71071951
0.82300982 0.01235046 0.71252227
0.94202913 0.01473255 0.71453068
0.00000000 0.12285750 0.70460932
0.11708177 0.12425178 0.70827096
0.23520054 0.12599849 0.70969006
0.35368636 0.12800799 0.71135064
0.47250816 0.13025370 0.71323081
0.59163489 0.13270904 0.71530866
0.71103549 0.13534742 0.71756230
0.83067891 0.13814224 0.71996984
0.95053409 0.14106693 0.72250938
0.00311051 0.24585963 0.71201088
0.12204692 0.24818474 0.71396554
0.24127695 0.25070979 0.71610993
0.36076954 0.25340820 0.71842213
0.48049365 0.25625338 0.72088027
0.60041822 0.25921875 0.72346243
0.72051219 0.26227772 0.72614673
0.84074451 0.26540370 0.72891128
0.96108412 0.26857010 0.73173417
0.01053429 0.37148844 0.71930131
0.13033497 0.37438045 0.72180713
0.25032481 0.37738297 0.72442902
0.37047274 0.38046942 0.72714507
0.49074771 0.38361319 0.72993339
0.61111868 0.38678771 0.73277209
0.73155458 0.38996639 0.73563927
0.85202435 0.39312265 0.73851304
0.97249695 0.39622989 0.74137150
0.02045012 0.49866871 0.72815298
0.14076364 0.50182676 0.73096218
0.26116184 0.50500587 0.73381378
0.38161366 0.50817947 0.73668590
0.50208807 0.51132092 0.73955670
0.62255433 0.51440327 0.74240473
0.74298092 0.51740080 0.74520684
0.86333620 0.52028690 0.74794160
0.98359029 0.52303414 0.75058782
0.03167574 0.62638829 0.73773234
0.15215065 0.62951149 0.74059713
0.27260577 0.63256632 0.74343067
0.39301004 0.63552619 0.74621107
0.51333190 0.63836407 0.74891722
0.63354293 0.64102498 0.75155823
0.75372980 0.64341320 0.75412979
0.87358557 0.64581669 0.75639496
0.99318592 0.64796826 0.75855024
0.04302887 0.75363499 0.74720583
0.16331372 0.75642247 0.74987844
0.28347431 0.75905214 0.75244614
0.40347959 0.76149741 0.75488704
0.52329811 0.76373164 0.75717937
0.64284811 0.76569955 0.75932086
0.76223733 0.76656809 0.76138665
0.88343664 0.76676036 0.76268905
1.00000000 0.76981660 0.76454440
0.05332722 0.87939666 0.75573991
0.17307057 0.88154754 0.75797255
0.29258519 0.88345117 0.76002663
0.41184003 0.88508097 0.76188025
0.53080403 0.88641035 0.76351152
0.64944198 0.88741275 0.76489757
0.76749888 0.88801695 0.76584260
0.88566392 0.88745067 0.76450426
1.00000000 0.88790078 0.77199175
0.07022541 1.00000000 0.76284057
0.19291721 1.00000000 0.76509385
0.31400536 1.00000000 0.76750076
0.43336226 1.00000000 0.77006030
0.55086058 1.00000000 0.77277073
0.66637323 1.00000000 0.77562956
0.77977262 1.00000000 0.77863287
0.89091544 1.00000000 0.78174078
0.99974004 1.00000000 0.78486564
0.00010214 0.00335899 0.82250579
0.11642982 0.00377928 0.82273171
0.23324951 0.00456937 0.82328723
0.35053017 0.00570266 0.82415044
0.46824073 0.00715257 0.82529946
0.58635014 0.00889252 0.82671238
0.70482735 0.01089591 0.82836732
0.82364130 0.01313617 0.83024237
0.94276094 0.01558669 0.83231565
0.00000000 0.12332302 0.82250792
0.11739825 0.12481385 0.82578446
0.23564516 0.12665279 0.82728802
0.35424856 0.12874549 0.82902563
0.47317739 0.13106537 0.83097538
0.59240061 0.13358585 0.83311539
0.71188716 0.13628034 0.83542375
0.83160597 0.13912225 0.83787857
0.95152601 0.14208500 0.84045797
0.00371289 0.24662518 0.82971206
0.12275250 0.24902117 0.83173361
0.24207518 0.25160807 0.83393744
0.36164988 0.25435931 0.83630166
0.48144555 0.25724829 0.83880437
0.60143113 0.26024843 0.84142368
0.72157557 0.26333313 0.84413768
0.84184781 0.26647582 0.84692450
0.96221679 0.26964991 0.84976223
0.01144190 0.37245654 0.83719793
0.13131030 0.37538906 0.83974562
0.25135731 0.37842307 0.84240194
0.37155187 0.38153196 0.84514499
0.49186293 0.38468916 0.84795287
0.61225942 0.38786807 0.85080370
0.73271031 0.39104212 0.85367557
0.85318452 0.39418471 0.85654660
0.97365102 0.39726926 0.85939488
0.02154361 0.49973719 0.84616088
0.14188937 0.50290537 0.84898694
0.26230926 0.50608559 0.85184796
0.38277223 0.50925126 0.85472206
0.50324723 0.51237580 0.85758734
0.62370321 0.51543262 0.86042191
0.74410909 0.51839514 0.86320387
0.86443384 0.52123676 0.86591133
0.98464640 0.52393090 0.86852238
0.03283576 0.62745496 0.85576738
0.15330742 0.63055792 0.85862402
0.27374875 0.63358348 0.86144196
0.39412870 0.63650506 0.86419933
0.51441620 0.63929607 0.86687423
0.63458020 0.64192987 0.86944484
0.75458994 0.64437956 0.87188973
0.87441400 0.64661934 0.87418565
0.99402072 0.64862260 0.87631121
0.04413605 0.75459768 0.86518387
0.16438218 0.75733455 0.86782330
0.28449351 0.75990458 0.87035039
0.40443898 0.76228118 0.87274325
0.52418754 0.76443777 0.87497998
0.64370752 0.76634742 0.87703957
0.76296646 0.76796077 0.87893497
0.88204685 0.76919341 0.88066499
1.00000000 0.77049660 0.88176672
0.05426222 0.88015319 0.87357679
0.17393137 0.88222308 0.87575124
0.29336125 0.88403670 0.87773970
0.41252081 0.88556746 0.87952027
0.53137897 0.88678876 0.88107105
0.64990429 0.88767402 0.88237030
0.76801018 0.88818344 0.88341895
0.88573868 0.88781383 0.88431765
1.00000000 0.88804657 0.88592983
0.07289693 1.00000000 0.87891996
0.19537464 1.00000000 0.88029443
0.31621915 1.00000000 0.88178157
0.43530298 1.00000000 0.88338009
0.55249889 1.00000000 0.88508798
0.66767988 1.00000000 0.88690243
0.78071766 1.00000000 0.88881953
0.89139774 1.00000000 0.89076748
0.99991466 1.00000000 0.89194225
0.00000000 0.00364056 0.93720202
0.11629459 0.00400746 0.93994451
0.23327431 0.00491708 0.94060697
0.35070445 0.00616089 0.94156970
0.46855394 0.00771228 0.94281080
0.58679175 0.00954467 0.94430837
0.70538680 0.01163149 0.94604051
0.82430804 0.01394613 0.94798533
0.94352443 0.01646202 0.95012095
0.00000000 0.12379613 0.94085616
0.11775942 0.12540826 0.94332747
0.23613088 0.12733635 0.94491297
0.35484828 0.12950919 0.94672508
0.47388058 0.13190018 0.94874190
0.59319670 0.13448273 0.95094154
0.71276561 0.13723027 0.95330209
0.83255625 0.14011619 0.95580168
0.95253755 0.14311393 0.95841839
0.00435151 0.24741581 0.94743679
0.12349073 0.24987962 0.94952270
0.24290248 0.25252531 0.95178345
0.36255571 0.25532631 0.95419716
0.48241935 0.25825602 0.95674192
0.60246236 0.26128785 0.95939584
0.72265368 0.26439523 0.96213703
0.84296226 0.26755157 0.96494359
0.96335704 0.27073027 0.96779363
0.01237369 0.37343941 0.95510960
0.13230623 0.37640938 0.95769663
0.25240683 0.37947179 0.96038486
0.37264444 0.38260007 0.96315239
0.49298799 0.38576763 0.96597731
0.61340644 0.38894787 0.96883774
0.73386873 0.39211422 0.97171178
0.85434381 0.39524008 0.97457754
0.97480061 0.39829887 0.97741312
0.02264923 0.50081012 0.96417535
0.14302365 0.50398537 0.96701573
0.26346165 0.50716363 0.96988365
0.38393219 0.51031832 0.97275721
0.50440421 0.51342284 0.97561452
0.62484666 0.51645061 0.97843367
0.74522847 0.51937505 0.98119279
0.86551860 0.52216957 0.98386996
0.98568600 0.52480758 0.98644330
0.03399585 0.62851577 0.97380049
0.15446070 0.63159543 0.97664644
0.27488466 0.63458866 0.97944627
0.39523669 0.63746887 0.98217809
0.51548574 0.64020949 0.98481999
0.63560073 0.64278392 0.98735010
0.75555063 0.64516557 0.98974650
0.87530437 0.64732786 0.99198731
0.99483090 0.64924421 0.99405063
0.04523127 0.75554419 0.98315147
0.16543510 0.75822738 0.98575521
0.28549359 0.76073470 0.98823917
0.40537567 0.76303957 0.99058146
0.52505028 0.76511540 0.99276019
0.64448639 0.76693561 0.99475346
0.76365291 0.76847357 0.99653945
0.88251909 0.76970242 0.99809678
1.00000000 0.77101344 0.99837159
0.05517320 0.88088322 0.99139474
0.17476458 0.88286906 0.99350849
0.29410614 0.88458960 0.99542880
0.41316682 0.88601825 0.99713379
0.53191558 0.88712842 0.99860155
0.65032134 0.88789352 0.99981021
0.76896847 0.88817825 1.00000000
0.88613592 0.88836129 1.00000000
1.00000000 0.88905815 0.99864646
0.07560489 1.00000000 0.99439385
0.19786315 1.00000000 0.99486181
0.31845873 1.00000000 0.99540136
0.43726421 1.00000000 0.99601096
0.55415246 1.00000000 0.99668828
0.66899661 1.00000000 0.99743023
0.78166990 1.00000000 0.99823291
0.89202478 1.00000000 0.99909886
1.00000000 1.00000000 1.00000000
