assets/luts/DB_Forest_Rain_Rec709_50.cube
TITLE "Forest Rain Rec709 50"
# Red changes fastest. Full-range normalized input.
LUT_3D_SIZE 33
DOMAIN_MIN 0 0 0
DOMAIN_MAX 1 1 1
0.00400000 0.00400000 0.00400000
0.03317896 0.00365162 0.00364041
0.06264468 0.00324508 0.00322227
0.09217030 0.00285858 0.00282234
0.12144516 0.00259916 0.00254452
0.15027891 0.00253195 0.00245106
0.17872540 0.00263739 0.00252191
0.20701832 0.00283385 0.00267747
0.23539776 0.00303766 0.00283705
0.26398669 0.00320583 0.00295970
0.29278576 0.00333767 0.00304529
0.32173707 0.00345268 0.00311288
0.35078206 0.00357054 0.00318153
0.37988391 0.00370338 0.00326294
0.40902528 0.00385661 0.00336233
0.43819953 0.00403194 0.00348138
0.46740437 0.00422956 0.00362034
0.49663885 0.00444923 0.00377901
0.52590241 0.00469055 0.00395708
0.55519454 0.00495312 0.00415421
0.58451476 0.00523652 0.00437006
0.61386258 0.00554033 0.00460429
0.64323751 0.00586415 0.00485656
0.67263908 0.00620755 0.00512652
0.70206679 0.00657012 0.00541383
0.73152016 0.00695144 0.00571816
0.76099871 0.00735110 0.00603915
0.79050195 0.00776868 0.00637647
0.82002939 0.00820377 0.00672977
0.84958055 0.00865596 0.00709872
0.87915495 0.00912482 0.00748296
0.90875209 0.00960994 0.00788217
0.93837150 0.01011091 0.00829598
0.00209703 0.03275598 0.00308026
0.03132431 0.03248986 0.00257469
0.06098505 0.03211213 0.00195380
0.09093167 0.03168619 0.00135438
0.12078685 0.03135258 0.00097475
0.15015513 0.03124886 0.00095715
0.17889054 0.03141614 0.00129106
0.20717800 0.03177674 0.00182495
0.23536936 0.03219840 0.00237183
0.26374845 0.03257897 0.00281204
0.29241835 0.03288398 0.00312181
0.32134022 0.03312986 0.00333770
0.35042732 0.03334899 0.00350868
0.37960831 0.03356719 0.00367011
0.40884318 0.03379846 0.00384028
0.43811465 0.03404848 0.00402639
0.46741653 0.03431887 0.00423060
0.49674675 0.03460978 0.00445322
0.52610449 0.03492093 0.00469406
0.55548917 0.03525192 0.00495281
0.58490031 0.03560235 0.00522913
0.61433742 0.03597179 0.00552267
0.64380002 0.03635984 0.00583311
0.67328761 0.03676607 0.00616008
0.70279972 0.03719008 0.00650326
0.73233585 0.03763144 0.00686230
0.76189553 0.03808974 0.00723685
0.79147826 0.03856457 0.00762658
0.82108357 0.03905551 0.00803115
0.85071096 0.03956215 0.00845020
0.88035996 0.04008406 0.00888341
0.91003007 0.04062084 0.00933042
0.93972082 0.04117206 0.00979089
0.00066692 0.06182693 0.00261007
0.02982498 0.06168026 0.00201125
0.05943046 0.06140049 0.00118771
0.08949680 0.06100566 0.00029355
0.11947528 0.06066201 0.00000000
0.14917533 0.06052597 0.00000000
0.17885551 0.06057247 0.00000000
0.20760074 0.06095928 0.00073740
0.23580991 0.06154120 0.00174055
0.26403645 0.06212886 0.00262358
0.29253878 0.06262928 0.00327577
0.32136759 0.06303031 0.00371943
0.35044719 0.06336536 0.00403330
0.37967857 0.06367380 0.00429000
0.40899202 0.06398216 0.00453382
0.43835214 0.06430336 0.00478512
0.46774476 0.06464212 0.00505119
0.49716506 0.06499964 0.00533399
0.52661145 0.06537593 0.00563375
0.55608319 0.06577065 0.00595025
0.58557976 0.06618340 0.00628316
0.61510067 0.06661378 0.00663216
0.64464543 0.06706135 0.00699688
0.67421356 0.06752572 0.00737700
0.70380457 0.06800646 0.00777217
0.73341797 0.06850316 0.00818205
0.76305329 0.06901541 0.00860630
0.79271003 0.06954278 0.00904457
0.82238771 0.07008487 0.00949652
0.85208584 0.07064125 0.00996181
0.88180395 0.07121152 0.01044010
0.91154153 0.07179525 0.01093105
0.94129812 0.07239203 0.01143431
0.00000000 0.09108877 0.00287829
0.02882707 0.09118400 0.00211866
0.05824738 0.09106518 0.00129777
0.08812614 0.09080986 0.00026248
0.11817956 0.09047246 0.00000000
0.14804249 0.09030627 0.00000000
0.17781467 0.09037129 0.00000000
0.20759694 0.09062809 0.00000000
0.23624638 0.09122218 0.00117572
0.26457189 0.09192887 0.00245510
0.29302196 0.09258950 0.00348919
0.32177437 0.09314319 0.00422220
0.35082399 0.09360137 0.00472545
0.38008075 0.09400495 0.00510132
0.40945594 0.09439071 0.00542687
0.43889452 0.09478035 0.00574362
0.46837087 0.09518339 0.00606886
0.49787536 0.09560298 0.00640825
0.52740482 0.09603974 0.00676312
0.55695812 0.09649349 0.00713350
0.58653463 0.09696387 0.00751914
0.61613384 0.09745047 0.00791971
0.64575528 0.09795288 0.00833486
0.67539845 0.09847068 0.00876425
0.70506287 0.09900345 0.00920754
0.73474805 0.09955079 0.00966439
0.76445351 0.10011228 0.01013445
0.79417877 0.10068749 0.01061739
0.82392333 0.10127602 0.01111286
0.85368671 0.10187746 0.01162052
0.88346844 0.10249137 0.01214002
0.91326801 0.10311735 0.01267104
0.94308495 0.10375499 0.01321321
0.00000000 0.12053370 0.00372496
0.02834477 0.12095305 0.00273514
0.05763158 0.12100982 0.00216554
0.08723145 0.12096134 0.00130801
0.11720821 0.12081347 0.00033762
0.14733011 0.12064354 0.00000000
0.17731192 0.12065229 0.00000000
0.20719982 0.12088969 0.00005229
0.23630075 0.12141305 0.00122926
0.26500950 0.12210798 0.00262473
0.29364063 0.12283261 0.00389776
0.32244330 0.12348920 0.00488026
0.35150502 0.12405267 0.00557935
0.38078859 0.12454692 0.00608865
0.41021600 0.12500814 0.00650401
0.43972381 0.12546335 0.00688779
0.46927665 0.12592675 0.00727025
0.49885926 0.12640395 0.00766290
0.52846616 0.12689653 0.00806912
0.55809548 0.12740462 0.00848954
0.58774643 0.12792793 0.00892404
0.61741847 0.12846606 0.00937231
0.64711109 0.12901859 0.00983401
0.67682381 0.12958513 0.01030880
0.70655615 0.13016524 0.01079634
0.73630762 0.13075851 0.01129629
0.76607774 0.13136454 0.01180830
0.79586601 0.13198289 0.01233203
0.82567197 0.13261317 0.01286715
0.85549511 0.13325495 0.01341330
0.88533495 0.13390781 0.01397015
0.91519102 0.13457135 0.01453735
0.94506282 0.13524514 0.01511457
0.00000000 0.15037197 0.00447230
0.02827861 0.15095736 0.00358557
0.05755737 0.15116044 0.00336737
0.08699057 0.15131055 0.00290777
0.11666848 0.15138758 0.00225539
0.14659563 0.15141856 0.00161372
0.17662575 0.15148893 0.00128664
0.20650967 0.15170548 0.00151603
0.23605017 0.15212863 0.00232478
0.26523538 0.15273123 0.00350114
0.29422970 0.15342112 0.00473857
0.32324417 0.15410352 0.00580744
0.35241267 0.15472807 0.00663174
0.38176038 0.15529292 0.00725346
0.41124692 0.15582108 0.00775494
0.44082016 0.15633698 0.00820466
0.47044351 0.15685638 0.00864214
0.50009833 0.15738670 0.00908481
0.52977701 0.15793049 0.00953870
0.55947682 0.15848824 0.01000534
0.58919671 0.15905977 0.01048483
0.61893607 0.15964473 0.01097693
0.64869438 0.16024269 0.01148131
0.67847117 0.16085325 0.01199763
0.70826593 0.16147600 0.01252555
0.73807820 0.16211051 0.01306472
0.76790748 0.16275637 0.01361481
0.79775329 0.16341317 0.01417547
0.82761514 0.16408048 0.01474636
0.85749255 0.16475791 0.01532713
0.88738503 0.16544502 0.01591746
0.91729210 0.16614140 0.01651698
0.94721327 0.16684665 0.01712537
0.00000000 0.18057127 0.00509940
0.02852994 0.18118573 0.00452170
0.05788486 0.18149498 0.00459368
0.08730129 0.18179205 0.00452920
0.11683405 0.18205802 0.00431119
0.14652494 0.18228995 0.00400967
0.17635063 0.18251768 0.00379312
0.20620210 0.18280044 0.00386156
0.23593621 0.18319539 0.00432902
0.26546970 0.18371945 0.00514710
0.29483305 0.18433832 0.00613789
0.32413721 0.18499188 0.00710618
0.35349271 0.18563133 0.00793620
0.38295418 0.18623805 0.00861184
0.41251983 0.18681816 0.00917644
0.44216168 0.18738679 0.00968371
0.47185214 0.18795681 0.01017195
0.50157393 0.18853548 0.01066101
0.53131887 0.18912579 0.01115884
0.56108366 0.18972851 0.01166787
0.59086699 0.19034358 0.01218849
0.62066818 0.19097066 0.01272056
0.65048669 0.19160935 0.01326374
0.68032204 0.19225924 0.01381772
0.71017375 0.19291992 0.01438214
0.74004132 0.19359096 0.01495667
0.76992427 0.19427196 0.01554096
0.79982212 0.19496249 0.01613467
0.82973438 0.19566215 0.01673747
0.85966057 0.19637052 0.01734899
0.88960019 0.19708718 0.01796892
0.91955277 0.19781171 0.01859689
0.94951782 0.19854371 0.01923258
0.00000000 0.21111233 0.00561807
0.02905557 0.21163169 0.00554161
0.05850879 0.21201870 0.00579277
0.08799049 0.21241368 0.00599392
0.11752072 0.21280683 0.00611970
0.14712628 0.21319056 0.00617545
0.17681992 0.21356880 0.00622044
0.20657701 0.21396255 0.00635937
0.23633583 0.21440286 0.00669163
0.26603209 0.21491219 0.00724895
0.29564222 0.21548892 0.00797364
0.32519609 0.21610894 0.00875707
0.35475025 0.21674230 0.00950398
0.38434992 0.21736957 0.01017167
0.41401108 0.21798649 0.01076628
0.44372688 0.21859840 0.01131600
0.47348291 0.21921270 0.01184785
0.50326729 0.21983460 0.01237873
0.53307322 0.22046665 0.01291656
0.56289751 0.22110963 0.01346410
0.59273879 0.22176353 0.01402200
0.62259632 0.22242804 0.01459015
0.65246954 0.22310276 0.01516828
0.68235797 0.22378728 0.01575604
0.71226112 0.22448118 0.01635310
0.74217851 0.22518406 0.01695911
0.77210964 0.22589549 0.01757373
0.80205404 0.22661507 0.01819663
0.83201121 0.22734237 0.01882745
0.86198068 0.22807698 0.01946586
0.89196196 0.22881848 0.02011151
0.92195456 0.22956646 0.02076406
0.95195800 0.23032051 0.02142317
0.00032366 0.24185155 0.00634391
0.02984648 0.24228507 0.00668994
0.05939078 0.24273500 0.00704128
0.08895679 0.24319924 0.00738658
0.11854879 0.24367415 0.00771184
0.14817603 0.24415546 0.00800888
0.17784857 0.24464114 0.00828802
0.20756750 0.24513513 0.00858486
0.23731742 0.24564809 0.00894923
0.26707096 0.24619230 0.00941771
0.29680558 0.24677364 0.00998963
0.32651851 0.24738732 0.01062722
0.35622633 0.24802126 0.01128007
0.38595122 0.24866376 0.01191231
0.41570742 0.24930880 0.01251331
0.44549751 0.24995618 0.01309073
0.47531692 0.25060849 0.01365786
0.50515969 0.25126835 0.01422530
0.53502149 0.25193729 0.01479890
0.56489990 0.25261580 0.01538104
0.59479364 0.25330383 0.01597232
0.62470201 0.25400106 0.01657270
0.65462446 0.25470710 0.01718189
0.68456048 0.25542154 0.01779957
0.71450958 0.25614398 0.01842539
0.74447129 0.25687399 0.01905901
0.77444511 0.25761115 0.01970009
0.80443057 0.25835507 0.02034830
0.83442717 0.25910530 0.02100328
0.86443443 0.25986146 0.02166470
0.89445187 0.26062310 0.02233221
0.92447899 0.26138983 0.02300547
0.95451533 0.26216123 0.02368413
0.00129432 0.27264240 0.00759151
0.03089716 0.27313196 0.00799373
0.06052148 0.27363714 0.00840826
0.09016656 0.27415722 0.00883179
0.11983246 0.27469101 0.00925925
0.14952086 0.27523682 0.00968545
0.17923496 0.27579306 0.01010901
0.20897739 0.27635938 0.01053702
0.23874673 0.27693778 0.01098546
0.26853582 0.27753217 0.01147248
0.29833493 0.27814607 0.01200736
0.32813782 0.27877993 0.01258411
0.35794550 0.27943068 0.01318526
0.38776432 0.28009360 0.01379258
0.41760090 0.28076491 0.01439561
0.44745840 0.28144305 0.01499308
0.47733639 0.28212815 0.01558894
0.50723272 0.28282092 0.01618783
0.53714521 0.28352190 0.01679292
0.56707232 0.28423120 0.01740567
0.59701307 0.28494864 0.01802645
0.62696680 0.28567389 0.01865518
0.65693297 0.28640656 0.01929156
0.68691108 0.28714623 0.01993528
0.71690065 0.28789249 0.02058599
0.74690119 0.28864493 0.02124335
0.77691221 0.28940313 0.02190702
0.80693323 0.29016668 0.02257667
0.83696377 0.29093515 0.02325194
0.86700333 0.29170815 0.02393249
0.89705144 0.29248524 0.02461799
0.92710760 0.29326601 0.02530808
0.95717134 0.29405006 0.02600243
0.00251988 0.30361605 0.00900563
0.03219567 0.30415687 0.00945625
0.06189183 0.30471201 0.00991988
0.09160776 0.30528102 0.01039558
0.12134294 0.30586335 0.01088186
0.15109715 0.30645829 0.01137678
0.18087069 0.30706505 0.01187873
0.21066418 0.30768296 0.01238783
0.24047783 0.30831185 0.01290716
0.27031040 0.30895223 0.01344212
0.30015916 0.30960500 0.01399758
0.33002110 0.31027064 0.01457462
0.35989468 0.31094861 0.01516957
0.38978040 0.31163746 0.01577618
0.41967986 0.31233555 0.01638915
0.44959433 0.31304170 0.01700603
0.47952401 0.31375536 0.01762694
0.50946821 0.31447638 0.01825308
0.53942594 0.31520466 0.01888557
0.56939631 0.31594002 0.01952497
0.59937859 0.31668216 0.02017136
0.62937219 0.31743073 0.02082455
0.65937660 0.31818532 0.02148426
0.68939132 0.31894551 0.02215014
0.71941586 0.31971090 0.02282188
0.74944974 0.32048107 0.02349911
0.77949247 0.32125560 0.02418150
0.80954357 0.32203408 0.02486871
0.83960254 0.32281610 0.02556039
0.86966892 0.32360123 0.02625621
0.89974220 0.32438906 0.02695582
0.92982191 0.32517918 0.02765888
0.95990756 0.32597117 0.02836505
0.00398272 0.33475663 0.01057463
0.03372560 0.33534402 0.01106900
0.06348733 0.33594433 0.01157554
0.09326740 0.33655717 0.01209383
0.12306529 0.33718209 0.01262331
0.15288051 0.33781863 0.01316329
0.18271269 0.33846631 0.01371301
0.21256156 0.33912460 0.01427189
0.24242691 0.33979308 0.01483998
0.27230834 0.34047143 0.01541808
0.30220508 0.34115952 0.01600744
0.33211604 0.34185724 0.01660881
0.36204020 0.34256431 0.01722177
0.39197697 0.34328021 0.01784477
0.42192621 0.34400422 0.01847590
0.45188792 0.34473566 0.01911376
0.48186197 0.34547398 0.01975771
0.51184795 0.34621877 0.02040768
0.54184531 0.34696970 0.02106375
0.57185343 0.34772643 0.02172591
0.60187174 0.34848858 0.02239402
0.63189973 0.34925576 0.02306781
0.66193688 0.35002757 0.02374696
0.69198272 0.35080359 0.02443115
0.72203674 0.35158340 0.02512003
0.75209846 0.35236660 0.02581326
0.78216741 0.35315276 0.02651050
0.81224309 0.35394147 0.02721140
0.84232502 0.35473232 0.02791563
0.87241271 0.35552489 0.02862284
0.90250568 0.35631877 0.02933269
0.93260344 0.35711353 0.03004485
0.96270552 0.35790877 0.03075895
0.00566452 0.36604831 0.01228575
0.03546894 0.36667756 0.01281988
0.06529060 0.36731835 0.01336508
0.09512900 0.36797026 0.01392099
0.12498364 0.36863288 0.01448724
0.15485405 0.36930578 0.01506343
0.18473973 0.36998854 0.01564914
0.21464024 0.37068073 0.01624393
0.24455513 0.37138191 0.01684745
0.27448397 0.37209167 0.01745951
0.30442629 0.37280964 0.01808006
0.33438151 0.37353545 0.01870909
0.36434902 0.37426875 0.01934643
0.39432825 0.37500913 0.01999162
0.42431872 0.37575614 0.02064400
0.45432003 0.37650930 0.02130291
0.48433179 0.37726814 0.02196782
0.51435356 0.37803225 0.02263839
0.54438486 0.37880121 0.02331435
0.57442520 0.37957461 0.02399545
0.60447405 0.38035207 0.02468141
0.63453093 0.38113316 0.02537192
0.66459534 0.38191749 0.02606665
0.69466679 0.38270463 0.02676526
0.72474480 0.38349417 0.02746742
0.75482889 0.38428569 0.02817277
0.78491856 0.38507878 0.02888099
0.81501333 0.38587303 0.02959172
0.84511272 0.38666801 0.03030462
0.87521624 0.38746332 0.03101935
0.90532340 0.38825853 0.03173558
0.93543373 0.38905324 0.03245295
0.96554673 0.38984702 0.03317112
0.00754683 0.39747528 0.01412600
0.03740729 0.39814169 0.01469601
0.06728336 0.39881825 0.01527594
0.09717454 0.39950453 0.01586544
0.12708035 0.40020012 0.01646416
0.15700030 0.40090460 0.01707177
0.18693391 0.40161757 0.01768791
0.21688069 0.40233859 0.01831221
0.24684016 0.40306726 0.01894432
0.27681185 0.40380315 0.01958391
0.30679528 0.40454585 0.02023067
0.33678997 0.40529495 0.02088432
0.36679540 0.40605005 0.02154458
0.39681107 0.40681075 0.02221111
0.42683649 0.40757661 0.02288353
0.45687118 0.40834723 0.02356145
0.48691467 0.40912217 0.02424446
0.51696648 0.40990102 0.02493220
0.54702614 0.41068335 0.02562434
0.57709316 0.41146875 0.02632054
0.60716705 0.41225681 0.02702050
0.63724733 0.41304713 0.02772386
0.66733350 0.41383927 0.02843030
0.69742508 0.41463283 0.02913946
0.72752159 0.41542739 0.02985102
0.75762254 0.41622254 0.03056463
0.78772744 0.41701786 0.03127995
0.81783582 0.41781294 0.03199663
0.84794717 0.41860736 0.03271433
0.87806103 0.41940070 0.03343272
0.90817690 0.42019255 0.03415144
0.93829430 0.42098250 0.03487016
0.96841274 0.42177012 0.03558854
0.00961117 0.42902171 0.01608236
0.03952219 0.42972059 0.01668437
0.06944718 0.43042821 0.01729515
0.09938564 0.43114416 0.01791435
0.12933711 0.43186802 0.01854164
0.15930109 0.43259938 0.01917666
0.18927709 0.43333782 0.01981908
0.21926464 0.43408293 0.02046855
0.24926324 0.43483429 0.02112473
0.27927241 0.43559149 0.02178727
0.30929167 0.43635410 0.02245584
0.33932054 0.43712172 0.02313010
0.36935852 0.43789392 0.02380971
0.39940514 0.43867031 0.02449434
0.42945989 0.43945045 0.02518366
0.45952230 0.44023394 0.02587730
0.48959188 0.44102036 0.02657492
0.51966816 0.44180930 0.02727617
0.54975063 0.44260032 0.02798070
0.57983883 0.44339303 0.02868818
0.60993226 0.44418701 0.02939826
0.64003044 0.44498183 0.03011060
0.67013289 0.44577709 0.03082487
0.70023911 0.44657237 0.03154073
0.73034863 0.44736726 0.03225782
0.76046095 0.44816133 0.03297581
0.79057559 0.44895418 0.03369436
0.82069208 0.44974538 0.03441312
0.85080991 0.45053453 0.03513176
0.88092861 0.45132121 0.03584992
0.91104770 0.45210500 0.03656727
0.94116667 0.45288548 0.03728347
0.97128506 0.45366225 0.03799817
0.01183908 0.46067180 0.01814181
0.04179516 0.46139844 0.01877195
0.07176357 0.46213242 0.01940971
0.10174384 0.46287334 0.02005474
0.13173546 0.46362078 0.02070670
0.16173797 0.46437431 0.02136526
0.19175087 0.46513353 0.02203006
0.22177368 0.46589801 0.02270076
0.25180592 0.46666735 0.02337703
0.28184710 0.46744113 0.02405852
0.31189672 0.46821893 0.02474488
0.34195432 0.46900034 0.02543579
0.37201940 0.46978494 0.02613088
0.40209148 0.47057232 0.02682984
0.43217007 0.47136206 0.02753230
0.46225469 0.47215375 0.02823794
0.49234485 0.47294696 0.02894640
0.52244007 0.47374130 0.02965735
0.55253986 0.47453633 0.03037044
0.58264373 0.47533164 0.03108532
0.61275121 0.47612683 0.03180167
0.64286181 0.47692146 0.03251913
0.67297503 0.47771514 0.03323736
0.70309040 0.47850744 0.03395603
0.73320743 0.47929794 0.03467478
0.76332564 0.48008624 0.03539329
0.79344454 0.48087191 0.03611119
0.82356364 0.48165455 0.03682816
0.85368246 0.48243373 0.03754386
0.88380051 0.48320904 0.03825793
0.91391732 0.48398006 0.03897004
0.94403238 0.48474639 0.03967984
0.97414523 0.48550760 0.04038700
0.01421208 0.49240972 0.02029131
0.04420773 0.49315943 0.02094571
0.07421408 0.49391508 0.02160658
0.10423064 0.49467626 0.02227357
0.13425694 0.49544256 0.02294634
0.16429249 0.49621357 0.02362455
0.19433680 0.49698886 0.02430786
0.22438938 0.49776802 0.02499592
0.25444976 0.49855064 0.02568839
0.28451745 0.49933630 0.02638493
0.31459195 0.50012459 0.02708521
0.34467279 0.50091508 0.02778886
0.37475948 0.50170738 0.02849556
0.40485154 0.50250105 0.02920497
0.43494848 0.50329568 0.02991673
0.46504982 0.50409086 0.03063051
0.49515506 0.50488618 0.03134597
0.52526373 0.50568121 0.03206276
0.55537534 0.50647555 0.03278054
0.58548940 0.50726877 0.03349897
0.61560543 0.50806046 0.03421771
0.64572294 0.50885021 0.03493641
0.67584146 0.50963760 0.03565474
0.70596048 0.51042222 0.03637234
0.73607954 0.51120364 0.03708889
0.76619814 0.51198146 0.03780403
0.79631579 0.51275526 0.03851743
0.82643202 0.51352462 0.03922873
0.85654634 0.51428913 0.03993761
0.88665825 0.51504837 0.04064372
0.91676729 0.51580193 0.04134671
0.94687295 0.51654939 0.04204625
0.97697477 0.51729034 0.04274199
0.01671170 0.52421967 0.02251785
0.04674143 0.52498773 0.02319264
0.07678022 0.52576035 0.02387275
0.10682760 0.52653710 0.02455782
0.13688308 0.52731757 0.02524753
0.16694617 0.52810134 0.02594152
0.19701639 0.52888801 0.02663947
0.22709326 0.52967715 0.02734101
0.25717629 0.53046834 0.02804581
0.28726499 0.53126118 0.02875354
0.31735888 0.53205525 0.02946384
0.34745748 0.53285014 0.03017638
0.37756029 0.53364541 0.03089081
0.40766684 0.53444068 0.03160679
0.43777663 0.53523550 0.03232398
0.46788919 0.53602948 0.03304204
0.49800402 0.53682219 0.03376062
0.52812065 0.53761323 0.03447938
0.55823859 0.53840217 0.03519799
0.58835734 0.53918860 0.03591609
0.61847644 0.53997210 0.03663335
0.64859538 0.54075226 0.03734943
0.67871369 0.54152866 0.03806397
0.70883089 0.54230089 0.03877665
0.73894647 0.54306853 0.03948711
0.76905997 0.54383118 0.04019502
0.79917090 0.54458840 0.04090003
0.82927876 0.54533978 0.04160181
0.85938308 0.54608492 0.04230000
0.88948337 0.54682340 0.04299427
0.91957914 0.54755479 0.04368428
0.94966991 0.54827869 0.04436968
0.97975520 0.54899467 0.04505013
0.01931947 0.55608583 0.02480840
0.04937778 0.55686755 0.02549971
0.07944352 0.55765243 0.02619518
0.10951622 0.55844004 0.02689447
0.13959539 0.55922998 0.02759724
0.16968054 0.56002182 0.02830315
0.19977119 0.56081516 0.02901185
0.22986685 0.56160957 0.02972301
0.25996703 0.56240464 0.03043628
0.29007126 0.56319996 0.03115131
0.32017905 0.56399512 0.03186777
0.35028990 0.56478968 0.03258532
0.38040335 0.56558325 0.03330361
0.41051889 0.56637540 0.03402229
0.44063605 0.56716572 0.03474104
0.47075434 0.56795379 0.03545950
0.50087328 0.56873920 0.03617734
0.53099237 0.56952153 0.03689420
0.56111114 0.57030037 0.03760976
0.59122910 0.57107531 0.03832367
0.62134577 0.57184592 0.03903558
0.65146065 0.57261179 0.03974515
0.68157327 0.57337250 0.04045204
0.71168313 0.57412765 0.04115592
0.74178976 0.57487681 0.04185643
0.77189267 0.57561957 0.04255323
0.80199137 0.57635551 0.04324599
0.83208538 0.57708422 0.04393436
0.86217421 0.57780529 0.04461800
0.89225738 0.57851829 0.04529656
0.92233440 0.57922282 0.04596971
0.95240478 0.57991845 0.04663710
0.98246805 0.58060477 0.04729839
0.02201691 0.58799238 0.02714994
0.05209831 0.58878306 0.02785389
0.08218552 0.58957549 0.02856086
0.11227804 0.59036927 0.02927049
0.14237541 0.59116397 0.02998246
0.17247712 0.59195919 0.03069641
0.20258270 0.59275449 0.03141200
0.23269166 0.59354948 0.03212890
0.26280352 0.59434373 0.03284675
0.29291778 0.59513683 0.03356523
0.32303397 0.59592836 0.03428397
0.35315160 0.59671791 0.03500266
0.38327018 0.59750506 0.03572093
0.41338923 0.59828940 0.03643845
0.44350826 0.59907051 0.03715488
0.47362679 0.59984797 0.03786988
0.50374434 0.60062138 0.03858310
0.53386041 0.60139031 0.03929419
0.56397452 0.60215435 0.04000283
0.59408620 0.60291309 0.04070867
0.62419494 0.60366610 0.04141136
0.65430027 0.60441298 0.04211056
0.68440170 0.60515331 0.04280593
0.71449875 0.60588667 0.04349713
0.74459093 0.60661264 0.04418381
0.77467776 0.60733082 0.04486564
0.80475874 0.60804079 0.04554228
0.83483340 0.60874212 0.04621337
0.86490126 0.60943441 0.04687858
0.89496181 0.61011725 0.04753756
0.92501459 0.61079020 0.04818998
0.95505910 0.61145287 0.04883549
0.98509486 0.61210483 0.04947375
0.02478554 0.61992351 0.02952944
0.05488455 0.62071844 0.03024217
0.08498773 0.62151374 0.03095676
0.11509459 0.62230898 0.03167286
0.14520466 0.62310374 0.03239015
0.17531745 0.62389762 0.03310827
0.20543247 0.62469020 0.03382688
0.23554924 0.62548106 0.03454565
0.26566727 0.62626978 0.03526422
0.29578608 0.62705596 0.03598226
0.32590518 0.62783917 0.03669942
0.35602408 0.62861900 0.03741537
0.38614231 0.62939504 0.03812976
0.41625938 0.63016686 0.03884224
0.44637479 0.63093406 0.03955249
0.47648807 0.63169622 0.04026014
0.50659874 0.63245292 0.04096487
0.53670629 0.63320375 0.04166633
0.56681026 0.63394829 0.04236418
0.59691015 0.63468613 0.04305807
0.62700549 0.63541685 0.04374767
0.65709577 0.63614003 0.04443262
0.68718053 0.63685527 0.04511260
0.71725927 0.63756214 0.04578726
0.74733151 0.63826023 0.04645625
0.77739676 0.63894913 0.04711923
0.80745454 0.63962841 0.04777586
0.83750436 0.64029767 0.04842581
0.86754574 0.64095649 0.04906872
0.89757820 0.64160444 0.04970425
0.92760124 0.64224113 0.05033207
0.95761438 0.64286613 0.05095183
0.98761714 0.64347902 0.05156318
0.02760691 0.65186340 0.03193388
0.05771802 0.65265789 0.03265151
0.08783168 0.65345134 0.03336985
0.11794739 0.65424334 0.03408856
0.14806468 0.65503347 0.03480729
0.17818305 0.65582132 0.03552571
0.20830202 0.65660646 0.03624347
0.23842110 0.65738849 0.03696023
0.26853982 0.65816699 0.03767565
0.29865768 0.65894154 0.03838939
0.32877420 0.65971173 0.03910110
0.35888889 0.66047714 0.03981044
0.38900128 0.66123736 0.04051707
0.41911087 0.66199197 0.04122065
0.44921717 0.66274056 0.04192083
0.47931971 0.66348271 0.04261728
0.50941800 0.66421800 0.04330964
0.53951155 0.66494603 0.04399759
0.56959988 0.66566637 0.04468077
0.59968250 0.66637860 0.04535885
0.62975893 0.66708233 0.04603149
0.65982868 0.66777712 0.04669833
0.68989127 0.66846256 0.04735904
0.71994621 0.66913825 0.04801328
0.74999302 0.66980375 0.04866070
0.78003120 0.67045866 0.04930096
0.81006029 0.67110257 0.04993373
0.84007978 0.67173505 0.05055865
0.87008920 0.67235569 0.05117539
0.90008806 0.67296407 0.05178360
