assets/luts/DB_Forest_Rain_Rec709_100.cube
TITLE "Forest Rain Rec709 100"
# Red changes fastest. Full-range normalized input.
LUT_3D_SIZE 33
DOMAIN_MIN 0 0 0
DOMAIN_MAX 1 1 1
0.00800000 0.00800000 0.00800000
0.03510792 0.00730324 0.00728082
0.06278936 0.00649016 0.00644453
0.09059061 0.00571715 0.00564467
0.11789033 0.00519832 0.00508903
0.14430781 0.00506389 0.00490212
0.16995080 0.00527479 0.00504383
0.19528664 0.00566771 0.00535495
0.22079553 0.00607533 0.00567410
0.24672339 0.00641166 0.00591941
0.27307152 0.00667534 0.00609057
0.29972415 0.00690535 0.00622576
0.32656412 0.00714107 0.00636306
0.35351782 0.00740677 0.00652589
0.38055056 0.00771323 0.00672467
0.40764907 0.00806387 0.00696276
0.43480873 0.00845913 0.00724068
0.46202770 0.00889846 0.00755801
0.48930481 0.00938110 0.00791415
0.51663908 0.00990624 0.00830841
0.54402951 0.01047304 0.00874012
0.57147515 0.01108067 0.00920858
0.59897502 0.01172830 0.00971311
0.62652816 0.01241509 0.01025304
0.65413358 0.01314023 0.01082766
0.68179032 0.01390287 0.01143631
0.70949742 0.01470220 0.01207830
0.73725390 0.01553736 0.01275294
0.76505878 0.01640755 0.01345954
0.79291110 0.01731192 0.01419743
0.82080990 0.01824964 0.01496592
0.84875419 0.01921988 0.01576433
0.87674300 0.02022182 0.01659197
0.00419406 0.03426196 0.00616052
0.03139861 0.03372972 0.00514938
0.05947011 0.03297426 0.00390760
0.08811335 0.03212239 0.00270876
0.11657370 0.03145515 0.00194950
0.14406026 0.03124771 0.00191431
0.17028108 0.03158228 0.00258213
0.19560601 0.03230349 0.00364991
0.22073873 0.03314680 0.00474367
0.24624689 0.03390794 0.00562408
0.27233670 0.03451797 0.00624363
0.29893044 0.03500972 0.00667540
0.32585464 0.03544799 0.00701736
0.35296662 0.03588438 0.00734023
0.38018637 0.03634692 0.00768055
0.40747930 0.03684695 0.00805278
0.43483305 0.03738773 0.00846119
0.46224351 0.03796956 0.00890643
0.48970898 0.03859186 0.00938812
0.51722835 0.03925384 0.00990562
0.54480063 0.03995470 0.01045826
0.57242485 0.04069358 0.01104535
0.60010004 0.04146968 0.01166621
0.62782522 0.04228215 0.01232017
0.65559943 0.04313016 0.01300652
0.68342170 0.04401288 0.01372460
0.71129106 0.04492949 0.01447371
0.73920653 0.04587915 0.01525317
0.76716714 0.04686103 0.01606230
0.79517193 0.04787429 0.01690040
0.82321992 0.04891812 0.01776681
0.85131014 0.04999167 0.01866083
0.87944163 0.05109413 0.01958178
0.00133384 0.06115385 0.00522013
0.02839997 0.06086052 0.00402251
0.05636092 0.06030097 0.00237542
0.08524359 0.05951131 0.00058711
0.11395057 0.05882403 0.00000000
0.14210066 0.05855194 0.00000000
0.17021102 0.05864495 0.00000000
0.19645149 0.05941856 0.00147480
0.22161983 0.06058240 0.00348110
0.24682290 0.06175772 0.00524717
0.27257756 0.06275855 0.00655155
0.29898519 0.06356061 0.00743886
0.32589439 0.06423072 0.00806660
0.35310714 0.06484760 0.00858000
0.38048404 0.06546433 0.00906764
0.40795428 0.06610671 0.00957023
0.43548952 0.06678424 0.01010237
0.46308012 0.06749929 0.01066798
0.49072289 0.06825186 0.01126750
0.51841638 0.06904130 0.01190050
0.54615952 0.06986680 0.01256633
0.57395134 0.07072755 0.01326431
0.60179087 0.07162271 0.01399376
0.62967712 0.07255144 0.01475400
0.65760914 0.07351293 0.01554434
0.68558595 0.07450633 0.01636410
0.71360657 0.07553082 0.01721259
0.74167005 0.07658556 0.01808913
0.76977541 0.07766974 0.01899304
0.79792168 0.07878250 0.01992362
0.82610789 0.07992303 0.02088020
0.85433307 0.08109049 0.02186210
0.88259624 0.08228406 0.02286862
0.00000000 0.08842754 0.00575658
0.02640414 0.08861800 0.00423732
0.05399475 0.08838036 0.00259553
0.08250228 0.08786972 0.00052497
0.11135912 0.08719492 0.00000000
0.13983498 0.08686255 0.00000000
0.16812933 0.08699257 0.00000000
0.19644388 0.08750617 0.00000000
0.22249275 0.08869437 0.00235145
0.24789378 0.09010773 0.00491021
0.27354391 0.09142899 0.00697838
0.29979875 0.09253637 0.00844440
0.32664797 0.09345275 0.00945089
0.35391149 0.09425991 0.01020264
0.38141188 0.09503142 0.01085374
0.40903904 0.09581069 0.01148724
0.43674174 0.09661678 0.01213772
0.46450072 0.09745597 0.01281650
0.49230964 0.09832948 0.01352624
0.52016623 0.09923698 0.01426701
0.54806925 0.10017774 0.01503829
0.57601769 0.10115094 0.01583942
0.60401056 0.10215575 0.01666972
0.63204690 0.10319136 0.01752850
0.66012574 0.10425691 0.01841508
0.68824611 0.10535159 0.01932878
0.71640703 0.10647456 0.02026890
0.74460754 0.10762499 0.02123478
0.77284666 0.10880205 0.02222572
0.80112343 0.11000491 0.02324104
0.82943687 0.11123274 0.02428005
0.85778602 0.11248471 0.02534207
0.88616990 0.11375998 0.02642642
0.00000000 0.11606740 0.00744991
0.02543955 0.11690610 0.00547028
0.05276315 0.11701963 0.00433109
0.08071290 0.11692269 0.00261601
0.10941642 0.11662693 0.00067524
0.13841022 0.11628709 0.00000000
0.16712384 0.11630459 0.00000000
0.19564964 0.11677938 0.00010459
0.22260150 0.11782609 0.00245851
0.24876899 0.11921596 0.00524947
0.27478126 0.12066522 0.00779553
0.30113661 0.12197839 0.00976051
0.32801004 0.12310533 0.01115871
0.35532718 0.12409385 0.01217729
0.38293199 0.12501628 0.01300802
0.41069762 0.12592669 0.01377558
0.43855331 0.12685349 0.01454050
0.46646853 0.12780790 0.01532579
0.49443232 0.12879306 0.01613824
0.52244096 0.12980925 0.01697909
0.55049287 0.13085586 0.01784809
0.57858693 0.13193211 0.01874462
0.60672217 0.13303719 0.01966802
0.63489762 0.13417025 0.02061760
0.66311230 0.13533047 0.02159268
0.69136524 0.13651703 0.02259257
0.71965547 0.13772907 0.02361660
0.74798203 0.13896579 0.02466406
0.77634393 0.14022634 0.02573429
0.80474022 0.14150989 0.02682660
0.83316991 0.14281562 0.02794030
0.86163204 0.14414269 0.02907471
0.89012565 0.14549027 0.03022914
0.00000000 0.14449393 0.00894461
0.02530722 0.14566473 0.00717115
0.05261474 0.14607087 0.00673475
0.08023114 0.14637109 0.00581554
0.10833697 0.14652516 0.00451077
0.13694125 0.14658712 0.00322745
0.16575151 0.14672785 0.00257328
0.19426933 0.14716096 0.00303206
0.22210035 0.14800727 0.00464955
0.24922076 0.14921246 0.00700228
0.27595939 0.15059225 0.00947713
0.30273834 0.15195705 0.01161489
0.32982534 0.15320614 0.01326349
0.35727076 0.15433584 0.01450693
0.38499383 0.15539216 0.01550988
0.41289032 0.15642395 0.01640932
0.44088703 0.15746277 0.01728427
0.46894666 0.15852340 0.01816962
0.49705401 0.15961097 0.01907741
0.52520364 0.16072647 0.02001068
0.55339342 0.16186954 0.02096967
0.58162214 0.16303945 0.02195387
0.60988876 0.16423538 0.02296263
0.63819233 0.16545650 0.02399526
0.66653187 0.16670199 0.02505110
0.69490640 0.16797101 0.02612944
0.72331496 0.16926274 0.02722962
0.75175658 0.17057633 0.02835094
0.78023028 0.17191097 0.02949271
0.80873510 0.17326581 0.03065427
0.83727006 0.17464004 0.03183491
0.86583420 0.17603281 0.03303396
0.89442654 0.17744330 0.03425074
0.00000000 0.17364254 0.01019880
0.02580989 0.17487145 0.00904340
0.05326973 0.17548995 0.00918735
0.08085257 0.17608409 0.00905839
0.10866809 0.17661604 0.00862239
0.13679989 0.17707989 0.00801934
0.16520125 0.17753535 0.00758623
0.19365420 0.17810089 0.00772312
0.22187241 0.17889078 0.00865805
0.24968940 0.17993890 0.01029421
0.27716611 0.18117663 0.01227578
0.30452443 0.18248377 0.01421235
0.33198543 0.18376266 0.01587239
0.35965836 0.18497611 0.01722369
0.38753967 0.18613632 0.01835288
0.41557337 0.18727358 0.01936743
0.44370427 0.18841362 0.02034391
0.47189787 0.18957096 0.02132202
0.50013774 0.19075157 0.02231769
0.52841732 0.19195702 0.02333574
0.55673398 0.19318716 0.02437699
0.58508635 0.19444132 0.02544111
0.61347338 0.19571870 0.02652749
0.64189409 0.19701848 0.02763544
0.67034750 0.19833983 0.02876428
0.69883264 0.19968192 0.02991334
0.72734855 0.20104392 0.03108192
0.75589424 0.20242499 0.03226935
0.78446876 0.20382431 0.03347493
0.81307113 0.20524104 0.03469799
0.84170038 0.20667436 0.03593783
0.87035554 0.20812343 0.03719378
0.89903564 0.20958742 0.03846516
0.00000000 0.20347466 0.01123614
0.02686114 0.20451338 0.01108322
0.05451758 0.20528739 0.01158555
0.08223097 0.20607737 0.01198785
0.11004144 0.20686365 0.01223939
0.13800256 0.20763112 0.01235091
0.16613984 0.20838759 0.01244087
0.19440402 0.20917510 0.01271873
0.22267166 0.21005572 0.01338325
0.25081419 0.21107439 0.01449790
0.27878443 0.21222785 0.01594727
0.30664218 0.21346789 0.01751414
0.33450050 0.21473461 0.01900796
0.36244985 0.21598914 0.02034333
0.39052215 0.21722297 0.02153256
0.41870376 0.21844681 0.02263200
0.44696582 0.21967539 0.02369569
0.47528458 0.22091919 0.02475747
0.50364643 0.22218330 0.02583311
0.53204503 0.22346927 0.02692820
0.56047759 0.22477707 0.02804400
0.58894263 0.22610608 0.02918031
0.61743908 0.22745551 0.03033656
0.64596594 0.22882455 0.03151208
0.67452225 0.23021236 0.03270619
0.70310702 0.23161812 0.03391822
0.73171928 0.23304098 0.03514746
0.76035808 0.23448013 0.03639325
0.78902243 0.23593473 0.03765490
0.81771137 0.23740395 0.03893171
0.84642392 0.23888696 0.04022302
0.87515912 0.24038293 0.04152812
0.90391599 0.24189102 0.04284635
0.00064733 0.23370310 0.01268783
0.02844297 0.23457015 0.01337987
0.05628155 0.23547001 0.01408256
0.08416358 0.23639847 0.01477316
0.11209758 0.23734830 0.01542369
0.14010207 0.23831092 0.01601776
0.16819713 0.23928227 0.01657603
0.19638501 0.24027027 0.01716972
0.22463483 0.24129618 0.01789845
0.25289191 0.24238460 0.01883543
0.28111117 0.24354728 0.01997925
0.30928702 0.24477463 0.02125444
0.33745266 0.24604251 0.02256014
0.36565244 0.24732751 0.02382462
0.39391484 0.24861760 0.02502661
0.42224502 0.24991236 0.02618146
0.45063383 0.25121698 0.02731573
0.47906938 0.25253670 0.02845061
0.50754299 0.25387457 0.02959781
0.53604979 0.25523160 0.03076208
0.56458729 0.25660765 0.03194465
0.59315403 0.25800211 0.03314540
0.62174892 0.25941419 0.03436378
0.65037095 0.26084309 0.03559913
0.67901916 0.26228796 0.03685077
0.70769258 0.26374797 0.03811802
0.73639022 0.26522231 0.03940019
0.76511113 0.26671013 0.04069660
0.79385434 0.26821061 0.04200656
0.82261886 0.26972291 0.04332939
0.85140373 0.27124621 0.04466441
0.88020799 0.27277967 0.04601093
0.90903065 0.27432246 0.04736827
0.00258863 0.26403480 0.01518302
0.03054433 0.26501391 0.01598746
0.05854296 0.26602429 0.01681653
0.08658312 0.26706445 0.01766358
0.11466493 0.26813201 0.01851851
0.14279171 0.26922365 0.01937089
0.17096991 0.27033612 0.02021803
0.19920479 0.27146875 0.02107403
0.22749345 0.27262555 0.02197092
0.25582164 0.27381435 0.02294495
0.28416987 0.27504213 0.02401472
0.31252565 0.27630986 0.02516822
0.34089099 0.27761137 0.02637053
0.36927864 0.27893719 0.02758516
0.39770179 0.28027982 0.02879122
0.42616679 0.28163610 0.02998617
0.45467278 0.28300630 0.03117787
0.48321544 0.28439185 0.03237566
0.51179042 0.28579380 0.03358585
0.54039463 0.28721240 0.03481134
0.56902614 0.28864728 0.03605291
0.59768360 0.29009778 0.03731035
0.62636594 0.29156311 0.03858312
0.65507217 0.29304245 0.03987055
0.68380130 0.29453498 0.04117197
0.71255238 0.29603986 0.04248670
0.74132443 0.29755626 0.04381405
0.77011647 0.29908335 0.04515333
0.79892754 0.30062031 0.04650387
0.82775666 0.30216629 0.04786498
0.85660288 0.30372047 0.04923597
0.88546520 0.30528202 0.05061616
0.91434268 0.30685011 0.05200487
0.00503976 0.29473211 0.01801125
0.03314134 0.29581374 0.01891249
0.06128366 0.29692403 0.01983975
0.08946552 0.29806205 0.02079115
0.11768588 0.29922669 0.02176371
0.14594430 0.30041658 0.02275356
0.17424137 0.30163011 0.02375745
0.20257836 0.30286593 0.02477566
0.23095566 0.30412369 0.02581433
0.25937081 0.30540445 0.02688424
0.28781832 0.30671000 0.02799516
0.31629220 0.30804128 0.02914925
0.34478936 0.30939722 0.03033913
0.37331079 0.31077492 0.03155237
0.40185972 0.31217110 0.03277831
0.43043866 0.31358340 0.03401207
0.45904802 0.31501072 0.03525387
0.48768641 0.31645276 0.03650616
0.51635189 0.31790931 0.03777115
0.54504262 0.31938004 0.03904995
0.57375718 0.32086433 0.04034272
0.60249439 0.32236146 0.04164910
0.63125321 0.32387064 0.04296851
0.66003264 0.32539103 0.04430029
0.68883172 0.32692180 0.04564375
0.71764948 0.32846214 0.04699822
0.74648494 0.33001121 0.04836300
0.77533713 0.33156817 0.04973742
0.80420508 0.33313220 0.05112079
0.83308783 0.33470246 0.05251243
0.86198440 0.33627813 0.05391165
0.89089382 0.33785837 0.05531776
0.91981512 0.33944235 0.05673010
0.00796544 0.32576326 0.02114926
0.03620121 0.32693803 0.02213800
0.06447467 0.32813867 0.02315109
0.09278480 0.32936434 0.02418766
0.12113057 0.33061418 0.02524662
0.14951103 0.33188727 0.02632658
0.17792539 0.33318261 0.02742601
0.20637312 0.33449920 0.02854378
0.23485382 0.33583615 0.02967995
0.26336668 0.33719286 0.03083617
0.29191016 0.33856904 0.03201488
0.32048208 0.33996448 0.03321762
0.34908041 0.34137863 0.03444354
0.37770395 0.34281042 0.03568954
0.40635242 0.34425844 0.03695181
0.43502585 0.34572131 0.03822752
0.46372394 0.34719795 0.03951542
0.49244591 0.34868755 0.04081536
0.52119061 0.35018941 0.04212750
0.54995685 0.35170286 0.04345183
0.57874349 0.35322716 0.04478804
0.60754946 0.35476152 0.04613562
0.63637377 0.35630513 0.04749392
0.66521543 0.35785717 0.04886230
0.69407347 0.35941680 0.05024005
0.72294693 0.36098319 0.05162651
0.75183482 0.36255552 0.05302099
0.78073618 0.36413295 0.05442280
0.80965003 0.36571465 0.05583126
0.83857542 0.36729979 0.05724568
0.86751136 0.36888753 0.05866539
0.89645689 0.37047706 0.06008969
0.92541103 0.37206753 0.06151791
0.01132904 0.35709663 0.02457150
0.03968789 0.35835512 0.02563977
0.06808120 0.35963670 0.02673016
0.09650799 0.36094052 0.02784197
0.12496729 0.36226575 0.02897447
0.15345810 0.36361156 0.03012686
0.18197947 0.36497708 0.03129827
0.21053047 0.36636146 0.03248786
0.23911025 0.36776382 0.03369491
0.26771794 0.36918334 0.03491902
0.29635257 0.37061927 0.03616012
0.32501301 0.37207089 0.03741818
0.35369804 0.37353749 0.03869287
0.38240650 0.37501825 0.03998324
0.41113744 0.37651227 0.04128801
0.43989006 0.37801859 0.04260582
0.46866358 0.37953629 0.04393565
0.49745712 0.38106450 0.04527678
0.52626973 0.38260241 0.04662870
0.55510040 0.38414922 0.04799090
0.58394811 0.38570413 0.04936282
0.61281186 0.38726633 0.05074384
0.64169068 0.38883498 0.05213330
0.67058359 0.39040926 0.05353053
0.69948961 0.39198834 0.05493484
0.72840778 0.39357138 0.05634555
0.75733712 0.39515757 0.05776197
0.78627666 0.39674606 0.05918343
0.81522544 0.39833603 0.06060924
0.84418248 0.39992664 0.06203871
0.87314681 0.40151707 0.06347115
0.90211746 0.40310648 0.06490590
0.93109347 0.40469404 0.06634225
0.01509366 0.38870056 0.02825201
0.04356459 0.39003338 0.02939202
0.07206672 0.39138649 0.03055187
0.10059909 0.39275905 0.03173087
0.12916071 0.39415024 0.03292833
0.15775061 0.39555921 0.03414355
0.18636782 0.39698514 0.03537582
0.21501138 0.39842718 0.03662442
0.24368033 0.39988451 0.03788865
0.27237371 0.40135629 0.03916782
0.30109057 0.40284169 0.04046134
0.32982993 0.40433990 0.04176865
0.35859079 0.40585011 0.04308916
0.38737214 0.40737149 0.04442221
0.41617299 0.40890323 0.04576706
0.44499236 0.41044446 0.04712289
0.47382933 0.41199434 0.04848891
0.50268296 0.41355203 0.04986440
0.53155228 0.41511669 0.05124867
0.56043632 0.41668750 0.05264109
0.58933410 0.41826363 0.05404099
0.61824465 0.41984425 0.05544772
0.64716700 0.42142854 0.05686059
0.67610017 0.42301566 0.05827893
0.70504318 0.42460478 0.05970205
0.73399508 0.42619508 0.06112927
0.76295489 0.42778572 0.06255990
0.79192163 0.42937588 0.06399326
0.82089435 0.43096471 0.06542867
0.84987206 0.43255140 0.06686544
0.87885380 0.43413510 0.06830289
0.90783860 0.43571499 0.06974033
0.93682548 0.43729024 0.07117708
0.01922235 0.42054342 0.03216473
0.04779438 0.42194118 0.03336875
0.07639435 0.42335642 0.03459030
0.10502129 0.42478832 0.03582871
0.13367422 0.42623605 0.03708328
0.16235217 0.42769877 0.03835332
0.19105418 0.42917565 0.03963816
0.21977927 0.43066587 0.04093711
0.24852647 0.43216859 0.04224946
0.27729482 0.43368297 0.04357455
0.30608334 0.43520820 0.04491168
0.33489108 0.43674343 0.04626019
0.36371704 0.43828785 0.04761942
0.39256027 0.43984062 0.04898869
0.42141978 0.44140091 0.05036731
0.45029460 0.44296789 0.05175460
0.47918377 0.44454073 0.05314984
0.50808631 0.44611859 0.05455233
0.53700127 0.44770065 0.05596140
0.56592766 0.44928606 0.05737635
0.59486452 0.45087401 0.05879651
0.62381089 0.45246366 0.06022121
0.65276577 0.45405418 0.06164975
0.68172822 0.45564474 0.06308145
0.71069725 0.45723451 0.06451564
0.73967190 0.45882266 0.06595162
0.76865119 0.46040835 0.06738872
0.79763415 0.46199077 0.06882624
0.82661982 0.46356906 0.07026351
0.85560723 0.46514242 0.07169984
0.88459539 0.46671000 0.07313454
0.91358335 0.46827097 0.07456694
0.94257013 0.46982450 0.07599634
0.02367817 0.45259360 0.03628362
0.05234032 0.45404688 0.03754390
0.08102714 0.45551485 0.03881942
0.10973767 0.45699668 0.04010948
0.13847093 0.45849155 0.04141341
0.16722594 0.45999862 0.04273051
0.19600175 0.46151705 0.04406011
0.22479737 0.46304603 0.04540152
0.25361184 0.46458471 0.04675406
0.28244419 0.46613226 0.04811704
0.31129345 0.46768787 0.04948977
0.34015864 0.46925069 0.05087157
0.36903880 0.47081989 0.05226177
0.39793296 0.47239464 0.05365967
0.42684014 0.47397412 0.05506460
0.45575938 0.47555750 0.05647588
0.48468970 0.47714393 0.05789280
0.51363014 0.47873259 0.05931470
0.54257972 0.48032266 0.06074087
0.57153747 0.48191329 0.06217065
0.60050242 0.48350365 0.06360334
0.62947361 0.48509293 0.06503826
0.65845006 0.48668028 0.06647473
0.68743080 0.48826488 0.06791206
0.71641487 0.48984589 0.06934957
0.74540128 0.49142248 0.07078657
0.77438907 0.49299383 0.07222239
0.80337727 0.49455910 0.07365633
0.83236491 0.49611746 0.07508771
0.86135102 0.49766808 0.07651586
0.89033463 0.49921013 0.07794007
0.91931477 0.50074278 0.07935968
0.94829046 0.50226519 0.08077399
0.02842417 0.48481945 0.04058262
0.05716546 0.48631885 0.04189143
0.08592815 0.48783015 0.04321316
0.11471129 0.48935252 0.04454714
0.14351389 0.49088512 0.04589268
0.17233498 0.49242713 0.04724910
0.20117360 0.49397772 0.04861572
0.23002877 0.49553604 0.04999184
0.25889952 0.49710128 0.05137678
0.28778489 0.49867260 0.05276987
0.31668390 0.50024918 0.05417041
0.34559558 0.50183017 0.05557773
0.37451897 0.50341475 0.05699113
0.40345309 0.50500209 0.05840994
0.43239696 0.50659136 0.05983346
0.46134963 0.50818172 0.06126102
0.49031012 0.50977236 0.06269194
0.51927745 0.51136242 0.06412552
0.54825067 0.51295109 0.06556108
0.57722879 0.51453754 0.06699794
0.60621086 0.51612092 0.06843542
0.63519589 0.51770042 0.06987282
0.66418292 0.51927520 0.07130947
0.69317097 0.52084443 0.07274469
0.72215908 0.52240728 0.07417778
0.75114628 0.52396292 0.07560806
0.78013159 0.52551052 0.07703485
0.80911404 0.52704924 0.07845747
0.83809267 0.52857826 0.07987523
0.86706651 0.53009675 0.08128744
0.89603458 0.53160387 0.08269343
0.92499591 0.53309879 0.08409250
0.95394953 0.53458068 0.08548398
0.03342341 0.51718934 0.04503570
0.06223285 0.51872547 0.04638528
0.09106044 0.52027070 0.04774549
0.11990519 0.52182419 0.04911565
0.14876615 0.52338513 0.05049506
0.17764234 0.52495268 0.05188305
0.20653279 0.52652601 0.05327893
0.23543652 0.52810429 0.05468202
0.26435258 0.52968669 0.05609163
0.29327998 0.53127237 0.05750708
0.32221776 0.53286051 0.05892768
0.35116495 0.53445027 0.06035276
0.38012058 0.53604083 0.06178162
0.40908367 0.53763135 0.06321358
0.43805326 0.53922101 0.06464796
0.46702838 0.54080896 0.06608408
0.49600805 0.54239439 0.06752124
0.52499131 0.54397646 0.06895877
0.55397717 0.54555433 0.07039598
0.58296469 0.54712719 0.07183219
0.61195288 0.54869419 0.07326670
0.64094076 0.55025451 0.07469885
0.66992739 0.55180732 0.07612794
0.69891177 0.55335178 0.07755330
0.72789295 0.55488707 0.07897422
0.75686994 0.55641235 0.08039004
0.78584179 0.55792679 0.08180007
0.81480752 0.55942957 0.08320362
0.84376616 0.56091984 0.08460001
0.87271673 0.56239679 0.08598855
0.90165828 0.56385958 0.08736856
0.93058982 0.56530737 0.08873936
0.95951040 0.56673935 0.09010026
0.03863894 0.54967166 0.04961681
0.06750555 0.55123510 0.05099942
0.09638704 0.55280485 0.05239036
0.12528244 0.55438008 0.05378895
0.15419078 0.55595995 0.05519449
0.18311108 0.55754364 0.05660630
0.21204237 0.55913031 0.05802371
0.24098369 0.56071914 0.05944602
0.26993406 0.56230929 0.06087255
0.29889252 0.56389993 0.06230262
0.32785809 0.56549023 0.06373554
0.35682981 0.56707936 0.06517064
0.38580669 0.56866650 0.06660721
0.41478778 0.57025080 0.06804459
0.44377210 0.57183143 0.06948208
0.47275868 0.57340758 0.07091900
0.50174655 0.57497840 0.07235467
0.53073474 0.57654307 0.07378841
0.55972228 0.57810075 0.07521952
0.58870820 0.57965061 0.07664733
0.61769153 0.58119183 0.07807115
0.64667130 0.58272357 0.07949030
0.67564653 0.58424500 0.08090409
0.70461626 0.58575529 0.08231184
0.73357952 0.58725361 0.08371286
0.76253534 0.58873913 0.08510647
0.79148274 0.59021102 0.08649198
0.82042076 0.59166845 0.08786872
0.84934842 0.59311058 0.08923600
0.87826476 0.59453658 0.09059313
0.90716880 0.59594563 0.09193942
0.93605957 0.59733690 0.09327420
0.96493611 0.59870955 0.09459679
0.04403381 0.58223476 0.05429988
0.07294662 0.58381612 0.05570779
0.10187103 0.58540099 0.05712172
0.13080609 0.58698854 0.05854099
0.15975082 0.58857795 0.05996492
0.18870425 0.59016837 0.06139282
0.21766540 0.59175898 0.06282400
0.24663332 0.59334896 0.06425779
0.27560703 0.59493746 0.06569350
0.30458556 0.59652365 0.06713045
0.33356794 0.59810672 0.06856795
0.36255319 0.59968582 0.07000531
0.39154036 0.60126012 0.07144186
0.42052846 0.60282880 0.07287691
0.44951652 0.60439102 0.07430977
0.47850359 0.60594595 0.07573976
0.50748867 0.60749276 0.07716619
0.53647082 0.60903062 0.07858839
0.56544905 0.61055871 0.08000566
0.59442239 0.61207618 0.08141733
0.62338988 0.61358221 0.08282271
0.65235054 0.61507596 0.08422111
0.68130340 0.61655662 0.08561186
0.71024750 0.61802334 0.08699426
0.73918186 0.61947529 0.08836763
0.76810551 0.62091165 0.08973129
0.79701748 0.62233158 0.09108455
0.82591681 0.62373425 0.09242674
0.85480251 0.62511883 0.09375716
0.88367362 0.62648449 0.09507513
0.91252918 0.62783041 0.09637996
0.94136820 0.62915574 0.09767098
0.97018972 0.63045966 0.09894750
0.04957109 0.61484702 0.05905889
0.07851910 0.61643689 0.06048434
0.10747545 0.61802748 0.06191351
0.13643918 0.61961795 0.06334573
0.16540932 0.62120749 0.06478030
0.19438490 0.62279524 0.06621654
0.22336494 0.62438040 0.06765376
0.25234848 0.62596211 0.06909129
0.28133454 0.62753956 0.07052844
0.31032216 0.62911191 0.07196452
0.33931036 0.63067834 0.07339885
0.36829817 0.63223800 0.07483074
0.39728463 0.63379007 0.07625952
0.42626876 0.63533372 0.07768449
0.45524959 0.63686812 0.07910497
0.48422615 0.63839244 0.08052029
0.51319747 0.63990584 0.08192975
0.54216259 0.64140750 0.08333266
0.57112052 0.64289658 0.08472836
0.60007031 0.64437225 0.08611614
0.62901097 0.64583369 0.08749533
0.65794155 0.64728006 0.08886525
0.68686106 0.64871054 0.09022520
0.71576854 0.65012428 0.09157451
0.74466301 0.65152046 0.09291249
0.77354352 0.65289825 0.09423846
0.80240908 0.65425682 0.09555173
0.83125872 0.65559534 0.09685161
0.86009149 0.65691297 0.09813743
0.88890639 0.65820889 0.09940850
0.91770248 0.65948226 0.10066414
0.94647876 0.66073226 0.10190365
0.97523428 0.66195805 0.10312637
0.05521381 0.64747680 0.06386777
0.08418604 0.64906578 0.06530302
0.11316336 0.65065269 0.06673970
0.14214478 0.65223668 0.06817712
0.17112935 0.65381694 0.06961459
0.20011609 0.65539263 0.07105142
0.22910403 0.65696292 0.07248694
0.25809221 0.65852698 0.07392047
0.28707964 0.66008397 0.07535130
0.31606536 0.66163308 0.07677877
0.34504840 0.66317346 0.07820219
0.37402779 0.66470428 0.07962087
0.40300256 0.66622472 0.08103413
0.43197173 0.66773394 0.08244129
0.46093435 0.66923112 0.08384166
0.48988943 0.67071541 0.08523455
0.51883600 0.67218600 0.08661929
0.54777311 0.67364205 0.08799518
0.57669976 0.67508273 0.08936155
0.60561501 0.67650721 0.09071771
0.63451787 0.67791466 0.09206297
0.66340737 0.67930424 0.09339666
0.69228254 0.68067513 0.09471808
0.72114242 0.68202649 0.09602655
0.74998604 0.68335750 0.09732140
0.77881241 0.68466733 0.09860193
0.80762058 0.68595513 0.09986746
0.83640956 0.68722009 0.10111730
0.86517840 0.68846137 0.10235078
0.89392612 0.68967814 0.10356721
