assets/luts/DB_Forest_Rain_Rec709_100.cube
TITLE "Forest Rain Rec709 100"
# Red changes fastest. Full-range normalized input.
LUT_3D_SIZE 5
DOMAIN_MIN 0 0 0
DOMAIN_MAX 1 1 1
0.00800000 0.00800000 0.00800000
0.22079553 0.00607533 0.00567410
0.43480873 0.00845913 0.00724068
0.65413358 0.01314023 0.01082766
0.87674300 0.02022182 0.01659197
0.00064733 0.23370310 0.01268783
0.22463483 0.24129618 0.01789845
0.45063383 0.25121698 0.02731573
0.67901916 0.26228796 0.03685077
0.90903065 0.27432246 0.04736827
0.02842417 0.48481945 0.04058262
0.25889952 0.49710128 0.05137678
0.49031012 0.50977236 0.06269194
0.72215908 0.52240728 0.07417778
0.95394953 0.53458068 0.08548398
0.07240524 0.74515500 0.07833319
0.30405101 0.75705475 0.08948701
0.53496051 0.76791272 0.09998335
0.76463685 0.77730353 0.10947188
0.99258316 0.78480180 0.11760230
0.11367699 0.99851486 0.11260753
0.35255160 1.00000000 0.13745265
0.58272323 1.00000000 0.16921510
0.79841990 1.00000000 0.20415234
0.99760519 1.00000000 0.24223361
0.00512073 0.00713489 0.22527807
0.21789572 0.00689013 0.22447681
0.43477797 0.00975328 0.22643294
0.65527402 0.01529729 0.23079863
0.87888587 0.02309734 0.23722268
0.00217456 0.23613818 0.23291760
0.22795721 0.24280553 0.23893878
0.45560710 0.25384529 0.24798267
0.68286087 0.26628750 0.25856808
0.91330707 0.27855450 0.26934513
0.03244364 0.48892037 0.26240821
0.26328931 0.50138145 0.27341400
0.49514583 0.51370390 0.28366177
0.72680435 0.52660769 0.29628014
0.95844988 0.53853439 0.30746062
0.07700963 0.74928663 0.30041307
0.30846108 0.76088029 0.31138289
0.53900751 0.77128771 0.32157626
0.76815204 0.78008351 0.33064285
0.99539781 0.78684230 0.33823236
0.11981664 1.00000000 0.33549908
0.36082433 1.00000000 0.35810060
0.58892726 1.00000000 0.38323364
0.80208414 1.00000000 0.41088175
0.99826167 1.00000000 0.44100503
0.00277273 0.00667718 0.44291443
0.21699792 0.00753575 0.44308870
0.43516390 0.01135667 0.44590299
0.65677381 0.01771454 0.45100699
0.88133077 0.02618399 0.45805039
0.00403859 0.23881591 0.45336517
0.22954511 0.24794842 0.46102778
0.45732215 0.25861147 0.47015243
0.68686905 0.27038223 0.48038690
0.91769276 0.28283264 0.49138306
0.03660882 0.49309858 0.48432056
0.26777288 0.50569094 0.49550685
0.50028792 0.51596115 0.50647472
0.73297157 0.52965806 0.51790947
0.96286676 0.54236912 0.52936240
0.08156695 0.75333051 0.52244380
0.31276677 0.76456902 0.53318922
0.54288908 0.77447646 0.54303544
0.77153308 0.78235023 0.55063674
0.99794663 0.78859369 0.55863825
0.12998518 1.00000000 0.55784326
0.36931188 1.00000000 0.57402545
0.59526094 1.00000000 0.59208471
0.80579400 1.00000000 0.61199603
0.99888103 1.00000000 0.63370984
0.00093654 0.00661017 0.66089583
0.21655575 0.00852247 0.66200595
0.43594703 0.01325264 0.66563712
0.65861349 0.02037532 0.67143903
0.88405826 0.02946511 0.67906137
0.00622102 0.24171926 0.67402175
0.23255390 0.25141958 0.68221986
0.46098731 0.26250677 0.69176053
0.69102438 0.27455543 0.70229347
0.92216825 0.28714020 0.71346834
0.04090025 0.49733743 0.70630596
0.27232368 0.51001175 0.71762756
0.50417613 0.52264183 0.72911340
0.73596185 0.53480159 0.74041368
0.96718057 0.54606828 0.75117565
0.08605774 0.75726999 0.74441167
0.31694862 0.76810428 0.75489227
0.54659621 0.77746328 0.76435874
0.77447467 0.78313619 0.77277330
1.00000000 0.78963320 0.77908880
0.14045081 1.00000000 0.77568114
0.37801072 1.00000000 0.78500153
0.60172115 1.00000000 0.79554147
0.80954525 1.00000000 0.80726574
0.99948008 1.00000000 0.81973128
0.00000000 0.00728113 0.87440405
0.21654863 0.00983417 0.88121395
0.43710789 0.01542455 0.88562160
0.66077359 0.02326297 0.89208102
0.88704887 0.03292404 0.90024189
0.00870301 0.24483162 0.89487358
0.23580496 0.25505062 0.90356691
0.46483870 0.26651204 0.91348384
0.69530737 0.27879047 0.92427407
0.92671408 0.29146054 0.93558726
0.04529846 0.50162024 0.92835069
0.27692330 0.51432726 0.93976730
0.50880842 0.52684568 0.95122903
0.74045694 0.53875010 0.96238557
0.97137199 0.54961515 0.97288660
0.09046253 0.76108838 0.96630294
0.32098717 0.77146941 0.97647834
0.55010057 0.78023081 0.98552038
0.77730583 0.78694714 0.99307891
1.00000000 0.79202688 0.99674319
0.15120978 1.00000000 0.98878770
0.38691745 1.00000000 0.99080272
0.60830493 1.00000000 0.99337656
0.81333980 1.00000000 0.99646582
1.00000000 1.00000000 1.00000000
