assets/luts/DB_Forest_Rain_Rec709_100.cube
TITLE "Forest Rain Rec709 100"
# Red changes fastest. Full-range normalized input.
LUT_3D_SIZE 9
DOMAIN_MIN 0 0 0
DOMAIN_MAX 1 1 1
0.00800000 0.00800000 0.00800000
0.11789033 0.00519832 0.00508903
0.22079553 0.00607533 0.00567410
0.32656412 0.00714107 0.00636306
0.43480873 0.00845913 0.00724068
0.54402951 0.01047304 0.00874012
0.65413358 0.01314023 0.01082766
0.76505878 0.01640755 0.01345954
0.87674300 0.02022182 0.01659197
0.00000000 0.11606740 0.00744991
0.10941642 0.11662693 0.00067524
0.22260150 0.11782609 0.00245851
0.32801004 0.12310533 0.01115871
0.43855331 0.12685349 0.01454050
0.55049287 0.13085586 0.01784809
0.66311230 0.13533047 0.02159268
0.77634393 0.14022634 0.02573429
0.89012565 0.14549027 0.03022914
0.00064733 0.23370310 0.01268783
0.11209758 0.23734830 0.01542369
0.22463483 0.24129618 0.01789845
0.33745266 0.24604251 0.02256014
0.45063383 0.25121698 0.02731573
0.56458729 0.25660765 0.03194465
0.67901916 0.26228796 0.03685077
0.79385434 0.26821061 0.04200656
0.90903065 0.27432246 0.04736827
0.01132904 0.35709663 0.02457150
0.12496729 0.36226575 0.02897447
0.23911025 0.36776382 0.03369491
0.35369804 0.37353749 0.03869287
0.46866358 0.37953629 0.04393565
0.58394811 0.38570413 0.04936282
0.69948961 0.39198834 0.05493484
0.81522544 0.39833603 0.06060924
0.93109347 0.40469404 0.06634225
0.02842417 0.48481945 0.04058262
0.14351389 0.49088512 0.04589268
0.25889952 0.49710128 0.05137678
0.37451897 0.50341475 0.05699113
0.49031012 0.50977236 0.06269194
0.60621086 0.51612092 0.06843542
0.72215908 0.52240728 0.07417778
0.83809267 0.52857826 0.07987523
0.95394953 0.53458068 0.08548398
0.04957109 0.61484702 0.05905889
0.16540932 0.62120749 0.06478030
0.28133454 0.62753956 0.07052844
0.39728463 0.63379007 0.07625952
0.51319747 0.63990584 0.08192975
0.62901097 0.64583369 0.08749533
0.74466301 0.65152046 0.09291249
0.86009149 0.65691297 0.09813743
0.97523428 0.66195805 0.10312637
0.07240524 0.74515500 0.07833319
0.18828911 0.75120851 0.08397039
0.30405101 0.75705475 0.08948701
0.41962885 0.76264054 0.09483926
0.53496051 0.76791272 0.09998335
0.64998388 0.77281811 0.10487549
0.76463685 0.77730353 0.10947188
0.87885732 0.78131582 0.11372875
0.99258316 0.78480180 0.11760230
0.09456206 0.87371906 0.09673844
0.20978867 0.87886385 0.10179587
0.32468438 0.88362250 0.10658541
0.43918708 0.88794183 0.11106327
0.55323467 0.89176867 0.11518565
0.66676502 0.89504984 0.11890878
0.77971604 0.89773217 0.12218885
0.89202560 0.89976248 0.12498209
1.00000000 0.90018192 0.14691000
0.11367699 0.99851486 0.11260753
0.23267616 1.00000000 0.12276538
0.35255160 1.00000000 0.13745265
0.46931920 1.00000000 0.15293601
0.58272323 1.00000000 0.16921510
0.69250840 1.00000000 0.18628824
0.79841990 1.00000000 0.20415234
0.90020343 1.00000000 0.22280283
0.99760519 1.00000000 0.24223361
0.00648955 0.00750810 0.11665822
0.11220517 0.00655997 0.11575691
0.21870931 0.00662264 0.11532624
0.32614541 0.00750974 0.11571446
0.43474006 0.00906650 0.11680123
0.54426777 0.01130823 0.11850530
0.65465767 0.01418519 0.12078262
0.76584760 0.01764422 0.12358939
0.87777546 0.02163214 0.12688184
0.00000000 0.11667180 0.11561842
0.10827458 0.11783834 0.11653009
0.22345539 0.11782155 0.11636295
0.32967277 0.12368703 0.12107176
0.43946058 0.12814344 0.12472227
0.55160883 0.13232490 0.12819251
0.66444309 0.13694856 0.13207686
0.77786850 0.14197538 0.13634335
0.89182290 0.14735223 0.14094820
0.00136307 0.23488916 0.12277189
0.11289626 0.23856943 0.12528910
0.22825028 0.23990862 0.12196339
0.34465944 0.24401890 0.12632581
0.45289915 0.25266367 0.13740749
0.56634775 0.25850368 0.14269630
0.68091796 0.26427480 0.14769589
0.79587595 0.27026767 0.15292652
0.91115399 0.27643168 0.15834821
0.01280300 0.35881186 0.13514808
0.12661692 0.36409844 0.13966043
0.24088539 0.36964626 0.14422110
0.35593840 0.37520271 0.14833354
0.47098800 0.38144126 0.15439670
0.58611603 0.38782116 0.16034504
0.70171774 0.39413957 0.16597256
0.81750539 0.40049675 0.17167182
0.93340419 0.40684617 0.17741477
0.03041448 0.48685921 0.15148371
0.14561165 0.49298195 0.15685779
0.26108359 0.49923711 0.16239085
0.37676800 0.50557098 0.16803557
0.49260505 0.51193043 0.17375185
0.60852807 0.51826510 0.17950654
0.72447777 0.52451857 0.18523987
0.84039226 0.53063828 0.19091213
0.95620893 0.53657136 0.19648080
0.05183902 0.61700695 0.17011619
0.16771376 0.62336374 0.17585159
0.28365439 0.62967407 0.18159885
0.39959880 0.63588479 0.18731417
0.51548487 0.64194270 0.19295377
0.63125050 0.64779464 0.19847386
0.74683358 0.65338744 0.20383066
0.86217200 0.65866793 0.20898036
0.97720366 0.66358292 0.21387918
0.07471210 0.74723074 0.18937842
0.19056152 0.75321982 0.19497958
0.30626788 0.75898358 0.20044529
0.42176908 0.76446883 0.20573175
0.53700300 0.76962241 0.21079519
0.65190755 0.77439114 0.21559180
0.76642060 0.77872185 0.22007780
0.88048006 0.78256136 0.22420941
0.99402381 0.78585651 0.22794282
0.09666915 0.87550626 0.20760329
0.21179035 0.88052588 0.21257466
0.32655956 0.88514130 0.21726326
0.44091466 0.88929933 0.22162530
0.55479355 0.89294682 0.22561701
0.66813413 0.89603058 0.22919458
0.78087427 0.89849745 0.23231424
0.89295187 0.90029424 0.23493218
1.00000000 0.90049753 0.25830125
0.11534560 0.99980915 0.22312372
0.23720848 1.00000000 0.23517300
0.35666089 1.00000000 0.24835292
0.47294620 1.00000000 0.26224759
0.58580884 1.00000000 0.27685614
0.69499369 1.00000000 0.29217639
0.80024614 1.00000000 0.30820470
0.90131208 1.00000000 0.32493591
0.99793793 1.00000000 0.34236331
0.00512073 0.00713489 0.22527807
0.11096356 0.00659744 0.22451143
0.21789572 0.00689013 0.22447681
0.32585376 0.00796017 0.22513151
0.43477797 0.00975328 0.22643294
0.54460547 0.01221669 0.22833660
0.65527402 0.01529729 0.23079863
0.76672152 0.01894189 0.23377526
0.87888587 0.02309734 0.23722268
0.00000000 0.11736031 0.22345411
0.10759070 0.11966201 0.22710466
0.21804096 0.12216076 0.22929394
0.32888593 0.12556738 0.23184361
0.44039955 0.12951393 0.23497792
0.55280007 0.13384661 0.23858610
0.66584205 0.13861314 0.24260512
0.77945407 0.14376480 0.24699143
0.89357399 0.14924841 0.25170122
0.00217456 0.23613818 0.23291760
0.11409656 0.24011113 0.23622219
0.22795721 0.24280553 0.23893878
0.34663825 0.24468129 0.24098784
0.45560710 0.25384529 0.24798267
0.56818130 0.26042035 0.25347592
0.68286087 0.26628750 0.25856808
0.79793447 0.27234447 0.26386852
0.91330707 0.27855450 0.26934513
0.01433993 0.36056912 0.24576506
0.12832197 0.36596659 0.25038670
0.24257517 0.37138068 0.25467059
0.36023392 0.37349473 0.25315905
0.47868861 0.37922291 0.25892183
0.58895303 0.38957364 0.27082910
0.70397123 0.39629333 0.27701687
0.81979815 0.40265657 0.28273944
0.93572056 0.40899127 0.28848729
0.03244364 0.48892037 0.26240821
0.14774111 0.49509405 0.26784124
0.26328931 0.50138145 0.27341400
0.37898864 0.50766949 0.27884391
0.49514583 0.51370390 0.28366177
0.61108796 0.52021955 0.29012289
0.72680435 0.52660769 0.29628014
0.84268060 0.53267675 0.30193704
0.95844988 0.53853439 0.30746062
0.05412172 0.61916765 0.28117991
0.17002580 0.62551463 0.28692425
0.28597468 0.63179710 0.29266557
0.40190616 0.63796187 0.29835993
0.51775780 0.64395527 0.30396016
0.63346994 0.64972419 0.30942597
0.74897640 0.65521809 0.31472367
0.86421715 0.66038072 0.31979433
0.97913048 0.66515951 0.32459801
0.07700963 0.74928663 0.30041307
0.19281743 0.75520515 0.30597314
0.30846108 0.76088029 0.31138289
0.42387848 0.76625887 0.31659852
0.53900751 0.77128771 0.32157626
0.65378607 0.77591365 0.32627229
0.76815204 0.78008351 0.33064285
0.88204333 0.78374412 0.33464414
0.99539781 0.78684230 0.33823236
0.09874280 0.87725297 0.31844058
0.21375143 0.88214129 0.32332083
0.32838697 0.88660734 0.32790344
0.44258732 0.89059795 0.33214463
0.55629036 0.89405996 0.33600060
0.66943398 0.89694018 0.33942757
0.78195609 0.89918545 0.34238175
0.89379456 0.90074259 0.34481935
1.00000000 0.90083017 0.36830173
0.11981664 1.00000000 0.33549908
0.24180571 1.00000000 0.34648323
0.36082433 1.00000000 0.35810060
0.47661665 1.00000000 0.37035118
0.58892726 1.00000000 0.38323364
0.69750123 1.00000000 0.39674523
0.80208414 1.00000000 0.41088175
0.90242207 1.00000000 0.42563747
0.99826167 1.00000000 0.44100503
0.00388154 0.00685616 0.33405221
0.11010068 0.00660691 0.33353847
0.21738822 0.00716947 0.33374340
0.32568205 0.00849068 0.33462321
0.43492007 0.01051736 0.33613410
0.54504016 0.01319633 0.33823229
0.65598021 0.01647443 0.34087400
0.76767812 0.02029848 0.34401542
0.88007178 0.02461531 0.34761277
0.00000000 0.11811383 0.33151952
0.10782534 0.12053992 0.33683243
0.21825196 0.12344251 0.33913454
0.32947554 0.12692545 0.34196290
0.44143280 0.13093577 0.34527465
0.55406420 0.13541887 0.34902708
0.66730676 0.14032215 0.35317574
0.78109823 0.14559250 0.35767681
0.89537650 0.15117675 0.36248651
0.00306579 0.23744782 0.34311439
0.11527577 0.24163530 0.34659323
0.22816077 0.24622685 0.35053490
0.34193218 0.25102212 0.35488780
0.45577822 0.25657462 0.35941227
0.57001258 0.26239220 0.36430546
0.68484536 0.26832401 0.36946567
0.80002747 0.27443892 0.37483084
0.91548748 0.28068885 0.38035731
0.01593739 0.36236634 0.35642071
0.13008886 0.36787036 0.36115088
0.24462839 0.37357794 0.36614273
0.36073322 0.37736024 0.37049676
0.48125519 0.38022929 0.37408276
0.59217965 0.39101425 0.38179813
0.70626340 0.39843826 0.38806633
0.82210134 0.40481340 0.39381038
0.93804015 0.41112727 0.39955809
0.03450923 0.49100086 0.37335440
0.14989984 0.49721934 0.37884135
0.26551673 0.50353246 0.38445374
0.38105760 0.50956787 0.38959347
0.49920041 0.51183618 0.38936180
0.61846888 0.51789182 0.39540775
0.72972512 0.52830086 0.40684693
0.84496035 0.53468894 0.41294509
0.96066996 0.54046767 0.41842173
0.05641675 0.62132705 0.39224834
0.17234301 0.62765808 0.39799656
0.28829296 0.63390655 0.40372689
0.40420116 0.64001863 0.40939139
0.51995064 0.64588415 0.41472724
0.63582233 0.65126474 0.41929291
0.75129931 0.65684333 0.42516981
0.86623561 0.66204304 0.43056367
0.98101238 0.66668571 0.43528110
0.07929539 0.75132058 0.41143544
0.19505441 0.75716241 0.41694937
0.31062819 0.76274280 0.42229810
0.42595462 0.76800857 0.42743786
0.54097151 0.77290654 0.43232468
0.65561622 0.77738319 0.43691159
0.76982935 0.78138529 0.44115807
0.88354510 0.78486175 0.44503002
0.99670274 0.78775709 0.44846920
0.10078059 0.87895712 0.42924859
0.21566948 0.88370799 0.43403267
0.33016419 0.88801855 0.43850425
0.44420261 0.89183561 0.44261952
0.55772264 0.89510600 0.44633472
0.67066216 0.89777655 0.44960604
0.78295907 0.89979409 0.45238969
0.89455124 0.90110544 0.45464190
1.00000000 0.90118022 0.47687803
0.12486353 1.00000000 0.44722041
0.24646739 1.00000000 0.45666796
0.36504148 1.00000000 0.46666751
0.48033013 1.00000000 0.47721857
0.59207809 1.00000000 0.48831928
0.70003064 1.00000000 0.49996636
0.80393354 1.00000000 0.51215503
0.90353308 1.00000000 0.52487895
0.99857613 1.00000000 0.53813011
0.00277273 0.00667718 0.44291443
0.10936167 0.00670959 0.44264967
0.21699792 0.00753575 0.44308870
0.32561936 0.00910250 0.44418774
0.43516390 0.01135667 0.44590299
0.54556942 0.01424507 0.44819067
0.65677381 0.01771454 0.45100699
0.76871497 0.02171190 0.45430816
0.88133077 0.02618399 0.45805039
0.00000000 0.11893602 0.44006863
0.10817551 0.12145761 0.44667190
0.21887906 0.12456371 0.44915710
0.33035887 0.12823152 0.45215501
0.44255283 0.13240787 0.45562182
0.55539883 0.13703958 0.45951375
0.66883477 0.14207348 0.46378700
0.78279852 0.14745640 0.46839780
0.89722799 0.15313516 0.47330234
0.00403859 0.23881591 0.45336517
0.11647712 0.24316420 0.45699182
0.22954511 0.24794842 0.46102778
0.34318125 0.25311472 0.46542994
0.45732215 0.25861147 0.47015243
0.57190459 0.26438557 0.47515232
0.68686905 0.27038223 0.48038690
0.80215252 0.27654895 0.48581176
0.91769276 0.28283264 0.49138306
0.01759294 0.36420142 0.46711334
0.13190194 0.36980502 0.47194235
0.24663074 0.37566486 0.47703440
0.36173991 0.38166891 0.48238775
0.47743094 0.38760973 0.48796342
0.59292838 0.39411057 0.49346862
0.70852119 0.40061107 0.49913987
0.82441242 0.40696520 0.50488296
0.94036052 0.41325208 0.51062545
0.03660882 0.49309858 0.48432056
0.15208540 0.49935573 0.48985638
0.26777288 0.50569094 0.49550685
0.38354346 0.51197078 0.50122935
0.50028792 0.51596115 0.50647472
0.62112249 0.51891735 0.51076675
0.73297157 0.52965806 0.51790947
0.84724398 0.53666365 0.52393580
0.96286676 0.54236912 0.52936240
0.05872168 0.62348306 0.50331975
0.17466295 0.62979201 0.50906681
0.29060682 0.63600034 0.51478111
0.40648414 0.64205324 0.52041570
0.52191073 0.64759588 0.52546520
0.63898284 0.64938383 0.52567123
0.75778014 0.65447933 0.53094478
0.86876887 0.66331093 0.54088435
0.98285171 0.66815700 0.54592386
0.08156695 0.75333051 0.52244380
0.19727003 0.75908952 0.52790654
0.31276677 0.76456902 0.53318922
0.42799506 0.76971585 0.53824803
0.54288908 0.77447646 0.54303544
0.65731469 0.77875638 0.54730622
0.77153308 0.78235023 0.55063674
0.88516885 0.78577857 0.55496855
0.99794663 0.78859369 0.55863825
0.10278008 0.88061661 0.54002562
0.21754207 0.88522392 0.54470848
0.33188879 0.88937284 0.54906396
0.44575813 0.89301021 0.55304828
0.55908797 0.89608286 0.55661764
0.67181613 0.89853761 0.55972811
0.78387986 0.90032123 0.56233279
0.89521990 0.90138020 0.56439100
1.00000000 0.90154791 0.58399691
0.12998518 1.00000000 0.55784326
0.25119303 1.00000000 0.56569906
0.36931188 1.00000000 0.57402545
0.48408620 1.00000000 0.58282147
0.59526094 1.00000000 0.59208471
0.70258156 1.00000000 0.60181136
0.80579400 1.00000000 0.61199603
0.90464480 1.00000000 0.62263174
0.99888103 1.00000000 0.63370984
0.00179187 0.00659588 0.55186288
0.10874345 0.00690381 0.55184204
0.21672124 0.00798744 0.55251012
0.32566314 0.00979361 0.55382334
0.43550703 0.01226912 0.55573790
0.54619082 0.01536082 0.55821002
0.65765238 0.01901553 0.56119591
0.76982961 0.02318007 0.56465177
0.88266041 0.02780128 0.56853383
0.00000000 0.11980793 0.54926339
0.10862239 0.12244617 0.55657568
0.21959653 0.12574899 0.55923991
0.33132583 0.12959547 0.56240197
0.44374819 0.13393242 0.56601806
0.55680150 0.13870668 0.57004440
0.67042365 0.14386507 0.57443719
0.78455253 0.14935442 0.57915265
0.89912603 0.15512156 0.58414699
0.00509114 0.24024042 0.56366820
0.11775040 0.24474273 0.56743872
0.23101799 0.24966300 0.57160354
0.34483181 0.25494803 0.57611887
0.45912975 0.26054467 0.58094094
0.57384970 0.26639974 0.58602593
0.68892954 0.27246006 0.59133007
0.80430718 0.27867247 0.59680957
0.91992050 0.28498378 0.60242064
0.01930414 0.36607230 0.57784121
0.13376291 0.37176918 0.58276407
0.24862107 0.37770512 0.58793392
0.36381654 0.38382689 0.59330710
0.47928797 0.39008056 0.59884060
0.59497207 0.39641469 0.60448837
0.71080563 0.40277608 0.61020751
0.82672901 0.40910987 0.61595543
0.94267925 0.41536361 0.62168766
0.03873997 0.49521147 0.59530499
0.15429536 0.50150115 0.60088462
0.27004120 0.50785103 0.60656394
0.38591456 0.51420697 0.61230049
0.50186823 0.52045451 0.61810201
0.61808938 0.52638927 0.62394571
0.73387862 0.53264142 0.62944904
0.84946206 0.53863701 0.63492394
0.96503776 0.54423669 0.64028096
0.06103407 0.62563359 0.61439244
0.17698319 0.63191434 0.62013328
0.29291383 0.63807640 0.62582650
0.40876316 0.64406641 0.63142848
0.52438500 0.64975578 0.63691728
0.64030663 0.65306691 0.64214334
0.76005642 0.65519724 0.64615885
0.87156400 0.66424088 0.65170798
0.98466014 0.66956298 0.65652661
0.08382188 0.75531434 0.63343645
0.19946185 0.76098439 0.63884295
0.31487439 0.76635688 0.64405451
0.42999739 0.77137863 0.64902735
0.54476096 0.77599543 0.65371527
0.65870173 0.77992959 0.65769329
0.77341428 0.78058859 0.65718695
0.89040225 0.78343911 0.66069411
0.99963774 0.78906946 0.66836473
0.10473884 0.88222938 0.65076993
0.21936677 0.88668697 0.65534652
0.33355833 0.89066813 0.65958087
0.44725142 0.89411969 0.66342918
0.56038392 0.89698845 0.66684765
0.67288973 0.89922144 0.66978899
0.78462409 0.90075232 0.67201598
0.89584328 0.90142536 0.67310302
1.00000000 0.90186480 0.68963379
0.13518110 1.00000000 0.66733955
0.25598220 1.00000000 0.67354836
0.37363510 1.00000000 0.68014621
0.48788447 1.00000000 0.68713159
0.59847542 1.00000000 0.69450158
0.70515361 1.00000000 0.70225177
0.80766517 1.00000000 0.71037614
0.90575655 1.00000000 0.71886592
0.99917624 1.00000000 0.72771279
0.00093654 0.00661017 0.66089583
0.10824358 0.00718750 0.66111386
0.21655575 0.00852247 0.66200595
0.32581094 0.01056191 0.66352829
0.43594703 0.01325264 0.66563712
0.54690192 0.01654151 0.66828863
0.65861349 0.02037532 0.67143903
0.77101964 0.02470091 0.67504454
0.88405826 0.02946511 0.67906137
0.00000000 0.12071501 0.65921865
0.10916353 0.12350356 0.66654192
0.22040109 0.12699697 0.66938013
0.33237272 0.13101598 0.67270129
0.44501632 0.13550741 0.67646161
0.55826978 0.14041808 0.68061731
0.67207098 0.14569483 0.68512460
0.78635782 0.15128448 0.68993968
0.90106818 0.15713387 0.69501876
0.00622102 0.24171926 0.67402175
0.11909384 0.24636947 0.67793109
0.23255390 0.25141958 0.68221986
0.34653909 0.25681640 0.68684427
0.46098731 0.26250677 0.69176053
0.57583644 0.26843750 0.69692486
0.69102438 0.27455543 0.70229347
0.80648902 0.28080739 0.70782256
0.92216825 0.28714020 0.71346834
0.02106857 0.36797688 0.68860262
0.13566994 0.37376091 0.69361427
0.25064961 0.37976595 0.69885804
0.36594548 0.38593883 0.70429014
0.48149543 0.39222638 0.70986678
0.59723736 0.39857542 0.71554418
0.71310915 0.40493279 0.72127854
0.82904870 0.41124530 0.72702608
0.94499390 0.41745979 0.73274301
0.04090025 0.49733743 0.70630596
0.15652728 0.50365352 0.71192436
0.27232368 0.51001175 0.71762756
0.38822733 0.51635894 0.72337179
0.50417613 0.52264183 0.72911340
0.62010867 0.52880653 0.73480945
0.73596185 0.53480159 0.74041368
0.85167241 0.54057379 0.74588321
0.96718057 0.54606828 0.75117565
0.06335149 0.62777657 0.72546468
0.17930130 0.63402298 0.73119426
0.29521153 0.64013263 0.73686134
0.41102008 0.64605238 0.74242214
0.52666380 0.65172814 0.74783443
0.64208585 0.65704995 0.75311647
0.75745959 0.66182641 0.75825959
0.87217115 0.66663338 0.76278992
0.98637185 0.67093653 0.76710048
0.08605774 0.75726999 0.74441167
0.20162744 0.76284494 0.74975687
0.31694862 0.76810428 0.75489227
0.43195918 0.77299483 0.75977408
0.54659621 0.77746328 0.76435874
0.66069623 0.78139910 0.76864172
0.77447467 0.78313619 0.77277330
0.89187327 0.78352072 0.77537810
1.00000000 0.78963320 0.77908880
0.10665444 0.88379333 0.76147983
0.22114114 0.88809508 0.76594510
0.33517038 0.89190235 0.77005325
0.44868006 0.89516195 0.77376050
0.56160805 0.89782070 0.77702305
0.67388396 0.89982550 0.77979513
0.78499777 0.90103391 0.78168521
0.89632783 0.89990135 0.77900853
1.00000000 0.90080155 0.79398349
0.14045081 1.00000000 0.77568114
0.26083442 1.00000000 0.78018770
0.37801072 1.00000000 0.78500153
0.49172452 1.00000000 0.79012061
0.60172115 1.00000000 0.79554147
0.70774646 1.00000000 0.80125911
0.80954525 1.00000000 0.80726574
0.90683088 1.00000000 0.81348157
0.99948008 1.00000000 0.81973128
0.00020428 0.00671797 0.77001157
0.10785964 0.00755856 0.77046342
0.21649903 0.00913874 0.77157446
0.32606034 0.01140532 0.77330089
0.43648146 0.01430515 0.77559892
0.54770028 0.01778504 0.77842477
0.65965470 0.02179183 0.78173464
0.77228261 0.02627233 0.78548474
0.88552189 0.03117339 0.78963129
0.00000000 0.12164603 0.77001585
0.10979649 0.12462770 0.77656891
0.22129031 0.12830557 0.77957604
0.33349711 0.13249098 0.78305126
0.44635479 0.13713075 0.78695076
0.55980122 0.14217171 0.79123077
0.67377431 0.14756068 0.79584750
0.78821195 0.15324450 0.80075715
0.90305202 0.15916999 0.80591593
0.00742579 0.24325035 0.78442412
0.12050500 0.24804234 0.78846722
0.23415036 0.25321615 0.79287488
0.34829977 0.25871862 0.79760332
0.46289110 0.26449658 0.80260874
0.57786226 0.27049685 0.80784735
0.69315114 0.27666626 0.81327537
0.80869562 0.28295164 0.81884900
0.92443359 0.28929982 0.82452446
0.02288379 0.36991308 0.79939585
0.13762060 0.37577813 0.80449124
0.25271462 0.38184613 0.80980388
0.36810374 0.38806392 0.81528998
0.48372585 0.39437831 0.82090575
0.59951885 0.40073614 0.82660740
0.71542061 0.40708424 0.83235115
0.83136905 0.41336942 0.83809320
0.94730204 0.41953853 0.84378977
0.04308722 0.49947438 0.81732177
0.15877874 0.50581074 0.82297388
0.27461852 0.51217118 0.82869593
0.39054447 0.51850253 0.83444412
0.50649447 0.52475161 0.84017469
0.62240641 0.53086525 0.84584382
0.73821819 0.53679027 0.85140774
0.85386769 0.54247351 0.85682265
0.96929280 0.54786179 0.86204477
0.06567151 0.62990992 0.83653476
0.18161484 0.63611584 0.84224803
0.29749751 0.64216697 0.84788393
0.41325740 0.64801012 0.85339867
0.52883240 0.65359213 0.85874846
0.64416039 0.65885975 0.86388967
0.75917989 0.66375913 0.86877946
0.87382801 0.66823868 0.87337130
0.98804144 0.67224520 0.87762242
0.08827210 0.75919536 0.85536773
0.20376437 0.76466909 0.86064660
0.31898703 0.76980915 0.86570079
0.43387796 0.77456236 0.87048651
0.54837507 0.77887555 0.87495997
0.66241503 0.78269485 0.87907913
0.77593291 0.78592155 0.88286994
0.88909370 0.78838683 0.88632998
1.00000000 0.79099319 0.88853344
0.10852444 0.88530637 0.87215358
0.22286275 0.88944616 0.87650249
0.33672251 0.89307340 0.88047940
0.45004161 0.89613491 0.88404054
0.56275795 0.89857753 0.88714211
0.67480857 0.90034805 0.88974060
0.78602036 0.90136689 0.89183791
0.89647735 0.90062767 0.89363529
1.00000000 0.90109314 0.89685966
0.14579386 1.00000000 0.88283992
0.26574927 1.00000000 0.88558886
0.38243830 1.00000000 0.88856313
0.49560597 1.00000000 0.89176018
0.60499777 1.00000000 0.89517595
0.71035977 1.00000000 0.89880486
0.81143532 1.00000000 0.90263906
0.90779548 1.00000000 0.90653495
0.99982932 1.00000000 0.90888449
0.00000000 0.00728113 0.87440405
0.10758918 0.00801492 0.87988901
0.21654863 0.00983417 0.88121395
0.32640890 0.01232177 0.88313941
0.43710789 0.01542455 0.88562160
0.54858349 0.01908934 0.88861673
0.66077359 0.02326297 0.89208102
0.77361609 0.02789226 0.89597067
0.88704887 0.03292404 0.90024189
0.00000000 0.12259225 0.88171232
0.11051885 0.12581651 0.88665494
0.22226176 0.12967271 0.88982595
0.33469657 0.13401838 0.89345016
0.44776115 0.13880036 0.89748380
0.56139341 0.14396547 0.90188307
0.67553123 0.14946053 0.90660418
0.79011250 0.15523239 0.91160335
0.90507511 0.16122786 0.91683678
0.00870301 0.24483162 0.89487358
0.12198146 0.24975923 0.89904540
0.23580496 0.25505062 0.90356691
0.35011141 0.26065262 0.90839432
0.46483870 0.26651204 0.91348384
0.57992473 0.27257571 0.91879169
0.69530737 0.27879047 0.92427407
0.81092452 0.28510313 0.92988719
0.92671408 0.29146054 0.93558726
0.02474738 0.37187882 0.91021919
0.13961246 0.37781875 0.91539327
0.25481366 0.38394359 0.92076972
0.37028887 0.39020015 0.92630477
0.48597598 0.39653526 0.93195462
0.60181288 0.40289574 0.93767548
0.71773746 0.40922844 0.94342356
0.83368761 0.41548016 0.94915508
0.94960123 0.42159775 0.95482624
0.04529846 0.50162024 0.92835069
0.16104729 0.50797074 0.93403146
0.27692330 0.51432726 0.93976730
0.39286438 0.52063664 0.94551442
0.50880842 0.52684568 0.95122903
0.62469331 0.53290123 0.95686735
0.74045694 0.53875010 0.96238557
0.85603721 0.54433914 0.96773992
0.97137199 0.54961515 0.97288660
0.06799170 0.63203154 0.94760097
0.18392139 0.63819085 0.95329288
0.29976933 0.64417732 0.95889254
0.41547339 0.64993775 0.96435617
0.53097147 0.65541898 0.96963999
0.64620146 0.66056783 0.97470019
0.76110126 0.66533114 0.97949300
0.87560874 0.66965572 0.98397462
0.98966181 0.67348841 0.98810126
0.09046253 0.76108838 0.96630294
0.20587020 0.76645476 0.97151041
0.32098717 0.77146941 0.97647834
0.43575133 0.77607915 0.98116292
0.55010057 0.78023081 0.98552038
0.66397277 0.78387121 0.98950691
0.77730583 0.78694714 0.99307891
0.89003817 0.78940484 0.99619356
1.00000000 0.79202688 0.99674319
0.11034641 0.88676644 0.98278949
0.22452917 0.89073813 0.98701697
0.33821228 0.89417921 0.99085760
0.45133365 0.89703650 0.99426757
0.56383115 0.89925684 0.99720311
0.67564268 0.90078705 0.99962042
0.78793694 0.90135650 1.00000000
0.89727183 0.90172259 1.00000000
1.00000000 0.90311629 0.99729292
0.15120978 1.00000000 0.98878770
0.27072630 1.00000000 0.98972362
0.38691745 1.00000000 0.99080272
0.49952842 1.00000000 0.99202191
0.60830493 1.00000000 0.99337656
0.71299322 1.00000000 0.99486045
0.81333980 1.00000000 0.99646582
0.90904957 1.00000000 0.99819772
1.00000000 1.00000000 1.00000000
