assets/luts/DB_Glacier_Blue_Rec709_100.cube
TITLE "Glacier Blue Rec709 100"
# Red changes fastest. Full-range normalized input.
LUT_3D_SIZE 33
DOMAIN_MIN 0 0 0
DOMAIN_MAX 1 1 1
0.00400000 0.00400000 0.00400000
0.03234026 0.00386673 0.00428019
0.06114653 0.00362822 0.00437506
0.09003224 0.00340466 0.00447073
0.11846721 0.00336072 0.00481905
0.14612616 0.00359691 0.00557117
0.17310074 0.00408370 0.00667913
0.19979010 0.00469597 0.00795088
0.22660486 0.00530532 0.00919169
0.25375573 0.00584578 0.01030296
0.28124447 0.00631638 0.01128485
0.30897262 0.00674729 0.01218399
0.33684044 0.00716899 0.01304696
0.36478535 0.00760038 0.01390257
0.39277804 0.00805001 0.01476392
0.42080751 0.00852073 0.01563557
0.44887016 0.00901308 0.01651862
0.47696476 0.00952690 0.01741309
0.50509068 0.01006181 0.01831870
0.53324741 0.01061742 0.01923514
0.56143448 0.01119330 0.02016207
0.58965140 0.01178904 0.02109914
0.61789770 0.01240424 0.02204604
0.64617291 0.01303848 0.02300241
0.67447655 0.01369133 0.02396792
0.70280813 0.01436240 0.02494225
0.73116720 0.01505127 0.02592504
0.75955325 0.01575752 0.02691596
0.78796583 0.01648073 0.02791468
0.81640445 0.01722051 0.02892087
0.84486864 0.01797642 0.02993417
0.87335792 0.01874807 0.03095427
0.90187182 0.01953503 0.03198081
0.00229596 0.03256851 0.00547094
0.03066727 0.03253992 0.00525301
0.05975842 0.03232523 0.00471405
0.08930887 0.03201145 0.00418550
0.11866594 0.03180611 0.00414768
0.14715139 0.03191989 0.00494527
0.17452055 0.03242358 0.00655324
0.20109868 0.03320883 0.00860541
0.22749559 0.03408074 0.01064987
0.25420067 0.03488525 0.01239761
0.28139026 0.03556809 0.01379175
0.30899603 0.03615177 0.01492120
0.33686769 0.03668388 0.01590499
0.36488211 0.03720291 0.01682913
0.39297047 0.03773000 0.01773830
0.42110326 0.03827387 0.01865047
0.44927017 0.03883719 0.01957129
0.47746800 0.03942040 0.02050205
0.50569565 0.04002328 0.02144275
0.53395253 0.04064546 0.02239314
0.56223814 0.04128652 0.02335288
0.59055201 0.04194606 0.02432164
0.61889365 0.04262366 0.02529908
0.64726259 0.04331890 0.02628487
0.67565836 0.04403137 0.02727868
0.70408048 0.04476066 0.02828015
0.73252846 0.04550636 0.02928897
0.76100184 0.04626805 0.03030478
0.78950014 0.04704532 0.03132727
0.81802287 0.04783775 0.03235608
0.84656957 0.04864494 0.03339088
0.87513976 0.04946646 0.03443134
0.90373296 0.05030191 0.03547711
0.00112062 0.06142378 0.00754842
0.02932638 0.06155695 0.00696561
0.05828990 0.06148392 0.00579893
0.08801791 0.06121336 0.00442185
0.11801772 0.06091130 0.00353734
0.14746025 0.06084245 0.00383047
0.17569562 0.06120472 0.00552968
0.20269348 0.06199484 0.00825197
0.22900912 0.06302657 0.01127205
0.25534997 0.06407205 0.01396428
0.28216337 0.06499097 0.01606164
0.30953292 0.06575996 0.01761882
0.33732325 0.06642416 0.01882686
0.36536029 0.06703960 0.01986186
0.39352222 0.06764483 0.02083135
0.42174754 0.06825889 0.02178502
0.45001188 0.06888896 0.02274099
0.47830723 0.06953698 0.02370446
0.50663116 0.07020317 0.02467649
0.53498278 0.07088725 0.02565702
0.56336155 0.07158881 0.02664577
0.59176696 0.07230746 0.02764241
0.62019855 0.07304277 0.02864659
0.64865584 0.07379434 0.02965800
0.67713834 0.07456175 0.03067628
0.70564559 0.07534458 0.03170110
0.73417711 0.07614244 0.03273213
0.76273241 0.07695489 0.03376903
0.79131103 0.07778153 0.03481147
0.81991249 0.07862194 0.03585910
0.84853631 0.07947571 0.03691159
0.87718201 0.08034243 0.03796860
0.90584911 0.08122168 0.03902980
0.00051406 0.09053568 0.01036068
0.02854929 0.09083882 0.00984516
0.05714959 0.09098646 0.00855354
0.08652913 0.09092123 0.00670592
0.11652523 0.09071038 0.00499501
0.14650065 0.09056777 0.00434988
0.17564936 0.09074842 0.00540635
0.20352754 0.09137994 0.00808326
0.23034188 0.09237953 0.01164186
0.25674476 0.09352844 0.01517060
0.28337037 0.09462246 0.01807107
0.31052522 0.09556724 0.02020954
0.33819297 0.09637213 0.02175922
0.36621057 0.09709169 0.02296813
0.39442000 0.09777717 0.02402288
0.42272399 0.09845949 0.02502421
0.45107765 0.09915248 0.02601435
0.47946442 0.09986087 0.02700742
0.50787909 0.10058573 0.02800709
0.53632004 0.10132703 0.02901399
0.56478656 0.10208441 0.03002794
0.59327812 0.10285749 0.03104864
0.62179426 0.10364584 0.03207576
0.65033450 0.10444905 0.03310897
0.67889834 0.10526672 0.03414792
0.70748533 0.10609842 0.03519229
0.73609498 0.10694374 0.03624173
0.76472682 0.10780227 0.03729590
0.79338037 0.10867360 0.03835448
0.82205515 0.10955731 0.03941712
0.85075069 0.11045299 0.04048349
0.87946651 0.11136022 0.04155325
0.90820213 0.11227860 0.04262607
0.00038971 0.11989920 0.01360494
0.02838305 0.12033766 0.01351858
0.05667953 0.12069871 0.01270916
0.08552275 0.12090989 0.01116814
0.11499916 0.12095684 0.00931970
0.14483076 0.12094365 0.00800111
0.17440478 0.12107354 0.00807865
0.20312166 0.12153185 0.00991270
0.23080106 0.12236012 0.01311295
0.25777841 0.12343524 0.01680549
0.28462585 0.12456622 0.02016788
0.31178437 0.12561217 0.02279565
0.33940112 0.12653003 0.02470729
0.36740240 0.12734717 0.02612957
0.39564527 0.12811132 0.02729441
0.42401545 0.12885957 0.02835266
0.45244984 0.12961185 0.02937775
0.48092159 0.13037625 0.03039789
0.50942133 0.13115520 0.03142171
0.53794615 0.13194905 0.03245121
0.56649502 0.13275758 0.03348657
0.59506734 0.13358040 0.03452753
0.62366264 0.13441711 0.03557378
0.65228042 0.13526729 0.03662498
0.68092022 0.13613053 0.03768080
0.70958155 0.13700642 0.03874090
0.73826395 0.13789453 0.03980493
0.76696692 0.13879446 0.04087258
0.79569001 0.13970580 0.04194349
0.82443272 0.14062813 0.04301734
0.85319458 0.14156103 0.04409378
0.88197513 0.14250410 0.04517248
0.91077387 0.14345692 0.04625310
0.00063274 0.14951766 0.01693687
0.02870273 0.15005079 0.01733839
0.05689360 0.15056561 0.01725822
0.08536134 0.15101229 0.01656100
0.11425213 0.15135047 0.01536525
0.14354763 0.15159776 0.01416316
0.17296242 0.15185637 0.01368830
0.20204540 0.15227304 0.01452368
0.23046127 0.15294672 0.01672338
0.25821743 0.15386127 0.01977598
0.28563093 0.15490404 0.02294256
0.31308773 0.15594722 0.02567071
0.34082388 0.15691657 0.02777858
0.36887685 0.15780337 0.02936857
0.39716822 0.15863523 0.03063978
0.42560150 0.15944410 0.03175771
0.45411012 0.16025137 0.03281793
0.48266065 0.16106737 0.03386286
0.51123977 0.16189581 0.03490746
0.53984298 0.16273758 0.03595587
0.56846878 0.16359257 0.03700884
0.59711647 0.16446047 0.03806626
0.62578552 0.16534085 0.03912783
0.65447547 0.16623332 0.04019322
0.68318582 0.16713745 0.04126210
0.71191610 0.16805284 0.04233412
0.74066584 0.16897906 0.04340895
0.76943456 0.16991572 0.04448625
0.79822179 0.17086238 0.04556569
0.82702704 0.17181865 0.04664693
0.85584984 0.17278410 0.04772964
0.88468971 0.17375832 0.04881347
0.91354617 0.17474090 0.04989810
0.00118324 0.17938484 0.02022585
0.02937407 0.17998863 0.02096468
0.05760873 0.18060167 0.02147056
0.08595213 0.18120127 0.02161460
0.11449932 0.18175807 0.02135666
0.14331161 0.18225779 0.02086650
0.17232703 0.18272795 0.02055084
0.20133492 0.18324139 0.02089159
0.23007854 0.18387922 0.02216265
0.25842425 0.18467695 0.02424663
0.28644784 0.18560132 0.02671503
0.31436329 0.18657782 0.02909870
0.34237317 0.18754006 0.03112030
0.37057223 0.18845901 0.03274232
0.39895189 0.18933926 0.03406983
0.42745794 0.19019927 0.03523264
0.45603888 0.19105577 0.03632319
0.48466319 0.19191856 0.03738964
0.51331622 0.19279185 0.03845154
0.54199239 0.19367685 0.03951515
0.57068971 0.19457365 0.04058196
0.59940736 0.19548193 0.04165203
0.62814478 0.19640131 0.04272512
0.65690148 0.19733138 0.04380088
0.68567700 0.19827173 0.04487901
0.71447084 0.19922193 0.04595914
0.74328253 0.20018159 0.04704096
0.77211160 0.20115028 0.04812411
0.80095757 0.20212760 0.04920827
0.82981996 0.20311312 0.05029310
0.85869830 0.20410644 0.05137826
0.88759210 0.20510713 0.05246342
0.91650090 0.20611480 0.05354824
0.00203155 0.20948406 0.02350235
0.03033829 0.21014918 0.02441194
0.05867026 0.21083098 0.02524079
0.08704491 0.21152220 0.02591795
0.11549999 0.21220992 0.02638312
0.14408021 0.21288086 0.02665007
0.17279897 0.21353387 0.02686211
0.20160016 0.21419054 0.02727150
0.23036581 0.21489015 0.02811711
0.25898321 0.21566666 0.02947475
0.28742100 0.21652543 0.03120552
0.31574535 0.21744064 0.03304884
0.34406549 0.21837475 0.03477675
0.37246414 0.21930088 0.03628775
0.40096768 0.22021122 0.03759754
0.42956090 0.22111122 0.03877436
0.45821589 0.22200996 0.03988353
0.48691052 0.22291426 0.04096602
0.51563244 0.22382758 0.04204122
0.54437620 0.22475114 0.04311625
0.57313965 0.22568505 0.04419310
0.60192186 0.22662904 0.04527202
0.63072225 0.22758274 0.04635281
0.65954033 0.22854573 0.04743516
0.68837561 0.22951761 0.04851872
0.71722761 0.23049796 0.04960316
0.74609586 0.23148637 0.05068815
0.77497988 0.23248242 0.05177335
0.80387920 0.23348570 0.05285842
0.83279334 0.23449580 0.05394303
0.86172183 0.23551230 0.05502685
0.89066417 0.23653479 0.05610952
0.91961991 0.23756286 0.05719072
0.00317989 0.23979554 0.02682317
0.03158678 0.24051798 0.02780704
0.06001743 0.24125717 0.02877352
0.08847424 0.24201130 0.02969583
0.11696674 0.24277636 0.03054093
0.14551207 0.24354642 0.03128981
0.17412593 0.24431690 0.03196797
0.20280524 0.24509001 0.03266142
0.23151690 0.24587734 0.03349001
0.26020964 0.24669509 0.03454157
0.28884581 0.24755357 0.03581440
0.31742656 0.24844996 0.03721827
0.34598763 0.24937079 0.03863288
0.37457207 0.25030125 0.03997310
0.40320576 0.25123279 0.04121425
0.43189223 0.25216425 0.04237533
0.46062209 0.25309852 0.04348867
0.48938402 0.25403887 0.04458004
0.51817012 0.25498733 0.04566390
0.54697624 0.25594471 0.04674640
0.57580045 0.25691104 0.04782946
0.60464183 0.25788606 0.04891343
0.63349980 0.25886939 0.04999812
0.66237385 0.25986063 0.05108323
0.69126350 0.26085936 0.05216842
0.72016827 0.26186518 0.05325336
0.74908768 0.26287765 0.05433772
0.77802127 0.26389638 0.05542116
0.80696855 0.26492095 0.05650334
0.83592904 0.26595095 0.05758392
0.86490227 0.26698595 0.05866257
0.89388776 0.26802556 0.05973895
0.92288504 0.26906934 0.06081273
0.00462267 0.27030087 0.03021473
0.03311812 0.27107694 0.03123409
0.06163728 0.27186834 0.03225453
0.09017974 0.27267449 0.03326855
0.11874669 0.27349428 0.03426456
0.14734201 0.27432581 0.03523063
0.17597163 0.27516676 0.03616408
0.20463920 0.27601588 0.03708236
0.23334013 0.27687471 0.03802426
0.26205989 0.27774774 0.03903352
0.29078091 0.27863995 0.04013263
0.31949387 0.27955320 0.04130750
0.34820342 0.28048479 0.04251686
0.37692338 0.28142935 0.04371769
0.40566681 0.28238210 0.04488567
0.43443951 0.28334077 0.04601835
0.46324047 0.28430533 0.04712566
0.49206562 0.28527661 0.04821919
0.52091108 0.28625535 0.04930694
0.54977433 0.28724181 0.05039283
0.57865395 0.28823588 0.05147825
0.60754912 0.28923724 0.05256344
0.63645927 0.29024553 0.05364822
0.66538390 0.29126033 0.05473229
0.69432253 0.29228124 0.05581530
0.72327467 0.29330783 0.05689694
0.75223986 0.29433970 0.05797686
0.78121761 0.29537642 0.05905472
0.81020745 0.29641760 0.06013020
0.83920890 0.29746281 0.06120295
0.86822148 0.29851164 0.06227263
0.89724473 0.29956367 0.06333892
0.92627815 0.30061851 0.06440146
0.00634644 0.30098325 0.03367798
0.03492294 0.30180868 0.03471959
0.06352215 0.30264796 0.03576556
0.09214350 0.30350067 0.03681413
0.12078665 0.30436632 0.03786222
0.14945182 0.30524421 0.03890571
0.17814003 0.30613346 0.03994123
0.20685264 0.30703314 0.04096961
0.23558976 0.30794281 0.04199869
0.26434878 0.30886291 0.04304178
0.29312457 0.30979458 0.04411094
0.32191220 0.31073876 0.04520913
0.35070993 0.31169524 0.04632800
0.37951987 0.31266261 0.04745322
0.40834586 0.31363903 0.04857265
0.43719071 0.31462304 0.04968099
0.46605501 0.31561395 0.05077903
0.49493771 0.31661158 0.05187015
0.52383727 0.31761587 0.05295746
0.55275235 0.31862670 0.05404274
0.58168201 0.31964381 0.05512666
0.61062559 0.32066684 0.05620925
0.63958253 0.32169541 0.05729031
0.66855234 0.32272909 0.05836953
0.69753455 0.32376748 0.05944656
0.72652867 0.32481018 0.06052108
0.75553423 0.32585675 0.06159275
0.78455075 0.32690680 0.06266124
0.81357776 0.32795990 0.06372620
0.84261477 0.32901564 0.06478731
0.87166132 0.33007362 0.06584422
0.90071692 0.33113341 0.06689659
0.92978110 0.33219460 0.06794410
0.00833426 0.33182665 0.03720348
0.03698592 0.33269687 0.03826165
0.06565882 0.33357953 0.03932380
0.09435248 0.33447419 0.04038939
0.12306639 0.33538045 0.04145759
0.15180014 0.33629787 0.04252722
0.18055348 0.33722595 0.04359695
0.20932636 0.33816414 0.04466592
0.23811869 0.33911194 0.04573470
0.26692996 0.34006898 0.04680571
0.29575896 0.34103512 0.04788233
0.32460402 0.34201032 0.04896683
0.35346376 0.34299444 0.05005865
0.38233773 0.34398699 0.05115458
0.41122628 0.34498728 0.05225060
0.44012994 0.34599455 0.05334384
0.46904886 0.34700822 0.05443330
0.49798267 0.34802785 0.05551928
0.52693068 0.34905310 0.05660246
0.55589217 0.35008363 0.05768328
0.58486649 0.35111910 0.05876186
0.61385307 0.35215911 0.05983805
0.64285141 0.35320327 0.06091158
0.67186101 0.35425116 0.06198214
0.70088141 0.35530236 0.06304938
0.72991211 0.35635647 0.06411298
0.75895265 0.35741308 0.06517259
0.78800255 0.35847176 0.06622789
0.81706133 0.35953211 0.06727854
0.84612852 0.36059371 0.06832419
0.87520363 0.36165614 0.06936452
0.90428620 0.36271900 0.07039918
0.93337573 0.36378187 0.07142784
0.01056820 0.36281527 0.04077903
0.03928955 0.36372563 0.04184967
0.06803056 0.36464701 0.04292326
0.09679076 0.36557901 0.04399944
0.12556966 0.36652121 0.04507781
0.15436679 0.36747320 0.04615790
0.18318169 0.36843455 0.04723916
0.21201395 0.36940483 0.04832107
0.24086318 0.37038361 0.04940324
0.26972897 0.37137044 0.05048570
0.29861079 0.37236496 0.05156881
0.32750797 0.37336679 0.05265302
0.35641980 0.37437562 0.05373839
0.38534567 0.37539104 0.05482430
0.41428517 0.37641263 0.05590965
0.44323802 0.37743990 0.05699337
0.47220392 0.37847239 0.05807470
0.50118250 0.37950964 0.05915328
0.53017326 0.38055126 0.06022896
0.55917568 0.38159684 0.06130161
0.58818924 0.38264600 0.06237106
0.61721343 0.38369831 0.06343703
0.64624777 0.38475338 0.06449922
0.67529177 0.38581079 0.06555731
0.70434496 0.38687012 0.06661095
0.73340686 0.38793097 0.06765982
0.76247698 0.38899292 0.06870357
0.79155486 0.39005556 0.06974187
0.82064002 0.39111848 0.07077439
0.84973198 0.39218125 0.07180079
0.87883027 0.39324347 0.07282072
0.90793440 0.39430472 0.07383386
0.93704391 0.39536459 0.07483987
0.01303016 0.39393336 0.04439191
0.04181578 0.39487917 0.04547118
0.07061947 0.39583461 0.04655227
0.09944075 0.39679928 0.04763486
0.12827915 0.39777275 0.04871859
0.15713418 0.39875462 0.04980313
0.18600537 0.39974447 0.05088809
0.21489224 0.40074188 0.05197310
0.24379434 0.40174644 0.05305780
0.27271121 0.40275774 0.05414187
0.30164236 0.40377535 0.05522505
0.33058732 0.40479886 0.05630716
0.35954556 0.40582789 0.05738798
0.38851657 0.40686202 0.05846722
0.41749986 0.40790084 0.05954444
0.44649499 0.40894393 0.06061916
0.47550149 0.40999087 0.06169092
0.50451893 0.41104124 0.06275935
0.53354683 0.41209461 0.06382410
0.56258473 0.41315059 0.06488489
0.59163212 0.41420875 0.06594142
0.62068853 0.41526869 0.06699337
0.64975347 0.41632999 0.06804042
0.67882648 0.41739224 0.06908223
0.70790706 0.41845502 0.07011846
0.73699475 0.41951793 0.07114879
0.76608907 0.42058055 0.07217287
0.79518954 0.42164247 0.07319038
0.82429569 0.42270326 0.07420096
0.85340703 0.42376253 0.07520429
0.88252309 0.42481985 0.07620002
0.91164340 0.42587481 0.07718783
0.94076747 0.42692700 0.07816738
0.01570198 0.42516518 0.04802930
0.04454649 0.42614176 0.04911339
0.07340746 0.42712658 0.05019817
0.10228442 0.42811923 0.05128332
0.13117690 0.42911930 0.05236849
0.16008440 0.43012637 0.05345335
0.18900646 0.43114003 0.05453756
0.21794261 0.43215987 0.05562077
0.24689236 0.43318547 0.05670264
0.27585524 0.43421642 0.05778284
0.30483077 0.43525230 0.05886103
0.33381849 0.43629270 0.05993689
0.36281790 0.43733721 0.06101012
0.39182853 0.43838542 0.06208038
0.42084990 0.43943691 0.06314735
0.44988153 0.44049127 0.06421066
0.47892294 0.44154809 0.06526996
0.50797366 0.44260695 0.06632490
0.53703323 0.44366743 0.06737513
0.56610116 0.44472912 0.06842032
0.59517698 0.44579162 0.06946014
0.62426021 0.44685450 0.07049427
0.65335036 0.44791735 0.07152236
0.68244698 0.44897976 0.07254409
0.71154957 0.45004131 0.07355911
0.74065766 0.45110160 0.07456709
0.76977077 0.45216021 0.07556770
0.79888844 0.45321672 0.07656059
0.82801017 0.45427072 0.07754543
0.85713550 0.45532180 0.07852188
0.88626394 0.45636954 0.07948961
0.91539503 0.45741353 0.08044828
0.94452828 0.45845336 0.08139756
0.01856552 0.45649498 0.05167841
0.04746352 0.45749765 0.05276351
0.07637638 0.45850717 0.05384817
0.10530363 0.45952313 0.05493207
0.13424478 0.46054511 0.05601485
0.16319936 0.46157270 0.05709620
0.19216690 0.46260550 0.05817576
0.22114692 0.46364308 0.05925321
0.25013893 0.46468503 0.06032821
0.27914247 0.46573094 0.06140041
0.30815706 0.46678039 0.06246948
0.33718222 0.46783297 0.06353510
0.36621747 0.46888827 0.06459691
0.39526234 0.46994587 0.06565460
0.42431636 0.47100537 0.06670782
0.45337903 0.47206634 0.06775623
0.48244989 0.47312837 0.06879951
0.51152846 0.47419105 0.06983730
0.54061427 0.47525397 0.07086927
0.56970683 0.47631671 0.07189509
0.59880567 0.47737885 0.07291441
0.62791032 0.47844000 0.07392691
0.65702030 0.47949972 0.07493225
0.68613512 0.48055761 0.07593008
0.71525432 0.48161325 0.07692008
0.74437742 0.48266624 0.07790191
0.77350394 0.48371615 0.07887522
0.80263340 0.48476258 0.07983970
0.83176533 0.48580510 0.08079499
0.86089925 0.48684331 0.08174076
0.89003468 0.48787680 0.08267667
0.91917115 0.48890514 0.08360240
0.94830818 0.48992793 0.08451760
0.02160263 0.48790702 0.05532642
0.05054873 0.48893109 0.05640872
0.07950808 0.48996063 0.05748945
0.10848022 0.49099521 0.05856829
0.13746466 0.49203443 0.05964488
0.16646093 0.49307787 0.06071890
0.19546854 0.49412511 0.06179001
0.22448703 0.49517575 0.06285788
0.25351592 0.49622937 0.06392215
0.28255473 0.49728556 0.06498251
0.31160298 0.49834390 0.06603861
0.34066020 0.49940398 0.06709011
0.36972591 0.50046538 0.06813669
0.39879964 0.50152770 0.06917799
0.42788090 0.50259051 0.07021370
0.45696922 0.50365341 0.07124347
0.48606412 0.50471599 0.07226696
0.51516514 0.50577782 0.07328384
0.54427178 0.50683849 0.07429376
0.57338358 0.50789759 0.07529641
0.60250005 0.50895471 0.07629143
0.63162072 0.51000944 0.07727849
0.66074512 0.51106135 0.07825726
0.68987277 0.51211004 0.07922739
0.71900318 0.51315510 0.08018856
0.74813589 0.51419610 0.08114043
0.77727042 0.51523264 0.08208265
0.80640628 0.51626430 0.08301489
0.83554301 0.51729067 0.08393683
0.86468013 0.51831133 0.08484811
0.89381716 0.51932587 0.08574840
0.92295362 0.52033389 0.08663737
0.95208904 0.52133495 0.08751469
0.02479517 0.51938554 0.05896051
0.05378397 0.52042634 0.06003621
0.08278442 0.52147121 0.06110921
0.11179605 0.52251974 0.06217918
0.14081839 0.52357152 0.06324577
0.16985094 0.52462612 0.06430866
0.19889324 0.52568314 0.06536751
0.22794482 0.52674216 0.06642197
0.25700518 0.52780277 0.06747172
0.28607386 0.52886455 0.06851642
0.31515039 0.52992710 0.06955573
0.34423427 0.53098999 0.07058931
0.37332505 0.53205282 0.07161683
0.40242223 0.53311517 0.07263795
0.43152535 0.53417662 0.07365234
0.46063392 0.53523677 0.07465965
0.48974748 0.53629520 0.07565956
0.51886553 0.53735150 0.07665172
0.54798762 0.53840525 0.07763580
0.57711325 0.53945604 0.07861147
0.60624196 0.54050345 0.07957838
0.63537327 0.54154708 0.08053620
0.66450669 0.54258650 0.08148459
0.69364176 0.54362131 0.08242322
0.72277800 0.54465110 0.08335175
0.75191493 0.54567544 0.08426984
0.78105207 0.54669392 0.08517716
0.81018894 0.54770613 0.08607337
0.83932508 0.54871166 0.08695814
0.86846000 0.54971010 0.08783112
0.89759323 0.55070102 0.08869199
0.92672428 0.55168402 0.08954040
0.95585269 0.55265869 0.09037601
0.02812498 0.55091480 0.06256789
0.05715109 0.55196765 0.06363318
0.08618725 0.55302318 0.06469464
0.11523298 0.55408098 0.06575193
0.14428781 0.55514062 0.06680471
0.17335126 0.55620171 0.06785266
0.20242285 0.55726382 0.06889544
0.23150211 0.55832654 0.06993270
0.26058856 0.55938946 0.07096411
0.28968172 0.56045216 0.07198934
0.31878112 0.56151423 0.07300805
0.34788628 0.56257526 0.07401990
0.37699672 0.56363483 0.07502456
0.40611197 0.56469253 0.07602168
0.43523155 0.56574795 0.07701094
0.46435499 0.56680067 0.07799200
0.49348180 0.56785028 0.07896452
0.52261150 0.56889636 0.07992815
0.55174364 0.56993850 0.08088258
0.58087772 0.57097630 0.08182746
0.61001327 0.57200932 0.08276245
0.63914981 0.57303717 0.08368722
0.66828687 0.57405943 0.08460143
0.69742397 0.57507568 0.08550474
0.72656063 0.57608551 0.08639683
0.75569638 0.57708850 0.08727734
0.78483074 0.57808425 0.08814595
0.81396323 0.57907234 0.08900232
0.84309338 0.58005235 0.08984611
0.87222071 0.58102388 0.09067699
0.90134474 0.58198650 0.09149462
0.93046500 0.58293981 0.09229866
0.95958101 0.58388339 0.09308877
0.03157393 0.58247906 0.06613575
0.06063195 0.58353928 0.06718681
0.08969842 0.58460079 0.06823292
0.11877286 0.58566317 0.06927372
0.14785479 0.58672601 0.07030889
0.17694374 0.58778890 0.07133810
0.20603923 0.58885142 0.07236099
0.23514078 0.58991316 0.07337724
0.26424792 0.59097370 0.07438651
0.29336016 0.59203264 0.07538847
0.32247705 0.59308956 0.07638277
0.35159808 0.59414404 0.07736908
0.38072280 0.59519567 0.07834706
0.40985072 0.59624405 0.07931639
0.43898137 0.59728874 0.08027671
0.46811426 0.59832935 0.08122770
0.49724893 0.59936546 0.08216902
0.52638490 0.60039665 0.08310033
0.55552168 0.60142251 0.08402129
0.58465881 0.60244262 0.08493157
0.61379581 0.60345658 0.08583084
0.64293219 0.60446397 0.08671875
0.67206749 0.60546438 0.08759497
0.70120123 0.60645739 0.08845916
0.73033292 0.60744258 0.08931099
0.75946210 0.60841955 0.09015012
0.78858828 0.60938789 0.09097621
0.81771100 0.61034717 0.09178893
0.84682976 0.61129698 0.09258794
0.87594411 0.61223692 0.09337290
0.90505355 0.61316656 0.09414348
0.93415761 0.61408550 0.09489935
0.96325583 0.61499332 0.09564015
0.03512386 0.61406258 0.06965126
0.06420840 0.61512548 0.07068430
0.09329978 0.61618828 0.07171124
0.12239754 0.61725057 0.07273176
0.15150118 0.61831192 0.07374551
0.18061023 0.61937193 0.07475215
0.20972422 0.62043018 0.07575136
0.23884267 0.62148626 0.07674279
0.26796510 0.62253975 0.07772611
0.29709104 0.62359025 0.07870098
0.32622001 0.62463733 0.07966707
0.35535153 0.62568059 0.08062403
0.38448512 0.62671960 0.08157154
0.41362032 0.62775397 0.08250925
0.44275664 0.62878327 0.08343683
0.47189361 0.62980708 0.08435395
0.50103074 0.63082501 0.08526026
0.53016757 0.63183662 0.08615543
0.55930361 0.63284152 0.08703912
0.58843840 0.63383927 0.08791100
0.61757145 0.63482949 0.08877073
0.64670228 0.63581174 0.08961797
0.67583042 0.63678561 0.09045240
0.70495540 0.63775070 0.09127366
0.73407673 0.63870658 0.09208143
0.76319394 0.63965284 0.09287536
0.79230655 0.64058908 0.09365513
0.82141410 0.64151488 0.09442039
0.85051608 0.64242981 0.09517081
0.87961205 0.64333348 0.09590605
0.90870151 0.64422546 0.09662578
0.93778398 0.64510535 0.09732966
0.96685901 0.64597272 0.09801734
0.03875662 0.64564960 0.07310163
0.06786229 0.64671051 0.07411283
0.09697320 0.64776993 0.07511681
0.12608886 0.64882743 0.07611322
0.15520882 0.64988262 0.07710174
0.18433258 0.65093507 0.07808202
0.21345968 0.65198437 0.07905373
0.24258963 0.65303011 0.08001654
0.27172196 0.65407187 0.08097010
0.30085620 0.65510924 0.08191408
0.32999186 0.65614181 0.08284814
0.35912847 0.65716916 0.08377195
0.38826555 0.65819088 0.08468517
0.41740263 0.65920655 0.08558746
0.44653923 0.66021577 0.08647849
0.47567487 0.66121811 0.08735792
0.50480908 0.66221317 0.08822542
0.53394137 0.66320053 0.08908064
0.56307128 0.66417978 0.08992326
0.59219833 0.66515050 0.09075293
0.62132203 0.66611229 0.09156932
0.65044192 0.66706471 0.09237209
0.67955751 0.66800738 0.09316090
0.70866833 0.66893986 0.09393543
0.73777391 0.66986175 0.09469533
0.76687376 0.67077263 0.09544026
0.79596741 0.67167209 0.09616989
0.82505438 0.67255972 0.09688389
0.85413420 0.67343509 0.09758191
0.88320639 0.67429781 0.09826362
