assets/luts/DB_Glacier_Blue_Rec709_50.cube
TITLE "Glacier Blue Rec709 50"
# Red changes fastest. Full-range normalized input.
LUT_3D_SIZE 33
DOMAIN_MIN 0 0 0
DOMAIN_MAX 1 1 1
0.00200000 0.00200000 0.00200000
0.03179513 0.00193336 0.00214010
0.06182326 0.00181411 0.00218753
0.09189112 0.00170233 0.00223537
0.12173361 0.00168036 0.00240953
0.15118808 0.00179846 0.00278559
0.18030037 0.00204185 0.00333957
0.20927005 0.00234798 0.00397544
0.23830243 0.00265266 0.00459584
0.26750286 0.00292289 0.00515148
0.29687224 0.00315819 0.00564242
0.32636131 0.00337364 0.00609199
0.35592022 0.00358449 0.00652348
0.38551767 0.00380019 0.00695128
0.41513902 0.00402501 0.00738196
0.44477875 0.00426036 0.00781779
0.47443508 0.00450654 0.00825931
0.50410738 0.00476345 0.00870654
0.53379534 0.00503091 0.00915935
0.56349870 0.00530871 0.00961757
0.59321724 0.00559665 0.01008103
0.62295070 0.00589452 0.01054957
0.65269885 0.00620212 0.01102302
0.68246146 0.00651924 0.01150120
0.71223827 0.00684567 0.01198396
0.74202907 0.00718120 0.01247112
0.77183360 0.00752563 0.01296252
0.80165163 0.00787876 0.01345798
0.83148292 0.00824037 0.01395734
0.86132723 0.00861025 0.01446043
0.89118432 0.00898821 0.01496709
0.92105396 0.00937403 0.01547713
0.95093591 0.00976751 0.01599041
0.00114798 0.03190926 0.00273547
0.03095863 0.03189496 0.00262651
0.06112921 0.03178762 0.00235702
0.09152943 0.03163072 0.00209275
0.12183297 0.03152805 0.00207384
0.15170070 0.03158495 0.00247264
0.18101027 0.03183679 0.00327662
0.20992434 0.03222942 0.00430271
0.23874779 0.03266537 0.00532493
0.26772533 0.03306763 0.00619881
0.29694513 0.03340905 0.00689587
0.32637301 0.03370089 0.00746060
0.35593385 0.03396694 0.00795250
0.38556606 0.03422645 0.00841456
0.41523524 0.03449000 0.00886915
0.44492663 0.03476193 0.00932523
0.47463508 0.03504359 0.00978565
0.50435900 0.03533520 0.01025102
0.53409782 0.03563664 0.01072138
0.56385126 0.03594773 0.01119657
0.59361907 0.03626826 0.01167644
0.62340100 0.03659803 0.01216082
0.65319682 0.03693683 0.01264954
0.68300630 0.03728445 0.01314244
0.71282918 0.03764069 0.01363934
0.74266524 0.03800533 0.01414008
0.77251423 0.03837818 0.01464448
0.80237592 0.03875903 0.01515239
0.83225007 0.03914766 0.01566363
0.86213644 0.03954388 0.01617804
0.89203479 0.03994747 0.01669544
0.92194488 0.04035823 0.01721567
0.95186648 0.04077595 0.01773856
0.00056031 0.06196189 0.00377421
0.03028819 0.06202847 0.00348281
0.06039495 0.06199196 0.00289947
0.09088395 0.06185668 0.00221093
0.12150886 0.06170565 0.00176867
0.15185512 0.06167122 0.00191524
0.18159781 0.06185236 0.00276484
0.21072174 0.06224742 0.00412598
0.23950456 0.06276329 0.00563602
0.26829998 0.06328602 0.00698214
0.29733169 0.06374549 0.00803082
0.32664146 0.06412998 0.00880941
0.35616163 0.06446208 0.00941343
0.38580514 0.06476980 0.00993093
0.41551111 0.06507242 0.01041567
0.44524877 0.06537945 0.01089251
0.47500594 0.06569448 0.01137049
0.50477861 0.06601849 0.01185223
0.53456558 0.06635159 0.01233825
0.56436639 0.06669362 0.01282851
0.59418077 0.06704441 0.01332289
0.62400848 0.06740373 0.01382120
0.65384928 0.06777138 0.01432330
0.68370292 0.06814717 0.01482900
0.71356917 0.06853087 0.01533814
0.74344780 0.06892229 0.01585055
0.77333855 0.06932122 0.01636607
0.80324121 0.06972744 0.01688452
0.83315552 0.07014076 0.01740573
0.86308124 0.07056097 0.01792955
0.89301815 0.07098785 0.01845579
0.92296600 0.07142121 0.01898430
0.95292456 0.07186084 0.01951490
0.00025703 0.09214284 0.00518034
0.02989964 0.09229441 0.00492258
0.05982479 0.09236823 0.00427677
0.09013956 0.09233561 0.00335296
0.12076261 0.09223019 0.00249750
0.15137532 0.09215889 0.00217494
0.18157468 0.09224921 0.00270318
0.21113877 0.09256497 0.00404163
0.24017094 0.09306476 0.00582093
0.26899738 0.09363922 0.00758530
0.29793519 0.09418623 0.00903553
0.32713761 0.09465862 0.01010477
0.35659649 0.09506106 0.01087961
0.38623029 0.09542085 0.01148407
0.41596000 0.09576359 0.01201144
0.44573699 0.09610475 0.01251211
0.47553883 0.09645124 0.01300718
0.50535721 0.09680543 0.01350371
0.53518955 0.09716787 0.01400355
0.56503502 0.09753851 0.01450699
0.59489328 0.09791721 0.01501397
0.62476406 0.09830374 0.01552432
0.65464713 0.09869792 0.01603788
0.68454225 0.09909953 0.01655449
0.71444917 0.09950836 0.01707396
0.74436767 0.09992421 0.01759614
0.77429749 0.10034687 0.01812086
0.80423841 0.10077614 0.01864795
0.83419019 0.10121180 0.01917724
0.86415258 0.10165366 0.01970856
0.89412535 0.10210149 0.02024174
0.92410826 0.10255511 0.02077663
0.95410107 0.10301430 0.02131303
0.00019485 0.12244960 0.00680247
0.02981652 0.12266883 0.00675929
0.05958977 0.12284935 0.00635458
0.08963638 0.12295495 0.00558407
0.11999958 0.12297842 0.00465985
0.15054038 0.12297183 0.00400056
0.18095239 0.12303677 0.00403932
0.21093583 0.12326593 0.00495635
0.24040053 0.12368006 0.00655647
0.26951421 0.12421762 0.00840275
0.29856293 0.12478311 0.01008394
0.32776719 0.12530608 0.01139782
0.35720056 0.12576501 0.01235365
0.38682620 0.12617358 0.01306478
0.41657263 0.12655566 0.01364720
0.44638272 0.12692979 0.01417633
0.47622492 0.12730593 0.01468888
0.50608580 0.12768812 0.01519894
0.53596067 0.12807760 0.01571085
0.56584808 0.12847453 0.01622560
0.59574751 0.12887879 0.01674328
0.62565867 0.12929020 0.01726377
0.65558132 0.12970856 0.01778689
0.68551521 0.13013365 0.01831249
0.71546011 0.13056527 0.01884040
0.74541578 0.13100321 0.01937045
0.77538197 0.13144727 0.01990247
0.80535846 0.13189723 0.02043629
0.83534500 0.13235290 0.02097174
0.86534136 0.13281406 0.02150867
0.89534729 0.13328052 0.02204689
0.92536256 0.13375205 0.02258624
0.95538693 0.13422846 0.02312655
0.00031637 0.15288383 0.00846844
0.02997637 0.15315040 0.00866919
0.05969680 0.15340781 0.00862911
0.08955567 0.15363114 0.00828050
0.11962607 0.15380023 0.00768263
0.14989881 0.15392388 0.00708158
0.18023121 0.15405319 0.00684415
0.21039770 0.15426152 0.00726184
0.24023064 0.15459836 0.00836169
0.26973372 0.15505564 0.00988799
0.29906546 0.15557702 0.01147128
0.32841887 0.15609861 0.01283535
0.35791194 0.15658329 0.01388929
0.38756343 0.15702669 0.01468428
0.41733411 0.15744261 0.01531989
0.44717575 0.15784705 0.01587885
0.47705506 0.15825069 0.01640897
0.50695532 0.15865869 0.01693143
0.53686988 0.15907291 0.01745373
0.56679649 0.15949379 0.01797794
0.59673439 0.15992129 0.01850442
0.62668323 0.16035523 0.01903313
0.65664276 0.16079543 0.01956392
0.68661273 0.16124166 0.02009661
0.71659291 0.16169373 0.02063105
0.74658305 0.16215142 0.02116706
0.77658292 0.16261453 0.02170447
0.80659228 0.16308286 0.02224312
0.83661089 0.16355619 0.02278285
0.86663852 0.16403432 0.02332347
0.89667492 0.16451705 0.02386482
0.92671985 0.16500416 0.02440674
0.95677309 0.16549545 0.02494905
0.00059162 0.18344242 0.01011292
0.03031204 0.18374432 0.01048234
0.06005437 0.18405084 0.01073528
0.08985106 0.18435063 0.01080730
0.11974966 0.18462904 0.01067833
0.14978080 0.18487890 0.01043325
0.17991352 0.18511398 0.01027542
0.21004246 0.18537070 0.01044579
0.24003927 0.18568961 0.01108133
0.26983712 0.18608848 0.01212332
0.29947392 0.18655066 0.01335751
0.32905664 0.18703891 0.01454935
0.35868659 0.18752003 0.01556015
0.38841111 0.18797950 0.01637116
0.41822594 0.18841963 0.01703492
0.44810397 0.18884964 0.01761632
0.47801944 0.18927788 0.01816159
0.50795660 0.18970928 0.01869482
0.53790811 0.19014592 0.01922577
0.56787119 0.19058843 0.01975758
0.59784485 0.19103682 0.02029098
0.62782868 0.19149096 0.02082602
0.65782239 0.19195065 0.02136256
0.68782574 0.19241569 0.02190044
0.71783850 0.19288586 0.02243950
0.74786042 0.19336097 0.02297957
0.77789127 0.19384080 0.02352048
0.80793080 0.19432514 0.02406206
0.83797878 0.19481380 0.02460414
0.86803498 0.19530656 0.02514655
0.89809915 0.19580322 0.02568913
0.92817105 0.19630357 0.02623171
0.95825045 0.19680740 0.02677412
0.00101577 0.21411703 0.01175117
0.03079415 0.21444959 0.01220597
0.06058513 0.21479049 0.01262039
0.09039746 0.21513610 0.01295897
0.12024999 0.21547996 0.01319156
0.15016511 0.21581543 0.01332504
0.18014949 0.21614193 0.01343105
0.21017508 0.21647027 0.01363575
0.24018290 0.21682007 0.01405855
0.27011660 0.21720833 0.01473737
0.29996050 0.21763771 0.01560276
0.32974768 0.21809532 0.01652442
0.35953275 0.21856237 0.01738837
0.38935707 0.21902544 0.01814388
0.41923384 0.21948061 0.01879877
0.44915545 0.21993061 0.01938718
0.47910795 0.22037998 0.01994176
0.50908026 0.22083213 0.02048301
0.53906622 0.22128879 0.02102061
0.56906310 0.22175057 0.02155812
0.59906982 0.22221752 0.02209655
0.62908593 0.22268952 0.02263601
0.65911113 0.22316637 0.02317641
0.68914516 0.22364787 0.02371758
0.71918780 0.22413381 0.02425936
0.74923880 0.22462398 0.02480158
0.77929793 0.22511818 0.02534407
0.80936494 0.22561621 0.02588668
0.83943960 0.22611785 0.02642921
0.86952167 0.22662290 0.02697152
0.89961091 0.22713115 0.02751342
0.92970709 0.22764240 0.02805476
0.95980995 0.22815643 0.02859536
0.00158994 0.24489777 0.01341159
0.03141839 0.24525899 0.01390352
0.06125872 0.24562859 0.01438676
0.09111212 0.24600565 0.01484792
0.12098337 0.24638818 0.01527046
0.15088103 0.24677321 0.01564491
0.18081296 0.24715845 0.01598399
0.21077762 0.24754500 0.01633071
0.24075845 0.24793867 0.01674501
0.27072982 0.24834754 0.01727078
0.30067290 0.24877678 0.01790720
0.33058828 0.24922498 0.01860913
0.36049382 0.24968539 0.01931644
0.39041103 0.25015062 0.01998655
0.42035288 0.25061639 0.02060712
0.45032111 0.25108213 0.02118767
0.48031104 0.25154926 0.02174433
0.51031701 0.25201943 0.02229002
0.54033506 0.25249367 0.02283195
0.57036312 0.25297235 0.02337320
0.60040022 0.25345552 0.02391473
0.63044592 0.25394303 0.02445672
0.66049990 0.25443470 0.02499906
0.69056193 0.25493032 0.02554161
0.72063175 0.25542968 0.02608421
0.75070913 0.25593259 0.02662668
0.78079384 0.25643883 0.02716886
0.81088563 0.25694819 0.02771058
0.84098427 0.25746048 0.02825167
0.87108952 0.25797547 0.02879196
0.90120113 0.25849298 0.02933129
0.93131888 0.25901278 0.02986948
0.96144252 0.25953467 0.03040637
0.00231134 0.27577543 0.01510737
0.03218406 0.27616347 0.01561705
0.06206864 0.27655917 0.01612726
0.09196487 0.27696224 0.01663428
0.12187334 0.27737214 0.01713228
0.15179601 0.27778790 0.01761532
0.18173582 0.27820838 0.01808204
0.21169460 0.27863294 0.01854118
0.24167007 0.27906235 0.01901213
0.27165494 0.27949887 0.01951676
0.30164045 0.27994498 0.02006631
0.33162193 0.28040160 0.02065375
0.36160171 0.28086740 0.02125843
0.39158669 0.28133967 0.02185885
0.42158340 0.28181605 0.02244283
0.45159476 0.28229539 0.02300918
0.48162024 0.28277766 0.02356283
0.51165781 0.28326331 0.02410960
0.54170554 0.28375268 0.02465347
0.57176217 0.28424590 0.02519641
0.60182698 0.28474294 0.02573913
0.63189956 0.28524362 0.02628172
0.66197964 0.28574777 0.02682411
0.69206695 0.28625517 0.02736614
0.72216126 0.28676562 0.02790765
0.75226234 0.28727891 0.02844847
0.78236993 0.28779485 0.02898843
0.81248380 0.28831321 0.02952736
0.84260372 0.28883380 0.03006510
0.87272945 0.28935640 0.03060147
0.90286074 0.28988082 0.03113632
0.93299736 0.29040684 0.03166946
0.96313908 0.29093425 0.03220073
0.00317322 0.30674162 0.01683899
0.03308647 0.30715434 0.01735979
0.06301107 0.30757398 0.01788278
0.09294675 0.30800034 0.01840706
0.12289333 0.30843316 0.01893111
0.15285091 0.30887211 0.01945286
0.18282002 0.30931673 0.01997061
0.21280132 0.30976657 0.02048481
0.24279488 0.31022140 0.02099934
0.27279939 0.31068145 0.02152089
0.30281228 0.31114729 0.02205547
0.33283110 0.31161938 0.02260456
0.36285496 0.31209762 0.02316400
0.39288493 0.31258131 0.02372661
0.42292293 0.31306951 0.02428632
0.45297035 0.31356152 0.02484050
0.48302751 0.31405697 0.02538952
0.51309386 0.31455579 0.02593508
0.54316864 0.31505794 0.02647873
0.57325118 0.31556335 0.02702137
0.60334101 0.31607191 0.02756333
0.63343779 0.31658342 0.02810463
0.66354126 0.31709770 0.02864516
0.69365117 0.31761454 0.02918476
0.72376727 0.31813374 0.02972328
0.75388933 0.31865509 0.03026054
0.78401711 0.31917838 0.03079638
0.81415038 0.31970340 0.03133062
0.84428888 0.32022995 0.03186310
0.87443239 0.32075782 0.03239365
0.90458066 0.32128681 0.03292211
0.93473346 0.32181670 0.03344830
0.96489055 0.32234730 0.03397205
0.00416713 0.33778832 0.01860174
0.03411796 0.33822344 0.01913082
0.06407941 0.33866476 0.01966190
0.09405124 0.33911210 0.02019469
0.12403319 0.33956523 0.02072879
0.15402507 0.34002394 0.02126361
0.18402674 0.34048797 0.02179848
0.21403818 0.34095707 0.02233296
0.24405934 0.34143097 0.02286735
0.27408998 0.34190949 0.02340286
0.30412948 0.34239256 0.02394117
0.33417701 0.34288016 0.02448341
0.36423188 0.34337222 0.02502932
0.39429386 0.34386849 0.02557729
0.42436314 0.34436864 0.02612530
0.45443997 0.34487228 0.02667192
0.48452443 0.34537911 0.02721665
0.51461634 0.34588893 0.02775964
0.54471534 0.34640155 0.02830123
0.57482109 0.34691682 0.02884164
0.60493324 0.34743455 0.02938093
0.63505154 0.34795456 0.02991903
0.66517570 0.34847663 0.03045579
0.69530551 0.34900058 0.03099107
0.72544070 0.34952618 0.03152469
0.75558106 0.35005324 0.03205649
0.78572633 0.35058154 0.03258630
0.81587628 0.35111088 0.03311395
0.84603067 0.35164105 0.03363927
0.87618926 0.35217185 0.03416210
0.90635182 0.35270307 0.03468226
0.93651810 0.35323450 0.03519959
0.96668787 0.35376594 0.03571392
0.00528410 0.36890763 0.02038952
0.03526977 0.36936281 0.02092484
0.06526528 0.36982350 0.02146163
0.09527038 0.37028950 0.02199972
0.12528483 0.37076060 0.02253890
0.15530840 0.37123660 0.02307895
0.18534085 0.37171727 0.02361958
0.21538198 0.37220242 0.02416053
0.24543159 0.37269180 0.02470162
0.27548948 0.37318522 0.02524285
0.30555539 0.37368248 0.02578440
0.33562898 0.37418340 0.02632651
0.36570990 0.37468781 0.02686919
0.39579784 0.37519552 0.02741215
0.42589259 0.37570632 0.02795483
0.45599401 0.37621995 0.02849669
0.48610196 0.37673619 0.02903735
0.51621625 0.37725482 0.02957664
0.54633663 0.37777563 0.03011448
0.57646284 0.37829842 0.03065081
0.60659462 0.37882300 0.03118553
0.63673172 0.37934916 0.03171852
0.66687389 0.37987669 0.03224961
0.69702089 0.38040539 0.03277865
0.72717248 0.38093506 0.03330548
0.75732843 0.38146549 0.03382991
0.78748849 0.38199646 0.03435179
0.81765243 0.38252778 0.03487094
0.84782001 0.38305924 0.03538720
0.87799099 0.38359062 0.03590039
0.90816513 0.38412173 0.03641036
0.93834220 0.38465236 0.03691693
0.96852195 0.38518230 0.03741994
0.00651508 0.40009168 0.02219595
0.03653289 0.40056459 0.02273559
0.06655974 0.40104231 0.02327614
0.09659538 0.40152464 0.02381743
0.12663957 0.40201137 0.02435930
0.15669209 0.40250231 0.02490156
0.18675268 0.40299723 0.02544404
0.21682112 0.40349594 0.02598655
0.24689717 0.40399822 0.02652890
0.27698060 0.40450387 0.02707093
0.30707118 0.40501267 0.02761252
0.33716866 0.40552443 0.02815358
0.36727278 0.40603894 0.02869399
0.39738328 0.40655601 0.02923361
0.42749993 0.40707542 0.02977222
0.45762249 0.40759697 0.03030958
0.48775074 0.40812044 0.03084546
0.51788446 0.40864562 0.03137967
0.54802342 0.40917231 0.03191205
0.57816736 0.40970029 0.03244245
0.60831606 0.41022937 0.03297071
0.63846926 0.41075934 0.03349669
0.66862674 0.41128999 0.03402021
0.69878824 0.41182112 0.03454111
0.72895353 0.41235251 0.03505923
0.75912238 0.41288397 0.03557440
0.78929454 0.41341528 0.03608644
0.81946977 0.41394623 0.03659519
0.84964784 0.41447663 0.03710048
0.87982851 0.41500626 0.03760214
0.91001154 0.41553492 0.03810001
0.94019670 0.41606241 0.03859392
0.97038374 0.41658850 0.03908369
0.00785099 0.43133259 0.02401465
0.03789824 0.43182088 0.02455669
0.06795373 0.43231329 0.02509909
0.09801721 0.43280962 0.02564166
0.12808845 0.43330965 0.02618425
0.15816720 0.43381319 0.02672668
0.18825323 0.43432002 0.02726878
0.21834630 0.43482994 0.02781038
0.24844618 0.43534274 0.02835132
0.27855262 0.43585821 0.02889142
0.30866539 0.43637615 0.02943051
0.33878424 0.43689635 0.02996845
0.36890895 0.43741861 0.03050506
0.39903927 0.43794271 0.03104019
0.42917495 0.43846846 0.03157367
0.45931576 0.43899564 0.03210533
0.48946147 0.43952404 0.03263498
0.51961183 0.44005347 0.03316245
0.54976661 0.44058371 0.03368756
0.57992558 0.44111456 0.03421016
0.61008849 0.44164581 0.03473007
0.64025510 0.44217725 0.03524713
0.67042518 0.44270867 0.03576118
0.70059849 0.44323988 0.03627204
0.73077478 0.44377066 0.03677956
0.76095383 0.44430080 0.03728355
0.79113539 0.44483010 0.03778385
0.82131922 0.44535836 0.03828029
0.85150508 0.44588536 0.03877271
0.88169275 0.44641090 0.03926094
0.91188197 0.44693477 0.03974481
0.94207251 0.44745677 0.04022414
0.97226414 0.44797668 0.04069878
0.00928276 0.46262249 0.02583920
0.03935676 0.46312382 0.02638175
0.06943819 0.46362858 0.02692409
0.09952681 0.46413656 0.02746603
0.12962239 0.46464755 0.02800743
0.15972468 0.46516135 0.02854810
0.18983345 0.46567775 0.02908788
0.21994846 0.46619654 0.02962661
0.25006947 0.46671751 0.03016410
0.28019624 0.46724047 0.03070020
0.31032853 0.46776519 0.03123474
0.34046611 0.46829149 0.03176755
0.37060874 0.46881913 0.03229846
0.40075617 0.46934794 0.03282730
0.43090818 0.46987768 0.03335391
0.46106451 0.47040817 0.03387812
0.49122495 0.47093918 0.03439975
0.52138923 0.47147052 0.03491865
0.55155713 0.47200198 0.03543464
0.58172841 0.47253335 0.03594754
0.61190284 0.47306443 0.03645721
0.64208016 0.47359500 0.03696346
0.67226015 0.47412486 0.03746612
0.70244256 0.47465380 0.03796504
0.73262716 0.47518163 0.03846004
0.76281371 0.47570812 0.03895095
0.79300197 0.47623308 0.03943761
0.82319170 0.47675629 0.03991985
0.85338266 0.47727755 0.04039749
0.88357462 0.47779666 0.04087038
0.91376734 0.47831340 0.04133834
0.94396058 0.47882757 0.04180120
0.97415409 0.47933896 0.04225880
0.01080132 0.49395351 0.02766321
0.04089936 0.49446555 0.02820436
0.07100404 0.49498031 0.02874473
0.10111511 0.49549761 0.02928414
0.13123233 0.49601721 0.02982244
0.16135546 0.49653893 0.03035945
0.19148427 0.49706256 0.03089501
0.22161852 0.49758788 0.03142894
0.25175796 0.49811469 0.03196108
0.28190237 0.49864278 0.03249125
0.31205149 0.49917195 0.03301930
0.34220510 0.49970199 0.03354506
0.37236296 0.50023269 0.03406834
0.40252482 0.50076385 0.03458900
0.43269045 0.50129526 0.03510685
0.46285961 0.50182671 0.03562173
0.49303206 0.50235799 0.03613348
0.52320757 0.50288891 0.03664192
0.55338589 0.50341924 0.03714688
0.58356679 0.50394880 0.03764820
0.61375002 0.50447736 0.03814571
0.64393536 0.50500472 0.03863925
0.67412256 0.50553068 0.03912863
0.70431138 0.50605502 0.03961370
0.73450159 0.50657755 0.04009428
0.76469295 0.50709805 0.04057021
0.79488521 0.50761632 0.04104132
0.82507814 0.50813215 0.04150745
0.85527151 0.50864533 0.04196841
0.88546506 0.50915566 0.04242405
0.91565858 0.50966294 0.04287420
0.94585181 0.51016694 0.04331869
0.97604452 0.51066748 0.04375734
0.01239758 0.52531777 0.02948026
0.04251698 0.52583817 0.03001811
0.07264221 0.52636061 0.03055461
0.10277303 0.52688487 0.03108959
0.13290919 0.52741076 0.03162289
0.16305047 0.52793806 0.03215433
0.19319662 0.52846657 0.03268375
0.22334741 0.52899608 0.03321099
0.25350259 0.52952638 0.03373586
0.28366193 0.53005728 0.03425821
0.31382519 0.53058855 0.03477786
0.34399214 0.53112000 0.03529466
0.37416252 0.53165141 0.03580842
0.40433612 0.53218258 0.03631898
0.43451267 0.53271331 0.03682617
0.46469196 0.53324339 0.03732983
0.49487374 0.53377260 0.03782978
0.52505777 0.53430075 0.03832586
0.55524381 0.53482762 0.03881790
0.58543163 0.53535302 0.03930573
0.61562098 0.53587673 0.03978919
0.64581163 0.53639854 0.04026810
0.67600335 0.53691825 0.04074229
0.70619588 0.53743566 0.04121161
0.73638900 0.53795055 0.04167587
0.76658246 0.53846272 0.04213492
0.79677603 0.53897196 0.04258858
0.82696947 0.53947807 0.04303669
0.85716254 0.53998083 0.04347907
0.88735500 0.54048005 0.04391556
0.91754661 0.54097551 0.04434599
0.94773714 0.54146701 0.04477020
0.97792635 0.54195434 0.04518801
0.01406249 0.55670740 0.03128395
0.04420055 0.55723383 0.03181659
0.07434363 0.55776159 0.03234732
0.10449149 0.55829049 0.03287596
0.13464391 0.55882031 0.03340236
0.16480063 0.55935085 0.03392633
0.19496143 0.55988191 0.03444772
0.22512606 0.56041327 0.03496635
0.25529428 0.56094473 0.03548206
0.28546586 0.56147608 0.03599467
0.31564056 0.56200712 0.03650403
0.34581814 0.56253763 0.03700995
0.37599836 0.56306742 0.03751228
0.40618099 0.56359627 0.03801084
0.43636578 0.56412397 0.03850547
0.46655249 0.56465033 0.03899600
0.49674090 0.56517514 0.03948226
0.52693075 0.56569818 0.03996408
0.55712182 0.56621925 0.04044129
0.58731386 0.56673815 0.04091373
0.61750663 0.56725466 0.04138122
0.64769990 0.56776859 0.04184361
0.67789343 0.56827971 0.04230071
0.70808698 0.56878784 0.04275237
0.73828031 0.56929275 0.04319841
0.76847319 0.56979425 0.04363867
0.79866537 0.57029213 0.04407298
0.82885661 0.57078617 0.04450116
0.85904669 0.57127618 0.04492306
0.88923535 0.57176194 0.04533850
0.91942237 0.57224325 0.04574731
0.94960750 0.57271991 0.04614933
0.97979050 0.57319170 0.04654439
0.01578697 0.58811453 0.03306787
0.04594098 0.58864464 0.03359341
0.07609921 0.58917539 0.03411646
0.10626143 0.58970658 0.03463686
0.13642740 0.59023800 0.03515445
0.16659687 0.59076945 0.03566905
0.19676961 0.59130071 0.03618049
0.22694539 0.59183158 0.03668862
0.25712396 0.59236185 0.03719326
0.28730508 0.59289132 0.03769423
0.31748852 0.59341978 0.03819138
0.34767404 0.59394702 0.03868454
0.37786140 0.59447284 0.03917353
0.40805036 0.59499702 0.03965819
0.43824068 0.59551937 0.04013836
0.46843213 0.59603968 0.04061385
0.49862447 0.59655773 0.04108451
0.52881745 0.59707332 0.04155016
0.55901084 0.59758625 0.04201064
0.58920441 0.59809631 0.04246579
0.61939790 0.59860329 0.04291542
0.64959110 0.59910699 0.04335937
0.67978375 0.59960719 0.04379748
0.70997561 0.60010369 0.04422958
0.74016646 0.60059629 0.04465549
0.77035605 0.60108478 0.04507506
0.80054414 0.60156894 0.04548811
0.83073050 0.60204858 0.04589447
0.86091488 0.60252349 0.04629397
0.89109705 0.60299346 0.04668645
0.92127677 0.60345828 0.04707174
0.95145381 0.60391775 0.04744967
0.98162791 0.60437166 0.04782008
0.01756193 0.61953129 0.03482563
0.04772920 0.62006274 0.03534215
0.07789989 0.62059414 0.03585562
0.10807377 0.62112528 0.03636588
0.13825059 0.62165596 0.03687275
0.16843011 0.62218597 0.03737608
0.19861211 0.62271509 0.03787568
0.22879633 0.62324313 0.03837139
0.25898255 0.62376988 0.03886305
0.28917052 0.62429512 0.03935049
0.31936000 0.62481867 0.03983353
0.34955076 0.62534029 0.04031202
0.37974256 0.62585980 0.04078577
0.40993516 0.62637698 0.04125462
0.44012832 0.62689163 0.04171842
0.47032180 0.62740354 0.04217697
0.50051537 0.62791250 0.04263013
0.53070879 0.62841831 0.04307771
0.56090181 0.62892076 0.04351956
0.59109420 0.62941964 0.04395550
0.62128572 0.62991474 0.04438536
0.65147614 0.63040587 0.04480899
0.68166521 0.63089281 0.04522620
0.71185270 0.63137535 0.04563683
0.74203836 0.63185329 0.04604071
0.77222197 0.63232642 0.04643768
0.80240328 0.63279454 0.04682756
0.83258205 0.63325744 0.04721019
0.86275804 0.63371491 0.04758540
0.89293102 0.63416674 0.04795303
0.92310075 0.63461273 0.04831289
0.95326699 0.63505267 0.04866483
0.98342950 0.63548636 0.04900867
0.01937831 0.65094980 0.03655081
0.04955615 0.65148026 0.03705641
0.07973660 0.65200996 0.03755840
0.10991943 0.65253872 0.03805661
0.14010441 0.65306631 0.03855087
0.17029129 0.65359254 0.03904101
0.20047984 0.65411719 0.03952687
0.23066982 0.65464005 0.04000827
0.26086098 0.65516093 0.04048505
0.29105310 0.65567962 0.04095704
0.32124593 0.65619590 0.04142407
0.35143923 0.65670958 0.04188597
0.38163278 0.65722044 0.04234258
0.41182632 0.65772827 0.04279373
0.44201961 0.65823288 0.04323925
0.47221243 0.65873406 0.04367896
0.50240454 0.65923159 0.04411271
0.53259569 0.65972527 0.04454032
0.56278564 0.66021489 0.04496163
0.59297416 0.66070025 0.04537646
0.62316102 0.66118114 0.04578466
0.65334596 0.66165736 0.04618604
0.68352875 0.66212869 0.04658045
0.71370917 0.66259493 0.04696771
0.74388695 0.66305587 0.04734766
0.77406188 0.66351132 0.04772013
0.80423370 0.66396105 0.04808495
0.83440219 0.66440486 0.04844194
0.86456710 0.66484255 0.04879095
0.89472819 0.66527391 0.04913181
