assets/luts/DB_Glacier_Blue_Rec709_100.cube
TITLE "Glacier Blue Rec709 100"
# Red changes fastest. Full-range normalized input.
LUT_3D_SIZE 5
DOMAIN_MIN 0 0 0
DOMAIN_MAX 1 1 1
0.00400000 0.00400000 0.00400000
0.22660486 0.00530532 0.00919169
0.44887016 0.00901308 0.01651862
0.67447655 0.01369133 0.02396792
0.90187182 0.01953503 0.03198081
0.00317989 0.23979554 0.02682317
0.23151690 0.24587734 0.03349001
0.46062209 0.25309852 0.04348867
0.69126350 0.26085936 0.05216842
0.92288504 0.26906934 0.06081273
0.02160263 0.48790702 0.05532642
0.25351592 0.49622937 0.06392215
0.48606412 0.50471599 0.07226696
0.71900318 0.51315510 0.08018856
0.95208904 0.52133495 0.08751469
0.04997046 0.74027424 0.08293374
0.28304916 0.74830714 0.09000029
0.51594175 0.75579192 0.09623638
0.74840418 0.76251686 0.10146971
0.98019238 0.76827018 0.10552802
0.07899407 0.98883506 0.10309228
0.31047622 0.99418207 0.10668003
0.54095124 0.99826863 0.10885776
0.77108832 1.00000000 0.11551065
0.99619881 1.00000000 0.13127700
0.00277746 0.00439009 0.22995908
0.22487567 0.00666510 0.23609247
0.44916597 0.01045801 0.24307456
0.67540726 0.01555579 0.25073457
0.90335451 0.02174712 0.25889967
0.00432283 0.24179441 0.25365746
0.23434090 0.24723028 0.25856672
0.46437474 0.25498688 0.26910319
0.69372159 0.26360729 0.27921446
0.92561625 0.27192300 0.28781420
0.02416972 0.49070177 0.28236302
0.25632434 0.49910366 0.29088584
0.48943107 0.50739168 0.29744404
0.72206293 0.51596826 0.30683182
0.95513078 0.52401633 0.31393666
0.05302539 0.74305057 0.30951601
0.28606826 0.75092107 0.31631985
0.51884213 0.75817156 0.32223471
0.75110296 0.76459027 0.32708832
0.98260668 0.76996546 0.33070840
0.08159887 0.99077913 0.32855812
0.31276636 0.99572183 0.33168634
0.54284384 0.99933217 0.33334604
0.77349882 1.00000000 0.34158819
0.99714689 1.00000000 0.35322490
0.00183613 0.00497959 0.45603578
0.22470583 0.00779396 0.46247662
0.44968672 0.01205348 0.46970860
0.67653473 0.01754637 0.47755946
0.90500582 0.02406090 0.48585691
0.00565104 0.24391096 0.48053763
0.23465247 0.25074480 0.48895493
0.46494523 0.25831088 0.49758370
0.69628165 0.26639921 0.50625196
0.92842137 0.27479619 0.51478721
0.02682862 0.49353159 0.50938380
0.25919936 0.50198852 0.51782734
0.49371767 0.50903998 0.52187759
0.72675251 0.51801570 0.53196140
0.95815178 0.52663509 0.54026331
0.05607745 0.74577982 0.53601562
0.28905633 0.75346350 0.54253688
0.52168123 0.76045544 0.54810446
0.75399020 0.76640243 0.55113919
0.98491629 0.77151256 0.55570988
0.08410611 0.99259396 0.55387446
0.31493079 0.99710793 0.55652328
0.54513467 1.00000000 0.55817509
0.77595595 1.00000000 0.56477739
0.99809782 1.00000000 0.57206870
0.00116643 0.00576017 0.68222371
0.22478046 0.00908907 0.68895255
0.45042280 0.01379119 0.69641402
0.67784939 0.01965478 0.70443586
0.90681616 0.02646809 0.71284579
0.00715576 0.24613647 0.70746176
0.23662266 0.25324296 0.71597020
0.46729685 0.26101031 0.72463175
0.69893426 0.26922679 0.73327411
0.93129084 0.27768063 0.74172502
0.02956978 0.49638820 0.73638201
0.26212759 0.50487587 0.74472045
0.49507169 0.51331200 0.75263246
0.72815915 0.52148434 0.75994564
0.96114237 0.52918296 0.76648798
0.05911707 0.74845368 0.76242583
0.29200382 0.75592613 0.76864463
0.52445535 0.76263472 0.77385710
0.75723560 0.76732969 0.77524967
0.98849114 0.77233644 0.77961187
0.08650622 0.99427126 0.77903456
0.31695995 0.99833207 0.78118411
0.54894656 1.00000000 0.78261721
0.77845704 1.00000000 0.78496576
0.99908321 1.00000000 0.78741582
0.00075880 0.00672355 0.90851601
0.22508902 0.01054254 0.91551297
0.45136467 0.01566285 0.92318407
0.67934168 0.02187272 0.93135702
0.90877599 0.02896039 0.93985957
0.00882785 0.24846262 0.93442341
0.23873212 0.25581728 0.94300316
0.46976080 0.26376091 0.95167751
0.70166981 0.27208174 0.96027418
0.93421511 0.28056802 0.96862088
0.03238363 0.49926328 0.96335092
0.26509998 0.50775721 0.97156385
0.49811972 0.51612775 0.97929182
0.73119877 0.52416313 0.98636258
0.96409310 0.53165161 0.99260383
0.06213470 0.75106387 0.98873988
0.29490117 0.75830066 0.99463637
0.52715001 0.76470170 0.99946836
0.75899892 0.77025693 1.00000000
0.98437139 0.77609041 1.00000000
0.10316485 0.99193656 1.00000000
0.33902046 0.99395999 1.00000000
0.56768030 0.99601043 1.00000000
0.78829297 0.99803922 1.00000000
1.00000000 1.00000000 1.00000000
