assets/luts/DB_Glacier_Blue_Rec709_50.cube
TITLE "Glacier Blue Rec709 50"
# Red changes fastest. Full-range normalized input.
LUT_3D_SIZE 9
DOMAIN_MIN 0 0 0
DOMAIN_MAX 1 1 1
0.00200000 0.00200000 0.00200000
0.12173361 0.00168036 0.00240953
0.23830243 0.00265266 0.00459584
0.35592022 0.00358449 0.00652348
0.47443508 0.00450654 0.00825931
0.59321724 0.00559665 0.01008103
0.71223827 0.00684567 0.01198396
0.83148292 0.00824037 0.01395734
0.95093591 0.00976751 0.01599041
0.00019485 0.12244960 0.00680247
0.11999958 0.12297842 0.00465985
0.24040053 0.12368006 0.00655647
0.35720056 0.12576501 0.01235365
0.47622492 0.12730593 0.01468888
0.59574751 0.12887879 0.01674328
0.71546011 0.13056527 0.01884040
0.83534500 0.13235290 0.02097174
0.95538693 0.13422846 0.02312655
0.00158994 0.24489777 0.01341159
0.12098337 0.24638818 0.01527046
0.24075845 0.24793867 0.01674501
0.36049382 0.24968539 0.01931644
0.48031104 0.25154926 0.02174433
0.60040022 0.25345552 0.02391473
0.72063175 0.25542968 0.02608421
0.84098427 0.25746048 0.02825167
0.96144252 0.25953467 0.03040637
0.00528410 0.36890763 0.02038952
0.12528483 0.37076060 0.02253890
0.24543159 0.37269180 0.02470162
0.36570990 0.37468781 0.02686919
0.48610196 0.37673619 0.02903735
0.60659462 0.37882300 0.03118553
0.72717248 0.38093506 0.03330548
0.84782001 0.38305924 0.03538720
0.96852195 0.38518230 0.03741994
0.01080132 0.49395351 0.02766321
0.13123233 0.49601721 0.02982244
0.25175796 0.49811469 0.03196108
0.37236296 0.50023269 0.03406834
0.49303206 0.50235799 0.03613348
0.61375002 0.50447736 0.03814571
0.73450159 0.50657755 0.04009428
0.85527151 0.50864533 0.04196841
0.97604452 0.51066748 0.04375734
0.01756193 0.61953129 0.03482563
0.13825059 0.62165596 0.03687275
0.25898255 0.62376988 0.03886305
0.37974256 0.62585980 0.04078577
0.50051537 0.62791250 0.04263013
0.62128572 0.62991474 0.04438536
0.74203836 0.63185329 0.04604071
0.86275804 0.63371491 0.04758540
0.98342950 0.63548636 0.04900867
0.02498523 0.74513712 0.04146687
0.14575891 0.74717298 0.04328003
0.26652458 0.74915357 0.04500015
0.38726699 0.75106564 0.04661646
0.50797088 0.75289596 0.04811819
0.62862099 0.75463130 0.04949458
0.74920209 0.75625843 0.05073485
0.86969891 0.75776410 0.05182825
0.99009619 0.75913509 0.05276401
0.03249050 0.87026715 0.04717701
0.15317658 0.87206443 0.04863436
0.27380334 0.87376191 0.04996244
0.39435552 0.87534635 0.05115049
0.51481786 0.87680452 0.05218774
0.63517513 0.87812319 0.05306343
0.75541205 0.87928911 0.05376679
0.87551338 0.88028907 0.05428705
0.99546387 0.88110982 0.05461344
0.03949704 0.99441753 0.05154614
0.15992289 0.99582644 0.05252582
0.28023811 0.99709104 0.05334002
0.40042744 0.99819807 0.05397796
0.52047562 0.99913431 0.05442888
0.64036740 0.99988653 0.05468202
0.76054416 1.00000000 0.05775533
0.87986653 1.00000000 0.06161364
0.99809940 1.00000000 0.06563850
0.00167533 0.00208197 0.12100799
0.11956383 0.00243246 0.12247200
0.23760826 0.00305286 0.12396990
0.35588240 0.00387888 0.12563053
0.47449468 0.00485810 0.12739320
0.59335967 0.00600366 0.12924371
0.71245836 0.00730364 0.13117177
0.83177547 0.00874480 0.13316663
0.95129575 0.01031392 0.13521751
0.00028068 0.12274091 0.12623483
0.11949253 0.12345575 0.12701133
0.24083904 0.12377166 0.12715582
0.35791794 0.12604961 0.13132222
0.47655473 0.12782179 0.13389804
0.59613058 0.12943935 0.13597596
0.71590338 0.13116167 0.13808592
0.83584331 0.13298065 0.14022644
0.95593511 0.13488306 0.14238676
0.00186215 0.24539007 0.13261459
0.12129135 0.24689582 0.13415285
0.24264437 0.24768638 0.13113305
0.36384231 0.24911484 0.13367037
0.48114681 0.25207039 0.14061023
0.60096783 0.25411789 0.14317348
0.72123958 0.25611366 0.14534605
0.84162972 0.25816068 0.14751038
0.96212040 0.26024660 0.14965830
0.00576796 0.36952731 0.13964207
0.12581910 0.37140843 0.14179474
0.24601486 0.37335399 0.14378473
0.36653103 0.37528471 0.14530989
0.48689917 0.37738823 0.14797865
0.60728932 0.37953589 0.15042389
0.72788628 0.38165574 0.15254223
0.84855397 0.38378103 0.15460856
0.96927092 0.38590069 0.15662221
0.01143705 0.49464975 0.14692314
0.13190191 0.49672640 0.14907658
0.25245618 0.49883233 0.15120566
0.37308476 0.50095421 0.15329737
0.49377311 0.50307866 0.15534335
0.61450347 0.50519330 0.15733933
0.73526269 0.50728407 0.15926462
0.85603536 0.50933784 0.16111104
0.97680595 0.51134148 0.16286858
0.01829092 0.62025322 0.15405155
0.13899599 0.62237573 0.15608058
0.25973919 0.62448298 0.15804914
0.38050526 0.62656175 0.15994645
0.50127894 0.62859879 0.16176175
0.62204499 0.63058089 0.16348427
0.74278815 0.63249479 0.16510325
0.86349316 0.63432727 0.16660791
0.98414478 0.63606510 0.16798749
0.02574884 0.74583389 0.16061739
0.14652151 0.74785246 0.16240016
0.26728099 0.74981126 0.16408623
0.38801203 0.75169706 0.16566484
0.50869937 0.75349661 0.16712521
0.62932776 0.75519668 0.16845658
0.74988194 0.75678405 0.16964819
0.87034667 0.75824546 0.17068926
0.99070668 0.75956770 0.17156903
0.03323012 0.87088789 0.16621076
0.15389776 0.87265275 0.16762542
0.27450090 0.87431333 0.16890715
0.39502429 0.87585637 0.17004520
0.51545266 0.87726865 0.17102879
0.63577076 0.87853693 0.17184716
0.75596335 0.87964798 0.17248954
0.87601517 0.88058856 0.17294517
0.99591096 0.88134543 0.17320327
0.04015404 0.99491136 0.17042173
0.16054403 0.99627275 0.17134642
0.28081820 0.99748532 0.17210197
0.40096131 0.99853584 0.17267760
0.52095809 0.99941107 0.17306257
0.64095541 1.00000000 0.17373731
0.76114381 1.00000000 0.17695177
0.88029224 1.00000000 0.18031027
0.99833618 1.00000000 0.18381601
0.00138873 0.00219504 0.23997954
0.11926856 0.00266231 0.24145470
0.23743784 0.00333255 0.24304624
0.35588071 0.00419267 0.24474392
0.47458298 0.00522901 0.24653728
0.59352906 0.00642849 0.24841533
0.71270363 0.00777790 0.25036728
0.83209145 0.00926400 0.25238237
0.95167726 0.01087356 0.25444983
0.00034073 0.12307520 0.24538656
0.11914395 0.12416191 0.24721285
0.23831824 0.12534911 0.24907773
0.35751477 0.12678791 0.25106371
0.47688474 0.12835975 0.25312815
0.59653465 0.13001260 0.25521342
0.71636592 0.13176923 0.25733496
0.83635914 0.13361803 0.25948341
0.95649903 0.13554576 0.26164801
0.00216141 0.24589720 0.25182873
0.12168317 0.24746333 0.25382328
0.24217045 0.24861514 0.25428336
0.36462965 0.24936103 0.25425177
0.48218737 0.25249344 0.25955159
0.60156071 0.25478377 0.26242692
0.72186079 0.25680365 0.26460723
0.84228677 0.25886537 0.26676721
0.96280812 0.26096150 0.26890710
0.00626981 0.37015702 0.25889725
0.12636947 0.37206459 0.26105398
0.24660075 0.37397994 0.26264344
0.36886214 0.37491307 0.25913053
0.49059133 0.37673941 0.26192899
0.60831213 0.38012592 0.26925578
0.72861008 0.38237636 0.27177154
0.84929362 0.38450217 0.27382384
0.97002381 0.38661692 0.27581718
0.01208486 0.49535088 0.26618151
0.13258180 0.49743897 0.26832792
0.25316217 0.49955183 0.27044292
0.37381617 0.50166395 0.27233994
0.49471553 0.50369584 0.27372202
0.61539688 0.50585170 0.27621136
0.73603147 0.50798413 0.27841591
0.85679899 0.51002456 0.28024338
0.97756539 0.51200817 0.28196833
0.01902606 0.62097492 0.27327173
0.13974579 0.62309373 0.27528143
0.26049847 0.62519280 0.27722700
0.38126881 0.62725888 0.27909756
0.50204167 0.62927867 0.28088017
0.62280254 0.63123880 0.28256644
0.74353381 0.63312681 0.28415182
0.86422213 0.63492872 0.28561598
0.98485213 0.63663139 0.28695064
0.02651270 0.74652529 0.27975801
0.14728260 0.74852505 0.28150914
0.26803413 0.75046054 0.28315993
0.38875204 0.75231853 0.28469959
0.50942107 0.75408578 0.28611736
0.63002596 0.75574906 0.28740247
0.75055148 0.75729514 0.28854416
0.87098235 0.75871077 0.28953166
0.99130334 0.75998273 0.29035420
0.03396406 0.87149812 0.28523042
0.15461151 0.87322905 0.28660114
0.27518927 0.87485119 0.28783529
0.39568210 0.87635131 0.28892209
0.51607473 0.87771617 0.28985078
0.63635192 0.87893254 0.29061059
0.75649841 0.87998718 0.29119076
0.87649895 0.88086686 0.29158051
0.99633829 0.88155834 0.29176908
0.04079944 0.99538956 0.28927906
0.16115181 0.99670190 0.29014751
0.28138318 0.99786092 0.29084317
0.40147830 0.99885339 0.29135526
0.52142192 0.99966608 0.29167302
0.64172270 1.00000000 0.29307363
0.76174941 1.00000000 0.29579409
0.88072116 1.00000000 0.29863930
0.99857345 1.00000000 0.30161245
0.00113612 0.00233022 0.35899153
0.11911570 0.00286802 0.36050722
0.23737961 0.00360420 0.36213622
0.35591260 0.00452551 0.36386778
0.47469941 0.00561872 0.36569112
0.59372480 0.00687060 0.36759547
0.71297350 0.00826792 0.36957008
0.83243027 0.00979743 0.37160416
0.95207984 0.01144591 0.37368696
0.00040434 0.12342931 0.36452154
0.11927978 0.12458180 0.36637565
0.23838862 0.12588793 0.36830699
0.35771502 0.12733487 0.37030437
0.47724323 0.12890948 0.37235736
0.59695915 0.13059801 0.37445522
0.71684714 0.13238742 0.37658710
0.83689188 0.13426451 0.37874225
0.95707812 0.13621603 0.38090989
0.00248222 0.24641927 0.37104588
0.12208073 0.24803654 0.37311639
0.24187779 0.24974759 0.37521381
0.36198524 0.25148671 0.37727170
0.48200931 0.25344442 0.37948187
0.60214445 0.25546559 0.38169815
0.72249473 0.25749914 0.38386735
0.84295481 0.25957403 0.38602172
0.96350508 0.26167883 0.38815234
0.00678906 0.37079625 0.37815464
0.12693815 0.37272884 0.38031970
0.24721252 0.37470840 0.38241301
0.36847786 0.37609696 0.38264841
0.49157720 0.37706380 0.38248816
0.60953279 0.38060567 0.38814930
0.72935091 0.38309314 0.39098942
0.85003836 0.38522214 0.39303263
0.97078002 0.38733045 0.39500441
0.01274415 0.49605641 0.38543790
0.13327141 0.49815439 0.38757604
0.25387595 0.50027249 0.38967780
0.37454217 0.50232388 0.39114400
0.49712821 0.50327338 0.38743776
0.61911165 0.50517005 0.39013467
0.73711272 0.50855386 0.39716444
0.85756430 0.51070406 0.39936253
0.97832223 0.51266703 0.40105617
0.01976676 0.62169587 0.39248576
0.14049939 0.62380946 0.39447489
0.26125978 0.62589881 0.39639622
0.38203179 0.62795069 0.39823560
0.50280138 0.62994062 0.39981344
0.62373066 0.63179402 0.40085179
0.74440173 0.63369826 0.40289081
0.86495018 0.63551669 0.40459979
0.98555100 0.63718472 0.40589768
0.02727619 0.74721080 0.39888829
0.14804156 0.74919022 0.40060655
0.26878338 0.75110087 0.40222080
0.38948640 0.75292953 0.40372027
0.51013534 0.75466296 0.40509410
0.63071496 0.75628789 0.40632949
0.75121084 0.75779092 0.40741793
0.87160561 0.75915944 0.40835432
0.99188557 0.76037966 0.40911910
0.03469172 0.87209733 0.40423557
0.15531721 0.87379280 0.40556112
0.27586784 0.87537499 0.40674643
0.39632835 0.87683066 0.40778075
0.51668349 0.87814657 0.40865329
0.63691801 0.87930950 0.40935330
0.75701664 0.88030621 0.40987001
0.87696415 0.88112345 0.41019265
0.99674527 0.88174801 0.41031045
0.04143264 0.99585161 0.40811770
0.16174563 0.99711336 0.40892868
0.28193245 0.99821730 0.40956320
0.40197783 0.99915021 0.41001050
0.52186652 0.99989884 0.41025982
0.64249856 1.00000000 0.41206239
0.76236084 1.00000000 0.41427538
0.88115318 1.00000000 0.41659382
0.99881107 1.00000000 0.41902087
0.00091807 0.00248980 0.47801789
0.11899591 0.00309645 0.47957327
0.23735292 0.00389698 0.48123831
0.35597381 0.00487816 0.48300224
0.47484336 0.00602674 0.48485430
0.59394629 0.00732949 0.48678372
0.71326736 0.00877319 0.48877973
0.83279132 0.01034458 0.49083156
0.95250291 0.01203045 0.49292846
0.00049627 0.12380263 0.48366688
0.11945255 0.12500887 0.48554835
0.23863666 0.12636447 0.48750325
0.35803337 0.12785619 0.48952083
0.47762740 0.12947079 0.49159032
0.59740351 0.13119505 0.49370094
0.71734644 0.13301572 0.49584193
0.83744094 0.13491957 0.49800253
0.95767176 0.13689337 0.50017196
0.00282552 0.24695548 0.49026882
0.12248761 0.24861154 0.49235452
0.24232623 0.25037240 0.49447747
0.36232655 0.25222461 0.49662688
0.48247261 0.25415544 0.49879185
0.60274871 0.25615171 0.50096185
0.72314083 0.25819961 0.50312598
0.84363325 0.26028614 0.50527349
0.96421068 0.26239809 0.50739361
0.00732511 0.37144449 0.49741380
0.12752037 0.37340058 0.49958189
0.24784076 0.37541674 0.50175071
0.36829024 0.37746162 0.50388921
0.48898073 0.37946756 0.50592844
0.60950570 0.38164495 0.50810206
0.73007421 0.38381911 0.51021996
0.85078755 0.38594043 0.51223452
0.97153896 0.38804077 0.51418348
0.01341431 0.49676580 0.50469190
0.13397014 0.49887215 0.50682053
0.25459968 0.50099426 0.50891367
0.37528276 0.50309868 0.51088141
0.49685884 0.50451999 0.51093879
0.62015345 0.50549529 0.51065580
0.73837625 0.50900785 0.51598070
0.85833808 0.51137260 0.51846487
0.97907589 0.51331754 0.52013166
0.02051242 0.62241556 0.51169321
0.14125619 0.62452239 0.51366052
0.26202254 0.62660050 0.51555639
0.38279428 0.62863649 0.51736545
0.50353471 0.63054954 0.51852433
0.62591790 0.63138219 0.51484019
0.74786735 0.63302304 0.51708976
0.86596479 0.63597649 0.52321033
0.98624314 0.63772370 0.52482591
0.02803873 0.74788991 0.51800781
0.14879781 0.74984746 0.51969196
0.26952817 0.75173175 0.52126844
0.39021453 0.75352955 0.52272648
0.51084062 0.75522772 0.52405223
0.63138453 0.75680653 0.52508256
0.75199510 0.75820121 0.52556959
0.87232853 0.75955034 0.52689324
0.99245814 0.76075628 0.52785494
0.03541251 0.87268500 0.52322579
0.15601429 0.87434349 0.52450492
0.27653602 0.87588419 0.52564016
0.39696246 0.87729388 0.52662074
0.51727834 0.87855933 0.52743590
0.63746840 0.87966730 0.52807478
0.75751728 0.88060460 0.52852483
0.87741068 0.88135775 0.52877726
0.99713151 0.88191389 0.52882633
0.04205306 0.99629698 0.52693723
0.16232491 0.99750662 0.52768949
0.28246540 0.99855397 0.52826164
0.40245928 0.99942577 0.52864291
0.52256733 1.00000000 0.52908755
0.64328286 1.00000000 0.53069665
0.76297797 1.00000000 0.53238869
0.88158815 1.00000000 0.53416689
0.99904891 1.00000000 0.53603435
0.00073396 0.00267326 0.59705814
0.11890832 0.00334724 0.59865197
0.23735665 0.00421060 0.60035180
0.35606370 0.00525011 0.60214687
0.47501422 0.00645253 0.60402641
0.59419294 0.00780464 0.60597965
0.71358463 0.00929318 0.60799582
0.83317402 0.01090494 0.61006417
0.95294585 0.01262667 0.61217391
0.00061624 0.12419471 0.60282193
0.11965160 0.12545316 0.60472955
0.23890962 0.12685647 0.60670695
0.35837505 0.12839140 0.60874336
0.47803263 0.13004473 0.61082802
0.59786710 0.13180321 0.61295017
0.71786322 0.13365361 0.61509902
0.83800573 0.13558270 0.61726383
0.95827937 0.13757724 0.61943381
0.00319094 0.24750531 0.60949729
0.12291468 0.24919845 0.61159685
0.24280977 0.25099193 0.61372996
0.36286095 0.25287251 0.61588587
0.48305297 0.25482696 0.61805381
0.60337057 0.25684205 0.62022300
0.72379849 0.25890453 0.62238269
0.84432150 0.26100118 0.62452210
0.96492433 0.26311876 0.62663047
0.00787735 0.37210120 0.61667431
0.12811685 0.37407926 0.61884395
0.24847638 0.37611313 0.62101093
0.36894071 0.37818956 0.62316449
0.48949500 0.38029506 0.62529384
0.61012326 0.38241696 0.62738817
0.73080981 0.38454206 0.62943689
0.85154063 0.38665652 0.63142907
0.97230002 0.38874737 0.63335398
0.01409476 0.49747853 0.62394307
0.13467739 0.49959173 0.62606095
0.25532875 0.50171622 0.62813994
0.37603346 0.50383852 0.63016899
0.49679469 0.50592663 0.63211742
0.61772065 0.50791396 0.63392252
0.73841778 0.51001207 0.63580198
0.85908667 0.51204302 0.63757304
0.97982573 0.51395920 0.63919441
0.02126245 0.62313345 0.63089366
0.14201560 0.62523201 0.63283792
0.26278615 0.62729735 0.63470708
0.38355865 0.62931619 0.63649012
0.50430793 0.63125671 0.63810584
0.62575746 0.63250302 0.63798683
0.74883017 0.63327084 0.63754547
0.86713983 0.63632152 0.64191113
0.98693499 0.63824486 0.64373255
0.02879971 0.74856210 0.63711616
0.14955075 0.75049625 0.63876495
0.27026787 0.75235265 0.64030242
0.39093583 0.75411807 0.64171779
0.51153712 0.75577930 0.64299635
0.63199749 0.75727884 0.64365418
0.75370652 0.75785439 0.64012330
0.87532250 0.75891469 0.64159657
0.99328455 0.76101608 0.64626757
0.03612582 0.87326062 0.64220066
0.15670213 0.87488059 0.64343213
0.27719321 0.87637828 0.64451605
0.39758381 0.87774047 0.64544167
0.51785868 0.87895392 0.64619819
0.63800131 0.88000564 0.64677226
0.75797970 0.88088422 0.64702466
0.87792755 0.88153938 0.64674584
0.99759207 0.88203039 0.64709489
0.04266008 0.99672516 0.64573723
0.16288903 0.99788117 0.64642953
0.28298144 0.99887038 0.64693807
0.40292206 0.99967957 0.64725207
0.52351485 1.00000000 0.64787552
0.64407546 1.00000000 0.64896948
0.76360066 1.00000000 0.65012708
0.88202593 1.00000000 0.65135100
0.99928697 1.00000000 0.65264496
0.00058321 0.00288009 0.71611186
0.11885233 0.00361987 0.71774289
0.23739023 0.00454453 0.71947627
0.35618167 0.00564085 0.72130124
0.47521140 0.00689559 0.72320701
0.59446416 0.00829552 0.72518283
0.71392469 0.00982739 0.72721793
0.83357775 0.01147798 0.72930154
0.95340808 0.01323405 0.73142290
0.00076365 0.12460502 0.72198627
0.11987634 0.12591415 0.72391879
0.23920650 0.12736364 0.72591744
0.35873889 0.12894026 0.72797145
0.47845826 0.13063078 0.73007005
0.59834934 0.13242197 0.73220247
0.71839688 0.13430058 0.73435795
0.83858563 0.13625338 0.73652572
0.95890034 0.13826714 0.73869501
0.00357788 0.24806823 0.72873088
0.12336152 0.24979693 0.73084304
0.24331133 0.25162148 0.73298510
0.36341205 0.25352863 0.73514630
0.48364842 0.25550516 0.73731587
0.60400520 0.25753782 0.73948305
0.72446713 0.25961339 0.74163706
0.84501895 0.26171864 0.74376713
0.96564542 0.26384031 0.74586251
0.00844520 0.37276588 0.73593576
0.12872717 0.37476438 0.73810571
0.24912400 0.37681419 0.74026933
0.36962042 0.37890210 0.74241588
0.49020118 0.38101486 0.74453457
0.61085104 0.38313923 0.74661464
0.73155473 0.38526199 0.74864533
0.85229700 0.38736989 0.75061586
0.97306261 0.38944971 0.75251548
0.01478489 0.49819410 0.74319101
0.13539257 0.50031262 0.74529688
0.25606379 0.50243793 0.74736022
0.37678330 0.50455682 0.74937026
0.49753585 0.50665600 0.75131623
0.61830659 0.50872201 0.75318736
0.73907957 0.51074217 0.75497282
0.85983913 0.51270327 0.75666199
0.98057118 0.51459148 0.75824399
0.02201624 0.62384904 0.75008670
0.14277701 0.62593780 0.75200666
0.26355000 0.62798884 0.75384786
0.38431996 0.62998893 0.75559953
0.50507148 0.63192458 0.75725072
0.62580453 0.63376523 0.75877677
0.74662092 0.63544822 0.76012847
0.86715938 0.63716835 0.76145931
0.98759449 0.63876004 0.76263682
0.02955854 0.74922684 0.75621292
0.15029977 0.75113608 0.75782511
0.27100191 0.75296306 0.75932232
0.39164971 0.75469457 0.76069378
0.51222767 0.75631736 0.76192855
0.63270210 0.75780502 0.76296367
0.75361780 0.75866485 0.76262483
0.87607912 0.75900577 0.76194796
0.99424557 0.76116822 0.76480594
0.03683107 0.87382366 0.76115975
0.15738014 0.87540359 0.76234232
0.27783881 0.87685675 0.76337369
0.39819182 0.87816991 0.76424309
0.51842391 0.87932983 0.76493975
0.63851718 0.88032364 0.76544991
0.75834961 0.88113369 0.76540334
0.87896939 0.88130485 0.76207254
0.99994116 0.88146127 0.76245745
0.04325311 0.99713563 0.76451728
0.16343740 0.99823648 0.76514838
0.28347998 0.99916604 0.76559206
0.40336558 0.99991107 0.76583754
0.52447328 1.00000000 0.76630861
0.64487623 1.00000000 0.76687397
0.76422852 1.00000000 0.76748288
0.88246142 1.00000000 0.76810382
0.99954160 1.00000000 0.76870791
0.00046523 0.00310976 0.83517862
0.11882733 0.00391382 0.83684562
0.23745305 0.00489826 0.83861131
0.35632712 0.00604987 0.84046492
0.47543430 0.00735540 0.84239569
0.59475933 0.00880162 0.84439285
0.71428696 0.01037529 0.84644563
0.83400193 0.01206318 0.84854327
0.95388899 0.01385206 0.85067500
0.00093789 0.12503304 0.84115948
0.12012615 0.12639132 0.84311567
0.23952671 0.12788548 0.84513433
0.35912430 0.12950226 0.84720468
0.47890369 0.13122845 0.84931598
0.59884962 0.13305081 0.85145744
0.71894683 0.13495610 0.85361830
0.83918007 0.13693109 0.85578779
0.95953408 0.13896254 0.85795515
0.00398574 0.24864374 0.84796916
0.12382752 0.25040647 0.85009268
0.24383029 0.25226056 0.85224245
0.36397879 0.25419275 0.85440770
0.48425777 0.25618983 0.85657766
0.60465196 0.25823855 0.85874157
0.72514613 0.26032568 0.86088866
0.84572502 0.26243799 0.86300816
0.96637336 0.26456224 0.86508931
0.00902805 0.37343800 0.85519773
0.12935074 0.37545541 0.85736673
0.24978310 0.37751965 0.85952577
0.37030987 0.37961748 0.86166406
0.49091581 0.38173566 0.86377084
0.61158566 0.38386097 0.86583535
0.73230416 0.38598017 0.86784682
0.85305607 0.38808002 0.86979447
0.97382613 0.39014729 0.87166755
0.01548411 0.49891197 0.86243528
0.13611508 0.50103428 0.86452791
0.25680441 0.50315890 0.86657436
0.37753684 0.50527259 0.86856384
0.49829712 0.50736211 0.87048559
0.61906999 0.50941423 0.87232885
0.73984021 0.51141572 0.87408284
0.86059252 0.51335334 0.87573680
0.98131166 0.51521385 0.87727996
0.02277320 0.62456180 0.86927189
0.14353983 0.62663924 0.87116631
0.26431351 0.62867446 0.87297831
0.38507897 0.63065422 0.87469713
0.50582097 0.63256530 0.87631200
0.62652426 0.63439444 0.87781217
0.74717396 0.63612816 0.87918693
0.86775420 0.63775377 0.88042529
0.98824930 0.63925804 0.88151663
0.03031462 0.74988363 0.87529765
0.15104429 0.75176642 0.87687200
0.27172968 0.75356246 0.87832771
0.39235555 0.75525854 0.87965402
0.51290665 0.75684140 0.88084016
0.63336746 0.75829764 0.88187536
0.75373316 0.75960006 0.88274561
0.87409748 0.76069265 0.88342085
0.99414432 0.76173635 0.88395175
0.03752764 0.87437360 0.88010264
0.15804772 0.87591196 0.88123507
0.27847222 0.87731906 0.88221264
0.39878588 0.87858167 0.88302459
0.51897345 0.87968654 0.88366014
0.63901939 0.88062047 0.88410844
0.75887929 0.88136617 0.88433227
0.87888396 0.88162424 0.88368512
1.00000000 0.88141689 0.88274434
0.04383156 0.99752787 0.88327695
0.16396943 0.99857203 0.88384561
0.28396041 0.99944041 0.88422319
0.40419908 1.00000000 0.88437846
0.52544249 1.00000000 0.88437990
0.64568505 1.00000000 0.88440319
0.76486160 1.00000000 0.88445055
0.88287721 1.00000000 0.88443440
0.99984701 1.00000000 0.88391110
0.00037940 0.00336177 0.95425800
0.11883274 0.00422857 0.95595973
0.23754451 0.00527127 0.95775649
0.35649946 0.00647663 0.95963751
0.47568233 0.00783143 0.96159203
0.59507788 0.00932241 0.96360929
0.71467084 0.01093636 0.96567851
0.83444596 0.01266003 0.96778893
0.95438800 0.01448020 0.96992978
0.00113839 0.12547826 0.96034114
0.12040045 0.12688417 0.96231975
0.23986963 0.12842146 0.96435717
0.35953068 0.13007688 0.96644264
0.47936833 0.13183721 0.96856538
0.59936735 0.13368922 0.97071464
0.71951246 0.13561966 0.97287964
0.83978843 0.13761531 0.97504962
0.96017999 0.13966293 0.97721380
0.00441393 0.24923131 0.96721170
0.12431209 0.25102655 0.96934535
0.24436606 0.25290864 0.97150158
0.36456058 0.25486436 0.97366964
0.48488040 0.25688046 0.97583876
0.60531026 0.25894370 0.97799816
0.72583490 0.26104087 0.98013709
0.84643909 0.26315872 0.98224477
0.96710756 0.26528401 0.98431044
0.00962531 0.37411705 0.97445978
0.12998695 0.37615185 0.97662661
0.25045309 0.37822898 0.97877980
0.37100846 0.38033520 0.98090860
0.49163781 0.38245729 0.98300224
0.61232589 0.38458201 0.98504994
0.73305745 0.38669612 0.98704094
0.85381723 0.38878639 0.98896448
0.97458998 0.39083959 0.99080978
0.01619181 0.49963164 0.98167546
0.13684431 0.50175622 0.98375362
0.25754999 0.50387861 0.98578192
0.37829359 0.50598557 0.98774961
0.49905986 0.50806388 0.98964591
0.61983354 0.51010029 0.99146006
0.74059939 0.51208157 0.99318129
0.86134214 0.51399449 0.99479883
0.98204655 0.51582581 0.99630191
0.02353273 0.62527122 0.98844882
0.14430347 0.62733580 0.99031646
0.26507606 0.62935368 0.99209802
0.38583527 0.63131160 0.99378275
0.50656583 0.63319635 0.99535986
0.62725249 0.63499467 0.99681861
0.74788000 0.63669335 0.99814821
0.86843310 0.63827914 0.99933790
0.98855390 0.63987872 1.00000000
0.03106735 0.75053194 0.99436994
0.15178369 0.75238675 0.99590521
0.27245059 0.75415033 0.99731818
0.39305277 0.75580944 0.99859810
0.51357500 0.75735085 0.99973418
0.63433983 0.75873315 1.00000000
0.75449946 0.76012847 1.00000000
0.87379921 0.76156673 1.00000000
0.99218570 0.76304520 1.00000000
0.03821495 0.87490994 0.99902892
0.15893691 0.87634715 1.00000000
0.28111625 0.87726747 1.00000000
0.40252112 0.87821744 1.00000000
0.52309890 0.87919385 1.00000000
0.64279675 0.88019354 1.00000000
0.76156148 0.88121332 1.00000000
0.87934477 0.88224245 1.00000000
0.99615181 0.88325722 1.00000000
0.05158243 0.99596828 1.00000000
0.17346962 0.99647088 1.00000000
0.29451023 0.99697999 1.00000000
0.41465143 0.99749247 1.00000000
0.53384015 0.99800521 1.00000000
0.65202309 0.99851523 1.00000000
0.76914649 0.99901961 1.00000000
0.88513347 0.99951928 1.00000000
1.00000000 1.00000000 1.00000000
