assets/luts/DB_Glacier_Blue_Rec709_50.cube
TITLE "Glacier Blue Rec709 50"
# Red changes fastest. Full-range normalized input.
LUT_3D_SIZE 5
DOMAIN_MIN 0 0 0
DOMAIN_MAX 1 1 1
0.00200000 0.00200000 0.00200000
0.23830243 0.00265266 0.00459584
0.47443508 0.00450654 0.00825931
0.71223827 0.00684567 0.01198396
0.95093591 0.00976751 0.01599041
0.00158994 0.24489777 0.01341159
0.24075845 0.24793867 0.01674501
0.48031104 0.25154926 0.02174433
0.72063175 0.25542968 0.02608421
0.96144252 0.25953467 0.03040637
0.01080132 0.49395351 0.02766321
0.25175796 0.49811469 0.03196108
0.49303206 0.50235799 0.03613348
0.73450159 0.50657755 0.04009428
0.97604452 0.51066748 0.04375734
0.02498523 0.74513712 0.04146687
0.26652458 0.74915357 0.04500015
0.50797088 0.75289596 0.04811819
0.74920209 0.75625843 0.05073485
0.99009619 0.75913509 0.05276401
0.03949704 0.99441753 0.05154614
0.28023811 0.99709104 0.05334002
0.52047562 0.99913431 0.05442888
0.76054416 1.00000000 0.05775533
0.99809940 1.00000000 0.06563850
0.00138873 0.00219504 0.23997954
0.23743784 0.00333255 0.24304624
0.47458298 0.00522901 0.24653728
0.71270363 0.00777790 0.25036728
0.95167726 0.01087356 0.25444983
0.00216141 0.24589720 0.25182873
0.24217045 0.24861514 0.25428336
0.48218737 0.25249344 0.25955159
0.72186079 0.25680365 0.26460723
0.96280812 0.26096150 0.26890710
0.01208486 0.49535088 0.26618151
0.25316217 0.49955183 0.27044292
0.49471553 0.50369584 0.27372202
0.73603147 0.50798413 0.27841591
0.97756539 0.51200817 0.28196833
0.02651270 0.74652529 0.27975801
0.26803413 0.75046054 0.28315993
0.50942107 0.75408578 0.28611736
0.75055148 0.75729514 0.28854416
0.99130334 0.75998273 0.29035420
0.04079944 0.99538956 0.28927906
0.28138318 0.99786092 0.29084317
0.52142192 0.99966608 0.29167302
0.76174941 1.00000000 0.29579409
0.99857345 1.00000000 0.30161245
0.00091807 0.00248980 0.47801789
0.23735292 0.00389698 0.48123831
0.47484336 0.00602674 0.48485430
0.71326736 0.00877319 0.48877973
0.95250291 0.01203045 0.49292846
0.00282552 0.24695548 0.49026882
0.24232623 0.25037240 0.49447747
0.48247261 0.25415544 0.49879185
0.72314083 0.25819961 0.50312598
0.96421068 0.26239809 0.50739361
0.01341431 0.49676580 0.50469190
0.25459968 0.50099426 0.50891367
0.49685884 0.50451999 0.51093879
0.73837625 0.50900785 0.51598070
0.97907589 0.51331754 0.52013166
0.02803873 0.74788991 0.51800781
0.26952817 0.75173175 0.52126844
0.51084062 0.75522772 0.52405223
0.75199510 0.75820121 0.52556959
0.99245814 0.76075628 0.52785494
0.04205306 0.99629698 0.52693723
0.28246540 0.99855397 0.52826164
0.52256733 1.00000000 0.52908755
0.76297797 1.00000000 0.53238869
0.99904891 1.00000000 0.53603435
0.00058321 0.00288009 0.71611186
0.23739023 0.00454453 0.71947627
0.47521140 0.00689559 0.72320701
0.71392469 0.00982739 0.72721793
0.95340808 0.01323405 0.73142290
0.00357788 0.24806823 0.72873088
0.24331133 0.25162148 0.73298510
0.48364842 0.25550516 0.73731587
0.72446713 0.25961339 0.74163706
0.96564542 0.26384031 0.74586251
0.01478489 0.49819410 0.74319101
0.25606379 0.50243793 0.74736022
0.49753585 0.50665600 0.75131623
0.73907957 0.51074217 0.75497282
0.98057118 0.51459148 0.75824399
0.02955854 0.74922684 0.75621292
0.27100191 0.75296306 0.75932232
0.51222767 0.75631736 0.76192855
0.75361780 0.75866485 0.76262483
0.99424557 0.76116822 0.76480594
0.04325311 0.99713563 0.76451728
0.28347998 0.99916604 0.76559206
0.52447328 1.00000000 0.76630861
0.76422852 1.00000000 0.76748288
0.99954160 1.00000000 0.76870791
0.00037940 0.00336177 0.95425800
0.23754451 0.00527127 0.95775649
0.47568233 0.00783143 0.96159203
0.71467084 0.01093636 0.96567851
0.95438800 0.01448020 0.96992978
0.00441393 0.24923131 0.96721170
0.24436606 0.25290864 0.97150158
0.48488040 0.25688046 0.97583876
0.72583490 0.26104087 0.98013709
0.96710756 0.26528401 0.98431044
0.01619181 0.49963164 0.98167546
0.25754999 0.50387861 0.98578192
0.49905986 0.50806388 0.98964591
0.74059939 0.51208157 0.99318129
0.98204655 0.51582581 0.99630191
0.03106735 0.75053194 0.99436994
0.27245059 0.75415033 0.99731818
0.51357500 0.75735085 0.99973418
0.75449946 0.76012847 1.00000000
0.99218570 0.76304520 1.00000000
0.05158243 0.99596828 1.00000000
0.29451023 0.99697999 1.00000000
0.53384015 0.99800521 1.00000000
0.76914649 0.99901961 1.00000000
1.00000000 1.00000000 1.00000000
