assets/luts/DB_Glacier_Blue_Rec709_100.cube
TITLE "Glacier Blue Rec709 100"
# Red changes fastest. Full-range normalized input.
LUT_3D_SIZE 9
DOMAIN_MIN 0 0 0
DOMAIN_MAX 1 1 1
0.00400000 0.00400000 0.00400000
0.11846721 0.00336072 0.00481905
0.22660486 0.00530532 0.00919169
0.33684044 0.00716899 0.01304696
0.44887016 0.00901308 0.01651862
0.56143448 0.01119330 0.02016207
0.67447655 0.01369133 0.02396792
0.78796583 0.01648073 0.02791468
0.90187182 0.01953503 0.03198081
0.00038971 0.11989920 0.01360494
0.11499916 0.12095684 0.00931970
0.23080106 0.12236012 0.01311295
0.33940112 0.12653003 0.02470729
0.45244984 0.12961185 0.02937775
0.56649502 0.13275758 0.03348657
0.68092022 0.13613053 0.03768080
0.79569001 0.13970580 0.04194349
0.91077387 0.14345692 0.04625310
0.00317989 0.23979554 0.02682317
0.11696674 0.24277636 0.03054093
0.23151690 0.24587734 0.03349001
0.34598763 0.24937079 0.03863288
0.46062209 0.25309852 0.04348867
0.57580045 0.25691104 0.04782946
0.69126350 0.26085936 0.05216842
0.80696855 0.26492095 0.05650334
0.92288504 0.26906934 0.06081273
0.01056820 0.36281527 0.04077903
0.12556966 0.36652121 0.04507781
0.24086318 0.37038361 0.04940324
0.35641980 0.37437562 0.05373839
0.47220392 0.37847239 0.05807470
0.58818924 0.38264600 0.06237106
0.70434496 0.38687012 0.06661095
0.82064002 0.39111848 0.07077439
0.93704391 0.39536459 0.07483987
0.02160263 0.48790702 0.05532642
0.13746466 0.49203443 0.05964488
0.25351592 0.49622937 0.06392215
0.36972591 0.50046538 0.06813669
0.48606412 0.50471599 0.07226696
0.60250005 0.50895471 0.07629143
0.71900318 0.51315510 0.08018856
0.83554301 0.51729067 0.08393683
0.95208904 0.52133495 0.08751469
0.03512386 0.61406258 0.06965126
0.15150118 0.61831192 0.07374551
0.26796510 0.62253975 0.07772611
0.38448512 0.62671960 0.08157154
0.50103074 0.63082501 0.08526026
0.61757145 0.63482949 0.08877073
0.73407673 0.63870658 0.09208143
0.85051608 0.64242981 0.09517081
0.96685901 0.64597272 0.09801734
0.04997046 0.74027424 0.08293374
0.16651782 0.74434597 0.08656006
0.28304916 0.74830714 0.09000029
0.39953397 0.75213128 0.09323291
0.51594175 0.75579192 0.09623638
0.63224199 0.75926261 0.09898915
0.74840418 0.76251686 0.10146971
0.86439781 0.76552821 0.10365651
0.98019238 0.76827018 0.10552802
0.06498101 0.86553431 0.09435402
0.18135316 0.86912886 0.09726872
0.29760668 0.87252381 0.09992488
0.41371103 0.87569269 0.10230098
0.52963573 0.87860904 0.10437549
0.64535025 0.88124637 0.10612687
0.76082410 0.88357823 0.10753358
0.87602677 0.88557814 0.10857409
0.99092775 0.88721963 0.10922687
0.07899407 0.98883506 0.10309228
0.19484578 0.99165289 0.10505164
0.31047622 0.99418207 0.10668003
0.42585487 0.99639614 0.10795592
0.54095124 0.99826863 0.10885776
0.65573481 0.99977306 0.10936404
0.77108832 1.00000000 0.11551065
0.88473307 1.00000000 0.12322728
0.99619881 1.00000000 0.13127700
0.00335067 0.00416394 0.11701597
0.11412766 0.00486491 0.11994399
0.22521651 0.00610571 0.12293979
0.33676480 0.00775775 0.12626106
0.44898936 0.00971621 0.12978641
0.56171935 0.01200733 0.13348742
0.67491671 0.01460728 0.13734354
0.78855093 0.01748961 0.14133325
0.90259149 0.02062784 0.14543502
0.00056136 0.12048183 0.12746966
0.11398505 0.12191150 0.12902265
0.23167808 0.12254332 0.12931164
0.34083587 0.12709923 0.13764444
0.45310946 0.13064357 0.14279608
0.56726115 0.13387871 0.14695191
0.68180676 0.13732335 0.15117183
0.79668663 0.14096131 0.15545287
0.91187021 0.14476612 0.15977352
0.00372431 0.24078014 0.14022918
0.11758269 0.24379163 0.14330570
0.23528873 0.24537275 0.13726610
0.35268462 0.24822969 0.14234074
0.46229363 0.25414079 0.15622045
0.57693567 0.25823578 0.16134695
0.69247917 0.26222732 0.16569210
0.80825944 0.26632136 0.17002077
0.92424081 0.27049321 0.17431660
0.01153592 0.36405462 0.15428414
0.12663821 0.36781686 0.15858947
0.24202972 0.37170797 0.16256946
0.35806205 0.37556942 0.16561979
0.47379834 0.37977646 0.17095730
0.58957864 0.38407178 0.17584778
0.70577255 0.38831148 0.18008447
0.82210795 0.39256205 0.18421711
0.93854185 0.39680139 0.18824443
0.02287410 0.48929949 0.16884627
0.13880382 0.49345281 0.17315316
0.25491237 0.49766467 0.17741132
0.37116951 0.50190842 0.18159473
0.48754621 0.50615733 0.18568670
0.60400694 0.51038661 0.18967865
0.72052537 0.51456815 0.19352924
0.83707072 0.51867569 0.19722207
0.95361191 0.52268295 0.20073716
0.03658183 0.61550645 0.18310309
0.15299198 0.61975145 0.18716116
0.26947838 0.62396596 0.19109827
0.38601052 0.62812349 0.19489289
0.50255789 0.63219759 0.19852349
0.61908998 0.63616178 0.20196854
0.73557630 0.63998959 0.20520649
0.85198632 0.64365455 0.20821582
0.96828956 0.64713019 0.21097498
0.05149769 0.74166778 0.19623479
0.16804303 0.74570492 0.19980033
0.28456199 0.74962252 0.20317247
0.40102406 0.75339411 0.20632968
0.51739874 0.75699321 0.20925042
0.63365552 0.76039336 0.21191317
0.74976388 0.76356809 0.21429637
0.86569334 0.76649093 0.21637852
0.98141337 0.76913540 0.21813805
0.06646024 0.86677577 0.20742152
0.18279553 0.87030551 0.21025083
0.29900181 0.87362665 0.21281430
0.41504857 0.87671274 0.21509039
0.53090531 0.87953730 0.21705758
0.64654152 0.88207386 0.21869432
0.76192670 0.88429596 0.21997908
0.87703033 0.88617711 0.22089034
0.99182192 0.88769087 0.22140654
0.08030807 0.98982273 0.21584347
0.19608806 0.99254550 0.21769284
0.31163641 0.99497064 0.21920393
0.42692262 0.99707168 0.22035521
0.54191617 0.99882214 0.22112513
0.65691082 1.00000000 0.22247461
0.77228761 1.00000000 0.22890353
0.88558448 1.00000000 0.23562053
0.99667236 1.00000000 0.24263203
0.00277746 0.00439009 0.22995908
0.11353713 0.00532463 0.23290939
0.22487567 0.00666510 0.23609247
0.33676143 0.00838534 0.23948783
0.44916597 0.01045801 0.24307456
0.56205812 0.01285698 0.24683066
0.67540726 0.01555579 0.25073457
0.78918290 0.01852800 0.25476475
0.90335451 0.02174712 0.25889967
0.00068146 0.12115040 0.24077312
0.11328791 0.12332383 0.24442570
0.22663649 0.12569823 0.24815546
0.34002954 0.12857582 0.25212742
0.45376947 0.13171950 0.25625631
0.56806930 0.13502520 0.26042683
0.68273185 0.13853846 0.26466992
0.79771828 0.14223605 0.26896682
0.91299807 0.14609152 0.27329603
0.00432283 0.24179441 0.25365746
0.11836635 0.24492665 0.25764655
0.23434090 0.24723028 0.25856672
0.35425929 0.24872205 0.25850353
0.46437474 0.25498688 0.26910319
0.57812141 0.25956753 0.27485383
0.69372159 0.26360729 0.27921446
0.80957353 0.26773074 0.28353441
0.92561625 0.27192300 0.28781420
0.01253962 0.36531405 0.26779451
0.12773895 0.36912917 0.27210797
0.24320149 0.37295988 0.27528687
0.36272428 0.37482614 0.26826106
0.48118266 0.37847882 0.27385798
0.59162427 0.38525184 0.28851157
0.70722016 0.38975272 0.29354308
0.82358723 0.39400434 0.29764769
0.94004763 0.39823384 0.30163435
0.02416972 0.49070177 0.28236302
0.14016360 0.49487794 0.28665584
0.25632434 0.49910366 0.29088584
0.37263235 0.50332791 0.29467988
0.48943107 0.50739168 0.29744404
0.60579376 0.51170340 0.30242271
0.72206293 0.51596826 0.30683182
0.83859798 0.52004913 0.31048677
0.95513078 0.52401633 0.31393666
0.03805212 0.61694985 0.29654346
0.15449158 0.62118746 0.30056286
0.27099693 0.62538559 0.30445400
0.38753762 0.62951776 0.30819512
0.50408333 0.63355734 0.31176033
0.62060507 0.63747760 0.31513288
0.73706762 0.64125363 0.31830363
0.85344426 0.64485744 0.32123195
0.96970427 0.64826278 0.32390128
0.05302539 0.74305057 0.30951601
0.16956520 0.74705009 0.31301829
0.28606826 0.75092107 0.31631985
0.40250407 0.75463705 0.31939917
0.51884213 0.75817156 0.32223471
0.63505193 0.76149812 0.32480494
0.75110296 0.76459027 0.32708832
0.86696471 0.76742154 0.32906332
0.98260668 0.76996546 0.33070840
0.06792812 0.86799624 0.32046084
0.18422302 0.87145810 0.32320229
0.30037854 0.87470239 0.32567057
0.41636419 0.87770263 0.32784418
0.53214946 0.88043235 0.32970156
0.64770384 0.88286508 0.33122118
0.76299683 0.88497436 0.33238151
0.87799791 0.88673372 0.33316102
0.99267658 0.88811668 0.33353817
0.08159887 0.99077913 0.32855812
0.19730362 0.99340379 0.33029503
0.31276636 0.99572183 0.33168634
0.42795661 0.99770678 0.33271052
0.54284384 0.99933217 0.33334604
0.65844540 1.00000000 0.33614727
0.77349882 1.00000000 0.34158819
0.88644233 1.00000000 0.34727861
0.99714689 1.00000000 0.35322490
0.00227225 0.00466044 0.34298306
0.11323141 0.00573605 0.34601444
0.22475923 0.00720840 0.34927245
0.33682520 0.00905102 0.35273556
0.44939883 0.01123745 0.35638224
0.56244960 0.01374121 0.36019095
0.67594700 0.01653584 0.36414015
0.78986053 0.01959486 0.36820832
0.90415969 0.02289181 0.37237392
0.00080867 0.12185861 0.35404307
0.11355956 0.12416360 0.35775130
0.22677724 0.12677587 0.36161399
0.34043004 0.12966975 0.36560874
0.45448645 0.13281896 0.36971472
0.56891831 0.13619601 0.37391044
0.68369428 0.13977484 0.37817421
0.79878376 0.14352901 0.38248450
0.91415624 0.14743207 0.38681977
0.00496444 0.24283854 0.36709175
0.11916145 0.24607309 0.37123278
0.23375559 0.24949518 0.37542762
0.34897047 0.25297343 0.37954340
0.46401862 0.25688883 0.38396373
0.57928890 0.26093118 0.38839630
0.69498947 0.26499827 0.39273471
0.81090962 0.26914806 0.39704343
0.92701017 0.27335767 0.40130469
0.01357812 0.36659251 0.38130927
0.12887629 0.37045767 0.38563941
0.24442503 0.37441680 0.38982603
0.36195572 0.37719391 0.39029682
0.48315439 0.37912759 0.38997633
0.59406558 0.38621134 0.40129861
0.70870182 0.39118627 0.40697885
0.82507671 0.39544427 0.41106526
0.94156005 0.39966090 0.41500881
0.02548829 0.49211282 0.39587581
0.14154282 0.49630878 0.40015209
0.25775191 0.50054498 0.40435560
0.37408433 0.50464776 0.40728801
0.49425642 0.50654676 0.39987551
0.61322331 0.51034009 0.40526935
0.72422545 0.51710773 0.41932889
0.84012860 0.52140812 0.42372506
0.95664445 0.52533406 0.42711233
0.03953352 0.61839175 0.40997152
0.15599878 0.62261892 0.41394977
0.27251956 0.62679762 0.41779244
0.38906358 0.63090137 0.42147120
0.50560275 0.63488125 0.42462687
0.62246132 0.63858804 0.42670357
0.73880346 0.64239651 0.43078161
0.85490036 0.64603338 0.43419959
0.97110199 0.64936943 0.43679536
0.05455238 0.74442160 0.42277657
0.17108312 0.74838043 0.42621310
0.28756677 0.75220174 0.42944160
0.40397281 0.75585906 0.43244055
0.52027068 0.75932592 0.43518820
0.63642992 0.76257578 0.43765899
0.75242169 0.76558184 0.43983585
0.86821123 0.76831887 0.44170864
0.98377113 0.77075933 0.44323819
0.06938344 0.86919466 0.43347114
0.18563443 0.87258560 0.43612224
0.30173569 0.87574998 0.43849286
0.41765671 0.87866131 0.44056149
0.53336699 0.88129315 0.44230658
0.64883602 0.88361900 0.44370660
0.76403329 0.88561241 0.44474002
0.87892830 0.88724691 0.44538530
0.99349054 0.88849602 0.44562091
0.08286529 0.99170322 0.44123540
0.19849127 0.99422672 0.44285736
0.31386489 0.99643461 0.44412640
0.42895565 0.99830042 0.44502101
0.54373304 0.99979767 0.44551963
0.65999712 1.00000000 0.44912478
0.77472169 1.00000000 0.45355075
0.88730636 1.00000000 0.45818764
0.99762213 1.00000000 0.46304175
0.00183613 0.00497959 0.45603578
0.11299183 0.00619290 0.45914654
0.22470583 0.00779396 0.46247662
0.33694763 0.00975631 0.46600449
0.44968672 0.01205348 0.46970860
0.56289258 0.01465899 0.47356744
0.67653473 0.01754637 0.47755946
0.79058264 0.02068917 0.48166313
0.90500582 0.02406090 0.48585691
0.00099254 0.12260526 0.46733375
0.11390510 0.12501775 0.47109669
0.22727333 0.12772894 0.47500651
0.34106673 0.13071238 0.47904167
0.45525479 0.13394159 0.48318064
0.56980701 0.13739009 0.48740188
0.68469288 0.14103144 0.49168387
0.79988188 0.14483914 0.49600506
0.91534353 0.14878674 0.50034392
0.00565104 0.24391096 0.48053763
0.11997521 0.24722307 0.48470905
0.23465247 0.25074480 0.48895493
0.34965311 0.25444922 0.49325376
0.46494523 0.25831088 0.49758370
0.58049743 0.26230342 0.50192370
0.69628165 0.26639921 0.50625196
0.81226651 0.27057228 0.51054697
0.92842137 0.27479619 0.51478721
0.01465021 0.36788897 0.49482759
0.13004075 0.37180116 0.49916378
0.24568151 0.37583349 0.50350142
0.36158048 0.37992324 0.50777843
0.47796146 0.38393512 0.51185689
0.59401140 0.38828989 0.51620412
0.71014841 0.39263821 0.52043993
0.82657511 0.39688086 0.52446904
0.94307791 0.40108155 0.52836696
0.02682862 0.49353159 0.50938380
0.14294028 0.49774430 0.51364106
0.25919936 0.50198852 0.51782734
0.37556551 0.50619737 0.52176282
0.49371767 0.50903998 0.52187759
0.61530690 0.51099059 0.52131160
0.72675251 0.51801570 0.53196140
0.84167617 0.52274520 0.53692973
0.95815178 0.52663509 0.54026331
0.04102484 0.61983111 0.52338642
0.15751238 0.62404479 0.52732105
0.27404508 0.62820100 0.53111278
0.39058855 0.63227298 0.53473090
0.50706942 0.63609909 0.53704866
0.62683580 0.63776438 0.52968038
0.74573471 0.64104609 0.53417951
0.85692959 0.64695299 0.54642066
0.97248628 0.65044741 0.54965183
0.05607745 0.74577982 0.53601562
0.17259562 0.74969492 0.53938392
0.28905633 0.75346350 0.54253688
0.40542907 0.75705911 0.54545296
0.52168123 0.76045544 0.54810446
0.63776906 0.76361306 0.55016512
0.75399020 0.76640243 0.55113919
0.86965706 0.76910067 0.55378648
0.98491629 0.77151256 0.55570988
0.07082502 0.87037000 0.54645158
0.18702857 0.87368697 0.54900984
0.30307204 0.87676838 0.55128032
0.41892492 0.87958777 0.55324149
0.53455669 0.88211865 0.55487181
0.64993679 0.88433459 0.55614956
0.76503456 0.88620920 0.55704965
0.87982136 0.88771550 0.55755453
0.99426303 0.88882778 0.55765266
0.08410611 0.99259396 0.55387446
0.19964981 0.99501325 0.55537898
0.31493079 0.99710793 0.55652328
0.42991855 0.99885154 0.55728583
0.54513467 1.00000000 0.55817509
0.66156572 1.00000000 0.56139329
0.77595595 1.00000000 0.56477739
0.88817631 1.00000000 0.56833378
0.99809782 1.00000000 0.57206870
0.00146792 0.00534651 0.56911628
0.11281664 0.00669447 0.57230393
0.22471331 0.00842120 0.57570360
0.33712741 0.01050022 0.57929374
0.45002844 0.01290507 0.58305281
0.56338589 0.01560927 0.58695929
0.67716926 0.01858637 0.59099164
0.79134803 0.02180988 0.59512833
0.90589171 0.02525334 0.59934782
0.00123248 0.12338942 0.58064386
0.11430320 0.12590631 0.58445909
0.22781925 0.12871293 0.58841389
0.34175010 0.13178280 0.59248672
0.45606525 0.13508945 0.59665604
0.57073420 0.13860641 0.60090033
0.68572643 0.14230722 0.60519804
0.80101145 0.14616540 0.60952765
0.91655874 0.15015449 0.61386762
0.00638188 0.24501062 0.59399458
0.12082937 0.24839690 0.59819369
0.23561954 0.25198386 0.60245992
0.35072190 0.25574502 0.60677174
0.46610593 0.25965392 0.61110761
0.58174113 0.26368409 0.61544600
0.69759699 0.26780906 0.61976538
0.81364300 0.27200236 0.62404420
0.92984866 0.27623752 0.62826094
0.01575470 0.36920240 0.60834862
0.13123370 0.37315852 0.61268790
0.24695277 0.37722626 0.61702186
0.36288143 0.38137912 0.62132898
0.47899000 0.38559013 0.62558768
0.59524651 0.38983393 0.62977634
0.71161961 0.39408413 0.63387379
0.82808125 0.39831305 0.63785814
0.94460003 0.40249473 0.64170796
0.02818951 0.49495707 0.62288615
0.14435479 0.49918346 0.62712190
0.26065749 0.50343245 0.63127988
0.37706692 0.50767703 0.63533798
0.49358938 0.51185325 0.63923483
0.61044130 0.51582792 0.64284504
0.72683556 0.52002413 0.64660396
0.84317333 0.52408604 0.65014608
0.95965147 0.52791840 0.65338883
0.04252490 0.62126690 0.63678733
0.15903119 0.62546403 0.64067584
0.27557230 0.62959470 0.64441415
0.39211729 0.63363239 0.64798025
0.50861587 0.63751342 0.65121168
0.62651491 0.64000605 0.65097366
0.74766034 0.64154168 0.65009093
0.85927965 0.64764305 0.65882226
0.97386997 0.65148973 0.66246511
0.05759941 0.74712419 0.64923232
0.17410149 0.75099250 0.65252991
0.29053575 0.75470531 0.65560484
0.40687167 0.75823615 0.65843558
0.52307425 0.76155861 0.66099269
0.63899498 0.76455769 0.66230836
0.75741304 0.76570878 0.65524659
0.87564500 0.76782937 0.65819314
0.98656910 0.77203216 0.66753515
0.07225164 0.87152123 0.65940131
0.18840425 0.87476117 0.66186426
0.30438642 0.87775657 0.66403211
0.42016762 0.88048094 0.66588333
0.53571736 0.88290784 0.66739639
0.65100262 0.88501128 0.66854453
0.76595940 0.88676844 0.66904932
0.88085509 0.88807875 0.66849169
0.99518414 0.88906079 0.66918978
0.08532016 0.99345032 0.66647446
0.20077806 0.99576234 0.66785907
0.31596288 0.99774076 0.66887613
0.43084412 0.99935913 0.66950413
0.54702970 1.00000000 0.67075103
0.66315092 1.00000000 0.67293897
0.77720132 1.00000000 0.67525417
0.88905185 1.00000000 0.67770199
0.99857395 1.00000000 0.68028991
0.00116643 0.00576017 0.68222371
0.11270465 0.00723973 0.68548578
0.22478046 0.00908907 0.68895255
0.33736335 0.01128171 0.69260247
0.45042280 0.01379119 0.69641402
0.56392832 0.01659103 0.70036566
0.67784939 0.01965478 0.70443586
0.79215550 0.02295596 0.70860308
0.90681616 0.02646809 0.71284579
0.00152729 0.12421004 0.69397254
0.11475267 0.12682829 0.69783759
0.22841301 0.12972728 0.70183489
0.34247779 0.13288053 0.70594290
0.45691651 0.13626157 0.71014010
0.57169867 0.13984394 0.71440494
0.68679376 0.14360115 0.71871590
0.80217126 0.14750676 0.72305144
0.91780068 0.15153428 0.72739003
0.00715576 0.24613647 0.70746176
0.12172304 0.24959387 0.71168608
0.23662266 0.25324296 0.71597020
0.35182410 0.25705726 0.72029260
0.46729685 0.26101031 0.72463175
0.58301040 0.26507565 0.72896609
0.69893426 0.26922679 0.73327411
0.81503791 0.27343727 0.73753427
0.93129084 0.27768063 0.74172502
0.01689039 0.37053176 0.72187153
0.13245434 0.37452875 0.72621141
0.24824799 0.37862839 0.73053867
0.36424084 0.38280420 0.73483175
0.48040237 0.38702971 0.73906914
0.59670208 0.39127846 0.74322928
0.71310946 0.39552398 0.74729066
0.82959401 0.39973979 0.75123172
0.94612521 0.40389942 0.75503095
0.02956978 0.49638820 0.73638201
0.14578515 0.50062523 0.74059377
0.26212759 0.50487587 0.74472045
0.37856659 0.50911363 0.74874052
0.49507169 0.51331200 0.75263246
0.61161318 0.51744402 0.75637473
0.72815915 0.52148434 0.75994564
0.84467825 0.52540653 0.76332397
0.96114237 0.52918296 0.76648798
0.04403248 0.62269807 0.75017339
0.16055402 0.62687560 0.75401331
0.27710000 0.63097768 0.75769571
0.39363993 0.63497785 0.76119906
0.51014296 0.63884916 0.76450143
0.62660907 0.64253047 0.76755353
0.74324185 0.64589644 0.77025694
0.85931875 0.64933670 0.77291863
0.97518898 0.65252008 0.77527363
0.05911707 0.74845368 0.76242583
0.17559954 0.75227215 0.76565021
0.29200382 0.75592613 0.76864463
0.40829942 0.75938915 0.77138756
0.52445535 0.76263472 0.77385710
0.64040420 0.76561005 0.77592734
0.75723560 0.76732969 0.77524967
0.87715825 0.76801154 0.77389591
0.98849114 0.77233644 0.77961187
0.07366213 0.87264731 0.77231950
0.18976028 0.87580717 0.77468464
0.30567762 0.87871349 0.77674738
0.42138364 0.88133981 0.77848617
0.53684783 0.88365966 0.77987949
0.65203435 0.88564728 0.78089982
0.76669923 0.88726737 0.78080668
0.88293878 0.88760971 0.77414508
0.99988232 0.88792253 0.77491490
0.08650622 0.99427126 0.77903456
0.20187481 0.99647295 0.78029676
0.31695995 0.99833207 0.78118411
0.43173116 0.99982214 0.78167508
0.54894656 1.00000000 0.78261721
0.66475247 1.00000000 0.78374795
0.77845704 1.00000000 0.78496576
0.88992283 1.00000000 0.78620764
0.99908321 1.00000000 0.78741582
0.00093045 0.00621953 0.79535724
0.11265466 0.00782763 0.79869124
0.22490610 0.00979653 0.80222262
0.33765425 0.01209974 0.80592985
0.45086861 0.01471079 0.80979139
0.56451867 0.01760323 0.81378571
0.67857392 0.02075058 0.81789127
0.79300387 0.02412636 0.82208654
0.90777799 0.02770412 0.82634999
0.00187579 0.12506608 0.80731896
0.11525230 0.12778265 0.81123134
0.22905341 0.13077095 0.81526865
0.34324861 0.13400453 0.81940937
0.45780738 0.13745691 0.82363195
0.57269924 0.14110162 0.82791487
0.68789365 0.14491220 0.83223660
0.80336013 0.14886218 0.83657558
0.91906816 0.15292508 0.84091030
0.00797148 0.24728748 0.82093831
0.12265505 0.25081295 0.82518536
0.23766058 0.25452111 0.82948490
0.35295758 0.25838550 0.83381540
0.46851553 0.26237966 0.83815533
0.58430393 0.26647710 0.84248315
0.70029226 0.27065136 0.84677733
0.81645003 0.27487598 0.85101633
0.93274673 0.27912447 0.85517862
0.01805610 0.37187600 0.83539545
0.13370148 0.37591082 0.83973347
0.24956619 0.38003930 0.84405153
0.36561975 0.38423496 0.84832811
0.48183162 0.38847133 0.85254168
0.59817132 0.39272195 0.85667070
0.71460833 0.39696034 0.86069363
0.83111214 0.40116004 0.86458894
0.94765225 0.40529458 0.86833510
0.03096821 0.49782395 0.84987055
0.14723016 0.50206857 0.85405583
0.26360881 0.50631780 0.85814872
0.38007367 0.51054517 0.86212768
0.49659423 0.51472422 0.86597118
0.61313998 0.51882846 0.86965770
0.72968042 0.52283143 0.87316568
0.84618503 0.52670667 0.87647360
0.96262332 0.53042770 0.87955992
0.04554640 0.62412360 0.86354378
0.16207966 0.62827847 0.86733262
0.27862701 0.63234891 0.87095663
0.39515794 0.63630845 0.87439427
0.51164193 0.64013061 0.87762400
0.62804852 0.64378888 0.88062434
0.74434793 0.64725633 0.88337387
0.86050841 0.65050754 0.88585058
0.97649860 0.65351608 0.88803325
0.06062923 0.74976726 0.87559530
0.17708857 0.75353283 0.87874400
0.29345936 0.75712493 0.88165543
0.40971111 0.76051707 0.88430804
0.52581329 0.76368280 0.88668031
0.64173491 0.76659529 0.88875072
0.75746632 0.76920012 0.89049123
0.87319495 0.77138529 0.89184170
0.98828864 0.77347271 0.89290351
0.07505528 0.87374720 0.88520528
0.19109545 0.87682393 0.88747014
0.30694444 0.87963813 0.88942529
0.42257176 0.88216334 0.89104917
0.53794690 0.88437308 0.89232027
0.65303879 0.88624094 0.89321689
0.76775859 0.88773233 0.89366455
0.88276791 0.88824848 0.89237024
1.00000000 0.88783378 0.89048868
0.08766312 0.99505574 0.89155391
0.20293887 0.99714406 0.89269122
0.31792082 0.99888081 0.89344637
0.43339816 1.00000000 0.89375691
0.55088498 1.00000000 0.89375979
0.66637009 1.00000000 0.89380638
0.77972320 1.00000000 0.89390109
0.89075443 1.00000000 0.89386880
0.99969402 1.00000000 0.89282220
0.00075880 0.00672355 0.90851601
0.11266548 0.00845715 0.91191946
0.22508902 0.01054254 0.91551297
0.33799892 0.01295327 0.91927502
0.45136467 0.01566285 0.92318407
0.56515575 0.01864483 0.92721858
0.67934168 0.02187272 0.93135702
0.79389192 0.02532006 0.93557786
0.90877599 0.02896039 0.93985957
0.00227677 0.12595653 0.92068228
0.11580090 0.12876834 0.92463950
0.22973927 0.13184291 0.92871434
0.34406136 0.13515376 0.93288527
0.45873667 0.13867443 0.93713077
0.57373469 0.14237844 0.94142928
0.68902493 0.14623933 0.94575928
0.80457686 0.15023062 0.95009923
0.92035998 0.15432585 0.95442761
0.00882785 0.24846262 0.93442341
0.12362419 0.25205310 0.93869069
0.23873212 0.25581728 0.94300316
0.35412116 0.25972871 0.94733928
0.46976080 0.26376091 0.95167751
0.58562051 0.26788741 0.95599632
0.70166981 0.27208174 0.96027418
0.81787818 0.27631743 0.96448954
0.93421511 0.28056802 0.96862088
0.01925062 0.37323410 0.94891956
0.13497390 0.37730370 0.95325322
0.25090617 0.38145795 0.95755961
0.36701691 0.38567041 0.96181721
0.48327562 0.38991459 0.96600448
0.59965179 0.39416402 0.97009988
0.71611490 0.39839224 0.97408189
0.83263446 0.40257278 0.97792896
0.94917996 0.40667917 0.98161957
0.03238363 0.49926328 0.96335092
0.14868863 0.50351244 0.96750723
0.26509998 0.50775721 0.97156385
0.38158718 0.51197114 0.97549922
0.49811972 0.51612775 0.97929182
0.61466708 0.52020057 0.98292012
0.73119877 0.52416313 0.98636258
0.84768428 0.52798897 0.98959766
0.96409310 0.53165161 0.99260383
0.04706547 0.62554244 0.97689763
0.16360693 0.62967161 0.98063291
0.28015213 0.63370735 0.98419604
0.39667053 0.63762320 0.98756549
0.51313165 0.64139269 0.99071973
0.62950498 0.64498935 0.99363721
0.74576000 0.64838670 0.99629642
0.86186621 0.65155828 0.99867580
0.97710781 0.65475743 1.00000000
0.06213470 0.75106387 0.98873988
0.17856739 0.75477350 0.99181042
0.29490117 0.75830066 0.99463637
0.41110555 0.76161889 0.99719619
0.52715001 0.76470170 0.99946836
0.64367966 0.76746630 1.00000000
0.75899892 0.77025693 1.00000000
0.87259843 0.77313346 1.00000000
0.98437139 0.77609041 1.00000000
0.07642991 0.87481987 0.99805784
0.19287383 0.87769431 1.00000000
0.31223250 0.87953495 1.00000000
0.43004224 0.88143488 1.00000000
0.54619779 0.88338770 1.00000000
0.66059349 0.88538708 1.00000000
0.77312296 0.88742664 1.00000000
0.88368953 0.88948489 1.00000000
0.99230363 0.89151443 1.00000000
0.10316485 0.99193656 1.00000000
0.22193923 0.99294176 1.00000000
0.33902046 0.99395999 1.00000000
0.45430286 0.99498493 1.00000000
0.56768030 0.99601043 1.00000000
0.67904617 0.99703046 1.00000000
0.78829297 0.99803922 1.00000000
0.89526694 0.99903856 1.00000000
1.00000000 1.00000000 1.00000000
