assets/luts/DB_Midnight_Steel_Rec709_50.cube
TITLE "Midnight Steel Rec709 50"
# Red changes fastest. Full-range normalized input.
LUT_3D_SIZE 5
DOMAIN_MIN 0 0 0
DOMAIN_MAX 1 1 1
0.00200000 0.00200000 0.00200000
0.22055477 0.00000000 0.00189771
0.44481350 0.00000000 0.00355975
0.67766901 0.00081362 0.00550676
0.90829123 0.00494892 0.01020817
0.00000000 0.22819507 0.00930313
0.22903077 0.23401115 0.01125015
0.46220514 0.24038895 0.01869023
0.69710754 0.24806813 0.02610556
0.93319998 0.25669441 0.03420351
0.01899817 0.47820599 0.02898718
0.25542686 0.48709664 0.03727247
0.49252213 0.49649071 0.04589119
0.72990711 0.50606159 0.05457776
0.96720498 0.51548269 0.06306659
0.05238335 0.73661600 0.05770511
0.28955592 0.74590147 0.06605600
0.52612731 0.75459164 0.07384686
0.76172068 0.76235990 0.08081211
0.99595917 0.76887966 0.08668615
0.08322986 0.99198523 0.08309094
0.31688152 0.99796935 0.08850176
0.55271743 1.00000000 0.10290586
0.78264719 1.00000000 0.12646858
1.00000000 0.99944863 0.15956870
0.00000000 0.00071805 0.22781017
0.21983447 0.00000000 0.22480009
0.44713153 0.00000000 0.22944055
0.67861289 0.00200472 0.23402848
0.90998087 0.00676113 0.23920916
0.00000000 0.23026278 0.23531643
0.23143133 0.23577956 0.24028307
0.46593930 0.24251019 0.24758162
0.70005133 0.25090759 0.25588094
0.93645896 0.25978185 0.26415476
0.02207150 0.48114858 0.25883703
0.25876628 0.49024769 0.26726148
0.49612406 0.49973563 0.27496788
0.73341079 0.50929216 0.28457385
0.97058495 0.51859013 0.29294734
0.05585147 0.73981588 0.28767743
0.29286213 0.74893580 0.29586791
0.52914364 0.75734951 0.30340818
0.76431914 0.76473040 0.31003263
0.99801179 0.77075186 0.31547568
0.08564442 0.99418715 0.31216499
0.31870364 0.99963261 0.31711198
0.55666457 1.00000000 0.33262460
0.78474646 1.00000000 0.35095272
1.00000000 0.99954915 0.37699702
0.00000000 0.00123567 0.43467362
0.22009011 0.00000000 0.44903158
0.44971197 0.00000000 0.45825389
0.67982438 0.00341920 0.46272307
0.91189466 0.00875903 0.46835241
0.00013356 0.23225907 0.46462341
0.23290845 0.23818250 0.47069977
0.46736259 0.24548590 0.47782296
0.70311645 0.25384372 0.48572617
0.93979587 0.26292827 0.49414520
0.02525041 0.48417410 0.48874556
0.26217236 0.49344236 0.49728626
0.49975765 0.50265647 0.50514116
0.73796151 0.51211007 0.51407023
0.97389668 0.52162982 0.52276425
0.05927895 0.74297197 0.51760539
0.29608425 0.75188868 0.52560484
0.53202932 0.75998914 0.53286065
0.76675845 0.76694955 0.53828604
0.99985732 0.77242776 0.54408753
0.08787213 0.99621859 0.54109163
0.32337309 1.00000000 0.54725628
0.56070235 1.00000000 0.55862646
0.78687652 1.00000000 0.57136448
1.00000000 0.99967572 0.58965387
0.00000000 0.00173725 0.64628408
0.22079893 0.00000000 0.67598501
0.45062405 0.00087355 0.68685138
0.68128873 0.00504424 0.69158014
0.91401783 0.01092984 0.69762750
0.00185258 0.23409565 0.69364310
0.23523970 0.24052448 0.70010456
0.47017721 0.24822270 0.70752234
0.70628825 0.25686370 0.71563083
0.94319597 0.26612087 0.72416445
0.02852014 0.48726976 0.71870238
0.26562433 0.49667017 0.72732483
0.50301115 0.50624123 0.73601023
0.74030455 0.51565602 0.74449331
0.97712531 0.52458901 0.75250693
0.06265104 0.74607149 0.74747858
0.29920751 0.75474733 0.75525637
0.53477822 0.76249522 0.76220365
0.76870514 0.76870514 0.76792867
1.00000000 0.77419105 0.77294112
0.08989824 0.99806673 0.76986047
0.32911488 1.00000000 0.77478349
0.56483074 1.00000000 0.78073092
0.78903758 1.00000000 0.78752114
1.00000000 0.99983332 0.79722033
0.00000000 0.00221935 0.86249514
0.22175406 0.00000000 0.90608899
0.45158314 0.00207736 0.91538295
0.68299117 0.00686707 0.92058929
0.91633564 0.01326076 0.92702403
0.00379387 0.23611630 0.92280373
0.23774977 0.24301284 0.92961974
0.47312807 0.25106786 0.93730186
0.70955193 0.25995474 0.94558452
0.94664448 0.26934688 0.95420210
0.03186592 0.49042278 0.94869708
0.26910836 0.49991777 0.95737066
0.50650545 0.50947252 0.96601689
0.74368034 0.51876042 0.97437019
0.98025619 0.52745486 0.98216496
0.06595298 0.74910164 0.97728662
0.30221716 0.75749893 0.98481210
0.53736824 0.76485726 0.99141677
0.77102935 0.77085000 0.99683517
1.00000000 0.77626711 0.99805534
0.09170799 0.99971879 0.99846110
0.33500768 1.00000000 0.99858664
0.56905000 1.00000000 0.99875669
0.79123190 1.00000000 0.99923974
1.00000000 1.00000000 1.00000000
