assets/luts/DB_Midnight_Steel_Rec709_100.cube
TITLE "Midnight Steel Rec709 100"
# Red changes fastest. Full-range normalized input.
LUT_3D_SIZE 5
DOMAIN_MIN 0 0 0
DOMAIN_MAX 1 1 1
0.00400000 0.00400000 0.00400000
0.19110954 0.00000000 0.00379542
0.38962701 0.00000000 0.00711950
0.60533802 0.00162724 0.01101353
0.81658246 0.00989784 0.02041634
0.00000000 0.20639015 0.01860626
0.20806154 0.21802230 0.02250029
0.42441027 0.23077791 0.03738046
0.64421509 0.24613626 0.05221113
0.86639997 0.26338881 0.06840703
0.03799635 0.45641198 0.05797436
0.26085372 0.47419328 0.07454493
0.48504425 0.49298142 0.09178238
0.70981423 0.51212319 0.10915553
0.93440995 0.53096537 0.12613318
0.10476670 0.72323201 0.11541022
0.32911184 0.74180294 0.13211200
0.55225463 0.75918327 0.14769373
0.77344136 0.77471980 0.16162422
0.99191834 0.78775931 0.17337231
0.16645973 0.98397045 0.16618187
0.38376304 0.99593870 0.17700353
0.60543487 1.00000000 0.20581172
0.81529439 1.00000000 0.25293717
1.00000000 0.99889726 0.31913741
0.00000000 0.00143609 0.20562034
0.18966895 0.00000000 0.19960018
0.39426306 0.00000000 0.20888110
0.60722577 0.00400945 0.21805696
0.81996174 0.01352225 0.22841833
0.00000000 0.21052556 0.22063285
0.21286267 0.22155911 0.23056614
0.43187861 0.23502039 0.24516324
0.65010266 0.25181518 0.26176187
0.87291792 0.26956369 0.27830951
0.04414300 0.46229715 0.26767406
0.26753256 0.48049538 0.28452296
0.49224811 0.49947126 0.29993576
0.71682158 0.51858433 0.31914769
0.94116989 0.53718025 0.33589469
0.11170293 0.72963176 0.32535486
0.33572426 0.74787160 0.34173583
0.55828728 0.76469902 0.35681635
0.77863829 0.77946080 0.37006525
0.99602358 0.79150373 0.38095135
0.17128884 0.98837431 0.37432997
0.38740727 0.99926521 0.38422396
0.61332914 1.00000000 0.41524921
0.81949293 1.00000000 0.45190544
1.00000000 0.99909830 0.50399404
0.00000000 0.00247134 0.36934724
0.19018022 0.00000000 0.39806317
0.39942394 0.00000000 0.41650778
0.60964876 0.00683839 0.42544614
0.82378931 0.01751806 0.43670481
0.00026712 0.21451814 0.42924681
0.21581690 0.22636500 0.44139954
0.43472519 0.24097181 0.45564591
0.65623290 0.25768744 0.47145235
0.87959175 0.27585653 0.48829041
0.05050082 0.46834820 0.47749113
0.27434471 0.48688473 0.49457251
0.49951530 0.50531293 0.51028233
0.72592302 0.52422015 0.52814047
0.94779336 0.54325964 0.54552849
0.11855790 0.73594394 0.53521078
0.34216850 0.75377737 0.55120967
0.56405864 0.76997828 0.56572130
0.78351689 0.78389911 0.57657208
0.99971463 0.79485552 0.58817506
0.17574427 0.99243717 0.58218326
0.39674619 1.00000000 0.59451255
0.62140470 1.00000000 0.61725292
0.82375303 1.00000000 0.64272897
1.00000000 0.99935143 0.67930773
0.00000000 0.00347451 0.54256817
0.19159785 0.00000000 0.60197002
0.40124810 0.00174709 0.62370277
0.61257745 0.01008849 0.63316029
0.82803567 0.02185968 0.64525499
0.00370515 0.21819130 0.63728621
0.22047940 0.23104896 0.65020913
0.44035441 0.24644539 0.66504467
0.66257649 0.26372739 0.68126166
0.88639194 0.28224175 0.69832891
0.05704027 0.47453953 0.68740476
0.28124866 0.49334035 0.70464967
0.50602231 0.51248247 0.72202046
0.73060909 0.53131203 0.73898661
0.95425062 0.54917801 0.75501386
0.12530208 0.74214298 0.74495717
0.34841502 0.75949465 0.76051273
0.56955644 0.77499045 0.77440731
0.78741029 0.78741029 0.78585735
1.00000000 0.79838210 0.79588224
0.17979649 0.99613345 0.78972093
0.40822976 1.00000000 0.79956698
0.62966149 1.00000000 0.81146185
0.82807516 1.00000000 0.82504228
1.00000000 0.99966664 0.84444066
0.00000000 0.00443871 0.72499028
0.19350811 0.00000000 0.81217798
0.40316628 0.00415472 0.83076590
0.61598233 0.01373414 0.84117858
0.83267129 0.02652152 0.85404806
0.00758773 0.22223259 0.84560745
0.22549953 0.23602568 0.85923947
0.44625614 0.25213571 0.87460373
0.66910385 0.26990947 0.89116903
0.89328897 0.28869376 0.90840421
0.06373185 0.48084556 0.89739415
0.28821672 0.49983555 0.91474131
0.51301090 0.51894505 0.93203378
0.73736068 0.53752084 0.94874037
0.96051237 0.55490973 0.96432991
0.13190596 0.74820329 0.95457323
0.35443431 0.76499787 0.96962420
0.57473648 0.77971452 0.98283355
0.79205871 0.79170000 0.99367034
1.00000000 0.80253422 0.99611068
0.18341598 0.99943757 0.99692219
0.42001536 1.00000000 0.99717328
0.63809999 1.00000000 0.99751338
0.83246380 1.00000000 0.99847948
1.00000000 1.00000000 1.00000000
