assets/luts/DB_Midnight_Steel_Rec709_100.cube
TITLE "Midnight Steel Rec709 100"
# Red changes fastest. Full-range normalized input.
LUT_3D_SIZE 9
DOMAIN_MIN 0 0 0
DOMAIN_MAX 1 1 1
0.00400000 0.00400000 0.00400000
0.10162548 0.00000000 0.00145018
0.19110954 0.00000000 0.00379542
0.28725462 0.00000000 0.00565888
0.38962701 0.00000000 0.00711950
0.49777974 0.00000000 0.00840397
0.60533802 0.00162724 0.01101353
0.71039525 0.00529145 0.01535084
0.81658246 0.00989784 0.02041634
0.00000000 0.09580780 0.01060200
0.09512583 0.09966309 0.00000000
0.20192063 0.10076273 0.00000000
0.30098719 0.10472181 0.01159553
0.40549923 0.10895176 0.01710810
0.51206626 0.11388283 0.02242832
0.61964291 0.11964275 0.02838007
0.72812683 0.12615181 0.03490304
0.83742377 0.13332837 0.04193084
0.00000000 0.20639015 0.01860626
0.10066025 0.21279259 0.01853878
0.20806154 0.21802230 0.02250029
0.31597877 0.22396778 0.02989745
0.42441027 0.23077791 0.03738046
0.53396108 0.23818084 0.04460170
0.64421509 0.24613626 0.05221113
0.75505948 0.25456613 0.06016835
0.86639997 0.26338881 0.06840703
0.01167407 0.32849269 0.03307688
0.12075920 0.33549590 0.03997371
0.23058832 0.34310773 0.04732083
0.34107079 0.35124501 0.05505799
0.45210556 0.35982690 0.06313646
0.56360250 0.36877239 0.07146330
0.67546778 0.37799925 0.07997888
0.78760645 0.38742589 0.08861893
0.89992428 0.39697066 0.09731708
0.03799635 0.45641198 0.05797436
0.14921128 0.46513595 0.06614309
0.26085372 0.47419328 0.07454493
0.37282945 0.48350232 0.08311349
0.48504425 0.49298142 0.09178238
0.59740392 0.50254892 0.10048519
0.70981423 0.51212319 0.10915553
0.82218098 0.52162255 0.11772699
0.93440995 0.53096537 0.12613318
0.07022281 0.58902793 0.08626141
0.18250126 0.59854866 0.09495033
0.29489027 0.60812808 0.10364900
0.40729563 0.61768453 0.11229103
0.51962312 0.62713636 0.12081001
0.63177854 0.63640191 0.12913955
0.74366768 0.64539954 0.13721324
0.85519631 0.65404760 0.14496470
0.96627023 0.66226443 0.15232753
0.10476670 0.72323201 0.11541022
0.21704246 0.73262547 0.12386792
0.32911184 0.74180294 0.13211200
0.44088063 0.75068275 0.14007607
0.55225463 0.75918327 0.14769373
0.66313961 0.76722284 0.15489858
0.77344136 0.77471980 0.16162422
0.88306568 0.78159251 0.16780427
0.99191834 0.78775931 0.17337231
0.13804126 0.85591569 0.14289298
0.24924813 0.86425784 0.15036804
0.35993168 0.87210932 0.15740611
0.46999771 0.87938846 0.16394081
0.57935200 0.88601363 0.16990573
0.68790034 0.89190317 0.17523448
0.79554852 0.89697542 0.17986065
0.90220232 0.90114874 0.18371786
1.00000000 0.90260302 0.22683280
0.16645973 0.98397045 0.16618187
0.27553151 0.99033725 0.17192287
0.38376304 0.99593870 0.17700353
0.49247584 1.00000000 0.18405473
0.60543487 1.00000000 0.20581172
0.71317204 1.00000000 0.22877102
0.81529439 1.00000000 0.25293717
0.91140990 1.00000000 0.27831179
1.00000000 0.99889726 0.31913741
0.00183212 0.00256833 0.10557228
0.09719745 0.00000000 0.10266259
0.19002784 0.00000000 0.10170327
0.28808859 0.00000000 0.10411152
0.39185910 0.00000000 0.10730445
0.50115602 0.00000000 0.11067867
0.60621315 0.00276090 0.11449072
0.71166469 0.00675424 0.11908277
0.81821422 0.01166202 0.12438047
0.00000000 0.09689069 0.10303731
0.09392336 0.10026452 0.10705862
0.20511614 0.10050540 0.10675340
0.30351426 0.10552581 0.11490939
0.40694417 0.11051636 0.12091310
0.51382204 0.11574983 0.12647136
0.62171730 0.12177334 0.13262458
0.73048789 0.12851824 0.13932643
0.84003952 0.13590291 0.14651057
0.00000000 0.20846874 0.11874194
0.10188038 0.21460387 0.12177063
0.21283480 0.21973428 0.11592144
0.32619942 0.22445511 0.12293407
0.42783139 0.23299067 0.14093891
0.53666966 0.24082222 0.14922657
0.64712665 0.24894997 0.15696775
0.75815007 0.25752240 0.16502801
0.86963761 0.26645991 0.17334717
0.01396035 0.33079775 0.13745385
0.12330427 0.33801842 0.14450547
0.23329383 0.34586362 0.15156745
0.34439011 0.35412737 0.15783878
0.45561089 0.36276596 0.16724254
0.56690376 0.37187448 0.17640142
0.67885448 0.38118225 0.18499238
0.79106450 0.39065818 0.19365967
0.90342174 0.40022450 0.20236245
0.04104143 0.45933223 0.16280824
0.15241212 0.46817857 0.17106358
0.26417819 0.47733059 0.17952920
0.37624492 0.48670711 0.18813297
0.48852181 0.49622504 0.19681453
0.60090849 0.50580363 0.20552452
0.71331388 0.51536170 0.21417082
0.82564439 0.52481706 0.22269363
0.93780515 0.53408815 0.23102859
0.07366461 0.59224957 0.19129699
0.18599117 0.60179939 0.19999667
0.29839630 0.61138016 0.20868355
0.41078578 0.62091024 0.21729124
0.52306540 0.63030796 0.22575332
0.63514096 0.63949168 0.23400342
0.74691823 0.64837975 0.24197514
0.85830300 0.65689052 0.24960206
0.96920106 0.66494234 0.25681780
0.10824313 0.72644123 0.22039233
0.22045936 0.73577049 0.22878493
0.33243723 0.74485603 0.23694136
0.44408251 0.75361619 0.24479523
0.55530100 0.76196932 0.25228015
0.66599848 0.76983377 0.25932970
0.77608073 0.77712789 0.26587750
0.88545356 0.78377003 0.27185715
0.99402273 0.78967853 0.27720225
0.14119023 0.85879868 0.24756643
0.25222994 0.86698335 0.25490053
0.36271435 0.87464962 0.26177510
0.47254923 0.88171583 0.26812374
0.58164038 0.88810033 0.27388006
0.68989359 0.89372147 0.27897766
0.79721463 0.89849759 0.28335013
0.90350931 0.90234706 0.28693109
1.00000000 0.90364103 0.33054934
0.16891915 0.98621341 0.27029147
0.27771614 0.99232945 0.27581566
0.38564089 0.99765240 0.28065695
0.49718301 1.00000000 0.29205970
0.60935932 1.00000000 0.31143718
0.71622450 1.00000000 0.33188843
0.81738602 1.00000000 0.35341664
0.91245236 1.00000000 0.37602205
1.00000000 0.99899109 0.41273784
0.00000000 0.00143609 0.20562034
0.09490281 0.00000000 0.19976116
0.18966895 0.00000000 0.19960018
0.28924967 0.00000000 0.20363111
0.39426306 0.00000000 0.20888110
0.50255098 0.00066477 0.21396731
0.60722577 0.00400945 0.21805696
0.71306076 0.00832249 0.22289609
0.81996174 0.01352225 0.22841833
0.00000000 0.09805666 0.19657927
0.09321247 0.10115476 0.21184641
0.19754168 0.10369035 0.21550202
0.30249546 0.10746355 0.21974308
0.40843754 0.11220296 0.22482993
0.51568954 0.11770948 0.23058539
0.62389263 0.12398713 0.23693236
0.73293903 0.13095846 0.24380545
0.84273447 0.13854182 0.25113826
0.00000000 0.21052556 0.22063285
0.10382444 0.21623017 0.22679689
0.21286267 0.22155911 0.23056614
0.32911566 0.22585916 0.23326510
0.43187861 0.23502039 0.24516324
0.53948499 0.24351488 0.25388818
0.65010266 0.25181518 0.26176187
0.76129420 0.26052077 0.26991752
0.87291792 0.26956369 0.27830951
0.01633967 0.33317915 0.24188855
0.12593093 0.34060726 0.24909473
0.23580722 0.34872960 0.25560165
0.34991079 0.35651417 0.25201670
0.46635003 0.36385336 0.26111214
0.57114546 0.37476290 0.28048874
0.68227672 0.38438300 0.29001176
0.79453952 0.39390090 0.29870451
0.90692531 0.40347935 0.30740426
0.04414300 0.46229715 0.26767406
0.15565855 0.47125644 0.27600834
0.26753256 0.48049538 0.28452296
0.37958795 0.48997010 0.29275282
0.49224811 0.49947126 0.29993576
0.60473270 0.50898855 0.30981181
0.71682158 0.51858433 0.31914769
0.82908829 0.52799031 0.32763854
0.94116989 0.53718025 0.33589469
0.07712634 0.59548420 0.29633876
0.18949014 0.60505369 0.30504154
0.30190052 0.61462640 0.31370897
0.41426313 0.62412073 0.32227439
0.52648296 0.63345549 0.33066594
0.63846985 0.64254762 0.33882295
0.75012412 0.65131636 0.34669524
0.86135357 0.65968051 0.35419197
0.97206490 0.66755789 0.36125299
0.11170293 0.72963176 0.32535486
0.22384878 0.73888741 0.33367470
0.33572426 0.74787160 0.34173583
0.44723517 0.75650269 0.34947184
0.55828728 0.76469902 0.35681635
0.66878639 0.77237894 0.36370295
0.77863829 0.77946080 0.37006525
0.88774875 0.78586294 0.37583685
0.99602358 0.79150373 0.38095135
0.14428602 0.86163130 0.35219453
0.25514771 0.86964908 0.35938002
0.36542210 0.87712072 0.36608343
0.47501497 0.88396457 0.37223836
0.58383212 0.89009898 0.37777842
0.69177932 0.89544231 0.38263721
0.79876237 0.89991289 0.38674833
0.90468705 0.90342909 0.39004538
1.00000000 0.90470847 0.43221000
0.17128884 0.98837431 0.37432997
0.27980018 0.99423017 0.37962969
0.38740727 0.99926521 0.38422396
0.50195089 1.00000000 0.39833899
0.61332914 1.00000000 0.41524921
0.71930718 1.00000000 0.43310408
0.81949293 1.00000000 0.45190544
0.91349536 1.00000000 0.47165207
1.00000000 0.99909830 0.50399404
0.00000000 0.00195727 0.28627896
0.09360147 0.00000000 0.29617326
0.18977071 0.00000000 0.29824813
0.29064796 0.00000000 0.30443715
0.39679545 0.00000000 0.31193219
0.50329284 0.00168698 0.31735801
0.60837221 0.00536968 0.32170963
0.71457977 0.00999301 0.32678820
0.82182133 0.01547533 0.33252731
0.00000000 0.09925985 0.29166291
0.09366174 0.10196161 0.31499933
0.19797578 0.10500313 0.31885547
0.30347745 0.10903759 0.32347892
0.41007072 0.11398372 0.32880468
0.51766514 0.11975855 0.33476774
0.62616521 0.12628093 0.34130082
0.73547656 0.13346926 0.34833748
0.84550495 0.14124190 0.35581132
0.00000000 0.21255759 0.32425686
0.10569259 0.21808458 0.33090679
0.21365320 0.22412199 0.33712897
0.32290559 0.23073052 0.34390036
0.43232343 0.23822051 0.35100883
0.54229820 0.24628632 0.35862667
0.65313928 0.25472874 0.36659096
0.76448816 0.26355805 0.37483430
0.87623719 0.27269697 0.38329146
0.01880835 0.33563370 0.34637835
0.12865012 0.34325579 0.35373984
0.23903568 0.35141966 0.36143098
0.35124946 0.35940238 0.36736118
0.47010196 0.36600754 0.37212218
0.57592606 0.37741597 0.38523534
0.68575327 0.38759044 0.39503296
0.79802789 0.39715083 0.40375083
0.91043130 0.40673200 0.41243991
0.04729736 0.46530354 0.37256922
0.15894693 0.47436636 0.38097481
0.27091736 0.48368221 0.38953824
0.38262877 0.49328757 0.39717518
0.49724302 0.50204024 0.39523126
0.61486744 0.51017282 0.40468156
0.72115192 0.52154317 0.42330661
0.83251620 0.53113697 0.43255377
0.94450051 0.54023849 0.44072886
0.08060430 0.59872861 0.40138411
0.19299449 0.60830835 0.41008233
0.30539924 0.61786359 0.41872264
0.41771873 0.62731437 0.42723156
0.52974900 0.63661562 0.43517367
0.64187667 0.64555987 0.44183295
0.75355612 0.65413950 0.45067813
0.86435982 0.66241038 0.45870900
0.97485811 0.67010788 0.46563044
0.11514242 0.73280039 0.43029521
0.22720701 0.74197301 0.43853463
0.33896925 0.75084645 0.44649280
0.45033491 0.75933904 0.45410330
0.56120964 0.76736920 0.46129950
0.67149821 0.77485576 0.46800984
0.78111076 0.78171564 0.47417329
0.88994813 0.78786797 0.47973884
0.99791719 0.79323169 0.48461699
0.14732494 0.86441035 0.45677470
0.25799775 0.87225181 0.46380391
0.36805125 0.87951941 0.47032850
0.47739125 0.88613149 0.47628207
0.58592352 0.89200640 0.48159821
0.69355386 0.89706249 0.48621053
0.80018805 0.90121812 0.49005263
0.90573187 0.90439163 0.49305812
1.00000000 0.90580523 0.53177068
0.17356511 0.99044996 0.47829477
0.28177993 0.99603623 0.48336236
0.39111789 1.00000000 0.48930445
0.50677935 1.00000000 0.50284784
0.61734428 1.00000000 0.51720281
0.72242010 1.00000000 0.53237275
0.82161521 1.00000000 0.54835808
0.91453911 1.00000000 0.56515611
1.00000000 0.99921855 0.59286441
0.00000000 0.00247134 0.36934724
0.09284755 0.00000000 0.39317966
0.19018022 0.00000000 0.39806317
0.29222119 0.00000000 0.40666851
0.39942394 0.00000000 0.41650778
0.50417569 0.00282710 0.42084020
0.60964876 0.00683839 0.42544614
0.71621804 0.01176260 0.43075648
0.82378931 0.01751806 0.43670481
0.00000000 0.10048381 0.38843246
0.09427755 0.10287836 0.41830787
0.19900450 0.10626663 0.42243133
0.30488756 0.11061974 0.42730140
0.41183254 0.11585602 0.43285169
0.51974521 0.12189384 0.43901581
0.62853136 0.12865153 0.44572736
0.73809678 0.13604745 0.45291993
0.84834726 0.14399995 0.46052714
0.00026712 0.21451814 0.42924681
0.10757530 0.22005569 0.43502827
0.21581690 0.22636500 0.44139954
0.32489882 0.23336394 0.44829515
0.43472519 0.24097181 0.45564591
0.54520005 0.24910732 0.46338667
0.65623290 0.25768744 0.47145235
0.76772826 0.26663104 0.47977574
0.87959175 0.27585653 0.48829041
0.02136266 0.33815819 0.45092065
0.13143622 0.34596746 0.45842170
0.24212493 0.35427386 0.46629040
0.35335570 0.36297328 0.47450407
0.46541040 0.37185294 0.48297261
0.57724094 0.38124957 0.49143472
0.68917958 0.39083304 0.50009262
0.80152576 0.40040481 0.50879609
0.91393601 0.40997928 0.51746680
0.05050082 0.46834820 0.47749113
0.16227355 0.47750513 0.48596036
0.27434471 0.48688473 0.49457251
0.38649346 0.49641769 0.50322207
0.49951530 0.50531293 0.51028233
0.61871420 0.51248297 0.51594178
0.72592302 0.52422015 0.52814047
0.83594560 0.53424597 0.53743668
0.94779336 0.54325964 0.54552849
0.08409482 0.60197962 0.50643044
0.19650052 0.61156019 0.51511644
0.30888879 0.62108853 0.52372200
0.42115366 0.63048576 0.53217427
0.53258930 0.63978388 0.53952961
0.64549731 0.64784671 0.53815385
0.76233309 0.65494207 0.54632103
0.86807325 0.66483613 0.56245410
0.97758386 0.67258704 0.56994267
0.11855790 0.73594394 0.53521078
0.23053037 0.74502411 0.54336213
0.34216850 0.75377737 0.55120967
0.45337803 0.76212206 0.55868700
0.56405864 0.76997828 0.56572130
0.67398340 0.77730380 0.57190873
0.78351689 0.78389911 0.57657208
0.89229306 0.78972278 0.58291438
0.99971463 0.79485552 0.58817506
0.15030330 0.86713263 0.56130432
0.26077636 0.87478836 0.56816961
0.37059812 0.88184250 0.57450772
0.47967437 0.88821339 0.58025226
0.58791091 0.89381938 0.58533682
0.69521336 0.89857888 0.58969478
0.80148640 0.90241080 0.59325483
0.90664037 0.90523199 0.59595556
1.00000000 0.90693112 0.62918739
0.17574427 0.99243717 0.58218326
0.28365170 0.99774442 0.58701107
0.39674619 1.00000000 0.59451255
0.51166828 1.00000000 0.60554142
0.62140470 1.00000000 0.61725292
0.72556332 1.00000000 0.62964910
0.82375303 1.00000000 0.64272897
0.91558384 1.00000000 0.65648830
1.00000000 0.99935143 0.67930773
0.00000000 0.00297738 0.45478911
0.09243393 0.00000000 0.49134518
0.19080879 0.00000000 0.49926134
0.29392548 0.00000000 0.51040920
0.40049833 0.00071826 0.52030693
0.50519582 0.00408192 0.52441129
0.61105174 0.00841240 0.52926390
0.71797186 0.01362806 0.53479835
0.82586199 0.01964724 0.54094824
0.00000000 0.10171833 0.48694430
0.09503758 0.10391577 0.52171038
0.20016771 0.10764086 0.52609483
0.30642198 0.11230306 0.53120335
0.41370615 0.11782070 0.53696955
0.52192602 0.12411215 0.54332702
0.63098738 0.13109574 0.55020938
0.74079602 0.13868984 0.55755021
0.85125771 0.14681278 0.56528312
0.00192872 0.21630710 0.53322998
0.10956446 0.22211591 0.53921913
0.21810159 0.22866880 0.54577538
0.32744591 0.23588411 0.55283233
0.43750321 0.24368018 0.56032359
0.54817927 0.25197538 0.56818276
0.65937988 0.26068805 0.57634344
0.77101082 0.26973654 0.58473924
0.88297789 0.27903919 0.59330376
0.02399894 0.34074944 0.55551285
0.13429242 0.34873669 0.56314574
0.24517035 0.35719332 0.57112236
0.35653855 0.36603767 0.57937651
0.46830383 0.37518754 0.58784274
0.58037051 0.38456233 0.59645175
0.69264264 0.39408072 0.60513835
0.80502952 0.40365963 0.61383764
0.91743576 0.41321797 0.62248234
0.05374969 0.47142792 0.58243717
0.16563470 0.48066956 0.59096239
0.27778723 0.49010591 0.59960798
0.39011152 0.49965531 0.60830913
0.50252133 0.50921189 0.61705584
0.61527649 0.51856212 0.62578259
0.72745267 0.52805420 0.63410135
0.83927756 0.53734602 0.64231773
0.95104460 0.54624055 0.65029104
0.08759418 0.60523402 0.61147515
0.20000454 0.61480601 0.62014128
0.31236547 0.62429803 0.62870441
0.42458160 0.63362865 0.63709826
0.53640404 0.64272785 0.64524905
0.64809173 0.65080937 0.65216818
0.76559156 0.65681790 0.65734104
0.87213588 0.66694052 0.66689338
0.98025855 0.67498442 0.67418856
0.12194568 0.73905920 0.64009896
0.23381517 0.74803751 0.64815459
0.34531832 0.75666117 0.65588385
0.45636088 0.76484854 0.66322035
0.56683589 0.77252083 0.67009261
0.67593305 0.77972466 0.67570331
0.78533944 0.78546780 0.67337319
0.89932845 0.78968972 0.67870924
1.00000000 0.79660103 0.69276777
0.15321741 0.86979495 0.66578080
0.26347985 0.87725553 0.67247450
0.37305900 0.88408679 0.67861848
0.48186064 0.89020707 0.68414633
0.58979056 0.89553474 0.68899166
0.69674813 0.89999000 0.69308219
0.80249754 0.90353821 0.69603677
0.90740990 0.90599489 0.69719487
1.00000000 0.90806041 0.72433811
0.17782262 0.99433273 0.68599285
0.28541180 0.99935155 0.69057321
0.40245018 1.00000000 0.69794833
0.51661761 1.00000000 0.70637478
0.62551042 1.00000000 0.71535436
0.72873694 1.00000000 0.72488772
0.82590655 1.00000000 0.73497240
0.91662955 1.00000000 0.74560224
1.00000000 0.99949661 0.76328105
0.00000000 0.00347451 0.54256817
0.09224647 0.00000000 0.59096073
0.19159785 0.00000000 0.60197002
0.29572893 0.00000000 0.61570806
0.40124810 0.00174709 0.62370277
0.50634956 0.00544824 0.62806868
0.61257745 0.01008849 0.63316029
0.71983756 0.01558618 0.63891119
0.82803567 0.02185968 0.64525499
0.00000000 0.10295563 0.58723041
0.09593812 0.10507068 0.62520404
0.20146058 0.10912317 0.62984184
0.30807517 0.11408504 0.63518116
0.41568768 0.11987463 0.64115560
0.52420389 0.12641029 0.64769877
0.63352959 0.13361036 0.65474427
0.74357057 0.14139321 0.66222570
0.85423262 0.14967718 0.67007666
0.00370515 0.21819130 0.63728621
0.11165757 0.22426196 0.64347539
0.22047940 0.23104896 0.65020913
0.33007641 0.23847065 0.65742102
0.44035441 0.24644539 0.66504467
0.55121917 0.25489152 0.67301368
0.66257649 0.26372739 0.68126166
0.77433215 0.27287135 0.68972220
0.88639194 0.28224175 0.69832891
0.02671350 0.34340425 0.66015235
0.13721602 0.35156005 0.66790942
0.24827101 0.36015753 0.67598767
0.35978426 0.36911501 0.68432072
0.47166154 0.37835086 0.69284217
0.58380866 0.38778342 0.70148560
0.69613139 0.39733105 0.71018464
0.80853553 0.40691208 0.71887287
0.92092686 0.41644487 0.72748391
0.05704027 0.47453953 0.68740476
0.16902670 0.48385644 0.69597830
0.28124866 0.49334035 0.70464967
0.39361194 0.50290959 0.71335246
0.50602231 0.51248247 0.72202046
0.61838648 0.52197682 0.73058840
0.73060909 0.53131203 0.73898661
0.84259412 0.54040680 0.74714998
0.95425062 0.54917801 0.75501386
0.09109872 0.60848861 0.71651564
0.20350286 0.61804260 0.72515423
0.31582558 0.62748890 0.73366729
0.42797268 0.63674585 0.74198841
0.53984811 0.64573178 0.75005311
0.65135147 0.65434108 0.75786838
0.76272425 0.66236259 0.76539417
0.87316330 0.67013787 0.77208930
0.98278807 0.67732816 0.77839196
0.12530208 0.74214298 0.74495717
0.23705772 0.75101000 0.75290940
0.34841502 0.75949465 0.76051273
0.45927976 0.76751528 0.76770075
0.56955644 0.77499045 0.77440731
0.67897370 0.78185371 0.78059082
0.78741029 0.78741029 0.78585735
0.90137318 0.79054477 0.78893711
1.00000000 0.79838210 0.79588224
0.15606359 0.87239410 0.77020154
0.26610454 0.87965012 0.77671600
0.37543021 0.88624908 0.78265818
0.48394638 0.89210934 0.78796169
0.59155883 0.89714925 0.79256013
0.69816008 0.90129031 0.79638306
0.80290427 0.90461602 0.79873466
0.90743522 0.90643774 0.79347801
1.00000000 0.90861522 0.81646220
0.17979649 0.99613345 0.78972093
0.28986104 1.00000000 0.79425187
0.40822976 1.00000000 0.79956698
0.52162731 1.00000000 0.80530290
0.62966149 1.00000000 0.81146185
0.73194110 1.00000000 0.81804307
0.82807516 1.00000000 0.82504228
0.91765193 1.00000000 0.83242952
1.00000000 0.99966664 0.84444066
0.00000000 0.00396188 0.63264762
0.09221721 0.00000000 0.69218130
0.19250714 0.00000000 0.70626261
0.29760777 0.00000000 0.72258992
0.40213864 0.00289364 0.72718996
0.50763321 0.00692287 0.73180976
0.61422221 0.01186347 0.73713272
0.72181143 0.01763379 0.74309242
0.83030667 0.02415217 0.74962247
0.00000000 0.10418964 0.68930562
0.09697549 0.10633989 0.72878627
0.20287940 0.11071036 0.73366976
0.30984345 0.11596248 0.73923221
0.41777343 0.12201460 0.74540724
0.52657511 0.12878505 0.75212845
0.63615429 0.13619220 0.75932944
0.74641676 0.14415438 0.76694381
0.85726829 0.15258996 0.77490517
0.00559272 0.22016753 0.74141290
0.11385096 0.22649062 0.74779446
0.22294661 0.23350232 0.75469803
0.33278545 0.24112099 0.76205720
0.44327328 0.24926497 0.76980558
0.55431588 0.25785261 0.77787678
0.66581905 0.26680227 0.78620439
0.77768855 0.27603228 0.79472201
0.88983019 0.28546101 0.80336326
0.02950263 0.34611940 0.76483655
0.14020334 0.35443436 0.77271014
0.25142452 0.36316325 0.78088237
0.36307196 0.37222443 0.78928685
0.47505145 0.38153624 0.79785716
0.58726877 0.39101703 0.80652693
0.69962972 0.40058515 0.81522974
0.81204007 0.41015896 0.82389920
0.92440561 0.41965680 0.83246892
0.06036889 0.47767980 0.79239129
0.17244587 0.48706259 0.80100549
0.28472639 0.49658463 0.80969498
0.39711622 0.50616427 0.81839333
0.50952117 0.51571987 0.82703417
0.62184701 0.52516978 0.83555109
0.73399954 0.53443233 0.84387769
0.84588454 0.54342589 0.85194757
0.95740779 0.55206880 0.85969435
0.09460473 0.61174020 0.82154930
0.20699179 0.62126678 0.83015271
0.31926544 0.63065792 0.83860803
0.43133147 0.63983200 0.84684885
0.54309568 0.64870735 0.85480879
0.65446382 0.65720229 0.86242166
0.76534248 0.66523464 0.86962231
0.87563662 0.67272380 0.87634070
0.98525012 0.67958842 0.88251181
0.12862340 0.74519207 0.84978279
0.24025433 0.75393840 0.85762398
0.35145492 0.76227462 0.86509371
0.46213095 0.77011909 0.87212559
0.57218821 0.77739015 0.87865322
0.68153041 0.78400618 0.88461247
0.79004749 0.78986410 0.89002583
0.89797405 0.79475887 0.89487117
1.00000000 0.80050993 0.89704137
0.15883813 0.87492689 0.87456393
0.26864674 0.88196893 0.88089149
0.37770806 0.88832618 0.88662422
0.48592790 0.89391700 0.89169574
0.59321202 0.89865974 0.89603963
0.69946491 0.90247299 0.89958984
0.80440872 0.90529887 0.90232626
0.90790253 0.90663430 0.90418842
1.00000000 0.90967241 0.90817461
0.18166217 0.99783613 0.89336492
0.29641212 1.00000000 0.89665808
0.41408484 1.00000000 0.89932363
0.52669737 1.00000000 0.90228065
0.63385797 1.00000000 0.90553001
0.73517596 1.00000000 0.90906951
0.83025999 1.00000000 0.91289358
0.91861669 1.00000000 0.91695652
1.00000000 0.99988827 0.92207104
0.00000000 0.00443871 0.72499028
0.09230324 0.00000000 0.79508811
0.19350811 0.00000000 0.81217798
0.29844612 0.00077213 0.82664685
0.40316628 0.00415472 0.83076590
0.50904309 0.00850261 0.83563194
0.61598233 0.01373414 0.84117858
0.72388980 0.01976766 0.84733942
0.83267129 0.02652152 0.85404806
0.00000000 0.10541558 0.79317223
0.09814598 0.10772019 0.83245447
0.20442049 0.11239923 0.83757598
0.31172314 0.11793219 0.84335392
0.41995971 0.12423741 0.84972188
0.52903600 0.13123325 0.85661347
0.63885780 0.13883804 0.86396229
0.74933088 0.14697015 0.87170194
0.86036103 0.15554791 0.87976603
0.00758773 0.22223259 0.84560745
0.11614092 0.22879869 0.85217374
0.22549953 0.23602568 0.85923947
0.33556934 0.24383190 0.86673827
0.44625614 0.25213571 0.87460373
0.55746571 0.26085545 0.88276945
0.66910385 0.26990947 0.89116903
0.78107634 0.27921613 0.89973608
0.89328897 0.28869376 0.90840421
0.03236266 0.34889172 0.86956285
0.14325069 0.35735640 0.87754531
0.25462719 0.36620730 0.88580385
0.36639796 0.37536274 0.89427209
0.47846879 0.38474110 0.90288363
0.59074545 0.39426071 0.91157206
0.70313373 0.40383992 0.92027100
0.81553944 0.41339708 0.92891403
0.92786834 0.42285054 0.93743477
0.06373185 0.48084556 0.89739415
0.17588851 0.49028479 0.90604137
0.28821672 0.49983555 0.91474131
0.40062225 0.50941619 0.92342758
0.51301090 0.51894505 0.93203378
0.62528845 0.52834048 0.94049351
0.73736068 0.53752084 0.94874037
0.84913340 0.54640447 0.95670797
0.96051237 0.55490973 0.96432991
0.09810853 0.61498559 0.92657355
0.21046764 0.62447533 0.93513411
0.32268135 0.63380192 0.94352403
0.43465544 0.64288370 0.95167691
0.54629572 0.65163903 0.95952635
0.65750795 0.65998626 0.96700596
0.76819794 0.66784373 0.97404934
0.87827147 0.67512979 0.98059009
0.98763432 0.68176279 0.98656182
0.13190596 0.74820329 0.95457323
0.24340130 0.75681949 0.96229572
0.35443431 0.76499787 0.96962420
0.46491078 0.77265676 0.97649227
0.57473648 0.77971452 0.98283355
0.68381720 0.78608950 0.98858163
0.79205871 0.79170000 0.99367034
0.89936752 0.79646390 0.99803465
1.00000000 0.80253422 0.99611068
0.16153736 0.87739012 0.97886538
0.27110275 0.88420876 0.98499838
0.37988886 0.89031488 0.99051401
0.48780149 0.89562685 0.99534586
0.59474642 0.90006300 0.99942755
0.70395577 0.90282473 1.00000000
0.80922435 0.90534349 1.00000000
0.90924059 0.90782397 1.00000000
1.00000000 0.91167353 0.99662902
0.18341598 0.99943757 0.99692219
0.30305390 1.00000000 0.99724531
0.42001536 1.00000000 0.99717328
0.53182781 1.00000000 0.99726281
0.63809999 1.00000000 0.99751338
0.73844173 1.00000000 0.99792128
0.83246380 1.00000000 0.99847948
0.91975584 1.00000000 0.99918483
1.00000000 1.00000000 1.00000000
