assets/luts/DB_Midnight_Steel_Rec709_100.cube
TITLE "Midnight Steel Rec709 100"
# Red changes fastest. Full-range normalized input.
LUT_3D_SIZE 33
DOMAIN_MIN 0 0 0
DOMAIN_MAX 1 1 1
0.00400000 0.00400000 0.00400000
0.02932280 0.00256584 0.00301580
0.05549858 0.00102941 0.00183694
0.08025239 0.00000000 0.00111683
0.10162548 0.00000000 0.00145018
0.12339051 0.00000000 0.00192624
0.14554974 0.00000000 0.00252542
0.16811796 0.00000000 0.00317462
0.19110954 0.00000000 0.00379542
0.21452809 0.00000000 0.00434621
0.23836633 0.00000000 0.00482703
0.26261229 0.00000000 0.00525798
0.28725462 0.00000000 0.00565888
0.31228423 0.00000000 0.00604174
0.33769377 0.00000000 0.00641188
0.36347675 0.00000000 0.00677102
0.38962701 0.00000000 0.00711950
0.41613848 0.00000000 0.00745723
0.44300513 0.00000000 0.00778402
0.47022090 0.00000000 0.00809966
0.49777974 0.00000000 0.00840397
0.52567559 0.00000000 0.00869678
0.55326259 0.00017396 0.00913870
0.57926131 0.00086796 0.01005076
0.60533802 0.00162724 0.01101353
0.63149124 0.00245050 0.01202596
0.65771950 0.00333647 0.01308701
0.68402133 0.00428388 0.01419565
0.71039525 0.00529145 0.01535084
0.73683980 0.00635791 0.01655154
0.76335350 0.00748198 0.01779671
0.78993488 0.00866238 0.01908533
0.81658246 0.00989784 0.02041634
0.00000000 0.02599516 0.00287547
0.02392759 0.02559016 0.00012099
0.04934382 0.02459961 0.00000000
0.07385014 0.02399081 0.00000000
0.09819010 0.02355828 0.00000000
0.12295042 0.02313099 0.00000000
0.14846873 0.02260846 0.00000000
0.17475039 0.02198438 0.00000000
0.20066481 0.02155228 0.00035111
0.22363759 0.02198904 0.00186791
0.24746704 0.02232268 0.00295979
0.27204067 0.02257354 0.00374431
0.29710325 0.02280117 0.00437896
0.32244430 0.02305601 0.00497741
0.34794562 0.02336612 0.00559845
0.37355603 0.02374285 0.00626535
0.39925722 0.02418921 0.00698504
0.42504305 0.02470515 0.00775862
0.45091098 0.02528964 0.00858553
0.47685934 0.02594148 0.00946481
0.50288663 0.02665940 0.01039546
0.52899136 0.02744211 0.01137642
0.55517207 0.02828835 0.01240667
0.58142729 0.02919684 0.01348517
0.60775554 0.03016630 0.01461088
0.63415534 0.03119546 0.01578276
0.66062523 0.03228304 0.01699977
0.68716374 0.03342777 0.01826088
0.71376940 0.03462836 0.01956505
0.74044072 0.03588355 0.02091124
0.76717624 0.03719206 0.02229841
0.79397449 0.03855260 0.02372554
0.82083400 0.03996392 0.02519157
0.00000000 0.04790607 0.00529473
0.02022489 0.04927213 0.00000000
0.04602053 0.04855976 0.00000000
0.07120613 0.04814223 0.00000000
0.09605855 0.04794439 0.00000000
0.12102237 0.04784325 0.00000000
0.14653761 0.04771245 0.00000000
0.17285260 0.04747360 0.00000000
0.19991911 0.04712952 0.00000000
0.22467491 0.04742033 0.00156581
0.24803127 0.04816442 0.00373871
0.27234217 0.04878932 0.00523620
0.29738934 0.04933502 0.00631144
0.32288355 0.04986491 0.00719778
0.34862036 0.05042546 0.00803753
0.37449571 0.05104012 0.00889614
0.40046779 0.05171746 0.00979708
0.42652241 0.05245937 0.01074672
0.45265481 0.05326541 0.01174584
0.47886279 0.05413446 0.01279378
0.50514476 0.05506530 0.01388959
0.53149922 0.05605664 0.01503223
0.55792472 0.05710721 0.01622066
0.58441976 0.05821575 0.01745384
0.61098288 0.05938096 0.01873075
0.63761262 0.06060158 0.02005034
0.66430748 0.06187632 0.02141157
0.69106601 0.06320393 0.02281341
0.71788673 0.06458310 0.02425482
0.74476817 0.06601258 0.02573476
0.77170886 0.06749109 0.02725219
0.79870732 0.06901735 0.02880608
0.82576209 0.07059008 0.03039539
0.00000000 0.07119281 0.00794120
0.01721770 0.07411761 0.00000000
0.04371912 0.07358264 0.00000000
0.06988952 0.07324734 0.00000000
0.09566216 0.07313962 0.00000000
0.12123554 0.07321474 0.00000000
0.14698686 0.07337256 0.00000000
0.17328601 0.07350377 0.00000000
0.20031959 0.07354055 0.00000000
0.22642440 0.07383126 0.00126743
0.24966025 0.07485283 0.00464820
0.27376658 0.07579899 0.00705672
0.29873670 0.07664888 0.00872230
0.32431207 0.07744868 0.00997386
0.35023505 0.07825186 0.01105888
0.37634499 0.07909299 0.01211072
0.40256688 0.07998788 0.01318497
0.42887248 0.08094161 0.01429982
0.45525243 0.08195480 0.01545958
0.48170332 0.08302665 0.01666448
0.50822331 0.08415596 0.01791371
0.53481085 0.08534150 0.01920628
0.56146447 0.08658197 0.02054115
0.58818268 0.08787610 0.02191728
0.61496403 0.08922263 0.02333365
0.64180702 0.09062027 0.02478920
0.66871020 0.09206775 0.02628291
0.69567209 0.09356379 0.02781374
0.72269122 0.09510711 0.02938065
0.74976612 0.09669645 0.03098260
0.77689531 0.09833051 0.03261855
0.80407733 0.10000804 0.03428747
0.83131069 0.10172775 0.03598832
0.00000000 0.09580780 0.01060200
0.01570590 0.09965069 0.00181679
0.04127817 0.09994488 0.00007237
0.06828690 0.09973453 0.00000000
0.09512583 0.09966309 0.00000000
0.12168618 0.09978405 0.00000000
0.14813370 0.10006517 0.00000000
0.17478148 0.10042237 0.00000000
0.20192063 0.10076273 0.00000000
0.22788682 0.10136084 0.00199719
0.25168760 0.10247810 0.00612687
0.27596623 0.10362643 0.00931853
0.30098719 0.10472181 0.01159553
0.32665013 0.10576611 0.01325852
0.35273189 0.10679777 0.01461536
0.37904919 0.10785275 0.01586616
0.40549923 0.10895176 0.01710810
0.43203747 0.11010324 0.01837814
0.45864787 0.11130924 0.01968722
0.48532493 0.11256946 0.02103740
0.51206626 0.11388283 0.02242832
0.53887021 0.11524811 0.02385908
0.56573529 0.11666404 0.02532865
0.59266001 0.11812935 0.02683599
0.61964291 0.11964275 0.02838007
0.64668252 0.12120297 0.02995986
0.67377735 0.12280874 0.03157431
0.70092595 0.12445878 0.03322238
0.72812683 0.12615181 0.03490304
0.75537852 0.12788656 0.03661526
0.78267956 0.12966176 0.03835799
0.81002847 0.13147612 0.04013020
0.83742377 0.13332837 0.04193084
0.00000000 0.12170138 0.01304490
0.01578258 0.12583180 0.00481279
0.04136357 0.12637491 0.00417918
0.06737685 0.12695499 0.00276558
0.09410043 0.12747290 0.00072847
0.12152591 0.12774406 0.00000000
0.14891709 0.12806082 0.00000000
0.17629226 0.12850485 0.00000000
0.20331510 0.12906420 0.00113244
0.22876608 0.12993399 0.00493991
0.25364666 0.13104831 0.00893767
0.27856427 0.13228470 0.01238933
0.30391282 0.13354291 0.01505137
0.32977345 0.13478487 0.01705890
0.35603473 0.13601979 0.01867623
0.38254814 0.13727199 0.02012312
0.40920837 0.13856070 0.02152636
0.43596140 0.13989567 0.02294192
0.46278513 0.14128016 0.02438916
0.48967156 0.14271433 0.02587302
0.51661755 0.14419732 0.02739393
0.54362125 0.14572792 0.02895114
0.57068113 0.14730487 0.03054366
0.59779571 0.14892690 0.03217047
0.62496351 0.15059274 0.03383053
0.65218306 0.15230111 0.03552280
0.67945289 0.15405073 0.03724625
0.70677152 0.15584033 0.03899983
0.73413749 0.15766863 0.04078251
0.76154933 0.15953436 0.04259325
0.78900555 0.16143624 0.04443102
0.81650470 0.16337300 0.04629477
0.84404528 0.16534335 0.04818347
0.00000000 0.14881050 0.01517980
0.01679139 0.15287710 0.00802297
0.04262755 0.15359537 0.00830376
0.06862918 0.15439495 0.00814175
0.09495941 0.15522929 0.00748248
0.12175287 0.15603713 0.00655082
0.14896005 0.15678661 0.00588749
0.17627737 0.15751430 0.00613402
0.20328760 0.15831427 0.00765575
0.22973396 0.15927550 0.01029694
0.25568628 0.16042268 0.01348677
0.28145473 0.16171223 0.01659936
0.30735806 0.16307661 0.01926380
0.33355895 0.16446894 0.02142880
0.36005742 0.16587577 0.02323347
0.38677583 0.16730445 0.02485019
0.41363579 0.16876671 0.02640173
0.44058779 0.17027047 0.02795178
0.46760812 0.17181898 0.02952589
0.49468719 0.17341270 0.03113184
0.52182115 0.17505086 0.03277102
0.54900793 0.17673234 0.03444295
0.57624596 0.17845588 0.03614669
0.60353372 0.18022020 0.03788123
0.63086976 0.18202404 0.03964553
0.65825260 0.18386611 0.04143854
0.68568077 0.18574515 0.04325924
0.71315279 0.18765987 0.04510659
0.74066719 0.18960901 0.04697955
0.76822250 0.19159128 0.04887707
0.79581725 0.19360541 0.05079814
0.82344997 0.19565012 0.05274170
0.85111918 0.19772413 0.05470671
0.00000000 0.17706400 0.01702254
0.01860313 0.18075428 0.01144386
0.04474777 0.18164333 0.01228309
0.07096920 0.18261085 0.01295715
0.09732477 0.18364425 0.01338486
0.12389591 0.18471569 0.01358362
0.15072836 0.18579409 0.01374355
0.17776090 0.18686901 0.01420048
0.20481978 0.18796547 0.01527287
0.23171524 0.18913100 0.01706214
0.25836908 0.19040250 0.01938313
0.28485803 0.19178315 0.02188770
0.31134073 0.19324773 0.02427069
0.33794828 0.19476573 0.02639552
0.36472959 0.19631885 0.02828211
0.39166759 0.19790314 0.03002088
0.41872218 0.19952194 0.03169845
0.44585970 0.20117926 0.03336907
0.47306061 0.20287719 0.03505804
0.50031574 0.20461598 0.03677437
0.52762101 0.20639489 0.03852011
0.55497421 0.20821281 0.04029502
0.58237372 0.21006849 0.04209824
0.60981802 0.21196067 0.04392877
0.63730564 0.21388807 0.04578556
0.66483510 0.21584941 0.04766758
0.69240495 0.21784343 0.04957379
0.72001369 0.21986884 0.05150317
0.74765986 0.22192436 0.05345466
0.77534200 0.22400874 0.05542723
0.80305862 0.22612067 0.05741985
0.83080825 0.22825890 0.05943147
0.85858942 0.23042214 0.06146106
0.00000000 0.20639015 0.01860626
0.02119738 0.20938697 0.01522134
0.04761931 0.21045741 0.01636601
0.07410322 0.21159317 0.01748675
0.10066025 0.21279259 0.01853878
0.12731737 0.21404777 0.01949600
0.15410613 0.21534471 0.02039163
0.18103430 0.21667027 0.02133985
0.20806154 0.21802230 0.02250029
0.23510992 0.21941338 0.02399011
0.26211146 0.22086255 0.02580695
0.28905312 0.22238148 0.02782987
0.31597877 0.22396778 0.02989745
0.34295091 0.22560971 0.03189497
0.37001118 0.22729550 0.03378854
0.39716834 0.22901873 0.03560283
0.42441027 0.23077791 0.03738046
0.45172038 0.23257360 0.03915539
0.47908633 0.23440627 0.04094641
0.50650112 0.23627563 0.04276116
0.53396108 0.23818084 0.04460170
0.56146405 0.24012076 0.04646786
0.58900837 0.24209415 0.04835882
0.61659255 0.24409974 0.05027358
0.64421509 0.24613626 0.05221113
0.67187452 0.24820244 0.05417042
0.69956938 0.25029699 0.05615041
0.72729819 0.25241865 0.05815006
0.75505948 0.25456613 0.06016835
0.78285177 0.25673817 0.06220422
0.81067360 0.25893347 0.06425665
0.83852349 0.26115078 0.06632460
0.86639997 0.26338881 0.06840703
0.00000000 0.23671890 0.01994586
0.02456207 0.23870221 0.01944464
0.05122380 0.23995466 0.02077673
0.07794657 0.24126280 0.02213328
0.10472998 0.24262620 0.02349817
0.13157845 0.24404299 0.02485479
0.15850153 0.24550878 0.02619890
0.18550808 0.24701737 0.02755319
0.21259571 0.24856372 0.02896895
0.23974516 0.25014744 0.03050428
0.26692823 0.25177300 0.03218890
0.29412539 0.25344599 0.03400357
0.32133757 0.25516863 0.03589249
0.34858177 0.25693841 0.03779731
0.37587668 0.25875041 0.03968473
0.40323173 0.26060028 0.04155077
0.43064614 0.26248547 0.04340810
0.45811401 0.26440483 0.04527169
0.48562919 0.26635764 0.04715168
0.51318724 0.26834308 0.04905279
0.54078530 0.27036014 0.05097631
0.56842139 0.27240761 0.05292196
0.59609388 0.27448427 0.05488891
0.62380127 0.27658884 0.05687619
0.65154207 0.27872005 0.05888274
0.67931481 0.28087662 0.06090755
0.70711803 0.28305727 0.06294958
0.73495024 0.28526074 0.06500778
0.76280999 0.28748574 0.06708112
0.79069578 0.28973100 0.06916856
0.81860616 0.29199524 0.07126906
0.84653964 0.29427719 0.07338159
0.87449477 0.29657557 0.07550511
0.00184777 0.26726574 0.02268902
0.02866286 0.26864057 0.02412653
0.05553836 0.27006603 0.02560152
0.08247240 0.27154111 0.02711101
0.10946326 0.27306488 0.02865032
0.13651007 0.27463627 0.03021330
0.16361354 0.27625365 0.03179483
0.19077567 0.27791456 0.03339542
0.21799741 0.27961619 0.03502494
0.24527577 0.28135634 0.03670072
0.27260309 0.28313438 0.03843839
0.29997049 0.28495093 0.04024145
0.32737288 0.28680662 0.04209813
0.35481107 0.28870090 0.04398861
0.38228928 0.29063193 0.04589594
0.40981108 0.29259741 0.04781237
0.43737708 0.29459534 0.04973833
0.46498543 0.29662417 0.05167778
0.49263331 0.29868269 0.05363432
0.52031809 0.30076976 0.05560977
0.54803764 0.30288421 0.05760445
0.57579019 0.30502480 0.05961783
0.60357419 0.30719029 0.06164904
0.63138814 0.30937940 0.06369708
0.65923054 0.31159085 0.06576091
0.68709994 0.31382338 0.06783950
0.71499485 0.31607570 0.06993182
0.74291381 0.31834653 0.07203682
0.77085535 0.32063461 0.07415347
0.79881798 0.32293866 0.07628073
0.82680025 0.32525740 0.07841756
0.85480067 0.32758955 0.08056294
0.88281778 0.32993385 0.08271581
0.00643635 0.29761100 0.02767834
0.03345050 0.29915025 0.02924208
0.06052049 0.30073565 0.03084081
0.08764475 0.30236598 0.03247320
0.11482171 0.30404003 0.03413755
0.14204985 0.30575662 0.03583172
0.16932795 0.30751451 0.03755329
0.19665519 0.30931228 0.03930053
0.22403095 0.31114829 0.04107361
0.25145419 0.31302087 0.04287519
0.27892274 0.31492860 0.04470926
0.30643344 0.31687044 0.04657830
0.33398321 0.31884564 0.04848100
0.36157010 0.32085335 0.05041247
0.38919347 0.32289239 0.05236669
0.41685325 0.32496132 0.05433920
0.44454894 0.32705863 0.05632805
0.47227937 0.32918290 0.05833305
0.50004287 0.33133280 0.06035454
0.52783767 0.33350708 0.06239254
0.55566205 0.33570448 0.06444661
0.58351442 0.33792376 0.06651598
0.61139327 0.34016364 0.06859970
0.63929711 0.34242285 0.07069676
0.66722446 0.34470011 0.07280612
0.69517385 0.34699415 0.07492675
0.72314380 0.34930370 0.07705762
0.75113285 0.35162747 0.07919768
0.77913951 0.35396419 0.08134591
0.80716233 0.35631258 0.08350125
0.83519983 0.35867138 0.08566267
0.86325053 0.36103930 0.08782915
0.89131297 0.36341506 0.08999963
0.01167407 0.32849269 0.03307688
0.03887043 0.33018201 0.03475473
0.06611773 0.33191316 0.03646420
0.09341448 0.33368488 0.03820424
0.12075920 0.33549590 0.03997371
0.14815037 0.33734497 0.04177139
0.17558653 0.33923082 0.04359598
0.20306629 0.34115218 0.04544615
0.23058832 0.34310773 0.04732083
0.25815134 0.34509611 0.04921944
0.28575389 0.34711597 0.05114191
0.31339432 0.34916600 0.05308827
0.34107079 0.35124501 0.05505799
0.36878154 0.35335184 0.05704968
0.39652508 0.35548528 0.05906129
0.42430016 0.35764407 0.06109075
0.45210556 0.35982690 0.06313646
0.47993998 0.36203243 0.06519735
0.50780195 0.36425938 0.06727263
0.53568997 0.36650646 0.06936156
0.56360250 0.36877239 0.07146330
0.59153803 0.37105591 0.07357691
0.61949507 0.37335575 0.07570139
0.64747215 0.37567062 0.07783573
0.67546778 0.37799925 0.07997888
0.70348050 0.38034037 0.08212982
0.73150883 0.38269270 0.08428750
0.75955130 0.38505496 0.08645088
0.78760645 0.38742589 0.08861893
0.81567279 0.38980419 0.09079062
0.84374886 0.39218861 0.09296489
0.87183318 0.39457786 0.09514073
0.89992428 0.39697066 0.09731708
0.01750497 0.35986220 0.03884523
0.04486686 0.36168717 0.04062541
0.07227474 0.36354967 0.04243374
0.09972714 0.36544844 0.04426918
0.12722258 0.36738220 0.04613068
0.15475958 0.36934967 0.04801719
0.18233668 0.37134959 0.04992763
0.20995239 0.37338068 0.05186090
0.23760527 0.37544166 0.05381593
0.26529388 0.37753125 0.05579170
0.29301676 0.37964815 0.05778730
0.32077245 0.38179108 0.05980187
0.34855942 0.38395876 0.06183457
0.37637615 0.38614993 0.06388439
0.40422113 0.38836334 0.06595017
0.43209288 0.39059771 0.06803068
0.45998999 0.39285178 0.07012472
0.48791101 0.39512426 0.07223117
0.51585449 0.39741387 0.07434903
0.54381897 0.39971933 0.07647730
0.57180296 0.40203936 0.07861500
0.59980498 0.40437269 0.08076111
0.62782355 0.40671804 0.08291462
0.65585720 0.40907413 0.08507450
0.68390446 0.41143970 0.08723970
0.71196385 0.41381346 0.08940920
0.74003390 0.41619413 0.09158195
0.76811315 0.41858046 0.09375691
0.79620011 0.42097115 0.09593305
0.82429331 0.42336493 0.09810933
0.85239129 0.42576052 0.10028472
0.88049257 0.42815666 0.10245817
0.90859568 0.43055206 0.10462865
0.02387301 0.39167097 0.04494393
0.05138377 0.39361714 0.04681469
0.07893556 0.39559656 0.04871011
0.10652692 0.39760795 0.05062915
0.13415637 0.39965004 0.05257078
0.16182245 0.40172154 0.05453396
0.18952367 0.40382119 0.05651764
0.21725858 0.40594771 0.05852079
0.24502568 0.40809982 0.06054235
0.27282353 0.41027625 0.06258128
0.30065064 0.41247572 0.06463656
0.32850556 0.41469695 0.06670716
0.35638680 0.41693866 0.06879209
0.38429289 0.41919958 0.07089033
0.41222234 0.42147843 0.07300084
0.44017368 0.42377395 0.07512255
0.46814545 0.42608485 0.07725440
0.49613617 0.42840987 0.07939533
0.52414438 0.43074772 0.08154429
0.55216861 0.43309713 0.08370026
0.58020738 0.43545682 0.08586221
0.60825922 0.43782551 0.08802910
0.63632267 0.44020194 0.09019990
0.66439624 0.44258482 0.09237357
0.69247846 0.44497288 0.09454908
0.72056786 0.44736484 0.09672540
0.74866297 0.44975943 0.09890147
0.77676233 0.45215537 0.10107627
0.80486444 0.45455139 0.10324877
0.83296785 0.45694620 0.10541791
0.86107108 0.45933854 0.10758266
0.88917266 0.46172713 0.10974199
0.91727112 0.46411069 0.11189486
0.03072215 0.42387042 0.05133347
0.05836511 0.42592336 0.05328307
0.08604416 0.42800526 0.05525384
0.11375782 0.43011484 0.05724474
0.14150462 0.43225081 0.05925475
0.16928309 0.43441192 0.06128281
0.19709177 0.43659688 0.06332789
0.22492917 0.43880441 0.06538896
0.25279382 0.44103324 0.06746497
0.28068426 0.44328210 0.06955489
0.30859901 0.44554970 0.07165768
0.33653659 0.44783478 0.07377230
0.36449555 0.45013605 0.07589772
0.39247440 0.45245224 0.07803291
0.42047167 0.45478208 0.08017682
0.44848589 0.45712429 0.08232843
0.47651559 0.45947758 0.08448669
0.50455929 0.46184070 0.08665056
0.53261553 0.46421236 0.08881900
0.56068282 0.46659128 0.09099097
0.58875971 0.46897620 0.09316544
0.61684472 0.47136582 0.09534136
0.64493637 0.47375889 0.09751771
0.67303320 0.47615412 0.09969344
0.70113373 0.47855023 0.10186752
0.72923649 0.48094596 0.10403891
0.75734000 0.48334002 0.10620658
0.78544280 0.48573114 0.10836948
0.81354341 0.48811805 0.11052658
0.84164037 0.49049946 0.11267684
0.86973219 0.49287411 0.11481922
0.89781741 0.49524071 0.11695269
0.92589456 0.49759799 0.11907620
0.03799635 0.45641198 0.05797436
0.06575485 0.45855725 0.05999105
0.09354449 0.46072719 0.06202543
0.12136379 0.46292051 0.06407646
0.14921128 0.46513595 0.06614309
0.17708550 0.46737222 0.06822429
0.20498496 0.46962805 0.07031902
0.23290819 0.47190216 0.07242625
0.26085372 0.47419328 0.07454493
0.28882009 0.47650013 0.07667404
0.31680581 0.47882144 0.07881252
0.34480943 0.48115593 0.08095935
0.37282945 0.48350232 0.08311349
0.40086442 0.48585934 0.08527390
0.42891286 0.48822571 0.08743954
0.45697329 0.49060017 0.08960938
0.48504425 0.49298142 0.09178238
0.51312427 0.49536820 0.09395750
0.54121187 0.49775922 0.09613370
0.56930557 0.50015322 0.09830994
0.59740392 0.50254892 0.10048519
0.62550543 0.50494504 0.10265841
0.65360863 0.50734031 0.10482857
0.68171206 0.50973345 0.10699462
0.70981423 0.51212319 0.10915553
0.73791368 0.51450824 0.11131025
0.76600894 0.51688733 0.11345777
0.79409853 0.51925920 0.11559702
0.82218098 0.52162255 0.11772699
0.85025482 0.52397612 0.11984662
0.87831858 0.52631863 0.12195489
0.90637078 0.52864881 0.12405076
0.93440995 0.53096537 0.12613318
0.04563955 0.48924708 0.06482709
0.07349694 0.49147025 0.06689914
0.10138052 0.49371379 0.06898539
0.12928880 0.49597642 0.07108479
0.15722032 0.49825687 0.07319631
0.18517361 0.50055387 0.07531891
0.21314720 0.50286613 0.07745155
0.24113960 0.50519238 0.07959320
0.26914936 0.50753135 0.08174281
0.29717500 0.50988176 0.08389935
0.32521504 0.51224234 0.08606179
0.35326801 0.51461180 0.08822908
0.38133245 0.51698887 0.09040019
0.40940688 0.51937228 0.09257407
0.43748983 0.52176076 0.09474970
0.46557982 0.52415301 0.09692604
0.49367538 0.52654778 0.09910204
0.52177505 0.52894378 0.10127667
0.54987735 0.53133974 0.10344890
0.57798080 0.53373438 0.10561768
0.60608394 0.53612643 0.10778198
0.63418530 0.53851461 0.10994076
0.66228339 0.54089764 0.11209298
0.69037676 0.54327425 0.11423760
0.71846392 0.54564316 0.11637360
0.74654341 0.54800310 0.11849992
0.77461374 0.55035279 0.12061554
0.80267347 0.55269096 0.12271941
0.83072110 0.55501633 0.12481050
0.85875516 0.55732762 0.12688778
0.88677419 0.55962356 0.12895019
0.91477672 0.56190287 0.13099671
0.94276126 0.56416428 0.13302630
0.05359573 0.52232715 0.07185217
0.08153534 0.52461378 0.07396785
0.10949619 0.52691648 0.07609422
0.13747680 0.52923398 0.07823026
0.16547569 0.53156501 0.08037493
0.19349140 0.53390829 0.08252718
0.22152245 0.53626255 0.08468599
0.24956737 0.53862651 0.08685031
0.27762469 0.54099889 0.08901911
0.30569294 0.54337842 0.09119135
0.33377064 0.54576382 0.09336599
0.36185632 0.54815382 0.09554200
0.38994851 0.55054714 0.09771834
0.41804574 0.55294250 0.09989396
0.44614654 0.55533864 0.10206784
0.47424943 0.55773426 0.10423893
0.50235294 0.56012811 0.10640620
0.53045560 0.56251889 0.10856860
0.55855593 0.56490534 0.11072512
0.58665248 0.56728619 0.11287469
0.61474375 0.56966014 0.11501630
0.64282829 0.57202594 0.11714889
0.67090462 0.57438229 0.11927144
0.69897126 0.57672794 0.12138290
0.72702675 0.57906159 0.12348224
0.75506961 0.58138199 0.12556842
0.78309838 0.58368784 0.12764040
0.81111157 0.58597787 0.12969715
0.83910772 0.58825081 0.13173763
0.86708535 0.59050539 0.13376079
0.89504300 0.59274032 0.13576561
0.92297918 0.59495433 0.13775105
0.95089244 0.59714614 0.13971606
0.06180883 0.55560363 0.07901011
0.08981401 0.55793927 0.08115766
0.11783548 0.56028669 0.08331242
0.14587175 0.56264463 0.08547336
0.17392135 0.56501180 0.08763943
0.20198282 0.56738693 0.08980960
0.23005468 0.56976875 0.09198284
0.25813545 0.57215597 0.09415810
0.28622368 0.57454732 0.09633434
0.31431787 0.57694154 0.09851054
0.34241657 0.57933733 0.10068565
0.37051830 0.58173342 0.10285863
0.39862158 0.58412855 0.10502845
0.42672496 0.58652143 0.10719407
0.45482694 0.58891078 0.10935445
0.48292607 0.59129534 0.11150856
0.51102086 0.59367382 0.11365535
0.53910986 0.59604496 0.11579379
0.56719158 0.59840746 0.11792285
0.59526455 0.60076007 0.12004148
0.62332730 0.60310149 0.12214865
0.65137836 0.60543047 0.12424332
0.67941626 0.60774571 0.12632445
0.70743953 0.61004595 0.12839101
0.73544669 0.61232991 0.13044195
0.76343626 0.61459631 0.13247625
0.79140679 0.61684388 0.13449286
0.81935679 0.61907135 0.13649074
0.84728480 0.62127743 0.13846886
0.87518934 0.62346084 0.14042618
0.90306895 0.62562033 0.14236166
0.93092213 0.62775460 0.14427427
0.95874744 0.62986238 0.14616297
0.07022281 0.58902793 0.08626141
0.09827690 0.59139815 0.08842909
0.12634232 0.59377586 0.09060050
0.15441760 0.59615979 0.09277459
0.18250126 0.59854866 0.09495033
0.21059182 0.60094121 0.09712668
0.23868783 0.60333614 0.09930260
0.26678780 0.60573219 0.10147705
0.29489027 0.60812808 0.10364900
0.32299375 0.61052254 0.10581741
0.35109679 0.61291428 0.10798125
0.37919791 0.61530204 0.11013946
0.40729563 0.61768453 0.11229103
0.43538848 0.62006048 0.11443490
0.46347500 0.62242862 0.11657005
0.49155370 0.62478767 0.11869543
0.51962312 0.62713636 0.12081001
0.54768179 0.62947340 0.12291275
0.57572823 0.63179752 0.12500261
0.60376097 0.63410745 0.12707855
0.63177854 0.63640191 0.12913955
0.65977947 0.63867963 0.13118455
0.68776228 0.64093932 0.13321252
0.71572551 0.64317972 0.13522244
0.74366768 0.64539954 0.13721324
0.77158731 0.64759752 0.13918391
0.79948294 0.64977237 0.14113340
0.82735310 0.65192282 0.14306068
0.85519631 0.65404760 0.14496470
0.88301110 0.65614543 0.14684444
0.91079600 0.65821502 0.14869885
0.93854953 0.66025512 0.15052689
0.96627023 0.66226443 0.15232753
0.07878163 0.62255149 0.09356656
0.10686797 0.62494185 0.09574264
0.13496069 0.62733541 0.09791896
0.16305831 0.62973090 0.10009446
0.19115936 0.63212704 0.10226812
0.21926237 0.63452255 0.10443891
0.24736586 0.63691617 0.10660577
0.27546837 0.63930661 0.10876768
0.30356842 0.64169259 0.11092359
0.33166454 0.64407285 0.11307248
0.35975526 0.64644611 0.11521330
0.38783910 0.64881109 0.11734501
0.41591460 0.65116651 0.11946658
0.44398027 0.65351110 0.12157696
0.47203466 0.65584359 0.12367513
0.50007628 0.65816269 0.12576005
0.52810367 0.66046714 0.12783067
0.55611535 0.66275565 0.12988596
0.58410986 0.66502695 0.13192489
0.61208571 0.66727977 0.13394641
0.64004144 0.66951283 0.13594948
0.66797557 0.67172484 0.13793308
0.69588664 0.67391455 0.13989616
0.72377317 0.67608067 0.14183768
0.75163368 0.67822192 0.14375661
0.77946672 0.68033703 0.14565191
0.80727079 0.68242473 0.14752255
0.83504444 0.68448373 0.14936748
0.86278619 0.68651277 0.15118566
0.89049457 0.68851056 0.15297607
