assets/luts/DB_Midnight_Steel_Rec709_50.cube
TITLE "Midnight Steel Rec709 50"
# Red changes fastest. Full-range normalized input.
LUT_3D_SIZE 9
DOMAIN_MIN 0 0 0
DOMAIN_MAX 1 1 1
0.00200000 0.00200000 0.00200000
0.11331274 0.00000000 0.00072509
0.22055477 0.00000000 0.00189771
0.33112731 0.00000000 0.00282944
0.44481350 0.00000000 0.00355975
0.56138987 0.00000000 0.00420199
0.67766901 0.00081362 0.00550676
0.79269763 0.00264573 0.00767542
0.90829123 0.00494892 0.01020817
0.00000000 0.11040390 0.00530100
0.11006291 0.11233154 0.00000000
0.22596031 0.11288136 0.00000000
0.33799360 0.11486091 0.00579776
0.45274961 0.11697588 0.00855405
0.56853313 0.11944141 0.01121416
0.68482146 0.12232137 0.01419004
0.80156341 0.12557591 0.01745152
0.91871189 0.12916418 0.02096542
0.00000000 0.22819507 0.00930313
0.11283013 0.23139630 0.00926939
0.22903077 0.23401115 0.01125015
0.34548939 0.23698389 0.01494873
0.46220514 0.24038895 0.01869023
0.57948054 0.24409042 0.02230085
0.69710754 0.24806813 0.02610556
0.81502974 0.25228307 0.03008417
0.93319998 0.25669441 0.03420351
0.00583704 0.35174634 0.01653844
0.12287960 0.35524795 0.01998685
0.24029416 0.35905387 0.02366042
0.35803539 0.36312251 0.02752900
0.47605278 0.36741345 0.03156823
0.59430125 0.37188620 0.03573165
0.71273389 0.37649962 0.03998944
0.83130322 0.38121294 0.04430947
0.94996214 0.38598533 0.04865854
0.01899817 0.47820599 0.02898718
0.13710564 0.48256797 0.03307154
0.25542686 0.48709664 0.03727247
0.37391473 0.49175116 0.04155675
0.49252213 0.49649071 0.04589119
0.61120196 0.50127446 0.05024260
0.72990711 0.50606159 0.05457776
0.84859049 0.51081128 0.05886349
0.96720498 0.51548269 0.06306659
0.03511140 0.60701396 0.04313070
0.15375063 0.61177433 0.04747517
0.27244513 0.61656404 0.05182450
0.39114781 0.62134227 0.05614551
0.50981156 0.62606818 0.06040500
0.62838927 0.63070096 0.06456977
0.74683384 0.63519977 0.06860662
0.86509815 0.63952380 0.07248235
0.98313511 0.64363222 0.07616376
0.05238335 0.73661600 0.05770511
0.17102123 0.74131274 0.06193396
0.28955592 0.74590147 0.06605600
0.40794032 0.75034138 0.07003803
0.52612731 0.75459164 0.07384686
0.64406980 0.75861142 0.07744929
0.76172068 0.76235990 0.08081211
0.87903284 0.76579625 0.08390213
0.99595917 0.76887966 0.08668615
0.06902063 0.86545785 0.07144649
0.18712406 0.86962892 0.07518402
0.30496584 0.87355466 0.07870306
0.42249886 0.87719423 0.08197040
0.53967600 0.88050682 0.08495286
0.65645017 0.88345158 0.08761724
0.77277426 0.88598771 0.08993033
0.88860116 0.88807437 0.09185893
1.00000000 0.88880151 0.11341640
0.08322986 0.99198523 0.08309094
0.20026575 0.99516863 0.08596144
0.31688152 0.99796935 0.08850176
0.43373792 1.00000000 0.09202737
0.55271743 1.00000000 0.10290586
0.66908602 1.00000000 0.11438551
0.78264719 1.00000000 0.12646858
0.89320495 1.00000000 0.13915590
1.00000000 0.99944863 0.15956870
0.00091606 0.00128417 0.11528614
0.11109872 0.00000000 0.11383130
0.22001392 0.00000000 0.11335163
0.33154429 0.00000000 0.11455576
0.44592955 0.00000000 0.11615223
0.56307801 0.00000000 0.11783934
0.67810657 0.00138045 0.11974536
0.79333235 0.00337712 0.12204139
0.90910711 0.00583101 0.12469024
0.00000000 0.11094534 0.11401865
0.10946168 0.11263226 0.11602931
0.22755807 0.11275270 0.11587670
0.33925713 0.11526291 0.11995469
0.45347208 0.11775818 0.12295655
0.56941102 0.12037492 0.12573568
0.68585865 0.12338667 0.12881229
0.80274394 0.12675912 0.13216322
0.92001976 0.13045145 0.13575529
0.00000000 0.22923437 0.12187097
0.11344019 0.23230193 0.12338531
0.23141740 0.23486714 0.12046072
0.35059971 0.23722755 0.12396703
0.46391569 0.24149534 0.13296945
0.58083483 0.24541111 0.13711328
0.69856332 0.24947498 0.14098388
0.81657504 0.25376120 0.14501400
0.93481881 0.25822995 0.14917358
0.00698017 0.35289887 0.13122693
0.12415213 0.35650921 0.13475274
0.24164692 0.36043181 0.13828372
0.35969505 0.36456369 0.14141939
0.47780545 0.36888298 0.14612127
0.59595188 0.37343724 0.15070071
0.71442724 0.37809113 0.15499619
0.83303225 0.38282909 0.15932984
0.95171087 0.38761225 0.16368122
0.02052072 0.47966612 0.14390412
0.13870606 0.48408928 0.14803179
0.25708910 0.48866529 0.15226460
0.37562246 0.49335355 0.15656649
0.49426090 0.49811252 0.16090726
0.61295424 0.50290181 0.16526226
0.73165694 0.50768085 0.16958541
0.85032220 0.51240853 0.17384682
0.96890257 0.51704407 0.17801430
0.03683231 0.60862478 0.15814850
0.15549559 0.61339970 0.16249834
0.27419815 0.61819008 0.16684178
0.39289289 0.62295512 0.17114562
0.51153270 0.62765398 0.17537666
0.63007048 0.63224584 0.17950171
0.74845911 0.63668988 0.18348757
0.86665150 0.64094526 0.18730103
0.98460053 0.64497117 0.19090890
0.05412156 0.73822061 0.17269616
0.17272968 0.74288525 0.17689246
0.29121862 0.74742802 0.18097068
0.40954126 0.75180810 0.18489762
0.52765050 0.75598466 0.18864007
0.64549924 0.75991689 0.19216485
0.76304037 0.76356395 0.19543875
0.88022678 0.76688501 0.19842858
0.99701137 0.76983927 0.20110113
0.07059512 0.86689934 0.18628321
0.18861497 0.87099168 0.18995026
0.30635717 0.87482481 0.19338755
0.42377462 0.87835791 0.19656187
0.54082019 0.88155016 0.19944003
0.65744679 0.88436073 0.20198883
0.77360732 0.88674880 0.20417507
0.88925465 0.88867353 0.20596555
1.00000000 0.88932052 0.22777467
0.08445958 0.99310670 0.19764574
0.20135807 0.99616472 0.20040783
0.31782044 0.99882620 0.20282848
0.43609151 1.00000000 0.20852985
0.55467966 1.00000000 0.21821859
0.67061225 1.00000000 0.22844422
0.78369301 1.00000000 0.23920832
0.89372618 1.00000000 0.25051102
1.00000000 0.99949554 0.26886892
0.00000000 0.00071805 0.22781017
0.10995140 0.00000000 0.22488058
0.21983447 0.00000000 0.22480009
0.33212483 0.00000000 0.22681555
0.44713153 0.00000000 0.22944055
0.56377549 0.00033238 0.23198366
0.67861289 0.00200472 0.23402848
0.79403038 0.00416125 0.23644805
0.90998087 0.00676113 0.23920916
0.00000000 0.11152833 0.22328964
0.10910623 0.11307738 0.23092321
0.22377084 0.11434518 0.23275101
0.33874773 0.11623177 0.23487154
0.45421877 0.11860148 0.23741496
0.57034477 0.12135474 0.24029270
0.68694631 0.12449357 0.24346618
0.80396951 0.12797923 0.24690272
0.92136724 0.13177091 0.25056913
0.00000000 0.23026278 0.23531643
0.11441222 0.23311508 0.23839845
0.23143133 0.23577956 0.24028307
0.35205783 0.23792958 0.24163255
0.46593930 0.24251019 0.24758162
0.58224250 0.24675744 0.25194409
0.70005133 0.25090759 0.25588094
0.81814710 0.25526038 0.25995876
0.93645896 0.25978185 0.26415476
0.00816984 0.35408957 0.24594428
0.12546546 0.35780363 0.24954736
0.24290361 0.36186480 0.25280083
0.36245539 0.36575708 0.25100835
0.48317501 0.36942668 0.25555607
0.59807273 0.37488145 0.26524437
0.71613836 0.37969150 0.27000588
0.83476976 0.38445045 0.27435226
0.95346266 0.38923967 0.27870213
0.02207150 0.48114858 0.25883703
0.14032928 0.48562822 0.26300417
0.25876628 0.49024769 0.26726148
0.37729397 0.49498505 0.27137641
0.49612406 0.49973563 0.27496788
0.61486635 0.50449427 0.27990590
0.73341079 0.50929216 0.28457385
0.85204414 0.51399515 0.28881927
0.97058495 0.51859013 0.29294734
0.03856317 0.61024210 0.27316938
0.15724507 0.61502684 0.27752077
0.27595026 0.61981320 0.28185448
0.39463157 0.62456036 0.28613719
0.51324148 0.62922775 0.29033297
0.63173493 0.63377381 0.29441147
0.75006206 0.63815818 0.29834762
0.86817679 0.64234025 0.30209598
0.98603245 0.64627894 0.30562650
0.05585147 0.73981588 0.28767743
0.17442439 0.74444370 0.29183735
0.29286213 0.74893580 0.29586791
0.41111758 0.75325134 0.29973592
0.52914364 0.75734951 0.30340818
0.64689320 0.76118947 0.30685148
0.76431914 0.76473040 0.31003263
0.88137438 0.76793147 0.31291843
0.99801179 0.77075186 0.31547568
0.07214301 0.86831565 0.30109727
0.19007386 0.87232454 0.30469001
0.30771105 0.87606036 0.30804171
0.42500749 0.87948228 0.31111918
0.54191606 0.88254949 0.31388921
0.65838966 0.88522115 0.31631860
0.77438119 0.88745645 0.31837416
0.88984353 0.88921454 0.32002269
1.00000000 0.88985423 0.34110500
0.08564442 0.99418715 0.31216499
0.20240009 0.99711508 0.31481484
0.31870364 0.99963261 0.31711198
0.43847544 1.00000000 0.32416949
0.55666457 1.00000000 0.33262460
0.67215359 1.00000000 0.34155204
0.78474646 1.00000000 0.35095272
0.89424768 1.00000000 0.36082604
1.00000000 0.99954915 0.37699702
0.00000000 0.00097863 0.33063948
0.10930073 0.00000000 0.33558663
0.21988535 0.00000000 0.33662407
0.33282398 0.00000000 0.33971857
0.44839772 0.00000000 0.34346609
0.56414642 0.00084349 0.34617900
0.67918610 0.00268484 0.34835482
0.79478989 0.00499651 0.35089410
0.91091066 0.00773766 0.35376365
0.00000000 0.11212992 0.33333145
0.10933087 0.11348081 0.34499966
0.22398789 0.11500157 0.34692773
0.33923872 0.11701879 0.34923946
0.45503536 0.11949186 0.35190234
0.57133257 0.12237928 0.35488387
0.68808261 0.12564047 0.35815041
0.80523828 0.12923463 0.36166874
0.92275247 0.13312095 0.36540566
0.00000000 0.23127879 0.34962843
0.11534629 0.23404229 0.35295339
0.23182660 0.23706099 0.35606449
0.34895279 0.24036526 0.35945018
0.46616171 0.24411026 0.36300442
0.58364910 0.24814316 0.36681333
0.70156964 0.25236437 0.37079548
0.81974408 0.25677902 0.37491715
0.93811860 0.26134848 0.37914573
0.00940417 0.35531685 0.36068918
0.12682506 0.35912790 0.36436992
0.24451784 0.36320983 0.36821549
0.36312473 0.36720119 0.37118059
0.48505098 0.37050377 0.37356109
0.60046303 0.37620798 0.38011767
0.71787664 0.38129522 0.38501648
0.83651395 0.38607541 0.38937542
0.95521565 0.39086600 0.39371995
0.02364868 0.48265177 0.37378461
0.14197346 0.48718318 0.37798741
0.26045868 0.49184110 0.38226912
0.37881439 0.49664378 0.38608759
0.49862151 0.50102012 0.38511563
0.61993372 0.50508641 0.38984078
0.73557596 0.51077158 0.39915330
0.85375810 0.51556849 0.40377689
0.97225025 0.52011924 0.40786443
0.04030215 0.61186431 0.38819206
0.15899725 0.61665418 0.39254117
0.27769962 0.62143179 0.39686132
0.39635937 0.62615718 0.40111578
0.51487450 0.63080781 0.40508683
0.63343833 0.63527993 0.40841647
0.75177806 0.63956975 0.41283907
0.86967991 0.64370519 0.41685450
0.98742906 0.64755394 0.42031522
0.05757121 0.74140020 0.40264760
0.17610351 0.74598651 0.40676732
0.29448462 0.75042322 0.41074640
0.41266745 0.75466952 0.41455165
0.53060482 0.75868460 0.41814975
0.64824911 0.76242788 0.42150492
0.76555538 0.76585782 0.42458664
0.88247406 0.76893398 0.42736942
0.99895860 0.77161585 0.42980849
0.07366247 0.86970518 0.41588735
0.19149887 0.87362591 0.41940196
0.30902563 0.87725970 0.42266425
0.42619562 0.88056574 0.42564103
0.54296176 0.88350320 0.42829910
0.65927693 0.88603125 0.43060526
0.77509402 0.88810906 0.43252631
0.89036594 0.88969581 0.43402906
1.00000000 0.89040261 0.45338534
0.08678256 0.99522498 0.42664738
0.20338996 0.99801811 0.42918118
0.32055895 1.00000000 0.43215222
0.44088967 1.00000000 0.43892392
0.55867214 1.00000000 0.44610141
0.67371005 1.00000000 0.45368637
0.78580761 1.00000000 0.46167904
0.89476955 1.00000000 0.47007806
1.00000000 0.99960927 0.48393220
0.00000000 0.00123567 0.43467362
0.10892378 0.00000000 0.44658983
0.22009011 0.00000000 0.44903158
0.33361060 0.00000000 0.45333426
0.44971197 0.00000000 0.45825389
0.56458784 0.00141355 0.46042010
0.67982438 0.00341920 0.46272307
0.79560902 0.00588130 0.46537824
0.91189466 0.00875903 0.46835241
0.00000000 0.11274191 0.44421623
0.10963877 0.11393918 0.45915394
0.22450225 0.11563332 0.46121566
0.33994378 0.11780987 0.46365070
0.45591627 0.12042801 0.46642585
0.57237260 0.12344692 0.46950791
0.68926568 0.12682577 0.47286368
0.80654839 0.13052373 0.47645997
0.92417363 0.13449997 0.48026357
0.00013356 0.23225907 0.46462341
0.11628765 0.23502784 0.46751413
0.23290845 0.23818250 0.47069977
0.34994941 0.24168197 0.47414758
0.46736259 0.24548590 0.47782296
0.58510003 0.24955366 0.48169333
0.70311645 0.25384372 0.48572617
0.82136413 0.25831552 0.48988787
0.93979587 0.26292827 0.49414520
0.01068133 0.35657910 0.47546032
0.12821811 0.36048373 0.47921085
0.24606247 0.36463693 0.48314520
0.36417785 0.36898664 0.48725204
0.48270520 0.37342647 0.49148630
0.60112047 0.37812479 0.49571736
0.71958979 0.38291652 0.50004631
0.83826288 0.38770240 0.50439805
0.95696801 0.39248964 0.50873340
0.02525041 0.48417410 0.48874556
0.14363677 0.48875257 0.49298018
0.26217236 0.49344236 0.49728626
0.38074673 0.49820885 0.50161103
0.49975765 0.50265647 0.50514116
0.62185710 0.50624148 0.50797089
0.73796151 0.51211007 0.51407023
0.85547280 0.51712298 0.51871834
0.97389668 0.52162982 0.52276425
0.04204741 0.61348981 0.50321522
0.16075026 0.61828010 0.50755822
0.27944439 0.62304427 0.51186100
0.39807683 0.62774288 0.51608714
0.51629465 0.63239194 0.51976480
0.63524865 0.63642335 0.51907692
0.75616655 0.63997104 0.52316051
0.87153663 0.64491807 0.53122705
0.98879193 0.64879352 0.53497134
0.05927895 0.74297197 0.51760539
0.17776519 0.74751206 0.52168106
0.29608425 0.75188868 0.52560484
0.41418902 0.75606103 0.52934350
0.53202932 0.75998914 0.53286065
0.64949170 0.76365190 0.53595437
0.76675845 0.76694955 0.53828604
0.88364653 0.76986139 0.54145719
0.99985732 0.77242776 0.54408753
0.07515165 0.87106632 0.53065216
0.19288818 0.87489418 0.53408480
0.31029906 0.87842125 0.53725386
0.42733719 0.88160669 0.54012613
0.54395545 0.88440969 0.54266841
0.66010668 0.88678944 0.54484739
0.77574320 0.88870540 0.54662741
0.89082018 0.89011599 0.54797778
1.00000000 0.89096556 0.56459369
0.08787213 0.99621859 0.54109163
0.20432585 0.99887221 0.54350553
0.32337309 1.00000000 0.54725628
0.44333414 1.00000000 0.55277071
0.56070235 1.00000000 0.55862646
0.67528166 1.00000000 0.56482455
0.78687652 1.00000000 0.57136448
0.89529192 1.00000000 0.57824415
1.00000000 0.99967572 0.58965387
0.00000000 0.00148869 0.53989456
0.10871696 0.00000000 0.55817259
0.22040440 0.00000000 0.56213067
0.33446274 0.00000000 0.56770460
0.45024917 0.00035913 0.57265347
0.56509791 0.00204096 0.57470565
0.68052587 0.00420620 0.57713195
0.79648593 0.00681403 0.57989917
0.91293099 0.00982362 0.58297412
0.00000000 0.11335917 0.55597215
0.11001879 0.11445789 0.57335519
0.22508386 0.11632043 0.57554741
0.34071099 0.11865153 0.57810168
0.45685307 0.12141035 0.58098478
0.57346301 0.12455607 0.58416351
0.69049369 0.12804787 0.58760469
0.80789801 0.13184492 0.59127510
0.92562886 0.13590639 0.59514156
0.00096436 0.23315355 0.57911499
0.11728223 0.23605796 0.58210956
0.23405080 0.23933440 0.58538769
0.35122296 0.24294205 0.58891616
0.46875161 0.24684009 0.59266180
0.58658964 0.25098769 0.59659138
0.70468994 0.25534403 0.60067172
0.82300541 0.25986827 0.60486962
0.94148895 0.26451960 0.60915188
0.01199947 0.35787472 0.59025642
0.12964621 0.36186834 0.59407287
0.24758518 0.36609666 0.59806118
0.36576927 0.37051883 0.60218825
0.48415191 0.37509377 0.60642137
0.60268525 0.37978116 0.61072587
0.72132132 0.38454036 0.61506917
0.84001476 0.38932982 0.61941882
0.95871788 0.39410898 0.62374117
0.02687484 0.48571396 0.60371859
0.14531735 0.49033478 0.60798120
0.26389361 0.49505295 0.61230399
0.38255576 0.49982765 0.61665457
0.50126067 0.50460594 0.62102792
0.62013825 0.50928106 0.62539130
0.73872634 0.51402710 0.62955067
0.85713878 0.51867301 0.63365887
0.97552230 0.52312028 0.63764552
0.04379709 0.61511701 0.61823757
0.16250227 0.61990300 0.62257064
0.28118274 0.62464902 0.62685221
0.39979080 0.62931433 0.63104913
0.51820202 0.63386392 0.63512453
0.63654586 0.63790468 0.63858409
0.75779578 0.64090895 0.64117052
0.87356794 0.64597026 0.64594669
0.99012927 0.64999221 0.64959428
0.06097284 0.74452960 0.63254948
0.17940759 0.74901875 0.63657729
0.29765916 0.75333058 0.64044193
0.41568044 0.75742427 0.64411018
0.53341794 0.76126041 0.64754631
0.65046653 0.76486233 0.65035165
0.76766972 0.76773390 0.64918659
0.88716422 0.76984486 0.65185462
1.00000000 0.77330051 0.65888388
0.07660871 0.87239748 0.64539040
0.19423993 0.87612777 0.64873725
0.31152950 0.87954339 0.65180924
0.42843032 0.88260354 0.65457317
0.54489528 0.88526737 0.65699583
0.66087406 0.88749500 0.65904110
0.77624877 0.88926910 0.66051838
0.89120495 0.89049744 0.66109743
1.00000000 0.89153021 0.67466905
0.08891131 0.99716637 0.65549642
0.20520590 0.99967578 0.65778661
0.32622509 1.00000000 0.66147416
0.44580881 1.00000000 0.66568739
0.56275521 1.00000000 0.67017718
0.67686847 1.00000000 0.67494386
0.78795328 1.00000000 0.67998620
0.89581478 1.00000000 0.68530112
1.00000000 0.99974830 0.69414053
0.00000000 0.00173725 0.64628408
0.10862324 0.00000000 0.67048036
0.22079893 0.00000000 0.67598501
0.33536447 0.00000000 0.68285403
0.45062405 0.00087355 0.68685138
0.56567478 0.00272412 0.68903434
0.68128873 0.00504424 0.69158014
0.79741878 0.00779309 0.69445560
0.91401783 0.01092984 0.69762750
0.00000000 0.11397781 0.66861521
0.11046906 0.11503534 0.68760202
0.22573029 0.11706159 0.68992092
0.34153758 0.11954252 0.69259058
0.45784384 0.12243731 0.69557780
0.57460194 0.12570514 0.69884939
0.69176480 0.12930518 0.70237214
0.80928529 0.13319661 0.70611285
0.92711631 0.13733859 0.71003833
0.00185258 0.23409565 0.69364310
0.11832879 0.23713098 0.69673770
0.23523970 0.24052448 0.70010456
0.35253821 0.24423533 0.70371051
0.47017721 0.24822270 0.70752234
0.58810959 0.25244576 0.71150684
0.70628825 0.25686370 0.71563083
0.82466608 0.26143568 0.71986110
0.94319597 0.26612087 0.72416445
0.01335675 0.35920212 0.70507617
0.13110801 0.36328003 0.70895471
0.24913551 0.36757876 0.71299384
0.36739213 0.37205751 0.71716036
0.48583077 0.37667543 0.72142108
0.60440433 0.38139171 0.72574280
0.72306570 0.38616552 0.73009232
0.84176777 0.39095604 0.73443644
0.96046343 0.39572244 0.73874195
0.02852014 0.48726976 0.71870238
0.14701335 0.49192822 0.72298915
0.26562433 0.49667017 0.72732483
0.38430597 0.50145479 0.73167623
0.50301115 0.50624123 0.73601023
0.62169324 0.51098841 0.74029420
0.74030455 0.51565602 0.74449331
0.85879706 0.52020340 0.74857499
0.97712531 0.52458901 0.75250693
0.04554936 0.61674431 0.73325782
0.16425143 0.62152130 0.73757712
0.28291279 0.62624445 0.74183364
0.40148634 0.63087292 0.74599420
0.51992405 0.63536589 0.75002656
0.63817574 0.63967054 0.75393419
0.75636212 0.64368129 0.75769708
0.87408165 0.64756894 0.76104465
0.99139403 0.65116408 0.76419598
0.06265104 0.74607149 0.74747858
0.18102886 0.75050500 0.75145470
0.29920751 0.75474733 0.75525637
0.41713988 0.75875764 0.75885038
0.53477822 0.76249522 0.76220365
0.65198685 0.76592686 0.76529541
0.76870514 0.76870514 0.76792867
0.88818659 0.77027239 0.76946855
1.00000000 0.77419105 0.77294112
0.07803179 0.87369705 0.76010077
0.19555227 0.87732506 0.76335800
0.31271510 0.88062454 0.76632909
0.42947319 0.88355467 0.76898085
0.54577942 0.88607463 0.77128007
0.66158004 0.88814515 0.77319153
0.77645214 0.88980801 0.77436733
0.89121761 0.89071887 0.77173901
1.00000000 0.89180761 0.78323110
0.08989824 0.99806673 0.76986047
0.20743052 1.00000000 0.77212594
0.32911488 1.00000000 0.77478349
0.44831366 1.00000000 0.77765145
0.56483074 1.00000000 0.78073092
0.67847055 1.00000000 0.78402153
0.78903758 1.00000000 0.78752114
0.89632597 1.00000000 0.79121476
1.00000000 0.99983332 0.79722033
0.00000000 0.00198094 0.75382381
0.10860861 0.00000000 0.78359065
0.22125357 0.00000000 0.79063130
0.33630388 0.00000000 0.79879496
0.45106932 0.00144682 0.80109498
0.56631661 0.00346144 0.80340488
0.68211111 0.00593173 0.80606636
0.79840572 0.00881689 0.80904621
0.91515333 0.01207608 0.81231123
0.00000000 0.11459482 0.78215281
0.11098774 0.11566994 0.80189314
0.22643970 0.11785518 0.80433488
0.34242173 0.12048124 0.80711611
0.45888671 0.12350730 0.81020362
0.57578756 0.12689253 0.81356423
0.69307715 0.13059610 0.81716472
0.81070838 0.13457719 0.82097191
0.92863415 0.13879498 0.82495258
0.00279636 0.23508376 0.80820645
0.11942548 0.23824531 0.81139723
0.23647330 0.24175116 0.81484901
0.35389273 0.24556049 0.81852860
0.47163664 0.24963248 0.82240279
0.58965794 0.25392631 0.82643839
0.70790952 0.25840113 0.83060219
0.82634428 0.26301614 0.83486101
0.94491510 0.26773050 0.83918163
0.01475132 0.36055970 0.81991827
0.13260167 0.36471718 0.82385507
0.25071226 0.36908162 0.82794119
0.36903598 0.37361221 0.83214342
0.48752573 0.37826812 0.83642858
0.60613439 0.38300851 0.84076346
0.72481486 0.38779258 0.84511487
0.84352003 0.39257948 0.84944960
0.96220281 0.39732840 0.85373446
0.03018444 0.48883990 0.83369564
0.14872294 0.49353129 0.83800275
0.26736319 0.49829231 0.84234749
0.38605811 0.50308214 0.84669667
0.50476058 0.50785994 0.85101708
0.62342351 0.51258489 0.85527554
0.74199977 0.51721617 0.85943884
0.86044227 0.52171295 0.86347379
0.97870390 0.52603440 0.86734717
0.04730237 0.61837010 0.84827465
0.16599589 0.62313339 0.85257636
0.28463272 0.62782896 0.85680401
0.40316574 0.63241600 0.86092443
0.52154784 0.63685368 0.86490440
0.63973191 0.64110115 0.86871083
0.75767124 0.64511732 0.87231115
0.87531831 0.64886190 0.87567035
0.99262506 0.65229421 0.87875590
0.06431170 0.74759604 0.86239140
0.18262716 0.75196920 0.86631199
0.30072746 0.75613731 0.87004686
0.41856548 0.76005954 0.87356280
0.53609411 0.76369507 0.87682661
0.65326521 0.76700309 0.87980624
0.77002375 0.76993205 0.88251292
0.88648702 0.77237944 0.88493559
1.00000000 0.77525496 0.88602069
0.07941907 0.87496345 0.87478197
0.19682337 0.87848446 0.87794574
0.31385403 0.88166309 0.88081211
0.43046395 0.88445850 0.88334787
0.54660601 0.88682987 0.88551982
0.66223245 0.88873649 0.88729492
0.77720436 0.89014944 0.88866313
0.89145126 0.89081715 0.88959421
1.00000000 0.89233621 0.89158730
0.09083108 0.99891807 0.88418246
0.21070606 1.00000000 0.88582904
0.33204242 1.00000000 0.88716181
0.45084869 1.00000000 0.88864032
0.56692899 1.00000000 0.89026501
0.68008798 1.00000000 0.89203475
0.79013000 1.00000000 0.89394679
0.89680834 1.00000000 0.89597826
1.00000000 0.99994413 0.89853552
0.00000000 0.00221935 0.86249514
0.10865162 0.00000000 0.89754405
0.22175406 0.00000000 0.90608899
0.33672306 0.00038606 0.91332342
0.45158314 0.00207736 0.91538295
0.56702154 0.00425131 0.91781597
0.68299117 0.00686707 0.92058929
0.79944490 0.00988383 0.92366971
0.91633564 0.01326076 0.92702403
0.00000000 0.11520779 0.89658611
0.11157299 0.11636009 0.91622723
0.22721025 0.11869962 0.91878799
0.34336157 0.12146609 0.92167696
0.45997986 0.12461871 0.92486094
0.57701800 0.12811662 0.92830673
0.69442890 0.13191902 0.93198114
0.81216544 0.13598507 0.93585097
0.93018052 0.14027396 0.93988302
0.00379387 0.23611630 0.92280373
0.12057046 0.23939935 0.92608687
0.23774977 0.24301284 0.92961974
0.35528467 0.24691595 0.93336913
0.47312807 0.25106786 0.93730186
0.59123286 0.25542773 0.94138472
0.70955193 0.25995474 0.94558452
0.82803817 0.26460806 0.94986804
0.94664448 0.26934688 0.95420210
0.01618133 0.36194586 0.93478142
0.13412534 0.36617820 0.93877265
0.25231360 0.37060365 0.94290193
0.37069898 0.37518137 0.94713605
0.48923439 0.37987055 0.95144182
0.60787272 0.38463035 0.95578603
0.72656687 0.38941996 0.96013550
0.84526972 0.39419854 0.96445702
0.96393417 0.39892527 0.96871739
0.03186592 0.49042278 0.94869708
0.15044426 0.49514240 0.95302068
0.26910836 0.49991777 0.95737066
0.38781113 0.50470809 0.96171379
0.50650545 0.50947252 0.96601689
0.62514422 0.51417024 0.97024675
0.74368034 0.51876042 0.97437019
0.86206670 0.52320224 0.97835399
0.98025619 0.52745486 0.98216496
0.04905427 0.61999280 0.96328677
0.16773382 0.62473766 0.96756706
0.28634067 0.62940096 0.97176201
0.40482772 0.63394185 0.97583845
0.52314786 0.63831952 0.97976318
0.64125398 0.64249313 0.98350298
0.75909897 0.64642186 0.98702467
0.87663573 0.65006489 0.99029505
0.99381716 0.65338140 0.99328091
0.06595298 0.74910164 0.97728662
0.18420065 0.75340975 0.98114786
0.30221716 0.75749893 0.98481210
0.41995539 0.76132838 0.98824614
0.53736824 0.76485726 0.99141677
0.65440860 0.76804475 0.99429081
0.77102935 0.77085000 0.99683517
0.88718376 0.77323195 0.99901733
1.00000000 0.77626711 0.99805534
0.08076868 0.87619506 0.98943269
0.19805137 0.87960438 0.99249919
0.31494443 0.88265744 0.99525700
0.43140075 0.88531342 0.99767293
0.54737321 0.88753150 0.99971377
0.66447789 0.88891236 1.00000000
0.77961218 0.89017174 1.00000000
0.89212029 0.89141199 1.00000000
1.00000000 0.89333676 0.99831451
0.09170799 0.99971879 0.99846110
0.21402695 1.00000000 0.99862266
0.33500768 1.00000000 0.99858664
0.45341391 1.00000000 0.99863140
0.56905000 1.00000000 0.99875669
0.68172086 1.00000000 0.99896064
0.79123190 1.00000000 0.99923974
0.89737792 1.00000000 0.99959241
1.00000000 1.00000000 1.00000000
