assets/luts/DB_Midnight_Steel_Rec709_50.cube
TITLE "Midnight Steel Rec709 50"
# Red changes fastest. Full-range normalized input.
LUT_3D_SIZE 33
DOMAIN_MIN 0 0 0
DOMAIN_MAX 1 1 1
0.00200000 0.00200000 0.00200000
0.03028640 0.00128292 0.00150790
0.05899929 0.00051470 0.00091847
0.08700120 0.00000000 0.00055842
0.11331274 0.00000000 0.00072509
0.13982026 0.00000000 0.00096312
0.16652487 0.00000000 0.00126271
0.19343398 0.00000000 0.00158731
0.22055477 0.00000000 0.00189771
0.24788905 0.00000000 0.00217311
0.27543317 0.00000000 0.00241352
0.30318114 0.00000000 0.00262899
0.33112731 0.00000000 0.00282944
0.35926712 0.00000000 0.00302087
0.38759688 0.00000000 0.00320594
0.41611337 0.00000000 0.00338551
0.44481350 0.00000000 0.00355975
0.47369424 0.00000000 0.00372862
0.50275257 0.00000000 0.00389201
0.53198545 0.00000000 0.00404983
0.56138987 0.00000000 0.00420199
0.59096279 0.00000000 0.00434839
0.62038129 0.00008698 0.00456935
0.64900566 0.00043398 0.00502538
0.67766901 0.00081362 0.00550676
0.70637062 0.00122525 0.00601298
0.73510975 0.00166823 0.00654351
0.76388567 0.00214194 0.00709782
0.79269763 0.00264573 0.00767542
0.82154490 0.00317896 0.00827577
0.85042675 0.00374099 0.00889836
0.87934244 0.00433119 0.00954266
0.90829123 0.00494892 0.01020817
0.00000000 0.02862258 0.00143774
0.02758879 0.02842008 0.00006049
0.05592191 0.02792481 0.00000000
0.08380007 0.02762040 0.00000000
0.11159505 0.02740414 0.00000000
0.13960021 0.02719050 0.00000000
0.16798437 0.02692923 0.00000000
0.19675020 0.02661719 0.00000000
0.22533240 0.02640114 0.00017556
0.25244379 0.02661952 0.00093395
0.27998352 0.02678634 0.00147989
0.30789534 0.02691177 0.00187215
0.33605162 0.02702559 0.00218948
0.36434715 0.02715301 0.00248870
0.39272281 0.02730806 0.00279922
0.42115302 0.02749642 0.00313268
0.44962861 0.02771961 0.00349252
0.47814652 0.02797757 0.00387931
0.50670549 0.02826982 0.00429276
0.53530467 0.02859574 0.00473241
0.56394331 0.02895470 0.00519773
0.59262068 0.02934606 0.00568821
0.62133604 0.02976918 0.00620334
0.65008864 0.03022342 0.00674259
0.67887777 0.03070815 0.00730544
0.70770267 0.03122273 0.00789138
0.73656262 0.03176652 0.00849988
0.76545687 0.03233888 0.00913044
0.79438470 0.03293918 0.00978252
0.82334536 0.03356677 0.01045562
0.85233812 0.03422103 0.01114921
0.88136225 0.03490130 0.01186277
0.91041700 0.03560696 0.01259578
0.00000000 0.05520303 0.00264736
0.02573745 0.05588607 0.00000000
0.05426026 0.05552988 0.00000000
0.08247807 0.05532111 0.00000000
0.11052928 0.05522219 0.00000000
0.13863619 0.05517162 0.00000000
0.16701880 0.05510622 0.00000000
0.19580130 0.05498680 0.00000000
0.22495956 0.05481476 0.00000000
0.25296245 0.05496017 0.00078291
0.28026563 0.05533221 0.00186935
0.30804608 0.05564466 0.00261810
0.33619467 0.05591751 0.00315572
0.36456677 0.05618246 0.00359889
0.39306018 0.05646273 0.00401877
0.42162285 0.05677006 0.00444807
0.45023390 0.05710873 0.00489854
0.47888621 0.05747969 0.00537336
0.50757740 0.05788270 0.00587292
0.53630639 0.05831723 0.00639689
0.56507238 0.05878265 0.00694480
0.59387461 0.05927832 0.00751611
0.62271236 0.05980361 0.00811033
0.65158488 0.06035787 0.00872692
0.68049144 0.06094048 0.00936537
0.70943131 0.06155079 0.01002517
0.73840374 0.06218816 0.01070578
0.76740801 0.06285196 0.01140670
0.79644337 0.06354155 0.01212741
0.82550909 0.06425629 0.01286738
0.85460443 0.06499555 0.01362610
0.88372866 0.06575867 0.01440304
0.91288104 0.06654504 0.01519770
0.00000000 0.08247141 0.00397060
0.02423385 0.08393381 0.00000000
0.05310956 0.08366632 0.00000000
0.08181976 0.08349867 0.00000000
0.11033108 0.08344481 0.00000000
0.13874277 0.08348237 0.00000000
0.16724343 0.08356128 0.00000000
0.19601801 0.08362688 0.00000000
0.22515980 0.08364528 0.00000000
0.25383720 0.08379063 0.00063371
0.28108012 0.08430141 0.00232410
0.30875829 0.08477450 0.00352836
0.33686835 0.08519944 0.00436115
0.36528103 0.08559934 0.00498693
0.39386753 0.08600093 0.00552944
0.42254749 0.08642149 0.00605536
0.45128344 0.08686894 0.00659249
0.48006124 0.08734581 0.00714991
0.50887621 0.08785240 0.00772979
0.53772666 0.08838832 0.00833224
0.56661166 0.08895298 0.00895686
0.59553043 0.08954575 0.00960314
0.62448223 0.09016598 0.01027057
0.65346634 0.09081305 0.01095864
0.68248201 0.09148632 0.01166682
0.71152851 0.09218514 0.01239460
0.74060510 0.09290887 0.01314146
0.76971105 0.09365689 0.01390687
0.79884561 0.09442856 0.01469032
0.82800806 0.09522322 0.01549130
0.85719766 0.09604026 0.01630927
0.88641366 0.09687902 0.01714373
0.91565535 0.09773888 0.01799416
0.00000000 0.11040390 0.00530100
0.02347795 0.11232535 0.00090839
0.05188908 0.11247244 0.00003618
0.08101845 0.11236727 0.00000000
0.11006291 0.11233154 0.00000000
0.13896809 0.11239202 0.00000000
0.16781685 0.11253259 0.00000000
0.19676574 0.11271119 0.00000000
0.22596031 0.11288136 0.00000000
0.25456841 0.11318042 0.00099859
0.28209380 0.11373905 0.00306343
0.30985812 0.11431321 0.00465926
0.33799360 0.11486091 0.00579776
0.36645006 0.11538306 0.00662926
0.39511595 0.11589889 0.00730768
0.42389960 0.11642637 0.00793308
0.45274961 0.11697588 0.00855405
0.48164373 0.11755162 0.00918907
0.51057393 0.11815462 0.00984361
0.53953746 0.11878473 0.01051870
0.56853313 0.11944141 0.01121416
0.59756011 0.12012406 0.01192954
0.62661764 0.12083202 0.01266432
0.65570501 0.12156467 0.01341800
0.68482146 0.12232137 0.01419004
0.71396626 0.12310149 0.01497993
0.74313868 0.12390437 0.01578715
0.77233797 0.12472939 0.01661119
0.80156341 0.12557591 0.01745152
0.83081426 0.12644328 0.01830763
0.86008978 0.12733088 0.01917900
0.88938923 0.12823806 0.02006510
0.91871189 0.12916418 0.02096542
0.00000000 0.13897569 0.00652245
0.02351629 0.14104090 0.00240640
0.05193178 0.14131246 0.00208959
0.08056343 0.14160249 0.00138279
0.10955021 0.14186145 0.00036423
0.13888795 0.14199703 0.00000000
0.16820854 0.14215541 0.00000000
0.19752113 0.14237743 0.00000000
0.22665755 0.14265710 0.00056622
0.25500804 0.14309199 0.00246996
0.28307333 0.14364915 0.00446884
0.31115714 0.14426735 0.00619466
0.33945641 0.14489645 0.00752569
0.36801173 0.14551743 0.00852945
0.39676736 0.14613490 0.00933811
0.42564907 0.14676099 0.01006156
0.45460418 0.14740535 0.01076318
0.48360570 0.14807284 0.01147096
0.51264256 0.14876508 0.01219458
0.54171078 0.14948217 0.01293651
0.57080878 0.15022366 0.01369696
0.59993563 0.15098896 0.01447557
0.62909057 0.15177743 0.01527183
0.65827285 0.15258845 0.01608524
0.68748175 0.15342137 0.01691527
0.71671653 0.15427555 0.01776140
0.74597644 0.15515037 0.01862312
0.77526076 0.15604517 0.01949991
0.80456875 0.15695932 0.02039126
0.83389966 0.15789218 0.02129663
0.86325278 0.15884312 0.02221551
0.89262735 0.15981150 0.02314739
0.92202264 0.16079667 0.02409174
0.00000000 0.16815525 0.00758990
0.02402070 0.17018855 0.00401148
0.05256377 0.17054768 0.00415188
0.08118959 0.17094748 0.00407088
0.10997971 0.17136464 0.00374124
0.13900143 0.17176857 0.00327541
0.16823003 0.17214330 0.00294374
0.19751368 0.17250715 0.00306701
0.22664380 0.17290713 0.00382788
0.25549198 0.17338775 0.00514847
0.28409314 0.17396134 0.00674338
0.31260236 0.17460611 0.00829968
0.34117903 0.17528830 0.00963190
0.36990447 0.17598447 0.01071440
0.39877871 0.17668788 0.01161673
0.42776292 0.17740222 0.01242509
0.45681790 0.17813336 0.01320086
0.48591890 0.17888524 0.01397589
0.51505406 0.17965949 0.01476294
0.54421860 0.18045635 0.01556592
0.57341057 0.18127543 0.01638551
0.60262897 0.18211617 0.01722147
0.63187298 0.18297794 0.01807335
0.66114186 0.18386010 0.01894061
0.69043488 0.18476202 0.01982276
0.71975130 0.18568306 0.02071927
0.74909038 0.18662258 0.02162962
0.77845139 0.18757994 0.02255330
0.80783359 0.18855450 0.02348977
0.83723625 0.18954564 0.02443854
0.86665863 0.19055270 0.02539907
0.89609999 0.19157506 0.02637085
0.92555959 0.19261207 0.02735336
0.00000000 0.19790700 0.00851127
0.02492657 0.19975214 0.00572193
0.05362389 0.20019666 0.00614155
0.08235960 0.20068042 0.00647858
0.11116239 0.20119713 0.00669243
0.14007295 0.20173284 0.00679181
0.16911418 0.20227205 0.00687178
0.19825545 0.20280950 0.00710024
0.22740989 0.20335774 0.00763643
0.25648262 0.20394050 0.00853107
0.28543454 0.20457625 0.00969156
0.31430401 0.20526657 0.01094385
0.34317037 0.20599886 0.01213535
0.37209914 0.20675786 0.01319776
0.40111479 0.20753443 0.01414106
0.43020879 0.20832657 0.01501044
0.45936109 0.20913597 0.01584923
0.48855485 0.20996463 0.01668453
0.51778030 0.21081360 0.01752902
0.54703287 0.21168299 0.01838718
0.57631050 0.21257245 0.01926005
0.60561211 0.21348141 0.02014751
0.63493686 0.21440925 0.02104912
0.66428401 0.21535533 0.02196438
0.69365282 0.21631903 0.02289278
0.72304255 0.21729971 0.02383379
0.75245247 0.21829671 0.02478690
0.78188184 0.21930942 0.02575158
0.81132993 0.22033718 0.02672733
0.84079600 0.22137937 0.02771362
0.87027931 0.22243534 0.02870992
0.89977912 0.22350445 0.02971574
0.92929471 0.22458607 0.03073053
0.00000000 0.22819507 0.00930313
0.02622369 0.22969348 0.00761067
0.05505965 0.23022870 0.00818301
0.08392661 0.23079658 0.00874337
0.11283013 0.23139630 0.00926939
0.14178368 0.23202389 0.00974800
0.17080306 0.23267236 0.01019581
0.19989215 0.23333514 0.01066993
0.22903077 0.23401115 0.01125015
0.25817996 0.23470669 0.01199505
0.28730573 0.23543127 0.01290347
0.31640156 0.23619074 0.01391494
0.34548939 0.23698389 0.01494873
0.37460046 0.23780486 0.01594748
0.40375559 0.23864775 0.01689427
0.43295917 0.23950936 0.01780141
0.46220514 0.24038895 0.01869023
0.49148519 0.24128680 0.01957769
0.52079317 0.24220313 0.02047320
0.55012556 0.24313782 0.02138058
0.57948054 0.24409042 0.02230085
0.60885702 0.24506038 0.02323393
0.63825419 0.24604707 0.02417941
0.66767127 0.24704987 0.02513679
0.69710754 0.24806813 0.02610556
0.72656226 0.24910122 0.02708521
0.75603469 0.25014850 0.02807520
0.78552409 0.25120932 0.02907503
0.81502974 0.25228307 0.03008417
0.84455089 0.25336908 0.03110211
0.87408680 0.25446674 0.03212833
0.90363674 0.25557539 0.03316230
0.93319998 0.25669441 0.03420351
0.00000000 0.25898445 0.00997293
0.02790604 0.25997611 0.00972232
0.05686190 0.26060233 0.01038837
0.08584829 0.26125640 0.01106664
0.11486499 0.26193810 0.01174908
0.14391422 0.26264649 0.01242740
0.17300077 0.26337939 0.01309945
0.20212904 0.26413368 0.01377659
0.23129785 0.26490686 0.01448448
0.26049758 0.26569872 0.01525214
0.28971411 0.26651150 0.01609445
0.31893769 0.26734800 0.01700179
0.34816878 0.26820931 0.01794624
0.37741589 0.26909420 0.01889865
0.40668834 0.27000021 0.01984237
0.43599087 0.27092514 0.02077539
0.46532307 0.27186774 0.02170405
0.49468200 0.27282742 0.02263584
0.52406459 0.27380382 0.02357584
0.55346862 0.27479654 0.02452640
0.58289265 0.27580507 0.02548815
0.61233569 0.27682881 0.02646098
0.64179694 0.27786714 0.02744446
0.67127563 0.27891942 0.02843809
0.70077103 0.27998502 0.02944137
0.73028241 0.28106331 0.03045378
0.75980902 0.28215364 0.03147479
0.78935012 0.28325537 0.03250389
0.81890499 0.28436787 0.03354056
0.84847289 0.28549050 0.03458428
0.87805308 0.28662262 0.03563453
0.90764482 0.28776359 0.03669079
0.93724738 0.28891279 0.03775255
0.00092389 0.28988287 0.01134451
0.02995643 0.29057028 0.01206327
0.05901918 0.29128301 0.01280076
0.08811120 0.29202055 0.01355551
0.11723163 0.29278244 0.01432516
0.14638003 0.29356814 0.01510665
0.17555677 0.29437682 0.01589742
0.20476283 0.29520728 0.01669771
0.23399871 0.29605809 0.01751247
0.26326288 0.29692817 0.01835036
0.29255154 0.29781719 0.01921920
0.32186024 0.29872547 0.02012072
0.35118644 0.29965331 0.02104907
0.38053053 0.30060045 0.02199431
0.40989464 0.30156596 0.02294797
0.43928054 0.30254871 0.02390618
0.46868854 0.30354767 0.02486917
0.49811771 0.30456208 0.02583889
0.52756665 0.30559134 0.02681716
0.55703404 0.30663488 0.02780488
0.58651882 0.30769210 0.02880222
0.61602010 0.30876240 0.02980892
0.64553710 0.30984515 0.03082452
0.67506907 0.31093970 0.03184854
0.70461527 0.31204543 0.03288045
0.73417497 0.31316169 0.03391975
0.76374743 0.31428785 0.03496591
0.79333191 0.31542327 0.03601841
0.82292767 0.31656731 0.03707673
0.85253399 0.31771933 0.03814036
0.88215012 0.31887870 0.03920878
0.91177534 0.32004478 0.04028147
0.94140889 0.32121692 0.04135790
0.00321817 0.32068050 0.01383917
0.03235025 0.32145012 0.01462104
0.06151024 0.32224283 0.01542041
0.09069737 0.32305799 0.01623660
0.11991085 0.32389501 0.01706878
0.14914993 0.32475331 0.01791586
0.17841398 0.32563226 0.01877665
0.20770259 0.32653114 0.01965027
0.23701548 0.32744914 0.02053680
0.26635209 0.32838544 0.02143760
0.29571137 0.32933930 0.02235463
0.32509172 0.33031022 0.02328915
0.35449161 0.33129782 0.02424050
0.38391005 0.33230167 0.02520624
0.41334674 0.33332119 0.02618335
0.44280162 0.33435566 0.02716960
0.47227447 0.33540432 0.02816402
0.50176468 0.33646645 0.02916653
0.53127144 0.33754140 0.03017727
0.56079383 0.33862854 0.03119627
0.59033102 0.33972724 0.03222331
0.61988221 0.34083688 0.03325799
0.64944664 0.34195682 0.03429985
0.67902355 0.34308642 0.03534838
0.70861223 0.34422506 0.03640306
0.73821192 0.34537208 0.03746338
0.76782190 0.34652685 0.03852881
0.79744142 0.34768873 0.03959884
0.82706976 0.34885709 0.04067295
0.85670617 0.35003129 0.04175062
0.88634991 0.35121069 0.04283134
0.91600027 0.35239465 0.04391457
0.94565648 0.35358253 0.04499981
0.00583704 0.35174634 0.01653844
0.03506022 0.35259100 0.01737736
0.06430887 0.35345658 0.01823210
0.09358224 0.35434244 0.01910212
0.12287960 0.35524795 0.01998685
0.15220018 0.35617248 0.02088570
0.18154327 0.35711541 0.02179799
0.21090815 0.35807609 0.02272308
0.24029416 0.35905387 0.02366042
0.26970067 0.36004806 0.02460972
0.29912695 0.36105798 0.02557096
0.32857216 0.36208300 0.02654413
0.35803539 0.36312251 0.02752900
0.38751577 0.36417592 0.02852484
0.41701254 0.36524264 0.02953065
0.44652508 0.36632204 0.03054538
0.47605278 0.36741345 0.03156823
0.50559499 0.36851622 0.03259867
0.53515098 0.36962969 0.03363632
0.56471999 0.37075323 0.03468078
0.59430125 0.37188620 0.03573165
0.62389402 0.37302796 0.03678845
0.65349754 0.37417787 0.03785070
0.68311107 0.37533531 0.03891787
0.71273389 0.37649962 0.03998944
0.74236525 0.37767018 0.04106491
0.77200442 0.37884635 0.04214375
0.80165065 0.38002748 0.04322544
0.83130322 0.38121294 0.04430947
0.86096140 0.38240210 0.04539531
0.89062443 0.38359430 0.04648245
0.92029159 0.38478893 0.04757036
0.94996214 0.38598533 0.04865854
0.00875249 0.38305610 0.01942262
0.03805843 0.38396858 0.02031271
0.06738737 0.38489984 0.02121687
0.09673857 0.38584922 0.02213459
0.12611129 0.38681610 0.02306534
0.15550479 0.38779984 0.02400859
0.18491834 0.38879979 0.02496381
0.21435120 0.38981534 0.02593045
0.24380264 0.39084583 0.02690797
0.27327194 0.39189062 0.02789585
0.30275838 0.39294908 0.02889365
0.33226122 0.39402054 0.02990094
0.36177971 0.39510438 0.03091728
0.39131308 0.39619997 0.03194219
0.42086056 0.39730667 0.03297508
0.45042144 0.39842386 0.03401534
0.47999499 0.39955089 0.03506236
0.50958050 0.40068713 0.03611559
0.53917725 0.40183194 0.03717451
0.56878449 0.40298467 0.03823865
0.59840148 0.40414468 0.03930750
0.62802749 0.40531134 0.04038056
0.65766178 0.40648402 0.04145731
0.68730360 0.40766207 0.04253725
0.71695223 0.40884485 0.04361985
0.74660693 0.41003173 0.04470460
0.77626695 0.41122207 0.04579097
0.80593157 0.41241523 0.04687845
0.83560005 0.41361057 0.04796653
0.86527166 0.41480746 0.04905467
0.89494564 0.41600526 0.05014236
0.92462128 0.41720333 0.05122909
0.95429784 0.41840103 0.05231433
0.01193651 0.41458548 0.02247197
0.04131688 0.41555857 0.02340734
0.07071778 0.41654828 0.02435505
0.10013846 0.41755398 0.02531458
0.12957819 0.41857502 0.02628539
0.15903622 0.41961077 0.02726698
0.18851184 0.42066060 0.02825882
0.21800429 0.42172386 0.02926039
0.24751284 0.42279991 0.03027117
0.27703676 0.42388813 0.03129064
0.30657532 0.42498786 0.03231828
0.33612778 0.42609847 0.03335358
0.36569340 0.42721933 0.03439605
0.39527144 0.42834979 0.03544517
0.42486117 0.42948922 0.03650042
0.45446184 0.43063697 0.03756127
0.48407273 0.43179243 0.03862720
0.51369309 0.43295493 0.03969766
0.54332219 0.43412386 0.04077215
0.57295930 0.43529856 0.04185013
0.60260369 0.43647841 0.04293110
0.63225461 0.43766276 0.04401455
0.66191133 0.43885097 0.04509995
0.69157312 0.44004241 0.04618678
0.72123923 0.44123644 0.04727454
0.75090893 0.44243242 0.04836270
0.78058149 0.44362972 0.04945074
0.81025616 0.44482769 0.05053814
0.83993222 0.44602569 0.05162438
0.86960893 0.44722310 0.05270895
0.89928554 0.44841927 0.05379133
0.92896133 0.44961357 0.05487100
0.95863556 0.45080535 0.05594743
0.01536108 0.44631021 0.02566674
0.04480756 0.44733668 0.02664153
0.07427208 0.44837763 0.02762692
0.10375391 0.44943242 0.02862237
0.13325231 0.45050041 0.02962737
0.16276655 0.45158096 0.03064140
0.19229588 0.45267344 0.03166394
0.22183958 0.45377721 0.03269448
0.25139691 0.45489162 0.03373248
0.28096713 0.45601605 0.03477744
0.31054950 0.45714985 0.03582884
0.34014330 0.45829239 0.03688615
0.36974777 0.45944303 0.03794886
0.39936220 0.46060112 0.03901645
0.42898583 0.46176604 0.04008841
0.45861794 0.46293714 0.04116422
0.48825779 0.46411379 0.04224335
0.51790464 0.46529535 0.04332528
0.54755776 0.46648118 0.04440950
0.57721641 0.46767064 0.04549549
0.60687986 0.46886310 0.04658272
0.63654736 0.47005791 0.04767068
0.66621819 0.47125445 0.04875885
0.69589160 0.47245206 0.04984672
0.72556686 0.47365012 0.05093376
0.75524324 0.47484798 0.05201946
0.78492000 0.47604501 0.05310329
0.81459640 0.47724057 0.05418474
0.84427171 0.47843402 0.05526329
0.87394518 0.47962473 0.05633842
0.90361610 0.48081205 0.05740961
0.93328371 0.48199535 0.05847634
0.96294728 0.48317399 0.05953810
0.01899817 0.47820599 0.02898718
0.04850243 0.47927863 0.02999553
0.07802224 0.48036360 0.03101272
0.10755690 0.48146026 0.03203823
0.13710564 0.48256797 0.03307154
0.16666775 0.48368611 0.03411214
0.19624248 0.48481402 0.03515951
0.22582909 0.48595108 0.03621312
0.25542686 0.48709664 0.03727247
0.28503504 0.48825007 0.03833702
0.31465291 0.48941072 0.03940626
0.34427971 0.49057796 0.04047968
0.37391473 0.49175116 0.04155675
0.40355721 0.49292967 0.04263695
0.43320643 0.49411286 0.04371977
0.46286165 0.49530008 0.04480469
0.49252213 0.49649071 0.04589119
0.52218713 0.49768410 0.04697875
0.55185593 0.49887961 0.04806685
0.58152779 0.50007661 0.04915497
0.61120196 0.50127446 0.05024260
0.64087771 0.50247252 0.05132921
0.67055432 0.50367016 0.05241428
0.70023103 0.50486673 0.05349731
0.72990711 0.50606159 0.05457776
0.75958184 0.50725412 0.05565513
0.78925447 0.50844367 0.05672888
0.81892426 0.50962960 0.05779851
0.84859049 0.51081128 0.05886349
0.87825241 0.51198806 0.05992331
0.90790929 0.51315932 0.06097745
0.93756039 0.51432441 0.06202538
0.96720498 0.51548269 0.06306659
0.02281978 0.51024854 0.03241354
0.05237347 0.51136012 0.03344957
0.08194026 0.51248189 0.03449270
0.11151940 0.51361321 0.03554240
0.14111016 0.51475344 0.03659816
0.17071181 0.51590193 0.03765946
0.20032360 0.51705806 0.03872578
0.22994480 0.51822119 0.03979660
0.25957468 0.51939068 0.04087141
0.28921250 0.52056588 0.04194968
0.31885752 0.52174617 0.04303089
0.34850901 0.52293090 0.04411454
0.37816623 0.52411944 0.04520009
0.40782844 0.52531114 0.04628704
0.43749491 0.52650538 0.04737485
0.46716491 0.52770151 0.04846302
0.49683769 0.52889889 0.04955102
0.52651253 0.53009689 0.05063834
0.55618867 0.53129487 0.05172445
0.58586540 0.53249219 0.05280884
0.61554197 0.53368821 0.05389099
0.64521765 0.53488230 0.05497038
0.67489170 0.53607382 0.05604649
0.70456338 0.53726212 0.05711880
0.73423196 0.53844658 0.05818680
0.76389670 0.53962655 0.05924996
0.79355687 0.54080140 0.06030777
0.82321173 0.54197048 0.06135971
0.85286055 0.54313317 0.06240525
0.88250258 0.54428881 0.06344389
0.91213710 0.54543678 0.06447510
0.94176336 0.54657644 0.06549836
0.97138063 0.54770714 0.06651315
0.02679786 0.54241358 0.03592609
0.05639267 0.54355689 0.03698392
0.08599810 0.54470824 0.03804711
0.11561340 0.54586699 0.03911513
0.14523785 0.54703251 0.04018746
0.17487070 0.54820415 0.04126359
0.20451123 0.54938128 0.04234300
0.23415869 0.55056326 0.04342516
0.26381235 0.55174945 0.04450956
0.29347147 0.55293921 0.04559568
0.32313532 0.55413191 0.04668300
0.35280316 0.55532691 0.04777100
0.38247426 0.55652357 0.04885917
0.41214787 0.55772125 0.04994698
0.44182327 0.55891932 0.05103392
0.47149971 0.56011713 0.05211946
0.50117647 0.56131405 0.05320310
0.53085280 0.56250945 0.05428430
0.56052797 0.56370267 0.05536256
0.59020124 0.56489309 0.05643735
0.61987188 0.56608007 0.05750815
0.64953915 0.56726297 0.05857444
0.67920231 0.56844115 0.05963572
0.70886063 0.56961397 0.06069145
0.73851338 0.57078080 0.06174112
0.76815981 0.57194099 0.06278421
0.79779919 0.57309392 0.06382020
0.82743078 0.57423893 0.06484858
0.85705386 0.57537541 0.06586881
0.88666768 0.57650269 0.06688040
0.91627150 0.57762016 0.06788281
0.94586459 0.57872716 0.06887553
0.97544622 0.57982307 0.06985803
0.03090441 0.57467681 0.03950506
0.06053201 0.57584463 0.04057883
0.09016774 0.57701835 0.04165621
0.11981087 0.57819731 0.04273668
0.14946068 0.57938090 0.04381972
0.17911641 0.58056847 0.04490480
0.20877734 0.58175937 0.04599142
0.23844273 0.58295298 0.04707905
0.26811184 0.58414866 0.04816717
0.29778394 0.58534577 0.04925527
0.32745829 0.58654366 0.05034282
0.35713415 0.58774171 0.05142931
0.38681079 0.58893927 0.05251422
0.41648748 0.59013571 0.05359703
0.44616347 0.59133039 0.05467722
0.47583803 0.59252267 0.05575428
0.50551043 0.59371191 0.05682767
0.53517993 0.59489748 0.05789690
0.56484579 0.59607873 0.05896143
0.59450727 0.59725503 0.06002074
0.62416365 0.59842575 0.06107433
0.65381418 0.59959023 0.06212166
0.68345813 0.60074786 0.06316223
0.71309476 0.60189798 0.06419550
0.74272334 0.60303996 0.06522098
0.77234313 0.60417316 0.06623812
0.80195340 0.60529694 0.06724643
0.83155340 0.60641067 0.06824537
0.86114240 0.60751371 0.06923443
0.89071967 0.60860542 0.07021309
0.92028447 0.60968516 0.07118083
0.94983607 0.61075230 0.07213714
0.97937372 0.61180619 0.07308149
0.03511140 0.60701396 0.04313070
0.06476345 0.60819907 0.04421455
0.09442116 0.60938793 0.04530025
0.12408380 0.61057990 0.04638730
0.15375063 0.61177433 0.04747517
0.18342091 0.61297060 0.04856334
0.21309391 0.61416807 0.04965130
0.24276890 0.61536610 0.05073853
0.27244513 0.61656404 0.05182450
0.30212188 0.61776127 0.05290871
0.33179840 0.61895714 0.05399062
0.36147395 0.62015102 0.05506973
0.39114781 0.62134227 0.05614551
0.42081924 0.62253024 0.05721745
0.45048750 0.62371431 0.05828502
0.48015185 0.62489384 0.05934771
0.50981156 0.62606818 0.06040500
0.53946590 0.62723670 0.06145637
0.56911412 0.62839876 0.06250130
0.59875549 0.62955373 0.06353928
0.62838927 0.63070096 0.06456977
0.65801474 0.63183981 0.06559227
0.68763114 0.63296966 0.06660626
0.71723776 0.63408986 0.06761122
0.74683384 0.63519977 0.06860662
0.77641866 0.63629876 0.06959196
0.80599147 0.63738619 0.07056670
0.83555155 0.63846141 0.07153034
0.86509815 0.63952380 0.07248235
0.89463055 0.64057271 0.07342222
0.92414800 0.64160751 0.07434942
0.95364976 0.64262756 0.07526344
0.98313511 0.64363222 0.07616376
0.03939082 0.63940074 0.04678328
0.06905899 0.64059592 0.04787132
0.09873035 0.64179270 0.04895948
0.12840416 0.64299045 0.05004723
0.15807968 0.64418852 0.05113406
0.18775618 0.64538628 0.05221945
0.21743293 0.64658308 0.05330289
0.24710919 0.64777830 0.05438384
0.27678421 0.64897130 0.05546180
0.30645727 0.65016143 0.05653624
0.33612763 0.65134806 0.05760665
0.36579455 0.65253054 0.05867250
0.39545730 0.65370826 0.05973329
0.42511514 0.65488055 0.06078848
0.45476733 0.65604680 0.06183757
0.48441314 0.65720635 0.06288002
0.51405184 0.65835857 0.06391534
0.54368268 0.65950283 0.06494298
0.57330493 0.66063848 0.06596244
0.60291786 0.66176488 0.06697320
0.63252072 0.66288141 0.06797474
0.66211279 0.66398742 0.06896654
0.69169332 0.66508227 0.06994808
0.72126158 0.66616533 0.07091884
0.75081684 0.66723596 0.07187831
0.78035836 0.66829352 0.07282596
0.80988540 0.66933736 0.07376127
0.83939722 0.67036687 0.07468374
0.86889310 0.67138138 0.07559283
0.89837229 0.67238028 0.07648804
