assets/luts/DB_Neon_Balance_Rec709_100.cube
TITLE "Neon Balance Rec709 100"
# Red changes fastest. Full-range normalized input.
LUT_3D_SIZE 33
DOMAIN_MIN 0 0 0
DOMAIN_MAX 1 1 1
0.00300000 0.00300000 0.00300000
0.03183653 0.00209220 0.00232940
0.06095096 0.00115300 0.00158272
0.09014596 0.00025315 0.00086836
0.11726398 0.00000000 0.00082713
0.14380690 0.00000000 0.00110693
0.17068707 0.00000000 0.00145197
0.19783240 0.00000000 0.00182369
0.22517198 0.00000000 0.00218275
0.25266968 0.00000000 0.00250921
0.28032353 0.00000000 0.00280344
0.30814709 0.00000000 0.00307533
0.33615337 0.00000000 0.00333461
0.36434916 0.00000000 0.00358725
0.39273582 0.00000000 0.00383595
0.42131180 0.00000000 0.00408164
0.45007442 0.00000000 0.00432457
0.47902063 0.00000000 0.00456472
0.50814727 0.00000000 0.00480207
0.53745120 0.00000000 0.00503654
0.56692923 0.00000000 0.00526809
0.59657821 0.00000000 0.00549666
0.62639496 0.00000000 0.00572218
0.65637632 0.00000000 0.00594460
0.68651912 0.00000000 0.00616387
0.71682018 0.00000000 0.00637993
0.74727634 0.00000000 0.00659274
0.77788442 0.00000000 0.00680223
0.80864126 0.00000000 0.00700836
0.83954369 0.00000000 0.00721109
0.87058853 0.00000000 0.00741035
0.90177262 0.00000000 0.00760610
0.93309277 0.00000000 0.00779831
0.00000000 0.02988804 0.00191135
0.02819116 0.02942410 0.00032323
0.05707267 0.02865230 0.00000000
0.08521124 0.02813457 0.00000000
0.11319879 0.02778559 0.00000000
0.14151477 0.02750278 0.00000000
0.17039501 0.02721010 0.00000000
0.19977448 0.02688005 0.00000000
0.22940762 0.02652971 0.00000000
0.25906761 0.02619138 0.00000000
0.28860124 0.02590134 0.00002382
0.31760416 0.02577424 0.00022941
0.34677396 0.02564049 0.00037706
0.37604911 0.02552282 0.00051584
0.40539508 0.02543333 0.00067098
0.43479676 0.02537671 0.00085235
0.46424846 0.02535412 0.00106275
0.49374796 0.02536542 0.00130249
0.52329410 0.02541009 0.00157116
0.55288594 0.02548755 0.00186816
0.58252259 0.02559715 0.00219290
0.61220317 0.02573828 0.00254476
0.64192681 0.02591032 0.00292311
0.67169263 0.02611263 0.00332734
0.70149975 0.02634460 0.00375684
0.73134729 0.02660560 0.00421098
0.76123438 0.02689501 0.00468915
0.79116014 0.02721220 0.00519073
0.82112370 0.02755654 0.00571511
0.85112417 0.02792742 0.00626166
0.88116069 0.02832420 0.00682976
0.91123236 0.02874627 0.00741881
0.94133832 0.02919300 0.00802818
0.00000000 0.05641230 0.00358976
0.02557182 0.05709713 0.00000000
0.05451103 0.05641024 0.00000000
0.08293055 0.05591512 0.00000000
0.11107216 0.05562382 0.00000000
0.13934467 0.05549433 0.00000000
0.16812120 0.05543901 0.00000000
0.19753351 0.05536938 0.00000000
0.22743527 0.05524096 0.00000000
0.25755207 0.05506126 0.00000000
0.28767361 0.05486201 0.00000000
0.31679193 0.05490151 0.00047692
0.34604089 0.05492488 0.00083581
0.37544219 0.05494109 0.00111988
0.40493631 0.05497324 0.00139016
0.43449295 0.05503229 0.00167455
0.46409974 0.05512207 0.00198294
0.49375220 0.05524333 0.00231785
0.52344851 0.05539580 0.00267946
0.55318760 0.05557894 0.00306731
0.58296855 0.05579212 0.00348082
0.61279049 0.05603473 0.00391936
0.64265253 0.05630615 0.00438232
0.67255381 0.05660574 0.00486908
0.70249343 0.05693289 0.00537903
0.73247053 0.05728696 0.00591155
0.76248422 0.05766734 0.00646602
0.79253364 0.05807341 0.00704182
0.82261789 0.05850452 0.00763834
0.85273612 0.05896007 0.00825496
0.88288743 0.05943943 0.00889106
0.91307095 0.05994197 0.00954602
0.94328581 0.06046706 0.01021922
0.00000000 0.08371359 0.00534533
0.02360186 0.08537257 0.00000000
0.05288290 0.08477112 0.00000000
0.08183696 0.08426128 0.00000000
0.11045418 0.08392760 0.00000000
0.13895495 0.08381144 0.00000000
0.16770158 0.08387503 0.00000000
0.19698144 0.08401856 0.00000000
0.22684266 0.08413871 0.00000000
0.25710905 0.08418177 0.00000000
0.28753879 0.08415166 0.00000000
0.31657413 0.08440215 0.00094169
0.34588060 0.08458476 0.00157259
0.37538299 0.08473552 0.00203243
0.40500630 0.08488632 0.00242698
0.43470420 0.08505558 0.00281299
0.46445493 0.08525116 0.00321396
0.49425009 0.08547544 0.00363744
0.52408658 0.08572867 0.00408508
0.55396298 0.08601043 0.00455680
0.58387831 0.08632012 0.00505208
0.61383168 0.08665715 0.00557032
0.64382220 0.08702087 0.00611090
0.67384901 0.08741067 0.00667321
0.70391121 0.08782593 0.00725663
0.73400793 0.08826601 0.00786054
0.76413830 0.08873030 0.00848432
0.79430144 0.08921817 0.00912735
0.82449647 0.08972899 0.00978903
0.85472252 0.09026215 0.01046872
0.88497871 0.09081701 0.01116582
0.91526415 0.09139295 0.01187971
0.94557798 0.09198935 0.01260977
0.00000000 0.11173013 0.00704887
0.02177481 0.11434720 0.00000000
0.05132581 0.11391319 0.00000000
0.08078992 0.11347700 0.00000000
0.11003785 0.11312651 0.00000000
0.13908270 0.11295279 0.00000000
0.16812713 0.11299104 0.00000000
0.19745468 0.11319293 0.00000000
0.22725056 0.11345477 0.00000000
0.25750276 0.11367951 0.00000000
0.28767028 0.11389808 0.00037458
0.31683170 0.11428558 0.00166706
0.34622935 0.11460714 0.00257495
0.37583076 0.11488455 0.00322719
0.40557093 0.11514883 0.00375484
0.43539741 0.11542261 0.00424274
0.46528083 0.11571752 0.00473186
0.49520832 0.11603795 0.00523763
0.52517494 0.11638491 0.00576449
0.55517870 0.11675823 0.00631313
0.58521848 0.11715738 0.00688320
0.61529335 0.11758174 0.00747415
0.64540243 0.11803071 0.00808536
0.67554483 0.11850366 0.00871623
0.70571968 0.11899996 0.00936612
0.73592611 0.11951898 0.01003443
0.76616323 0.12006011 0.01072053
0.79643017 0.12062272 0.01142381
0.82672605 0.12120618 0.01214366
0.85705000 0.12180987 0.01287945
0.88740113 0.12243316 0.01363056
0.91777857 0.12307544 0.01439638
0.94818145 0.12373607 0.01517630
0.00000000 0.14039862 0.00856945
0.02042182 0.14377989 0.00028582
0.04988776 0.14366296 0.00000000
0.07966773 0.14340658 0.00000000
0.10941978 0.14315514 0.00000000
0.13906261 0.14298769 0.00000000
0.16863053 0.14297377 0.00000000
0.19828069 0.14312753 0.00000000
0.22819747 0.14339583 0.00000000
0.25847425 0.14369164 0.00000000
0.28802068 0.14411731 0.00138693
0.31744059 0.14457090 0.00280245
0.34700477 0.14498934 0.00388758
0.37673252 0.14537230 0.00470076
0.40659094 0.14573920 0.00535414
0.43653794 0.14611003 0.00594045
0.46654390 0.14649742 0.00651290
0.49659349 0.14690707 0.00709482
0.52668020 0.14734075 0.00769415
0.55680137 0.14779858 0.00831276
0.58695566 0.14828011 0.00895065
0.61714211 0.14878475 0.00960733
0.64735981 0.14931190 0.01028219
0.67760789 0.14986092 0.01097462
0.70788547 0.15043119 0.01168400
0.73819167 0.15102209 0.01240972
0.76852561 0.15163299 0.01315116
0.79888642 0.15226327 0.01390770
0.82927323 0.15291230 0.01467872
0.85968515 0.15357946 0.01546362
0.89012130 0.15426412 0.01626176
0.92058081 0.15496567 0.01707253
0.95106281 0.15568347 0.01789532
0.00000000 0.16967434 0.00986611
0.02008288 0.17338818 0.00134600
0.04964264 0.17344354 0.00138759
0.07927233 0.17350492 0.00124794
0.10901509 0.17355740 0.00090488
0.13890517 0.17359953 0.00045467
0.16892647 0.17365622 0.00012635
0.19899510 0.17377501 0.00018983
0.22899850 0.17400033 0.00079674
0.25886917 0.17434364 0.00187858
0.28862789 0.17477581 0.00319325
0.31835902 0.17524824 0.00447734
0.34814782 0.17572228 0.00557597
0.37803678 0.17618360 0.00646872
0.40802464 0.17663727 0.00721461
0.43808963 0.17709522 0.00788602
0.46821004 0.17756735 0.00853419
0.49837210 0.17805907 0.00918555
0.52856896 0.17857242 0.00985053
0.55879759 0.17910769 0.01053220
0.58905647 0.17966454 0.01123094
0.61934456 0.18024240 0.01194635
0.64966096 0.18084065 0.01267786
0.68000479 0.18145868 0.01342487
0.71037517 0.18209586 0.01418676
0.74077121 0.18275156 0.01496290
0.77119206 0.18342517 0.01575269
0.80163682 0.18411605 0.01655550
0.83210462 0.18482358 0.01737072
0.86259458 0.18554715 0.01819772
0.89310583 0.18628611 0.01903590
0.92363749 0.18703986 0.01988464
0.95418867 0.18780776 0.02074331
0.00000000 0.19952530 0.01095903
0.02023970 0.20335806 0.00256219
0.04995755 0.20353223 0.00286086
0.07971775 0.20372871 0.00309558
0.10953491 0.20393967 0.00323246
0.13943012 0.20415918 0.00327933
0.16941519 0.20439014 0.00331650
0.19947384 0.20464851 0.00348475
0.22956010 0.20495765 0.00391650
0.25962364 0.20533410 0.00465255
0.28964324 0.20577591 0.00561388
0.31963831 0.20626419 0.00665433
0.34964975 0.20677585 0.00764671
0.37971132 0.20729599 0.00853464
0.40983532 0.20782124 0.00932692
0.44001686 0.20835544 0.01006132
0.47024500 0.20890391 0.01077380
0.50051050 0.20947028 0.01148666
0.53080778 0.21005615 0.01221020
0.56113397 0.21066180 0.01294794
0.59148750 0.21128690 0.01370054
0.62186731 0.21193090 0.01446770
0.65227249 0.21259319 0.01524889
0.68270214 0.21327316 0.01604349
0.71315539 0.21397018 0.01685089
0.74363136 0.21468362 0.01767047
0.77412917 0.21541286 0.01850161
0.80464795 0.21615728 0.01934371
0.83518682 0.21691625 0.02019613
0.86574490 0.21768915 0.02105826
0.89632132 0.21847535 0.02192949
0.92691520 0.21927423 0.02280920
0.95752565 0.22008516 0.02369676
0.00000000 0.22992110 0.01187594
0.02086370 0.23367337 0.00399170
0.05072830 0.23394957 0.00443722
0.08062955 0.23425218 0.00487777
0.11056962 0.23457827 0.00529459
0.14055495 0.23492438 0.00567686
0.17059360 0.23528862 0.00603859
0.20068790 0.23567344 0.00642739
0.23082779 0.23608613 0.00690940
0.26099311 0.23653527 0.00753256
0.29116552 0.23702485 0.00829498
0.32134035 0.23755116 0.00914578
0.35152757 0.23810522 0.01001782
0.38174231 0.23867827 0.01086368
0.41199473 0.23926566 0.01166954
0.44228681 0.23986688 0.01244567
0.47261514 0.24048348 0.01320958
0.50297513 0.24111700 0.01397509
0.53336320 0.24176820 0.01474975
0.56377709 0.24243713 0.01553649
0.59421536 0.24312341 0.01633595
0.62467697 0.24382648 0.01714789
0.65516099 0.24454575 0.01797175
0.68566654 0.24528059 0.01880695
0.71619274 0.24603038 0.01965288
0.74673870 0.24679450 0.02050891
0.77730356 0.24757231 0.02137443
0.80788644 0.24836320 0.02224881
0.83848645 0.24916653 0.02313145
0.86910273 0.24998170 0.02402172
0.89973439 0.25080807 0.02491901
0.93038055 0.25164501 0.02582270
0.96104035 0.25249191 0.02673218
0.00000000 0.26082864 0.01263247
0.02193176 0.26431289 0.00566640
0.05192788 0.26468147 0.00620667
0.08195904 0.26507577 0.00676164
0.11202447 0.26549470 0.00732446
0.14212465 0.26593676 0.00788814
0.17226157 0.26640048 0.00845084
0.20243734 0.26688517 0.00902189
0.23265148 0.26739172 0.00962235
0.26289914 0.26792243 0.01027588
0.29317282 0.26847936 0.01099427
0.32346670 0.26906264 0.01176915
0.35377989 0.26966994 0.01257722
0.38411566 0.27029773 0.01339436
0.41447801 0.27094312 0.01420686
0.44486888 0.27160466 0.01501302
0.47528772 0.27228205 0.01581791
0.50573269 0.27297543 0.01662751
0.53620183 0.27368480 0.01744576
0.56669356 0.27440992 0.01827437
0.59720666 0.27515030 0.01911368
0.62774015 0.27590538 0.01996339
0.65829309 0.27667455 0.02082295
0.68886461 0.27745720 0.02169176
0.71945382 0.27825269 0.02256923
0.75005986 0.27906041 0.02345472
0.78068184 0.27987972 0.02434762
0.81131888 0.28071001 0.02524731
0.84197011 0.28155065 0.02615317
0.87263465 0.28240102 0.02706460
0.90331163 0.28326048 0.02798096
0.93400016 0.28412842 0.02890165
0.96469938 0.28500422 0.02982604
0.00000000 0.29221270 0.01323543
0.02341611 0.29525333 0.00758508
0.05353119 0.29570678 0.00819929
0.08367915 0.29618407 0.00883177
0.11385901 0.29668452 0.00948038
0.14406995 0.29720734 0.01014244
0.17431159 0.29775165 0.01081567
0.20458400 0.29831662 0.01150013
0.23488712 0.29890173 0.01219972
0.26521999 0.29950688 0.01292133
0.29558039 0.30013229 0.01367110
0.32596559 0.30077794 0.01445018
0.35637359 0.30144318 0.01525350
0.38680378 0.30212680 0.01607274
0.41725651 0.30282741 0.01690086
0.44773210 0.30354387 0.01773454
0.47823023 0.30427546 0.01857382
0.50875002 0.30502170 0.01942011
0.53929032 0.30578216 0.02027468
0.56984999 0.30655637 0.02113807
0.60042801 0.30734379 0.02201022
0.63102344 0.30814381 0.02289070
0.66163538 0.30895582 0.02377896
0.69226295 0.30977920 0.02467441
0.72290526 0.31061333 0.02557642
0.75356144 0.31145758 0.02648438
0.78423061 0.31231133 0.02739767
0.81491189 0.31317396 0.02831568
0.84560441 0.31404483 0.02923779
0.87630730 0.31492333 0.03016338
0.90701966 0.31580882 0.03109183
0.93774064 0.31670070 0.03202252
0.96846934 0.31759832 0.03295485
0.00000000 0.32403716 0.01368879
0.02528520 0.32647090 0.00973038
0.05550855 0.32700213 0.01040845
0.08576205 0.32755512 0.01110379
0.11604481 0.32812924 0.01181553
0.14635589 0.32872385 0.01254258
0.17669447 0.32933829 0.01328380
0.20705982 0.32997186 0.01403827
0.23745132 0.33062391 0.01480588
0.26786827 0.33129385 0.01558753
0.29830973 0.33198122 0.01638463
0.32877446 0.33268556 0.01719797
0.35926116 0.33340636 0.01802680
0.38976874 0.33414295 0.01886891
0.42029643 0.33489455 0.01972170
0.45084364 0.33566037 0.02058316
0.48140974 0.33643971 0.02145232
0.51199393 0.33723194 0.02232893
0.54259534 0.33803647 0.02321291
0.57321300 0.33885272 0.02410407
0.60384602 0.33968010 0.02500205
0.63449347 0.34051799 0.02590631
0.66515448 0.34136577 0.02681629
0.69582816 0.34222283 0.02773138
0.72651364 0.34308853 0.02865095
0.75721004 0.34396225 0.02957439
0.78791647 0.34484336 0.03050110
0.81863208 0.34573126 0.03143043
0.84935596 0.34662529 0.03236179
0.88008726 0.34752486 0.03329456
0.91082509 0.34842932 0.03422810
0.94156858 0.34933805 0.03516182
0.97231684 0.35025044 0.03609509
0.00000000 0.35626562 0.01399641
0.02750609 0.35794181 0.01208003
0.05782761 0.35854376 0.01281444
0.08817639 0.35916537 0.01356421
0.11855154 0.35980601 0.01432869
0.14895218 0.36046506 0.01510719
0.17937742 0.36114190 0.01589898
0.20982639 0.36183588 0.01670333
0.24029826 0.36254637 0.01751960
0.27079221 0.36327275 0.01834738
0.30130739 0.36401440 0.01918643
0.33184291 0.36477072 0.02003656
0.36239781 0.36554113 0.02089735
0.39297112 0.36632501 0.02176804
0.42356194 0.36712173 0.02264760
0.45416942 0.36793062 0.02353501
0.48479274 0.36875105 0.02442941
0.51543106 0.36958236 0.02533019
0.54608351 0.37042395 0.02623684
0.57674922 0.37127519 0.02714884
0.60742729 0.37213547 0.02806566
0.63811684 0.37300416 0.02898672
0.66881699 0.37388064 0.02991143
0.69952687 0.37476430 0.03083916
0.73024559 0.37565450 0.03176931
0.76097227 0.37655062 0.03270125
0.79170605 0.37745204 0.03363437
0.82244604 0.37835813 0.03456805
0.85319137 0.37926827 0.03550167
0.88394115 0.38018182 0.03643462
0.91469452 0.38109818 0.03736628
0.94545059 0.38201671 0.03829603
0.97620849 0.38293679 0.03922325
0.00000000 0.38886156 0.01416285
0.03004543 0.38964228 0.01461071
0.06045518 0.39030788 0.01539441
0.09088925 0.39099104 0.01619141
0.12134675 0.39169113 0.01700110
0.15182681 0.39240754 0.01782284
0.18232854 0.39313963 0.01865600
0.21285108 0.39388677 0.01949994
0.24339353 0.39464836 0.02035403
0.27395504 0.39542375 0.02121766
0.30453475 0.39621232 0.02209025
0.33513177 0.39701346 0.02297128
0.36574522 0.39782653 0.02386020
0.39637421 0.39865093 0.02475639
0.42701786 0.39948602 0.02565919
0.45767528 0.40033119 0.02656791
0.48834560 0.40118579 0.02748187
0.51902794 0.40204921 0.02840041
0.54972145 0.40292082 0.02932294
0.58042524 0.40379999 0.03024885
0.61113843 0.40468610 0.03117754
0.64186015 0.40557853 0.03210842
0.67258952 0.40647665 0.03304086
0.70332566 0.40737984 0.03397426
0.73406770 0.40828748 0.03490799
0.76481475 0.40919893 0.03584144
0.79556594 0.41011358 0.03677399
0.82632039 0.41103080 0.03770502
0.85707723 0.41194997 0.03863392
0.88783558 0.41287046 0.03956007
0.91859456 0.41379165 0.04048285
0.94935329 0.41471291 0.04140164
0.98011090 0.41563361 0.04231583
0.00240403 0.42084243 0.01648476
0.03286985 0.42154853 0.01729892
0.06335791 0.42227072 0.01812492
0.09386733 0.42300836 0.01896214
0.12439723 0.42376084 0.01980998
0.15494675 0.42452752 0.02066780
0.18551500 0.42530780 0.02153499
0.21610109 0.42610103 0.02241094
0.24670417 0.42690659 0.02329501
0.27732334 0.42772387 0.02418660
0.30795774 0.42855223 0.02508508
0.33860649 0.42939106 0.02598984
0.36926871 0.43023972 0.02690030
0.39994352 0.43109759 0.02781582
0.43063004 0.43196406 0.02873580
0.46132741 0.43283849 0.02965961
0.49203473 0.43372026 0.03058661
0.52275113 0.43460874 0.03151619
0.55347573 0.43550332 0.03244772
0.58420767 0.43640336 0.03338059
0.61494606 0.43730824 0.03431419
0.64569002 0.43821734 0.03524789
0.67643868 0.43913003 0.03618108
0.70719116 0.44004568 0.03711315
0.73794658 0.44096369 0.03804348
0.76870407 0.44188341 0.03897145
0.79946275 0.44280422 0.03989644
0.83022174 0.44372551 0.04081784
0.86098017 0.44464664 0.04173503
0.89173715 0.44556699 0.04264739
0.92249182 0.44648594 0.04355430
0.95324328 0.44740286 0.04445515
0.98399068 0.44831712 0.04534932
0.00540880 0.45287906 0.01926961
0.03594595 0.45363679 0.02012116
0.06650239 0.45440849 0.02098246
0.09707724 0.45519355 0.02185292
0.12766962 0.45599135 0.02273191
0.15827866 0.45680125 0.02361881
0.18890348 0.45762263 0.02451301
0.21954321 0.45845488 0.02541389
0.25019696 0.45929736 0.02632082
0.28086386 0.46014945 0.02723320
0.31154303 0.46101052 0.02815041
0.34223360 0.46187996 0.02907182
0.37293469 0.46275713 0.02999682
0.40364541 0.46364142 0.03092480
0.43436491 0.46453219 0.03185514
0.46509228 0.46542883 0.03278722
0.49582667 0.46633070 0.03372042
0.52656719 0.46723719 0.03465413
0.55731296 0.46814767 0.03558772
0.58806312 0.46906151 0.03652058
0.61881677 0.46997809 0.03745209
0.64957305 0.47089679 0.03838163
0.68033107 0.47181699 0.03930858
0.71108997 0.47273804 0.04023234
0.74184885 0.47365935 0.04115228
0.77260685 0.47458026 0.04206778
0.80336310 0.47550018 0.04297823
0.83411670 0.47641846 0.04388300
0.86486678 0.47733449 0.04478149
0.89561248 0.47824763 0.04567307
0.92635290 0.47915727 0.04655713
0.95708717 0.48006279 0.04743305
0.98781442 0.48096355 0.04830021
0.00864180 0.48508100 0.02217198
0.03924035 0.48588327 0.02305392
0.06985524 0.48669743 0.02394355
0.10048559 0.48752284 0.02484025
0.13113052 0.48835888 0.02574340
0.16178916 0.48920493 0.02665239
0.19246063 0.49006036 0.02756660
0.22314405 0.49092456 0.02848542
0.25383855 0.49179688 0.02940821
0.28454325 0.49267672 0.03033437
0.31525727 0.49356344 0.03126328
0.34597973 0.49445641 0.03219432
0.37670976 0.49535503 0.03312688
0.40744648 0.49625866 0.03406033
0.43818902 0.49716667 0.03499406
0.46893649 0.49807845 0.03592746
0.49968802 0.49899336 0.03685989
0.53044273 0.49991079 0.03779076
0.56119974 0.50083010 0.03871943
0.59195819 0.50175068 0.03964529
0.62271718 0.50267190 0.04056773
0.65347584 0.50359313 0.04148613
0.68423331 0.50451376 0.04239986
0.71498869 0.50543315 0.04330831
0.74574111 0.50635068 0.04421087
0.77648970 0.50726573 0.04510692
0.80723357 0.50817768 0.04599583
0.83797186 0.50908589 0.04687700
0.86870368 0.50998974 0.04774980
0.89942816 0.51088861 0.04861361
0.93014441 0.51178188 0.04946783
0.96085157 0.51266892 0.05031183
0.99154875 0.51354911 0.05114499
0.01206962 0.51742445 0.02516834
0.04271965 0.51826421 0.02607369
0.07338306 0.51911375 0.02698465
0.10405899 0.51997244 0.02790061
0.13474654 0.52083967 0.02882094
0.16544486 0.52171480 0.02974504
0.19615305 0.52259721 0.03067227
0.22687024 0.52348628 0.03160203
0.25759556 0.52438139 0.03253369
0.28832813 0.52528190 0.03346665
0.31906707 0.52618719 0.03440027
0.34981150 0.52709665 0.03533395
0.38056055 0.52800964 0.03626707
0.41131334 0.52892554 0.03719900
0.44206899 0.52984373 0.03812914
0.47282663 0.53076357 0.03905686
0.50358537 0.53168446 0.03998155
0.53434435 0.53260576 0.04090259
0.56510268 0.53352684 0.04181935
0.59585948 0.53444709 0.04273124
0.62661389 0.53536588 0.04363762
0.65736502 0.53628258 0.04453788
0.68811199 0.53719657 0.04543140
0.71885393 0.53810722 0.04631756
0.74958997 0.53901392 0.04719575
0.78031921 0.53991604 0.04806535
0.81104080 0.54081294 0.04892575
0.84175384 0.54170401 0.04977631
0.87245747 0.54258863 0.05061644
0.90315080 0.54346616 0.05144550
0.93383297 0.54433599 0.05226288
0.96450308 0.54519749 0.05306797
0.99516027 0.54605003 0.05386015
0.01565888 0.54988565 0.02823520
0.04635046 0.55075583 0.02915697
0.07705247 0.55163368 0.03008228
0.10776404 0.55251859 0.03101050
0.13848429 0.55340993 0.03194103
0.16921235 0.55430707 0.03287323
0.19994734 0.55520940 0.03380650
0.23068838 0.55611628 0.03474022
0.26143460 0.55702710 0.03567376
0.29218511 0.55794122 0.03660652
0.32293904 0.55885802 0.03753787
0.35369552 0.55977689 0.03846720
0.38445366 0.56069719 0.03939389
0.41521259 0.56161829 0.04031732
0.44597143 0.56253958 0.04123687
0.47672931 0.56346044 0.04215194
0.50748534 0.56438023 0.04306189
0.53823865 0.56529833 0.04396611
0.56898837 0.56621411 0.04486399
0.59973362 0.56712696 0.04575490
0.63047351 0.56803625 0.04663823
0.66120717 0.56894135 0.04751337
0.69193373 0.56984164 0.04837969
0.72265231 0.57073649 0.04923658
0.75336203 0.57162529 0.05008341
0.78406201 0.57250740 0.05091958
0.81475138 0.57338220 0.05174446
0.84542925 0.57424906 0.05255744
0.87609476 0.57510737 0.05335790
0.90674702 0.57595650 0.05414522
0.93738517 0.57679582 0.05491879
0.96800831 0.57762471 0.05567798
0.99861557 0.57844254 0.05642219
0.01937618 0.58244082 0.03134904
0.05009938 0.58333435 0.03228025
0.08083006 0.58423345 0.03321291
0.11156736 0.58513751 0.03414641
0.14231038 0.58604589 0.03508014
0.17305826 0.58695798 0.03601347
0.20381012 0.58787315 0.03694579
0.23456508 0.58879078 0.03787648
0.26532226 0.58971024 0.03880491
0.29608079 0.59063090 0.03973049
0.32683979 0.59155215 0.04065258
0.35759839 0.59247336 0.04157057
0.38835569 0.59339389 0.04248384
0.41911084 0.59431314 0.04339178
0.44986294 0.59523047 0.04429376
0.48061113 0.59614526 0.04518917
0.51135453 0.59705688 0.04607740
0.54209226 0.59796472 0.04695782
0.57282344 0.59886814 0.04782982
0.60354719 0.59976652 0.04869278
0.63426265 0.60065924 0.04954607
0.66496892 0.60154568 0.05038910
0.69566514 0.60242520 0.05122123
0.72635042 0.60329718 0.05204185
0.75702390 0.60416101 0.05285034
0.78768469 0.60501604 0.05364609
0.81833191 0.60586167 0.05442848
0.84896469 0.60669726 0.05519688
0.87958216 0.60752220 0.05595069
0.91018343 0.60833585 0.05668928
0.94076762 0.60913759 0.05741204
0.97133387 0.60992680 0.05811835
1.00000000 0.61093713 0.06202659
0.02318813 0.61506619 0.03448636
0.05393302 0.61597599 0.03542001
0.08468246 0.61688928 0.03635304
0.11543554 0.61780542 0.03728484
0.14619142 0.61872378 0.03821478
0.17694919 0.61964375 0.03914225
0.20770799 0.62056470 0.04006662
0.23846695 0.62148600 0.04098729
0.26922517 0.62240704 0.04190364
0.29998179 0.62332718 0.04281504
0.33073593 0.62424580 0.04372088
0.36148671 0.62516228 0.04462054
0.39223326 0.62607599 0.04551341
0.42297470 0.62698630 0.04639887
0.45371014 0.62789260 0.04727629
0.48443872 0.62879426 0.04814507
0.51515955 0.62969066 0.04900458
0.54587177 0.63058116 0.04985421
0.57657448 0.63146515 0.05069334
0.60726682 0.63234200 0.05152135
0.63794791 0.63321108 0.05233763
0.66861687 0.63407178 0.05314155
0.69927282 0.63492347 0.05393251
0.72991488 0.63576551 0.05470988
0.76054219 0.63659730 0.05547304
0.79115386 0.63741820 0.05622138
0.82174901 0.63822759 0.05695428
0.85232678 0.63902484 0.05767112
0.88288627 0.63980933 0.05837128
0.91342662 0.64058044 0.05905416
0.94394694 0.64133754 0.05971912
0.97444636 0.64208001 0.06036556
1.00000000 0.64333371 0.07027669
0.02706134 0.64773797 0.03762364
0.05781800 0.64865699 0.03855276
0.08857625 0.64957739 0.03947917
0.11933521 0.65049854 0.04040227
0.15009400 0.65141982 0.04132143
0.18085174 0.65234060 0.04223605
0.21160756 0.65326026 0.04314550
0.24236058 0.65417817 0.04404916
0.27310992 0.65509371 0.04494642
0.30385471 0.65600626 0.04583666
0.33459407 0.65691519 0.04671927
0.36532711 0.65781987 0.04759362
0.39605297 0.65871969 0.04845909
0.42677077 0.65961401 0.04931508
0.45747963 0.66050221 0.05016096
0.48817867 0.66138367 0.05099611
0.51886701 0.66225777 0.05181992
0.54954378 0.66312387 0.05263177
0.58020811 0.66398136 0.05343105
0.61085911 0.66482961 0.05421713
0.64149590 0.66566799 0.05498939
0.67211762 0.66649589 0.05574723
0.70272337 0.66731267 0.05649002
0.73331230 0.66811771 0.05721714
0.76388351 0.66891039 0.05792799
0.79443613 0.66969008 0.05862193
0.82496929 0.67045616 0.05929835
0.85548211 0.67120801 0.05995664
0.88597370 0.67194499 0.06059618
0.91644320 0.67266649 0.06121635
