assets/luts/DB_Neon_Balance_Rec709_50.cube
TITLE "Neon Balance Rec709 50"
# Red changes fastest. Full-range normalized input.
LUT_3D_SIZE 5
DOMAIN_MIN 0 0 0
DOMAIN_MAX 1 1 1
0.00150000 0.00150000 0.00150000
0.23758599 0.00000000 0.00109138
0.47503721 0.00000000 0.00216228
0.71825956 0.00000000 0.00308193
0.96654639 0.00000000 0.00389915
0.00000000 0.23996055 0.00593797
0.24041390 0.24304307 0.00345470
0.48630757 0.24524174 0.00660479
0.73309637 0.24801519 0.00982644
0.98052018 0.25124595 0.01336609
0.00432090 0.49254050 0.01108599
0.25191928 0.49589844 0.01470411
0.49984401 0.49949668 0.01842995
0.74787056 0.50317534 0.02210544
0.99577438 0.50677455 0.02557249
0.01935729 0.74789705 0.02340011
0.26716067 0.75142764 0.02675204
0.51453504 0.75466070 0.02967991
0.76125585 0.75743636 0.03202564
1.00000000 0.75963582 0.05412673
0.03634014 1.00000000 0.03695672
0.28556762 1.00000000 0.04594244
0.53014944 1.00000000 0.05588955
0.76926026 1.00000000 0.06682540
1.00000000 0.99806042 0.10409975
0.00000000 0.00054129 0.24409199
0.23664385 0.00000000 0.23984575
0.47581450 0.00000000 0.24159822
0.72021225 0.00000000 0.24435592
0.96934480 0.00000000 0.24716595
0.00000000 0.24098475 0.24454538
0.24123405 0.24341035 0.24706341
0.48767605 0.24594460 0.25062274
0.73440530 0.24906897 0.25439392
0.98199288 0.25241904 0.25800743
0.00569828 0.49364400 0.25568658
0.25343165 0.49710156 0.25935707
0.50136895 0.50071859 0.26263366
0.74942850 0.50441383 0.26670255
0.99723827 0.50795043 0.27006822
0.02088899 0.74911949 0.26796994
0.26857186 0.75256697 0.27119557
0.51574946 0.75566262 0.27394347
0.76219724 0.75824658 0.27605555
1.00000000 0.76078645 0.29380401
0.03956944 1.00000000 0.28100385
0.28816198 1.00000000 0.28780950
0.53191889 1.00000000 0.29531987
0.77001563 1.00000000 0.30355994
1.00000000 0.99848419 0.33236287
0.00000000 0.00094550 0.47121160
0.23634465 0.00000000 0.47850494
0.47683790 0.00000000 0.48220059
0.72224944 0.00000000 0.48699510
0.97124691 0.00029737 0.49146312
0.00000000 0.24196717 0.48507792
0.24199242 0.24447674 0.49246029
0.48853328 0.24706807 0.49553930
0.73577839 0.25016937 0.49899252
0.98350385 0.25362029 0.50266164
0.00713040 0.49478740 0.50031163
0.25497469 0.49832597 0.50401997
0.50261539 0.50178633 0.50655345
0.75110873 0.50551156 0.51086828
0.99865332 0.50909244 0.51451548
0.02238832 0.75031980 0.51250289
0.26992478 0.75366573 0.51558401
0.51687829 0.75660582 0.51813210
0.76291497 0.75899727 0.51962944
1.00000000 0.76200938 0.53130052
0.04288316 1.00000000 0.52351861
0.29080668 1.00000000 0.52796740
0.53370524 1.00000000 0.53286239
0.77075515 1.00000000 0.53822600
1.00000000 0.99894930 0.55782428
0.00000000 0.00130769 0.70109876
0.23642315 0.00000000 0.71812573
0.47801801 0.00000000 0.72413851
0.72433600 0.00000000 0.73100878
0.97210743 0.00102736 0.73578475
0.00000000 0.24290158 0.72750438
0.24296817 0.24528976 0.73684796
0.48977331 0.24807225 0.74007180
0.73720687 0.25131010 0.74361602
0.98504430 0.25484345 0.74732253
0.00860847 0.49596442 0.74495496
0.25653719 0.49956565 0.74868131
0.50456348 0.50324429 0.75235434
0.75246294 0.50684036 0.75581591
1.00000000 0.51019790 0.75890429
0.02384648 0.75149171 0.75699279
0.27121062 0.75471764 0.75991116
0.51791670 0.75748321 0.76224433
0.76306404 0.75964415 0.76314177
1.00000000 0.76326588 0.76631955
0.04627998 1.00000000 0.76441074
0.29350074 1.00000000 0.76632492
0.53550784 1.00000000 0.76842483
0.77147839 1.00000000 0.77073002
1.00000000 0.99947248 0.78019042
0.00000000 0.00162749 0.93366297
0.23672231 0.00000000 0.95907679
0.47930108 0.00000000 0.96747613
0.72644722 0.00000000 0.97637560
0.97307575 0.00183501 0.98016821
0.00000000 0.24378395 0.97177124
0.24404229 0.24617372 0.98129080
0.49108602 0.24912878 0.98464117
0.73868192 0.25248491 0.98825823
0.98660544 0.25608224 0.99198391
0.01012369 0.49716881 0.98961036
0.25811073 0.50081426 0.99333633
0.50611910 0.50448283 0.99695529
0.75380360 0.50808172 1.00000000
0.99809803 0.51252922 1.00000000
0.02741786 0.75213064 1.00000000
0.27731489 0.75468264 1.00000000
0.52333556 0.75758954 1.00000000
0.76470062 0.76084038 1.00000000
1.00000000 0.76467527 0.99937061
0.06261572 0.99654051 1.00000000
0.30621664 0.99731703 1.00000000
0.54415417 0.99816360 1.00000000
0.77566732 0.99906386 1.00000000
1.00000000 1.00000000 1.00000000
