assets/luts/DB_Neon_Balance_Rec709_50.cube
TITLE "Neon Balance Rec709 50"
# Red changes fastest. Full-range normalized input.
LUT_3D_SIZE 9
DOMAIN_MIN 0 0 0
DOMAIN_MAX 1 1 1
0.00150000 0.00150000 0.00150000
0.12113199 0.00000000 0.00041357
0.23758599 0.00000000 0.00109138
0.35557669 0.00000000 0.00166730
0.47503721 0.00000000 0.00216228
0.59596462 0.00000000 0.00263405
0.71825956 0.00000000 0.00308193
0.84182063 0.00000000 0.00350418
0.96654639 0.00000000 0.00389915
0.00000000 0.11836506 0.00352444
0.11751893 0.11906325 0.00000000
0.23862528 0.11922738 0.00000000
0.36061468 0.11980357 0.00128748
0.48264042 0.12035876 0.00236593
0.60510924 0.12107869 0.00344160
0.72785984 0.12199998 0.00468306
0.85086303 0.12310309 0.00607183
0.97409072 0.12436804 0.00758815
0.00000000 0.23996055 0.00593797
0.11778481 0.24228913 0.00264730
0.24041390 0.24304307 0.00345470
0.36326379 0.24405261 0.00500891
0.48630757 0.24524174 0.00660479
0.60960768 0.24656170 0.00816798
0.73309637 0.24801519 0.00982644
0.85674323 0.24958327 0.01156573
0.98052018 0.25124595 0.01336609
0.00000000 0.36563281 0.00699820
0.12177577 0.36740301 0.00716435
0.24514913 0.36877319 0.00875980
0.36869890 0.37027057 0.01044868
0.49239637 0.37187552 0.01221471
0.61621364 0.37356773 0.01403283
0.74012279 0.37532725 0.01588465
0.86409568 0.37713413 0.01775084
0.98810425 0.37896840 0.01961163
0.00432090 0.49254050 0.01108599
0.12806526 0.49417944 0.01287170
0.25191928 0.49589844 0.01470411
0.37585488 0.49767752 0.01656344
0.49984401 0.49949668 0.01842995
0.62385859 0.50133595 0.02028387
0.74787056 0.50317534 0.02210544
0.87185184 0.50499487 0.02387490
0.99577438 0.50677455 0.02557249
0.01159406 0.62003309 0.01724318
0.13559571 0.62186189 0.01910739
0.25961259 0.62370352 0.02095182
0.38361663 0.62553799 0.02275671
0.50757978 0.62734533 0.02450229
0.63147395 0.62910554 0.02616882
0.75527110 0.63079865 0.02773652
0.87894313 0.63240467 0.02918564
1.00000000 0.63416686 0.03513835
0.01935729 0.74789705 0.02340011
0.14329857 0.74968954 0.02511920
0.26716067 0.75142764 0.02675204
0.39091552 0.75309135 0.02827886
0.51453504 0.75466070 0.02967991
0.63799118 0.75611570 0.03093542
0.76125585 0.75743636 0.03202564
0.88430101 0.75860270 0.03293080
1.00000000 0.75963582 0.05412673
0.02654200 0.87537154 0.02880453
0.15010529 0.87690157 0.03015488
0.27349497 0.87830998 0.03135250
0.39668298 0.87957677 0.03237764
0.51964124 0.88068197 0.03321053
0.64234169 0.88160560 0.03383141
0.76475627 0.88232765 0.03422052
0.88685690 0.88282817 0.03435811
1.00000000 0.88131683 0.07713012
0.03634014 1.00000000 0.03695672
0.16148304 1.00000000 0.04133100
0.28556762 1.00000000 0.04594244
0.40849080 1.00000000 0.05079418
0.53014944 1.00000000 0.05588955
0.65044034 1.00000000 0.06123207
0.76926026 1.00000000 0.06682540
0.88650586 1.00000000 0.07267340
1.00000000 0.99806042 0.10409975
0.00071021 0.00098860 0.12291355
0.11973114 0.00000000 0.12149348
0.23702237 0.00000000 0.12059523
0.35550797 0.00000000 0.12099952
0.47538734 0.00000000 0.12175138
0.59664931 0.00000000 0.12263110
0.71922258 0.00000000 0.12355052
0.84301916 0.00000000 0.12446840
0.96794453 0.00000000 0.12536268
0.00000000 0.11866182 0.12057303
0.11724986 0.11933548 0.12148910
0.23991747 0.11890202 0.12097815
0.36094469 0.11983621 0.12311318
0.48287521 0.12057679 0.12440349
0.60543703 0.12136993 0.12554233
0.72827655 0.12235521 0.12683604
0.85135913 0.12351552 0.12827034
0.97465669 0.12483089 0.12982548
0.00000000 0.24047703 0.12499891
0.11800148 0.24251104 0.12450716
0.24106361 0.24283832 0.12275442
0.36467679 0.24376856 0.12437903
0.48694933 0.24561160 0.12859718
0.61019772 0.24704077 0.13041634
0.73374226 0.24853587 0.13210591
0.85743645 0.25013831 0.13386815
0.98125119 0.25182858 0.13568476
0.00000000 0.36625802 0.12832995
0.12232292 0.36785284 0.12938997
0.24574104 0.36926380 0.13092155
0.36936659 0.37076142 0.13228436
0.49313559 0.37241778 0.13435121
0.61695791 0.37415776 0.13635022
0.74089000 0.37593656 0.13821466
0.86487815 0.37775499 0.14008124
0.98889244 0.37959400 0.14193570
0.00500220 0.49308687 0.13338284
0.12878694 0.49475524 0.13518662
0.25267179 0.49649689 0.13703033
0.37662844 0.49829182 0.13889299
0.50062950 0.50011996 0.14075617
0.62464654 0.50196157 0.14260354
0.74865120 0.50379649 0.14441006
0.87261568 0.50560473 0.14615733
0.99651188 0.50736633 0.14782603
0.01237332 0.62065148 0.13957414
0.13638329 0.62248688 0.14143385
0.26039896 0.62432832 0.14326707
0.38439226 0.62615582 0.14505403
0.50833513 0.62794939 0.14677498
0.63219950 0.62968906 0.14841016
0.75595731 0.63135483 0.14993981
0.87958047 0.63292672 0.15134417
1.00000000 0.63480030 0.15744145
0.02012664 0.74851065 0.14568925
0.14404418 0.75028691 0.14738126
0.26787300 0.75200198 0.14898031
0.39158504 0.75363589 0.15046663
0.51515222 0.75516865 0.15182047
0.63854648 0.75658026 0.15302206
0.76173976 0.75785076 0.15405165
0.88470398 0.75896015 0.15488948
1.00000000 0.76020212 0.17423127
0.02719357 0.87590355 0.15097589
0.15070105 0.87739451 0.15227659
0.27402539 0.87875707 0.15341785
0.39713852 0.87997123 0.15437991
0.52001238 0.88101700 0.15514302
0.64261889 0.88187441 0.15568741
0.76493000 0.88252348 0.15599332
0.88691762 0.88294420 0.15604100
1.00000000 0.88174150 0.19461951
0.03794415 1.00000000 0.15916621
0.16294236 1.00000000 0.16302244
0.28685844 1.00000000 0.16708393
0.40958935 1.00000000 0.17135370
0.53103201 1.00000000 0.17583494
0.65108326 1.00000000 0.18053100
0.76963991 1.00000000 0.18544541
0.88659869 1.00000000 0.19058186
1.00000000 0.99826710 0.21857606
0.00000000 0.00054129 0.24409199
0.11875571 0.00000000 0.24087219
0.23664385 0.00000000 0.23984575
0.35557223 0.00000000 0.24045674
0.47581450 0.00000000 0.24159822
0.59738018 0.00000000 0.24294211
0.72021225 0.00000000 0.24435592
0.84423049 0.00000000 0.24577556
0.96934480 0.00000000 0.24716595
0.00000000 0.11896197 0.23788196
0.11699508 0.11957070 0.24401754
0.23876770 0.11970397 0.24459218
0.36080073 0.12015095 0.24543210
0.48313432 0.12082404 0.24647059
0.60579608 0.12168367 0.24766156
0.72872129 0.12273063 0.24900523
0.85188003 0.12394584 0.25048279
0.97524421 0.12530931 0.25207447
0.00000000 0.24098475 0.24454538
0.11834604 0.24280277 0.24684615
0.24123405 0.24341035 0.24706341
0.36519261 0.24397725 0.24717330
0.48767605 0.24594460 0.25062274
0.61081200 0.24753256 0.25267198
0.73440530 0.24906897 0.25439392
0.85814357 0.25070349 0.25617685
0.98199288 0.25241904 0.25800743
0.00000000 0.36686598 0.25010604
0.12289240 0.36831880 0.25162888
0.24629123 0.36974788 0.25295529
0.36995397 0.37082225 0.25146522
0.49445952 0.37239194 0.25367952
0.61780122 0.37470019 0.25844685
0.74166429 0.37655015 0.26054410
0.86566363 0.37837822 0.26241024
0.98968042 0.38021968 0.26425610
0.00569828 0.49364400 0.25568658
0.12952017 0.49533950 0.25750615
0.25343165 0.49710156 0.25935707
0.37737658 0.49890869 0.26112348
0.50136895 0.50071859 0.26263366
0.62544561 0.50256962 0.26475040
0.74942850 0.50441383 0.26670255
0.87337165 0.50620921 0.26843069
0.99723827 0.50795043 0.27006822
0.01315648 0.62127287 0.26190433
0.13717153 0.62311256 0.26375725
0.26118275 0.62495151 0.26557698
0.38516204 0.62676973 0.26734368
0.50908100 0.62854730 0.26903646
0.63291237 0.63026406 0.27063683
0.75662799 0.63190017 0.27212825
0.88019905 0.63343564 0.27348596
1.00000000 0.63545484 0.27929901
0.02088899 0.74911949 0.26796994
0.14477955 0.75087722 0.26963259
0.26857186 0.75256697 0.27119557
0.39223785 0.75416877 0.27263912
0.51574946 0.75566262 0.27394347
0.63907861 0.75702856 0.27508887
0.76219724 0.75824658 0.27605555
0.88507729 0.75929671 0.27682376
1.00000000 0.76078645 0.29380401
0.02782725 0.87642305 0.27313114
0.15127569 0.87787265 0.27437991
0.27453145 0.87918704 0.27546253
0.39756647 0.88034626 0.27635924
0.52035268 0.88133031 0.27705029
0.64286202 0.88211920 0.27751590
0.76506642 0.88269296 0.27773633
0.88693780 0.88303160 0.27769182
1.00000000 0.88218067 0.31149561
0.03956944 1.00000000 0.28100385
0.16441867 1.00000000 0.28432005
0.28816198 1.00000000 0.28780950
0.41069641 1.00000000 0.29147509
0.53191889 1.00000000 0.29531987
0.65172635 1.00000000 0.29934703
0.77001563 1.00000000 0.30355994
0.88668354 1.00000000 0.30796211
1.00000000 0.99848419 0.33236287
0.00000000 0.00074862 0.35730027
0.11813660 0.00000000 0.35968940
0.23643175 0.00000000 0.35909443
0.35573588 0.00000000 0.36012646
0.47630214 0.00000000 0.36173974
0.59814792 0.00000000 0.36358267
0.72122278 0.00000000 0.36550338
0.84545076 0.00000000 0.36742526
0.97074443 0.00000000 0.36930528
0.00000000 0.11926393 0.35557442
0.11695586 0.11960804 0.36590010
0.23878706 0.11986856 0.36658518
0.36095445 0.12037060 0.36747638
0.48342971 0.12109421 0.36855410
0.60618530 0.12201912 0.36979852
0.72919297 0.12312546 0.37118987
0.85242462 0.12439326 0.37270840
0.97585219 0.12580254 0.37433435
0.00000000 0.24148164 0.36457237
0.11869337 0.24310544 0.36898874
0.24154549 0.24408964 0.37027658
0.36468938 0.24521278 0.37165640
0.48797917 0.24656341 0.37325595
0.61143646 0.24804279 0.37494789
0.73508438 0.24961374 0.37668972
0.85886350 0.25127801 0.37849104
0.98274413 0.25301654 0.38033331
0.00010866 0.36742749 0.37228409
0.12348558 0.36880027 0.37388263
0.24701383 0.37029161 0.37552603
0.37063006 0.37160162 0.37611937
0.49516629 0.37280873 0.37660651
0.61869453 0.37520060 0.38056460
0.74244687 0.37716583 0.38287006
0.86645103 0.37900304 0.38473707
0.99046707 0.38084465 0.38657205
0.00640805 0.49421111 0.37799643
0.13026386 0.49593142 0.37982953
0.25419860 0.49771152 0.38168641
0.37803701 0.49951778 0.38321578
0.50157958 0.50102504 0.38190220
0.62641157 0.50275101 0.38418194
0.75026065 0.50498473 0.38877479
0.87411930 0.50680719 0.39069286
0.99795245 0.50852606 0.39229830
0.01394243 0.62189648 0.38423296
0.13795933 0.62373816 0.38607683
0.26196286 0.62557231 0.38788078
0.38592371 0.62737912 0.38962323
0.50977503 0.62914216 0.39119463
0.63351905 0.63082655 0.39243716
0.75727974 0.63242544 0.39414690
0.88079865 0.63393017 0.39560538
1.00000000 0.63613062 0.40069760
0.02164325 0.74972281 0.39024141
0.14550359 0.75145969 0.39187243
0.26925615 0.75312181 0.39339707
0.39287286 0.75468919 0.39479556
0.51632562 0.75614185 0.39604809
0.63958596 0.75745991 0.39713387
0.76262672 0.75862316 0.39803430
0.88541984 0.75961161 0.39873251
1.00000000 0.76138890 0.41283226
0.02844196 0.87692926 0.39526951
0.15182810 0.87833518 0.39646407
0.27501204 0.87959912 0.39748577
0.39796572 0.88070109 0.39831485
0.52066105 0.88162110 0.39893156
0.64306998 0.88233918 0.39931612
0.76516443 0.88283533 0.39944879
0.88691634 0.88308958 0.39930980
1.00000000 0.88263432 0.42774657
0.04121583 1.00000000 0.40245841
0.16591179 1.00000000 0.40521252
0.28947811 1.00000000 0.40810778
0.41181184 1.00000000 0.41114693
0.53281000 1.00000000 0.41433286
0.65236954 1.00000000 0.41766861
0.77038739 1.00000000 0.42115736
0.88676041 1.00000000 0.42480245
1.00000000 0.99871162 0.44544921
0.00000000 0.00094550 0.47121160
0.11773115 0.00000000 0.47844213
0.23634465 0.00000000 0.47850494
0.35597602 0.00000000 0.48006659
0.47683790 0.00000000 0.48220059
0.59894519 0.00000000 0.48456264
0.72224944 0.00000000 0.48699510
0.84667668 0.00000000 0.48941538
0.97124691 0.00029737 0.49146312
0.00000000 0.11956973 0.47371075
0.11696197 0.11966826 0.48780526
0.23891035 0.12001314 0.48856255
0.36118547 0.12059262 0.48951934
0.48375923 0.12138673 0.49065588
0.60660359 0.12237549 0.49195241
0.72969047 0.12353890 0.49338917
0.85299181 0.12485699 0.49494640
0.97647953 0.12630977 0.49660433
0.00000000 0.24196717 0.48507792
0.11905652 0.24342210 0.49111042
0.24199242 0.24447674 0.49246029
0.36516075 0.24569864 0.49394316
0.48853328 0.24706807 0.49553930
0.61208170 0.24856507 0.49722906
0.73577839 0.25016937 0.49899252
0.85959514 0.25186110 0.50080996
0.98350385 0.25362029 0.50266164
0.00065785 0.36787822 0.49451223
0.12409768 0.36929636 0.49614475
0.24770317 0.37083453 0.49786334
0.37144293 0.37246467 0.49963320
0.49532782 0.37414343 0.50139916
0.61926228 0.37594852 0.50330560
0.74322606 0.37778865 0.50520571
0.86723924 0.37962867 0.50706097
0.99125130 0.38146812 0.50888278
0.00713040 0.49478740 0.50031163
0.13101689 0.49653023 0.50215596
0.25497469 0.49832597 0.50401997
0.37893984 0.50015004 0.50583623
0.50261539 0.50178633 0.50655345
0.62710262 0.50323540 0.50713265
0.75110873 0.50551156 0.51086828
0.87485934 0.50739675 0.51294123
0.99865332 0.50909244 0.51451548
0.01473008 0.62252153 0.50655927
0.13874558 0.62436289 0.50839180
0.26273819 0.62618994 0.51017770
0.38667725 0.62798297 0.51189468
0.51033821 0.62973214 0.51322260
0.63321564 0.63128072 0.51191491
0.75777295 0.63269528 0.51375275
0.88141793 0.63438061 0.51751932
1.00000000 0.63682768 0.52162308
0.02238832 0.75031980 0.51250289
0.14621521 0.75203354 0.51410000
0.26992478 0.75366573 0.51558401
0.39348896 0.75519639 0.51693517
0.51687829 0.75660582 0.51813210
0.64001998 0.75788253 0.51907652
0.76291497 0.75899727 0.51962944
0.88572389 0.75990259 0.52048113
1.00000000 0.76200938 0.53130052
0.02903657 0.87742140 0.51739022
0.15235720 0.87878135 0.51852829
0.27546609 0.87999252 0.51948679
0.39833517 0.88103494 0.52024597
0.52093639 0.88188861 0.52078605
0.64324163 0.88253357 0.52108724
0.76522246 0.88294996 0.52112889
0.88685174 0.88311752 0.52089223
1.00000000 0.88310248 0.54336043
0.04288316 1.00000000 0.52351861
0.16742159 1.00000000 0.52568854
0.29080668 1.00000000 0.52796740
0.41293554 1.00000000 0.53035777
0.53370524 1.00000000 0.53286239
0.65301278 1.00000000 0.53548413
0.77075515 1.00000000 0.53822600
0.88682927 1.00000000 0.54109114
1.00000000 0.99894930 0.55782428
0.00000000 0.00113188 0.58581484
0.11746165 0.00000000 0.59734771
0.23634919 0.00000000 0.59816416
0.35627596 0.00000000 0.60031455
0.47741231 0.00000000 0.60299687
0.59976612 0.00000000 0.60588759
0.72328828 0.00000000 0.60883090
0.84790548 0.00000000 0.61174238
0.97166314 0.00065227 0.61361582
0.00000000 0.11987579 0.59231582
0.11700900 0.11975784 0.60973571
0.23907149 0.12018462 0.61056297
0.36145118 0.12083924 0.61158302
0.48411999 0.12170169 0.61277612
0.60704986 0.12275201 0.61412248
0.73021271 0.12397019 0.61560237
0.85358050 0.12533626 0.61719601
0.97712513 0.12683024 0.61888365
0.00000000 0.24244066 0.60605733
0.11944951 0.24376026 0.61324958
0.24246745 0.24487400 0.61464684
0.36570816 0.24614833 0.61617043
0.48914358 0.24756328 0.61780058
0.61274563 0.24909886 0.61951754
0.73648626 0.25073508 0.62130154
0.86033738 0.25245197 0.62313283
0.98427094 0.25422952 0.62499164
0.00122942 0.36834512 0.61675261
0.12472875 0.36980629 0.61841665
0.24838450 0.37138083 0.62016031
0.37216860 0.37304872 0.62196381
0.49605304 0.37478987 0.62380735
0.62000974 0.37658455 0.62567126
0.74401036 0.37841279 0.62753583
0.86802717 0.38025433 0.62938115
0.99203201 0.38208931 0.63118751
0.00786424 0.49537210 0.62263140
0.13177817 0.49713514 0.62448468
0.25575409 0.49894430 0.62635111
0.37976352 0.50077954 0.62821068
0.50376890 0.50261507 0.63002994
0.62777246 0.50441169 0.63175917
0.75173294 0.50622493 0.63352292
0.87558233 0.50798188 0.63518767
0.99933978 0.50964879 0.63671901
0.01551832 0.62314723 0.62888248
0.13952920 0.62498597 0.63070139
0.26350765 0.62680361 0.63246697
0.38742536 0.62858018 0.63415931
0.51120761 0.63029642 0.63571832
0.63436755 0.63184150 0.63626210
0.75826568 0.63309618 0.63660663
0.88202728 0.63478481 0.63946329
1.00000000 0.63754574 0.64206075
0.02312310 0.75090970 0.63475361
0.14691329 0.75259798 0.63631452
0.27057663 0.75419793 0.63775563
0.39408506 0.75568957 0.63905717
0.51740763 0.75705340 0.64019730
0.64029423 0.75830236 0.64090969
0.76213737 0.75942334 0.63935291
0.88578369 0.76007428 0.64025840
1.00000000 0.76263655 0.64908488
0.02961001 0.87789869 0.63949250
0.15286187 0.87921035 0.64057180
0.27589247 0.88036645 0.64146483
0.39867373 0.88134701 0.64215181
0.52117759 0.88213205 0.64261300
0.64337458 0.88270193 0.64282731
0.76519504 0.88304816 0.64271069
0.88665478 0.88314273 0.64214510
1.00000000 0.88358571 0.65823939
0.04457126 1.00000000 0.64417316
0.16894793 1.00000000 0.64573675
0.29214760 1.00000000 0.64737693
0.41406743 1.00000000 0.64909612
0.53460454 1.00000000 0.65089690
0.65365601 1.00000000 0.65278198
0.77111888 1.00000000 0.65475415
0.88689004 1.00000000 0.65681643
1.00000000 0.99919722 0.66947594
0.00000000 0.00130769 0.70109876
0.11728511 0.00000000 0.71652099
0.23642315 0.00000000 0.71812573
0.35662346 0.00000000 0.72089456
0.47801801 0.00000000 0.72413851
0.60060590 0.00000000 0.72755986
0.72433600 0.00000000 0.73100878
0.84913474 0.00000000 0.73440159
0.97210743 0.00102736 0.73578475
0.00000000 0.12017937 0.71140497
0.11709586 0.11987599 0.73169068
0.23926922 0.12038239 0.73258563
0.36175024 0.12110983 0.73366666
0.48451085 0.12203832 0.73491402
0.60752299 0.12314788 0.73630795
0.73075859 0.12441853 0.73782869
0.85418958 0.12583028 0.73945647
0.97778789 0.12736315 0.74117154
0.00000000 0.24290158 0.72750438
0.11987143 0.24411924 0.73540558
0.24296817 0.24528976 0.73684796
0.36627815 0.24661409 0.73840995
0.48977331 0.24807225 0.74007180
0.61342557 0.24964425 0.74181374
0.73720687 0.25131010 0.74361602
0.86108913 0.25304983 0.74545887
0.98504430 0.25484345 0.74732253
0.00182226 0.36882739 0.73900445
0.12537786 0.37032930 0.74069774
0.24908035 0.37193779 0.74246394
0.37290165 0.37363285 0.74428327
0.49681371 0.37539451 0.74613599
0.62078845 0.37720278 0.74800233
0.74479781 0.37903769 0.74986253
0.86881371 0.38087924 0.75169683
0.99280810 0.38270745 0.75348547
0.00860847 0.49596442 0.74495496
0.13254659 0.49774537 0.74681492
0.25653719 0.49956565 0.74868131
0.38055218 0.50140529 0.75053437
0.50456348 0.50324429 0.75235434
0.62854306 0.50506257 0.75412142
0.75246294 0.50684036 0.75581591
0.87629477 0.50855768 0.75741809
1.00000000 0.51019790 0.75890429
0.01630606 0.62377280 0.75120182
0.14030908 0.62560662 0.75300484
0.26427013 0.62741254 0.75474781
0.38816117 0.62917059 0.75641097
0.51195358 0.63086078 0.75797442
0.63560490 0.63246010 0.75940934
0.75911271 0.63393333 0.76067519
0.88247404 0.63531131 0.76184979
1.00000000 0.63828671 0.76200612
0.02384648 0.75149171 0.75699279
0.14759674 0.75315224 0.75851523
0.27121062 0.75471764 0.75991116
0.39466006 0.75616795 0.76116081
0.51791670 0.75748321 0.76224433
0.64090069 0.75864914 0.76311385
0.76306404 0.75964415 0.76314177
0.88591958 0.76022998 0.76288333
1.00000000 0.76326588 0.76631955
0.03016116 0.87836034 0.76157557
0.15334103 0.87962141 0.76259383
0.27629010 0.88072014 0.76341910
0.39898030 0.88163654 0.76403162
0.52138357 0.88235063 0.76441163
0.64346901 0.88284306 0.76453786
0.76500443 0.88313983 0.76421101
0.88561995 0.88328692 0.76206576
1.00000000 0.88403812 0.77130737
0.04627998 1.00000000 0.76441074
0.17049067 1.00000000 0.76534577
0.29350074 1.00000000 0.76632492
0.41520740 1.00000000 0.76735048
0.53550784 1.00000000 0.76842483
0.65429920 1.00000000 0.76955049
0.77147839 1.00000000 0.77073002
0.88693581 1.00000000 0.77196776
1.00000000 0.99947248 0.78019042
0.00000000 0.00147291 0.81705197
0.11717579 0.00000000 0.83602597
0.23655118 0.00000000 0.83842309
0.35700936 0.00000000 0.84182187
0.47864916 0.00000000 0.84563092
0.60146059 0.00000000 0.84957929
0.72538978 0.00000000 0.85352524
0.84957234 0.00031649 0.85657856
0.97257866 0.00142187 0.85796914
0.00000000 0.12047840 0.83098692
0.11722143 0.12002194 0.85366939
0.23950242 0.12060564 0.85462975
0.36208154 0.12140360 0.85576949
0.48493072 0.12239583 0.85706884
0.60802190 0.12356234 0.85850805
0.73132700 0.12488315 0.86006735
0.85481796 0.12633827 0.86172699
0.97846671 0.12790772 0.86346721
0.00000000 0.24334946 0.84941177
0.12032117 0.24449826 0.85757765
0.24349348 0.24572326 0.85906287
0.36686950 0.24709528 0.86066099
0.49042115 0.24859434 0.86235225
0.61412038 0.25020045 0.86411690
0.73793912 0.25189364 0.86593517
0.86184929 0.25365391 0.86778731
0.98582283 0.25546128 0.86965355
0.00243528 0.36932426 0.86126698
0.12604391 0.37086460 0.86298724
0.24978989 0.37250473 0.86477370
0.37364517 0.37422465 0.86660659
0.49758166 0.37600438 0.86846615
0.62157130 0.37782394 0.87033261
0.74558603 0.37966334 0.87218623
0.86959778 0.38150260 0.87400725
0.99357847 0.38332174 0.87577589
0.00936198 0.49656359 0.86728154
0.13332107 0.49836013 0.86914590
0.25732310 0.50018923 0.87100998
0.38133999 0.50203089 0.87285401
0.50534368 0.50386514 0.87465825
0.62930610 0.50567199 0.87640292
0.75319918 0.50743145 0.87806827
0.87699486 0.50912354 0.87963454
1.00000000 0.51097130 0.88063295
0.01709220 0.62439746 0.87351652
0.14108411 0.62622405 0.87530136
0.26502454 0.62801595 0.87701944
0.38888541 0.62975320 0.87865101
0.51263865 0.63141580 0.88017630
0.63625619 0.63298377 0.88157556
0.75970993 0.63443705 0.88282906
0.88297203 0.63575580 0.88391694
1.00000000 0.63904922 0.88143750
0.02455737 0.75206506 0.87921965
0.14826446 0.75369552 0.88070135
0.27182565 0.75522408 0.88204981
0.39521286 0.75663075 0.88324529
0.51839802 0.75789555 0.88426802
0.64135249 0.75899853 0.88509823
0.76403242 0.75991902 0.88571393
0.88643801 0.76062413 0.88608592
1.00000000 0.76397507 0.88323950
0.03068893 0.87880557 0.88363867
0.15379357 0.88001375 0.88459360
0.27665787 0.88105280 0.88534884
0.39925378 0.88190274 0.88588461
0.52155322 0.88254357 0.88618116
0.64352785 0.88295537 0.88621870
0.76510263 0.88312654 0.88596438
0.88588236 0.88307131 0.88508892
1.00000000 0.88447283 0.88561404
0.04800919 1.00000000 0.88422000
0.17204970 1.00000000 0.88450419
0.29486601 1.00000000 0.88479992
0.41635540 1.00000000 0.88510929
0.53641510 1.00000000 0.88543454
0.65494233 1.00000000 0.88577798
0.77183395 1.00000000 0.88614183
0.88696559 1.00000000 0.88652391
1.00000000 0.99981513 0.88948674
0.00000000 0.00162749 0.93366297
0.11711733 0.00000000 0.95589908
0.23672231 0.00000000 0.95907679
0.35742663 0.00000000 0.96310541
0.47930108 0.00000000 0.96747613
0.60232692 0.00000000 0.97194377
0.72644722 0.00000000 0.97637560
0.84999016 0.00067252 0.97873218
0.97307575 0.00183501 0.98016821
0.00000000 0.12077130 0.95106559
0.11738463 0.12019490 0.97567107
0.23977001 0.12085361 0.97669456
0.36244399 0.12171978 0.97789072
0.48537850 0.12277344 0.97923978
0.60854547 0.12399459 0.98072199
0.73191684 0.12536325 0.98231758
0.85546454 0.12685944 0.98400681
0.97916049 0.12846317 0.98576989
0.00000000 0.24378395 0.97177124
0.12079765 0.24489655 0.97976503
0.24404229 0.24617372 0.98129080
0.36748110 0.24759112 0.98292277
0.49108602 0.24912878 0.98464117
0.61482898 0.25076670 0.98642625
0.73868192 0.25248491 0.98825823
0.86261676 0.25426342 0.99011737
0.98660544 0.25608224 0.99198391
0.00306737 0.36983494 0.98353941
0.12672580 0.37141141 0.98528437
0.25051205 0.37308087 0.98708882
0.37439805 0.37482335 0.98893298
0.49835574 0.37661885 0.99079710
0.62235705 0.37844739 0.99266142
0.74637391 0.38028898 0.99450618
0.87037826 0.38212365 0.99631162
0.99434202 0.38393140 0.99805799
0.01012369 0.49716881 0.98961036
0.13410051 0.49897866 0.99147685
0.25811073 0.50081426 0.99333633
0.38212628 0.50265565 0.99516907
0.50611910 0.50448283 0.99695529
0.63006112 0.50627582 0.99867524
0.75380360 0.50808172 1.00000000
0.87645126 0.51023018 1.00000000
0.99809803 0.51252922 1.00000000
0.01787564 0.62502043 0.99582579
0.14185321 0.62683748 0.99759018
0.26576977 0.62861306 0.99928109
0.39006882 0.63027573 1.00000000
0.51405471 0.63197640 1.00000000
0.63710440 0.63379738 1.00000000
0.75911990 0.63573747 1.00000000
0.88000344 0.63779542 1.00000000
0.99965742 0.63996991 1.00000000
0.02741786 0.75213064 1.00000000
0.15280207 0.75336164 1.00000000
0.27731489 0.75468264 1.00000000
0.40085855 0.75609239 1.00000000
0.52333556 0.75758954 1.00000000
0.64464861 0.75917269 1.00000000
0.76470062 0.76084038 1.00000000
0.88339469 0.76259105 1.00000000
1.00000000 0.76467527 0.99937061
0.04389706 0.87603047 1.00000000
0.16802815 0.87694478 1.00000000
0.29106109 0.87791450 1.00000000
0.41289914 0.87893806 1.00000000
0.53344584 0.88001381 1.00000000
0.65260495 0.88114004 1.00000000
0.77028013 0.88231498 1.00000000
0.88636535 0.88353719 1.00000000
1.00000000 0.88510863 0.99923223
0.06261572 0.99654051 1.00000000
0.18507637 0.99691904 1.00000000
0.30621664 0.99731703 1.00000000
0.42594099 0.99773255 1.00000000
0.54415417 0.99816360 1.00000000
0.66076123 0.99860808 1.00000000
0.77566732 0.99906386 1.00000000
0.88876211 0.99953226 1.00000000
1.00000000 1.00000000 1.00000000
