assets/luts/DB_Neon_Balance_Rec709_100.cube
TITLE "Neon Balance Rec709 100"
# Red changes fastest. Full-range normalized input.
LUT_3D_SIZE 9
DOMAIN_MIN 0 0 0
DOMAIN_MAX 1 1 1
0.00300000 0.00300000 0.00300000
0.11726398 0.00000000 0.00082713
0.22517198 0.00000000 0.00218275
0.33615337 0.00000000 0.00333461
0.45007442 0.00000000 0.00432457
0.56692923 0.00000000 0.00526809
0.68651912 0.00000000 0.00616387
0.80864126 0.00000000 0.00700836
0.93309277 0.00000000 0.00779831
0.00000000 0.11173013 0.00704887
0.11003785 0.11312651 0.00000000
0.22725056 0.11345477 0.00000000
0.34622935 0.11460714 0.00257495
0.46528083 0.11571752 0.00473186
0.58521848 0.11715738 0.00688320
0.70571968 0.11899996 0.00936612
0.82672605 0.12120618 0.01214366
0.94818145 0.12373607 0.01517630
0.00000000 0.22992110 0.01187594
0.11056962 0.23457827 0.00529459
0.23082779 0.23608613 0.00690940
0.35152757 0.23810522 0.01001782
0.47261514 0.24048348 0.01320958
0.59421536 0.24312341 0.01633595
0.71619274 0.24603038 0.01965288
0.83848645 0.24916653 0.02313145
0.96104035 0.25249191 0.02673218
0.00000000 0.35626562 0.01399641
0.11855154 0.35980601 0.01432869
0.24029826 0.36254637 0.01751960
0.36239781 0.36554113 0.02089735
0.48479274 0.36875105 0.02442941
0.60742729 0.37213547 0.02806566
0.73024559 0.37565450 0.03176931
0.85319137 0.37926827 0.03550167
0.97620849 0.38293679 0.03922325
0.00864180 0.48508100 0.02217198
0.13113052 0.48835888 0.02574340
0.25383855 0.49179688 0.02940821
0.37670976 0.49535503 0.03312688
0.49968802 0.49899336 0.03685989
0.62271718 0.50267190 0.04056773
0.74574111 0.50635068 0.04421087
0.86870368 0.50998974 0.04774980
0.99154875 0.51354911 0.05114499
0.02318813 0.61506619 0.03448636
0.14619142 0.61872378 0.03821478
0.26922517 0.62240704 0.04190364
0.39223326 0.62607599 0.04551341
0.51515955 0.62969066 0.04900458
0.63794791 0.63321108 0.05233763
0.76054219 0.63659730 0.05547304
0.88288627 0.63980933 0.05837128
1.00000000 0.64333371 0.07027669
0.03871457 0.74579409 0.04680023
0.16159714 0.74937908 0.05023841
0.28432134 0.75285527 0.05350408
0.40683103 0.75618270 0.05655772
0.52907008 0.75932140 0.05935981
0.65098235 0.76223139 0.06187084
0.77251171 0.76487272 0.06405127
0.89360201 0.76720541 0.06586161
1.00000000 0.76927163 0.10825346
0.05308400 0.87574309 0.05760906
0.17521058 0.87880315 0.06030976
0.29698994 0.88161996 0.06270500
0.41836596 0.88415355 0.06475527
0.53928248 0.88636395 0.06642105
0.65968339 0.88821119 0.06766282
0.77951254 0.88965531 0.06844105
0.89871380 0.89065634 0.06871623
1.00000000 0.88763366 0.15426025
0.07268028 1.00000000 0.07391345
0.19796609 1.00000000 0.08266201
0.32113525 1.00000000 0.09188488
0.44198160 1.00000000 0.10158836
0.56029888 1.00000000 0.11177911
0.67588069 1.00000000 0.12246413
0.78852051 1.00000000 0.13365079
0.89801173 1.00000000 0.14534680
1.00000000 0.99612083 0.20819949
0.00142041 0.00197720 0.12082709
0.11446228 0.00000000 0.11798697
0.22404473 0.00000000 0.11619045
0.33601594 0.00000000 0.11699903
0.45077469 0.00000000 0.11850276
0.56829862 0.00000000 0.12026221
0.68844517 0.00000000 0.12210104
0.81103832 0.00000000 0.12393681
0.93588907 0.00000000 0.12572536
0.00000000 0.11232365 0.11614606
0.10949973 0.11367096 0.11797821
0.22983494 0.11280404 0.11695630
0.34688937 0.11467242 0.12122635
0.46575042 0.11615358 0.12380698
0.58587407 0.11773986 0.12608466
0.70655310 0.11971042 0.12867208
0.82771826 0.12203105 0.13154068
0.94931338 0.12466177 0.13465097
0.00000000 0.23095406 0.12499781
0.11100297 0.23502209 0.12401433
0.23212722 0.23567663 0.12050885
0.35435359 0.23753712 0.12375806
0.47389866 0.24122320 0.13219435
0.59539544 0.24408154 0.13583269
0.71748452 0.24707174 0.13921182
0.83987289 0.25027663 0.14273631
0.96250239 0.25365717 0.14636953
0.00000000 0.35751604 0.13165990
0.11964583 0.36070568 0.13377993
0.24148208 0.36352760 0.13684310
0.36373319 0.36652284 0.13956873
0.48627118 0.36983556 0.14370242
0.60891581 0.37331552 0.14770044
0.73178001 0.37687313 0.15142931
0.85475630 0.38050998 0.15516248
0.97778488 0.38418801 0.15887140
0.01000440 0.48617375 0.14176568
0.13257389 0.48951049 0.14537325
0.25534359 0.49299378 0.14906066
0.37825689 0.49658364 0.15278599
0.50125899 0.50023992 0.15651235
0.62429308 0.50392315 0.16020708
0.74730240 0.50759298 0.16382011
0.87023136 0.51120946 0.16731467
0.99302376 0.51473267 0.17065205
0.02474665 0.61630297 0.15414828
0.14776658 0.61997376 0.15786770
0.27079791 0.62365664 0.16153413
0.39378452 0.62731163 0.16510806
0.51667026 0.63089878 0.16854996
0.63939900 0.63437811 0.17182032
0.76191461 0.63770965 0.17487962
0.88416095 0.64085344 0.17768834
1.00000000 0.64460061 0.18988291
0.04025327 0.74702129 0.16637849
0.16308835 0.75057381 0.16976252
0.28574600 0.75400397 0.17296061
0.40817007 0.75727178 0.17593326
0.53030444 0.76033729 0.17864094
0.65209297 0.76316053 0.18104412
0.77347952 0.76570152 0.18310330
0.89440795 0.76792030 0.18477896
1.00000000 0.77040424 0.22346254
0.05438714 0.87680710 0.17695178
0.17640210 0.87978903 0.17955318
0.29805078 0.88251414 0.18183570
0.41927704 0.88494245 0.18375983
0.54002475 0.88703400 0.18528604
0.66023778 0.88874883 0.18637482
0.77985999 0.89004695 0.18698664
0.89883525 0.89088841 0.18708199
1.00000000 0.88848301 0.26423902
0.07588830 1.00000000 0.19333242
0.20088473 1.00000000 0.20104489
0.32371689 1.00000000 0.20916786
0.44417871 1.00000000 0.21770740
0.56206402 1.00000000 0.22666988
0.67716652 1.00000000 0.23606201
0.78927981 1.00000000 0.24589083
0.89819738 1.00000000 0.25616372
1.00000000 0.99653419 0.31215213
0.00000000 0.00108258 0.23818397
0.11251141 0.00000000 0.23174438
0.22328770 0.00000000 0.22969151
0.33614445 0.00000000 0.23091348
0.45162900 0.00000000 0.23319645
0.56976035 0.00000000 0.23588422
0.69042450 0.00000000 0.23871185
0.81346098 0.00000000 0.24155112
0.93868959 0.00000000 0.24433190
0.00000000 0.11292395 0.22576391
0.10899016 0.11414140 0.23803508
0.22753540 0.11440794 0.23918436
0.34660146 0.11530190 0.24086420
0.46626864 0.11664808 0.24294118
0.58659217 0.11836734 0.24532313
0.70744259 0.12046126 0.24801046
0.82876006 0.12289168 0.25096558
0.95048843 0.12561863 0.25414895
0.00000000 0.23196950 0.23909076
0.11169207 0.23560554 0.24369230
0.23246810 0.23682069 0.24412682
0.35538522 0.23795449 0.24434661
0.47535211 0.24188919 0.25124548
0.59662399 0.24506512 0.25534396
0.71881061 0.24813795 0.25878784
0.84128714 0.25140698 0.26235370
0.96398575 0.25483808 0.26601486
0.00000000 0.35873196 0.25021207
0.12078479 0.36163760 0.25325777
0.24258245 0.36449576 0.25591058
0.36490794 0.36664449 0.25293045
0.48891905 0.36978388 0.25735903
0.61060243 0.37440038 0.26689369
0.73332859 0.37810030 0.27108820
0.85632726 0.38175644 0.27482049
0.97936083 0.38543937 0.27851220
0.01139656 0.48728801 0.26137316
0.13404035 0.49067900 0.26501231
0.25686329 0.49420311 0.26871414
0.37975316 0.49781739 0.27224697
0.50273791 0.50143718 0.27526731
0.62589122 0.50513923 0.27950079
0.74885700 0.50882766 0.28340510
0.87174330 0.51241841 0.28686138
0.99447654 0.51590086 0.29013644
0.02631296 0.61754575 0.27380865
0.14934306 0.62122513 0.27751451
0.27236550 0.62490302 0.28115396
0.39532408 0.62853947 0.28468736
0.51816200 0.63209459 0.28807293
0.64082474 0.63552813 0.29127367
0.76325598 0.63880033 0.29425650
0.88539810 0.64187129 0.29697192
1.00000000 0.64590967 0.30859803
0.04177798 0.74823899 0.28593987
0.16455910 0.75175443 0.28926519
0.28714372 0.75513394 0.29239115
0.40947570 0.75833753 0.29527824
0.53149892 0.76132525 0.29788694
0.65315722 0.76405711 0.30017773
0.77439449 0.76649316 0.30211110
0.89515458 0.76859343 0.30364752
1.00000000 0.77157290 0.33760802
0.05565451 0.87784609 0.29626228
0.17755137 0.88074529 0.29875982
0.29906289 0.88337409 0.30092506
0.42013293 0.88569252 0.30271848
0.54070536 0.88766061 0.30410057
0.66072404 0.88923841 0.30503181
0.78013283 0.89038592 0.30547267
0.89887561 0.89106320 0.30538363
1.00000000 0.88936133 0.37299121
0.07913888 1.00000000 0.31200770
0.20383733 1.00000000 0.31864010
0.32632397 1.00000000 0.32561900
0.44639281 1.00000000 0.33295018
0.56383779 1.00000000 0.34063974
0.67845270 1.00000000 0.34869407
0.79003127 1.00000000 0.35711989
0.89836709 1.00000000 0.36592422
1.00000000 0.99696838 0.41472574
0.00000000 0.00149724 0.33960053
0.11127320 0.00000000 0.34437880
0.22286349 0.00000000 0.34318886
0.33647177 0.00000000 0.34525291
0.45260428 0.00000000 0.34847947
0.57129584 0.00000000 0.35216534
0.69244557 0.00000000 0.35600677
0.81590151 0.00000000 0.35985053
0.94148887 0.00000000 0.36361056
0.00000000 0.11352786 0.33614883
0.10891171 0.11421609 0.35680021
0.22757412 0.11473712 0.35817036
0.34690890 0.11574120 0.35995275
0.46685943 0.11718842 0.36210820
0.58737060 0.11903823 0.36459703
0.70838594 0.12125091 0.36737974
0.82984924 0.12378652 0.37041680
0.95170439 0.12660507 0.37366870
0.00000000 0.23296329 0.35414473
0.11238674 0.23621088 0.36297747
0.23309098 0.23817928 0.36555316
0.35437876 0.24042557 0.36831280
0.47595833 0.24312682 0.37151190
0.59787292 0.24608558 0.37489578
0.72016876 0.24922747 0.37837944
0.84272700 0.25255603 0.38198209
0.96548826 0.25603307 0.38566663
0.00021733 0.35985497 0.36956818
0.12197116 0.36260054 0.37276527
0.24402765 0.36558321 0.37605205
0.36626012 0.36820324 0.37723875
0.49033259 0.37061746 0.37821302
0.61238906 0.37540120 0.38612920
0.73489375 0.37933167 0.39074011
0.85790207 0.38300608 0.39447415
0.98093413 0.38668930 0.39814411
0.01281609 0.48842221 0.38099287
0.13552771 0.49186284 0.38465905
0.25839720 0.49542303 0.38837282
0.38107401 0.49903556 0.39143157
0.50315916 0.50205007 0.38880440
0.62782314 0.50550202 0.39336389
0.75052129 0.50996946 0.40254958
0.87323860 0.51361439 0.40638572
0.99590490 0.51705212 0.40959659
0.02788486 0.61879297 0.39346592
0.15091865 0.62247632 0.39715366
0.27392572 0.62614462 0.40076156
0.39684741 0.62975825 0.40424646
0.51955006 0.63328431 0.40738927
0.64203811 0.63665310 0.40987431
0.76455948 0.63985089 0.41329379
0.88659731 0.64286034 0.41621076
1.00000000 0.64726123 0.42639521
0.04328651 0.74944561 0.40548282
0.16600719 0.75291938 0.40874486
0.28851230 0.75624362 0.41179414
0.41074572 0.75937838 0.41459112
0.53265124 0.76228371 0.41709618
0.65417192 0.76491982 0.41926774
0.77525345 0.76724632 0.42106861
0.89583968 0.76922322 0.42246501
1.00000000 0.77277779 0.45066452
0.05688391 0.87885852 0.41553902
0.17865620 0.88167037 0.41792814
0.30002409 0.88419824 0.41997154
0.42093143 0.88640218 0.42162970
0.54132210 0.88824221 0.42286311
0.66113995 0.88967836 0.42363224
0.78032886 0.89067066 0.42389758
0.89883268 0.89117916 0.42361960
1.00000000 0.89026865 0.48049314
0.08243167 1.00000000 0.42991681
0.20682358 1.00000000 0.43542505
0.32895621 1.00000000 0.44121557
0.44862367 1.00000000 0.44729386
0.56561999 1.00000000 0.45366572
0.67973909 1.00000000 0.46033721
0.79077479 1.00000000 0.46731472
0.89852081 1.00000000 0.47460490
1.00000000 0.99742325 0.51589843
0.00000000 0.00189100 0.44242319
0.11046230 0.00000000 0.45688425
0.22268930 0.00000000 0.45700988
0.33695204 0.00000000 0.46013318
0.45367579 0.00000000 0.46440118
0.57289039 0.00000000 0.46912527
0.69449888 0.00000000 0.47399019
0.81835337 0.00000000 0.47883076
0.94249382 0.00059475 0.48292624
0.00000000 0.11413946 0.44742150
0.10892394 0.11433653 0.47561052
0.22782071 0.11502627 0.47712509
0.34737093 0.11618524 0.47903868
0.46751847 0.11777347 0.48131177
0.58820719 0.11975098 0.48390483
0.70938095 0.12207781 0.48677834
0.83098362 0.12471398 0.48989280
0.95295907 0.12761954 0.49320867
0.00000000 0.23393433 0.47015584
0.11311304 0.23684420 0.48222085
0.23398484 0.23895349 0.48492059
0.35532151 0.24139727 0.48788632
0.47706656 0.24413614 0.49107861
0.59916341 0.24713014 0.49445812
0.72155679 0.25033874 0.49798503
0.84419028 0.25372220 0.50161992
0.96700770 0.25724058 0.50532329
0.00131570 0.36075644 0.48902447
0.12319536 0.36359272 0.49228949
0.24540633 0.36666906 0.49572667
0.36788586 0.36992934 0.49926640
0.49065564 0.37328686 0.50279831
0.61352456 0.37689704 0.50661119
0.73645211 0.38057730 0.51041142
0.85947849 0.38425734 0.51412194
0.98250260 0.38793624 0.51776556
0.01426080 0.48957480 0.50062326
0.13703377 0.49306046 0.50431192
0.25994938 0.49665194 0.50803995
0.38287967 0.50030007 0.51167247
0.50523079 0.50357266 0.51310690
0.62920524 0.50647080 0.51426531
0.75221746 0.51102312 0.52173656
0.87471868 0.51479351 0.52588245
0.99730664 0.51818488 0.52903095
0.02946015 0.62004306 0.51311854
0.15249116 0.62372579 0.51678360
0.27547639 0.62737988 0.52035541
0.39835451 0.63096594 0.52378936
0.52067643 0.63446428 0.52644520
0.64143129 0.63756145 0.52382981
0.76554590 0.64039057 0.52750551
0.88783586 0.64376123 0.53503864
1.00000000 0.64865537 0.54324616
0.04477664 0.75063961 0.52500578
0.16743041 0.75406707 0.52820000
0.28984955 0.75733145 0.53116802
0.41197793 0.76039277 0.53387033
0.53375658 0.76321164 0.53626419
0.65503997 0.76576506 0.53815305
0.77582994 0.76799455 0.53925889
0.89644778 0.76980519 0.54096226
1.00000000 0.77401876 0.56260103
0.05807314 0.87984280 0.53478044
0.17971439 0.88256269 0.53705658
0.30093217 0.88498504 0.53897359
0.42167034 0.88706987 0.54049193
0.54187278 0.88877722 0.54157210
0.66148326 0.89006714 0.54217448
0.78044492 0.89089992 0.54225777
0.89870348 0.89123505 0.54178446
1.00000000 0.89120496 0.58672087
0.08576632 1.00000000 0.54703721
0.20984319 1.00000000 0.55137709
0.33161337 1.00000000 0.55593479
0.45087109 1.00000000 0.56071553
0.56741047 1.00000000 0.56572477
0.68102556 1.00000000 0.57096825
0.79151030 1.00000000 0.57645199
0.89865855 1.00000000 0.58218227
1.00000000 0.99789859 0.61564856
0.00000000 0.00226376 0.54662968
0.10992331 0.00000000 0.56969541
0.22269838 0.00000000 0.57132831
0.33755191 0.00000000 0.57562910
0.45482461 0.00000000 0.58099375
0.57453223 0.00000000 0.58677518
0.69657657 0.00000000 0.59266181
0.82081096 0.00000000 0.59848476
0.94332629 0.00130453 0.60223165
0.00000000 0.11475157 0.55963164
0.10901801 0.11451567 0.59447143
0.22814299 0.11536925 0.59612594
0.34790236 0.11667848 0.59816605
0.46823998 0.11840339 0.60055223
0.58909971 0.12050401 0.60324497
0.71042543 0.12294038 0.60620474
0.83216099 0.12567252 0.60939202
0.95425027 0.12866047 0.61276731
0.00000000 0.23488133 0.58711466
0.11389902 0.23752051 0.60149915
0.23493490 0.23974799 0.60429368
0.35641632 0.24229667 0.60734086
0.47828716 0.24512657 0.61060116
0.60049127 0.24819772 0.61403508
0.72297251 0.25147017 0.61760308
0.84567476 0.25490393 0.62126565
0.96854188 0.25845905 0.62498328
0.00245883 0.36169023 0.60850522
0.12445750 0.36461259 0.61183331
0.24676900 0.36776165 0.61532061
0.36933719 0.37109743 0.61892762
0.49210609 0.37457974 0.62261470
0.61501948 0.37816911 0.62634251
0.73802071 0.38182558 0.63007166
0.86105433 0.38550867 0.63376230
0.98406402 0.38917863 0.63737503
0.01572848 0.49074420 0.62026279
0.13855633 0.49427028 0.62396937
0.26150817 0.49788861 0.62770221
0.38452704 0.50155908 0.63142135
0.50753780 0.50523014 0.63505988
0.63054492 0.50882337 0.63851835
0.75346589 0.51244987 0.64204584
0.87616466 0.51596376 0.64537534
0.99867956 0.51929758 0.64843801
0.03103664 0.62129446 0.63276497
0.15405840 0.62497194 0.63640279
0.27701531 0.62860722 0.63993394
0.39985071 0.63216036 0.64331862
0.52241522 0.63559285 0.64643665
0.64373511 0.63868300 0.64752419
0.76653137 0.64119235 0.64821326
0.88905456 0.64456962 0.65392658
1.00000000 0.65009147 0.65912149
0.04624619 0.75181940 0.64450721
0.16882658 0.75519596 0.64762905
0.29115327 0.75839586 0.65051127
0.41317013 0.76137913 0.65311435
0.53481526 0.76410680 0.65539459
0.65558845 0.76660472 0.65681939
0.77427473 0.76884668 0.65370581
0.89656738 0.77014855 0.65551679
1.00000000 0.77527310 0.67316976
0.05922001 0.88079737 0.65398500
0.18072374 0.88342070 0.65614361
0.30178494 0.88573291 0.65792966
0.42234747 0.88769403 0.65930363
0.54235518 0.88926409 0.66022600
0.66174916 0.89040386 0.66065462
0.78039008 0.89109632 0.66042137
0.89830956 0.89128546 0.65929020
1.00000000 0.89217142 0.69147878
0.08914252 1.00000000 0.66334631
0.21289586 1.00000000 0.66647351
0.33429519 1.00000000 0.66975385
0.45313485 1.00000000 0.67319224
0.56920908 1.00000000 0.67679381
0.68231203 1.00000000 0.68056395
0.79223776 1.00000000 0.68450831
0.89878009 1.00000000 0.68863285
1.00000000 0.99839444 0.71395187
0.00000000 0.00261538 0.65219751
0.10957022 0.00000000 0.68304197
0.22284630 0.00000000 0.68625145
0.33824692 0.00000000 0.69178912
0.45603601 0.00000000 0.69827703
0.57621179 0.00000000 0.70511972
0.69867200 0.00000000 0.71201757
0.82326947 0.00000000 0.71880317
0.94421486 0.00205471 0.72156951
0.00000000 0.11535873 0.67280993
0.10919171 0.11475197 0.71338137
0.22853843 0.11576478 0.71517126
0.34850047 0.11721965 0.71733333
0.46902170 0.11907664 0.71982805
0.59004598 0.12129577 0.72261590
0.71151718 0.12383706 0.72565737
0.83337916 0.12666056 0.72891293
0.95557578 0.12972629 0.73234307
0.00000000 0.23580316 0.70500876
0.11474285 0.23823848 0.72081115
0.23593634 0.24057952 0.72369591
0.35755630 0.24322818 0.72681990
0.47954661 0.24614449 0.73014360
0.60185113 0.24928849 0.73362748
0.72441373 0.25262020 0.73723203
0.84717827 0.25609966 0.74091773
0.97008860 0.25968689 0.74464507
0.00364451 0.36265478 0.72800890
0.12575572 0.36565861 0.73139549
0.24816069 0.36887557 0.73492788
0.37080330 0.37226570 0.73856655
0.49362742 0.37578902 0.74227198
0.61657690 0.37940557 0.74600466
0.73959562 0.38307538 0.74972506
0.86262743 0.38675847 0.75339366
0.98561620 0.39041489 0.75697095
0.01721693 0.49192885 0.73990991
0.14009319 0.49549074 0.74362984
0.26307437 0.49913130 0.74736262
0.38610435 0.50281058 0.75106874
0.50912697 0.50648857 0.75470867
0.63208612 0.51012515 0.75824285
0.75492589 0.51368072 0.76163182
0.87758955 0.51711536 0.76483617
1.00000000 0.52039580 0.76780859
0.03261212 0.62254561 0.75240365
0.15561815 0.62621324 0.75600968
0.27854027 0.62982508 0.75949561
0.40132233 0.63334119 0.76282194
0.52390716 0.63672155 0.76594884
0.64620980 0.63992019 0.76881867
0.76822542 0.64286665 0.77135037
0.88994808 0.64562263 0.77369958
1.00000000 0.65157343 0.77401224
0.04769296 0.75298343 0.76398557
0.17019348 0.75630448 0.76703046
0.29242125 0.75943529 0.76982232
0.41432013 0.76233590 0.77232162
0.53583341 0.76496642 0.77448865
0.65680139 0.76729828 0.77622771
0.77612808 0.76928830 0.77628353
0.89683916 0.77045996 0.77576666
1.00000000 0.77653177 0.78263909
0.06032232 0.88172067 0.77315115
0.18168206 0.88424282 0.77518767
0.30258020 0.88644028 0.77683820
0.42296061 0.88827308 0.77806324
0.54276714 0.88970125 0.77882326
0.66193803 0.89068611 0.77907572
0.78000886 0.89127966 0.77842202
0.89623990 0.89157385 0.77413151
1.00000000 0.89307624 0.79261473
0.09255997 1.00000000 0.77882148
0.21598134 1.00000000 0.78069154
0.33700148 1.00000000 0.78264985
0.45541480 1.00000000 0.78470095
0.57101569 1.00000000 0.78684966
0.68359841 1.00000000 0.78910098
0.79295678 1.00000000 0.79146005
0.89887162 1.00000000 0.79393551
1.00000000 0.99894495 0.81038083
0.00000000 0.00294581 0.75910393
0.10935158 0.00000000 0.79705195
0.22310236 0.00000000 0.80184619
0.33901872 0.00000000 0.80864374
0.45729832 0.00000000 0.81626184
0.57792119 0.00000000 0.82415857
0.70077956 0.00000000 0.83205048
0.82414468 0.00063299 0.83815712
0.94515733 0.00284373 0.84093828
0.00000000 0.11595679 0.78697383
0.10944286 0.11504387 0.83233879
0.22900484 0.11621129 0.83425951
0.34916308 0.11780721 0.83653897
0.46986144 0.11979166 0.83913768
0.59104379 0.12212468 0.84201609
0.71265399 0.12476629 0.84513470
0.83463592 0.12767653 0.84845398
0.95693342 0.13081544 0.85193442
0.00000000 0.23669891 0.82382353
0.11564235 0.23899653 0.84015530
0.23698696 0.24144652 0.84312574
0.35873899 0.24419056 0.84632198
0.48084231 0.24718868 0.84970451
0.60324077 0.25040091 0.85323380
0.72587824 0.25378728 0.85687034
0.84869858 0.25730782 0.86057461
0.97164567 0.26092256 0.86430709
0.00487055 0.36364851 0.84753395
0.12708782 0.36672920 0.85097448
0.24957979 0.37000946 0.85454740
0.37229034 0.37344930 0.85821317
0.49516332 0.37700876 0.86193229
0.61814261 0.38064788 0.86566523
0.74117207 0.38432669 0.86937247
0.86419556 0.38800521 0.87301449
0.98715694 0.39164347 0.87655178
0.01872396 0.49312718 0.85956308
0.14164215 0.49672027 0.86329180
0.26464620 0.50037846 0.86701996
0.38767998 0.50406179 0.87070803
0.51068736 0.50773028 0.87431650
0.63361220 0.51134397 0.87780584
0.75639836 0.51486289 0.88113655
0.87898972 0.51824707 0.88426909
1.00000000 0.52194259 0.88626590
0.03418440 0.62379493 0.87203304
0.15716823 0.62744809 0.87560271
0.28004908 0.63103191 0.87903888
0.40277082 0.63450640 0.88230201
0.52527731 0.63783160 0.88535259
0.64751238 0.64096754 0.88815112
0.76941987 0.64387411 0.89065811
0.89094405 0.64651160 0.89283389
1.00000000 0.65309843 0.88787501
0.04911474 0.75413012 0.88343930
0.17152893 0.75739105 0.88640269
0.29365130 0.76044817 0.88909963
0.41542571 0.76326150 0.89149059
0.53679604 0.76579110 0.89353605
0.65770498 0.76799706 0.89519647
0.77806485 0.76983803 0.89642785
0.89787602 0.77124826 0.89717185
1.00000000 0.77795014 0.89147900
0.06137786 0.88261114 0.89227734
0.18258713 0.88502750 0.89418721
0.30331575 0.88710560 0.89569768
0.42350756 0.88880547 0.89676922
0.54310644 0.89008713 0.89736233
0.66205570 0.89091074 0.89743739
0.78020525 0.89125308 0.89692876
0.89676471 0.89114262 0.89517783
1.00000000 0.89394565 0.89622807
0.09601838 1.00000000 0.89344000
0.21909940 1.00000000 0.89400838
0.33973202 1.00000000 0.89459983
0.45771079 1.00000000 0.89521859
0.57283021 1.00000000 0.89586908
0.68488466 1.00000000 0.89655597
0.79366791 1.00000000 0.89728365
0.89893117 1.00000000 0.89804781
1.00000000 0.99963025 0.90397348
0.00000000 0.00325499 0.86732595
0.10923466 0.00000000 0.91179815
0.22344462 0.00000000 0.91815358
0.33985327 0.00000000 0.92621082
0.45860217 0.00000000 0.93495226
0.57965385 0.00000000 0.94388754
0.70289445 0.00000000 0.95275120
0.82498032 0.00134505 0.95746437
0.94615150 0.00367002 0.96033641
0.00000000 0.11654259 0.90213118
0.10976925 0.11538980 0.95134214
0.22954002 0.11670722 0.95338912
0.34988798 0.11843957 0.95578144
0.47075700 0.12054688 0.95847956
0.59209095 0.12298918 0.96144398
0.71383368 0.12572650 0.96463517
0.83592907 0.12871888 0.96801361
0.95832098 0.13192635 0.97153979
0.00000000 0.23756789 0.94354248
0.11659530 0.23979311 0.95953005
0.23808458 0.24234744 0.96258160
0.35996220 0.24518225 0.96584554
0.48217204 0.24825756 0.96928234
0.60465796 0.25153341 0.97285249
0.72736383 0.25496982 0.97651647
0.85023352 0.25852684 0.98023475
0.97321087 0.26216449 0.98396782
0.00613475 0.36466987 0.96707883
0.12845160 0.36782282 0.97056875
0.25102409 0.37116175 0.97417763
0.37379610 0.37464670 0.97786595
0.49671148 0.37823770 0.98159419
0.61971410 0.38189477 0.98532284
0.74274783 0.38557796 0.98901236
0.86575652 0.38924729 0.99262325
0.98868405 0.39286280 0.99611598
0.02024737 0.49433763 0.97922073
0.14320101 0.49795731 0.98295369
0.26622146 0.50162852 0.98667267
0.38925257 0.50531129 0.99033814
0.51223821 0.50896566 0.99391058
0.63512225 0.51255164 0.99735048
0.75760720 0.51616345 1.00000000
0.87790252 0.52046037 1.00000000
0.99619605 0.52505844 1.00000000
0.03575128 0.62504086 0.99165159
0.15870643 0.62867495 0.99518035
0.28153954 0.63222612 0.99856218
0.40513764 0.63555146 1.00000000
0.52810942 0.63895280 1.00000000
0.64920880 0.64259476 1.00000000
0.76823980 0.64647494 1.00000000
0.88500687 0.65059084 1.00000000
0.99931485 0.65493982 1.00000000
0.05483573 0.75426128 1.00000000
0.18060415 0.75672327 1.00000000
0.30462977 0.75936528 1.00000000
0.42671711 0.76218477 1.00000000
0.54667112 0.76517907 1.00000000
0.66429723 0.76834538 1.00000000
0.77940125 0.77168077 1.00000000
0.89178938 0.77518211 1.00000000
1.00000000 0.77935055 0.99874122
0.08779411 0.87706094 1.00000000
0.21105630 0.87888957 1.00000000
0.33212217 0.88082901 1.00000000
0.45079828 0.88287612 1.00000000
0.56689167 0.88502762 1.00000000
0.68020990 0.88728007 1.00000000
0.79056025 0.88962997 1.00000000
0.89773071 0.89207438 1.00000000
1.00000000 0.89521725 0.99846447
0.12523144 0.99308103 1.00000000
0.24515275 0.99383808 1.00000000
0.36243327 0.99463406 1.00000000
0.47688197 0.99546511 1.00000000
0.58830834 0.99632720 1.00000000
0.69652245 0.99721617 1.00000000
0.80133465 0.99812771 1.00000000
0.90252423 0.99906451 1.00000000
1.00000000 1.00000000 1.00000000
