assets/luts/DB_Neon_Balance_Rec709_100.cube
TITLE "Neon Balance Rec709 100"
# Red changes fastest. Full-range normalized input.
LUT_3D_SIZE 5
DOMAIN_MIN 0 0 0
DOMAIN_MAX 1 1 1
0.00300000 0.00300000 0.00300000
0.22517198 0.00000000 0.00218275
0.45007442 0.00000000 0.00432457
0.68651912 0.00000000 0.00616387
0.93309277 0.00000000 0.00779831
0.00000000 0.22992110 0.01187594
0.23082779 0.23608613 0.00690940
0.47261514 0.24048348 0.01320958
0.71619274 0.24603038 0.01965288
0.96104035 0.25249191 0.02673218
0.00864180 0.48508100 0.02217198
0.25383855 0.49179688 0.02940821
0.49968802 0.49899336 0.03685989
0.74574111 0.50635068 0.04421087
0.99154875 0.51354911 0.05114499
0.03871457 0.74579409 0.04680023
0.28432134 0.75285527 0.05350408
0.52907008 0.75932140 0.05935981
0.77251171 0.76487272 0.06405127
1.00000000 0.76927163 0.10825346
0.07268028 1.00000000 0.07391345
0.32113525 1.00000000 0.09188488
0.56029888 1.00000000 0.11177911
0.78852051 1.00000000 0.13365079
1.00000000 0.99612083 0.20819949
0.00000000 0.00108258 0.23818397
0.22328770 0.00000000 0.22969151
0.45162900 0.00000000 0.23319645
0.69042450 0.00000000 0.23871185
0.93868959 0.00000000 0.24433190
0.00000000 0.23196950 0.23909076
0.23246810 0.23682069 0.24412682
0.47535211 0.24188919 0.25124548
0.71881061 0.24813795 0.25878784
0.96398575 0.25483808 0.26601486
0.01139656 0.48728801 0.26137316
0.25686329 0.49420311 0.26871414
0.50273791 0.50143718 0.27526731
0.74885700 0.50882766 0.28340510
0.99447654 0.51590086 0.29013644
0.04177798 0.74823899 0.28593987
0.28714372 0.75513394 0.29239115
0.53149892 0.76132525 0.29788694
0.77439449 0.76649316 0.30211110
1.00000000 0.77157290 0.33760802
0.07913888 1.00000000 0.31200770
0.32632397 1.00000000 0.32561900
0.56383779 1.00000000 0.34063974
0.79003127 1.00000000 0.35711989
1.00000000 0.99696838 0.41472574
0.00000000 0.00189100 0.44242319
0.22268930 0.00000000 0.45700988
0.45367579 0.00000000 0.46440118
0.69449888 0.00000000 0.47399019
0.94249382 0.00059475 0.48292624
0.00000000 0.23393433 0.47015584
0.23398484 0.23895349 0.48492059
0.47706656 0.24413614 0.49107861
0.72155679 0.25033874 0.49798503
0.96700770 0.25724058 0.50532329
0.01426080 0.48957480 0.50062326
0.25994938 0.49665194 0.50803995
0.50523079 0.50357266 0.51310690
0.75221746 0.51102312 0.52173656
0.99730664 0.51818488 0.52903095
0.04477664 0.75063961 0.52500578
0.28984955 0.75733145 0.53116802
0.53375658 0.76321164 0.53626419
0.77582994 0.76799455 0.53925889
1.00000000 0.77401876 0.56260103
0.08576632 1.00000000 0.54703721
0.33161337 1.00000000 0.55593479
0.56741047 1.00000000 0.56572477
0.79151030 1.00000000 0.57645199
1.00000000 0.99789859 0.61564856
0.00000000 0.00261538 0.65219751
0.22284630 0.00000000 0.68625145
0.45603601 0.00000000 0.69827703
0.69867200 0.00000000 0.71201757
0.94421486 0.00205471 0.72156951
0.00000000 0.23580316 0.70500876
0.23593634 0.24057952 0.72369591
0.47954661 0.24614449 0.73014360
0.72441373 0.25262020 0.73723203
0.97008860 0.25968689 0.74464507
0.01721693 0.49192885 0.73990991
0.26307437 0.49913130 0.74736262
0.50912697 0.50648857 0.75470867
0.75492589 0.51368072 0.76163182
1.00000000 0.52039580 0.76780859
0.04769296 0.75298343 0.76398557
0.29242125 0.75943529 0.76982232
0.53583341 0.76496642 0.77448865
0.77612808 0.76928830 0.77628353
1.00000000 0.77653177 0.78263909
0.09255997 1.00000000 0.77882148
0.33700148 1.00000000 0.78264985
0.57101569 1.00000000 0.78684966
0.79295678 1.00000000 0.79146005
1.00000000 0.99894495 0.81038083
0.00000000 0.00325499 0.86732595
0.22344462 0.00000000 0.91815358
0.45860217 0.00000000 0.93495226
0.70289445 0.00000000 0.95275120
0.94615150 0.00367002 0.96033641
0.00000000 0.23756789 0.94354248
0.23808458 0.24234744 0.96258160
0.48217204 0.24825756 0.96928234
0.72736383 0.25496982 0.97651647
0.97321087 0.26216449 0.98396782
0.02024737 0.49433763 0.97922073
0.26622146 0.50162852 0.98667267
0.51223821 0.50896566 0.99391058
0.75760720 0.51616345 1.00000000
0.99619605 0.52505844 1.00000000
0.05483573 0.75426128 1.00000000
0.30462977 0.75936528 1.00000000
0.54667112 0.76517907 1.00000000
0.77940125 0.77168077 1.00000000
1.00000000 0.77935055 0.99874122
0.12523144 0.99308103 1.00000000
0.36243327 0.99463406 1.00000000
0.58830834 0.99632720 1.00000000
0.80133465 0.99812771 1.00000000
1.00000000 1.00000000 1.00000000
