assets/luts/DB_Neon_Balance_Rec709_50.cube
TITLE "Neon Balance Rec709 50"
# Red changes fastest. Full-range normalized input.
LUT_3D_SIZE 33
DOMAIN_MIN 0 0 0
DOMAIN_MAX 1 1 1
0.00150000 0.00150000 0.00150000
0.03154326 0.00104610 0.00116470
0.06172548 0.00057650 0.00079136
0.09194798 0.00012657 0.00043418
0.12113199 0.00000000 0.00041357
0.15002845 0.00000000 0.00055346
0.17909354 0.00000000 0.00072598
0.20829120 0.00000000 0.00091185
0.23758599 0.00000000 0.00109138
0.26695984 0.00000000 0.00125461
0.29641177 0.00000000 0.00140172
0.32594854 0.00000000 0.00153766
0.35557669 0.00000000 0.00166730
0.38529958 0.00000000 0.00179362
0.41511791 0.00000000 0.00191797
0.44503090 0.00000000 0.00204082
0.47503721 0.00000000 0.00216228
0.50513531 0.00000000 0.00228236
0.53532364 0.00000000 0.00240103
0.56560060 0.00000000 0.00251827
0.59596462 0.00000000 0.00263405
0.62641411 0.00000000 0.00274833
0.65694748 0.00000000 0.00286109
0.68756316 0.00000000 0.00297230
0.71825956 0.00000000 0.00308193
0.74903509 0.00000000 0.00318997
0.77988817 0.00000000 0.00329637
0.81081721 0.00000000 0.00340112
0.84182063 0.00000000 0.00350418
0.87289684 0.00000000 0.00360554
0.90404427 0.00000000 0.00370517
0.93526131 0.00000000 0.00380305
0.96654639 0.00000000 0.00389915
0.00000000 0.03056902 0.00095568
0.02972058 0.03033705 0.00016162
0.05978634 0.02995115 0.00000000
0.08948062 0.02969228 0.00000000
0.11909940 0.02951780 0.00000000
0.14888238 0.02937639 0.00000000
0.17894750 0.02923005 0.00000000
0.20926224 0.02906502 0.00000000
0.23970381 0.02888985 0.00000000
0.27015881 0.02872069 0.00000000
0.30055062 0.02857567 0.00001191
0.33067708 0.02851212 0.00011470
0.36088698 0.02844525 0.00018853
0.39114955 0.02838641 0.00025792
0.42144754 0.02834166 0.00033549
0.45177338 0.02831335 0.00042618
0.48212423 0.02830206 0.00053138
0.51249898 0.02830771 0.00065125
0.54289705 0.02833005 0.00078558
0.57331797 0.02836877 0.00093408
0.60376129 0.02842357 0.00109645
0.63422658 0.02849414 0.00127238
0.66471340 0.02858016 0.00146156
0.69522131 0.02868132 0.00166367
0.72574987 0.02879730 0.00187842
0.75629864 0.02892780 0.00210549
0.78686719 0.02907250 0.00234458
0.81745507 0.02923110 0.00259537
0.84806185 0.02940327 0.00285755
0.87868709 0.02958871 0.00313083
0.90933034 0.02978710 0.00341488
0.93999118 0.02999814 0.00370941
0.97066916 0.03022150 0.00401409
0.00000000 0.05945615 0.00179488
0.02841091 0.05979856 0.00000000
0.05850552 0.05945512 0.00000000
0.08834027 0.05920756 0.00000000
0.11803608 0.05906191 0.00000000
0.14779733 0.05899717 0.00000000
0.17781060 0.05896950 0.00000000
0.20814175 0.05893469 0.00000000
0.23871763 0.05887048 0.00000000
0.26940103 0.05878063 0.00000000
0.30008680 0.05868100 0.00000000
0.33027097 0.05870075 0.00023846
0.36052045 0.05871244 0.00041791
0.39084610 0.05872055 0.00055994
0.42121816 0.05873662 0.00069508
0.45162148 0.05876614 0.00083728
0.48204987 0.05881103 0.00099147
0.51250110 0.05887166 0.00115893
0.54297425 0.05894790 0.00133973
0.57346880 0.05903947 0.00153366
0.60398428 0.05914606 0.00174041
0.63452025 0.05926737 0.00195968
0.66507627 0.05940307 0.00219116
0.69565190 0.05955287 0.00243454
0.72624671 0.05971644 0.00268952
0.75686026 0.05989348 0.00295578
0.78749211 0.06008367 0.00323301
0.81814182 0.06028670 0.00352091
0.84880895 0.06050226 0.00381917
0.87949306 0.06073004 0.00412748
0.91019371 0.06096971 0.00444553
0.94091048 0.06122098 0.00477301
0.97164290 0.06148353 0.00510961
0.00000000 0.08873180 0.00267267
0.02742593 0.08956128 0.00000000
0.05769145 0.08926056 0.00000000
0.08779348 0.08900564 0.00000000
0.11772709 0.08883880 0.00000000
0.14760247 0.08878072 0.00000000
0.17760079 0.08881251 0.00000000
0.20786572 0.08888428 0.00000000
0.23842133 0.08894436 0.00000000
0.26917953 0.08896588 0.00000000
0.30001939 0.08895083 0.00000000
0.33016207 0.08907608 0.00047084
0.36044030 0.08916738 0.00078630
0.39081649 0.08924276 0.00101621
0.42125315 0.08931816 0.00121349
0.45172710 0.08940279 0.00140649
0.48222747 0.08950058 0.00160698
0.51275005 0.08961272 0.00181872
0.54329329 0.08973934 0.00204254
0.57385649 0.08988021 0.00227840
0.60443916 0.09003506 0.00252604
0.63504084 0.09020357 0.00278516
0.66566110 0.09038544 0.00305545
0.69629950 0.09058034 0.00333661
0.72695560 0.09078796 0.00362831
0.75762897 0.09100801 0.00393027
0.78831915 0.09124015 0.00424216
0.81902572 0.09148409 0.00456368
0.84974824 0.09173950 0.00489451
0.88048626 0.09200607 0.00523436
0.91123935 0.09228350 0.00558291
0.94200708 0.09257147 0.00593986
0.97278899 0.09286967 0.00630488
0.00000000 0.11836506 0.00352444
0.02651240 0.11967360 0.00000000
0.05691290 0.11945659 0.00000000
0.08726996 0.11923850 0.00000000
0.11751893 0.11906325 0.00000000
0.14766635 0.11897640 0.00000000
0.17781357 0.11899552 0.00000000
0.20810234 0.11909646 0.00000000
0.23862528 0.11922738 0.00000000
0.26937638 0.11933976 0.00000000
0.30008514 0.11944904 0.00018729
0.33029085 0.11964279 0.00083353
0.36061468 0.11980357 0.00128748
0.39104038 0.11994228 0.00161359
0.42153547 0.12007441 0.00187742
0.45207370 0.12021130 0.00212137
0.48264042 0.12035876 0.00236593
0.51322916 0.12051898 0.00261882
0.54383747 0.12069246 0.00288225
0.57446435 0.12087912 0.00315656
0.60510924 0.12107869 0.00344160
0.63577168 0.12129087 0.00373707
0.66645121 0.12151536 0.00404268
0.69714742 0.12175183 0.00435811
0.72785984 0.12199998 0.00468306
0.75858805 0.12225949 0.00501721
0.78933161 0.12253005 0.00536027
0.82009008 0.12281136 0.00571191
0.85086303 0.12310309 0.00607183
0.88165000 0.12340493 0.00643972
0.91245056 0.12371658 0.00681528
0.94326429 0.12403772 0.00719819
0.97409072 0.12436804 0.00758815
0.00000000 0.14832431 0.00428472
0.02583591 0.15001494 0.00014291
0.05619388 0.14995648 0.00000000
0.08670887 0.14982829 0.00000000
0.11720989 0.14970257 0.00000000
0.14765630 0.14961884 0.00000000
0.17806526 0.14961189 0.00000000
0.20851534 0.14968877 0.00000000
0.23909873 0.14982291 0.00000000
0.26986212 0.14997082 0.00000000
0.30026034 0.15018365 0.00069346
0.33059529 0.15041045 0.00140122
0.36100239 0.15061967 0.00194379
0.39149126 0.15081115 0.00235038
0.42204547 0.15099460 0.00267707
0.45264397 0.15118002 0.00297022
0.48327195 0.15137371 0.00325645
0.51392175 0.15157853 0.00354741
0.54459010 0.15179538 0.00384707
0.57527568 0.15202429 0.00415638
0.60597783 0.15226505 0.00447533
0.63669605 0.15251738 0.00480366
0.66742991 0.15278095 0.00514109
0.69817894 0.15305546 0.00548731
0.72894273 0.15334059 0.00584200
0.75972083 0.15363604 0.00620486
0.79051281 0.15394149 0.00657558
0.82131821 0.15425663 0.00695385
0.85213661 0.15458115 0.00733936
0.88296757 0.15491473 0.00773181
0.91381065 0.15525706 0.00813088
0.94466541 0.15560783 0.00853626
0.97553140 0.15596673 0.00894766
0.00000000 0.17858717 0.00493306
0.02566644 0.18044409 0.00067300
0.05607132 0.18047177 0.00069380
0.08651117 0.18050246 0.00062397
0.11700755 0.18052870 0.00045244
0.14757759 0.18054977 0.00022734
0.17821324 0.18057811 0.00006318
0.20887255 0.18063750 0.00009491
0.23949925 0.18075017 0.00039837
0.27005959 0.18092182 0.00093929
0.30056394 0.18113790 0.00159663
0.33105451 0.18137412 0.00223867
0.36157391 0.18161114 0.00278798
0.39214339 0.18184180 0.00323436
0.42276232 0.18206864 0.00360731
0.45341981 0.18229761 0.00394301
0.48410502 0.18253367 0.00426710
0.51481105 0.18277953 0.00459277
0.54553448 0.18303621 0.00492527
0.57627380 0.18330385 0.00526610
0.60702823 0.18358227 0.00561547
0.63779728 0.18387120 0.00597317
0.66858048 0.18417032 0.00633893
0.69937739 0.18447934 0.00671244
0.73018758 0.18479793 0.00709338
0.76101061 0.18512578 0.00748145
0.79184603 0.18546258 0.00787634
0.82269341 0.18580802 0.00827775
0.85355231 0.18616179 0.00868536
0.88442229 0.18652357 0.00909886
0.91530291 0.18689306 0.00951795
0.94619374 0.18726993 0.00994232
0.97709434 0.18765388 0.01037165
0.00000000 0.20913765 0.00547951
0.02574485 0.21105403 0.00128109
0.05622877 0.21114112 0.00143043
0.08673387 0.21123935 0.00154779
0.11726746 0.21134484 0.00161623
0.14784006 0.21145459 0.00163966
0.17845760 0.21157007 0.00165825
0.20911192 0.21169925 0.00174237
0.23978005 0.21185382 0.00195825
0.27043682 0.21204205 0.00232627
0.30107162 0.21226296 0.00280694
0.33169416 0.21250709 0.00332717
0.36232488 0.21276292 0.00382335
0.39298066 0.21302299 0.00426732
0.42366766 0.21328562 0.00466346
0.45438343 0.21355272 0.00503066
0.48512250 0.21382695 0.00538690
0.51588025 0.21411014 0.00574333
0.54665389 0.21440308 0.00610510
0.57744198 0.21470590 0.00647397
0.60824375 0.21501845 0.00685027
0.63905866 0.21534045 0.00723385
0.66988624 0.21567160 0.00762444
0.70072607 0.21601158 0.00802174
0.73157769 0.21636009 0.00842544
0.76244068 0.21671681 0.00883523
0.79331459 0.21708143 0.00925081
0.82419898 0.21745364 0.00967185
0.85509341 0.21783313 0.01009806
0.88599745 0.21821958 0.01052913
0.91691066 0.21861268 0.01096475
0.94783260 0.21901211 0.01140460
0.97876283 0.21941758 0.01184838
0.00000000 0.23996055 0.00593797
0.02605685 0.24183668 0.00199585
0.05661415 0.24197478 0.00221861
0.08718978 0.24212609 0.00243889
0.11778481 0.24228913 0.00264730
0.14840247 0.24246219 0.00283843
0.17904680 0.24264431 0.00301929
0.20971895 0.24283672 0.00321370
0.24041390 0.24304307 0.00345470
0.27112156 0.24326764 0.00376628
0.30183276 0.24351242 0.00414749
0.33254518 0.24377558 0.00457289
0.36326379 0.24405261 0.00500891
0.39399615 0.24433914 0.00543184
0.42474737 0.24463283 0.00583477
0.45551840 0.24493344 0.00622283
0.48630757 0.24524174 0.00660479
0.51711257 0.24555850 0.00698755
0.54793160 0.24588410 0.00737487
0.57876354 0.24621857 0.00776825
0.60960768 0.24656170 0.00816798
0.64046349 0.24691324 0.00857394
0.67133050 0.24727288 0.00898588
0.70220827 0.24764030 0.00940348
0.73309637 0.24801519 0.00982644
0.76399435 0.24839725 0.01025445
0.79490178 0.24878615 0.01068721
0.82581822 0.24918160 0.01112441
0.85674323 0.24958327 0.01156573
0.88767636 0.24999085 0.01201086
0.91861719 0.25040403 0.01245951
0.94956528 0.25082250 0.01291135
0.98052018 0.25124595 0.01336609
0.00000000 0.27103932 0.00631623
0.02659088 0.27278145 0.00283320
0.05721394 0.27296573 0.00310334
0.08785452 0.27316289 0.00338082
0.11851223 0.27337235 0.00366223
0.14918733 0.27359338 0.00394407
0.17988079 0.27382524 0.00422542
0.21059367 0.27406758 0.00451095
0.24132574 0.27432086 0.00481118
0.27207457 0.27458621 0.00513794
0.30283641 0.27486468 0.00549714
0.33360835 0.27515632 0.00588457
0.36438994 0.27545997 0.00628861
0.39518283 0.27577387 0.00669718
0.42598901 0.27609656 0.00710343
0.45680944 0.27642733 0.00750651
0.48764386 0.27676602 0.00790896
0.51849134 0.27711271 0.00831376
0.54935091 0.27746740 0.00872288
0.58022178 0.27782996 0.00913719
0.61110333 0.27820015 0.00955684
0.64199507 0.27857769 0.00998169
0.67289654 0.27896228 0.01041147
0.70380730 0.27935360 0.01084588
0.73472691 0.27975135 0.01128461
0.76565493 0.28015520 0.01172736
0.79659092 0.28056486 0.01217381
0.82753444 0.28098001 0.01262365
0.85848506 0.28140033 0.01307659
0.88944233 0.28182551 0.01353230
0.92040582 0.28225524 0.01399048
0.95137508 0.28268921 0.01445083
0.98234969 0.28312711 0.01491302
0.00000000 0.30235635 0.00661772
0.02733305 0.30387667 0.00379254
0.05801559 0.30410339 0.00409965
0.08871458 0.30434204 0.00441588
0.11942951 0.30459226 0.00474019
0.15015997 0.30485367 0.00507122
0.18090580 0.30512582 0.00540783
0.21166700 0.30540831 0.00575006
0.24244356 0.30570086 0.00609986
0.27323499 0.30600344 0.00646066
0.30404019 0.30631615 0.00683555
0.33485779 0.30663897 0.00722509
0.36568679 0.30697159 0.00762675
0.39652689 0.30731340 0.00803637
0.42737826 0.30766370 0.00845043
0.45824105 0.30802193 0.00886727
0.48911512 0.30838773 0.00928691
0.52000001 0.30876085 0.00971006
0.55089516 0.30914108 0.01013734
0.58180000 0.30952819 0.01056904
0.61271401 0.30992189 0.01100511
0.64363672 0.31032190 0.01144535
0.67456769 0.31072791 0.01188948
0.70550647 0.31113960 0.01233720
0.73645263 0.31155667 0.01278821
0.76740572 0.31197879 0.01324219
0.79836530 0.31240567 0.01369884
0.82933095 0.31283698 0.01415784
0.86030221 0.31327242 0.01461890
0.89127865 0.31371166 0.01508169
0.92225983 0.31415441 0.01554591
0.95324532 0.31460035 0.01601126
0.98423467 0.31504916 0.01647742
0.00000000 0.33389358 0.00684439
0.02826760 0.33511045 0.00486519
0.05900427 0.33537607 0.00520422
0.08975603 0.33565256 0.00555190
0.12052240 0.33593962 0.00590776
0.15130295 0.33623693 0.00627129
0.18209724 0.33654414 0.00664190
0.21290491 0.33686093 0.00701913
0.24372566 0.33718695 0.00740294
0.27455913 0.33752193 0.00779376
0.30540486 0.33786561 0.00819231
0.33626223 0.33821778 0.00859898
0.36713058 0.33857818 0.00901340
0.39800937 0.33894648 0.00943446
0.42889821 0.33932227 0.00986085
0.45979682 0.33970519 0.01029158
0.49070487 0.34009486 0.01072616
0.52162197 0.34049097 0.01116446
0.55254767 0.34089324 0.01160645
0.58348150 0.34130136 0.01205204
0.61442301 0.34171505 0.01250102
0.64537174 0.34213400 0.01295316
0.67632724 0.34255789 0.01340815
0.70728908 0.34298641 0.01386569
0.73825682 0.34341926 0.01432547
0.76923002 0.34385612 0.01478720
0.80020824 0.34429668 0.01525055
0.83119104 0.34474063 0.01571522
0.86217798 0.34518765 0.01618090
0.89316863 0.34563743 0.01664728
0.92416255 0.34608966 0.01711405
0.95515929 0.34654403 0.01758091
0.98615842 0.34700022 0.01804754
0.00000000 0.36563281 0.00699820
0.02937804 0.36647091 0.00604002
0.06016380 0.36677188 0.00640722
0.09096319 0.36708268 0.00678211
0.12177577 0.36740301 0.00716435
0.15260109 0.36773253 0.00755360
0.18343871 0.36807095 0.00794949
0.21428819 0.36841794 0.00835166
0.24514913 0.36877319 0.00875980
0.27602110 0.36913638 0.00917369
0.30690370 0.36950720 0.00959322
0.33779646 0.36988536 0.01001828
0.36869890 0.37027057 0.01044868
0.39961056 0.37066251 0.01088402
0.43053097 0.37106086 0.01132380
0.46145971 0.37146531 0.01176750
0.49239637 0.37187552 0.01221471
0.52334053 0.37229118 0.01266510
0.55429176 0.37271197 0.01311842
0.58524961 0.37313759 0.01357442
0.61621364 0.37356773 0.01403283
0.64718342 0.37400208 0.01449336
0.67815850 0.37444032 0.01495571
0.70913843 0.37488215 0.01541958
0.74012279 0.37532725 0.01588465
0.77111114 0.37577531 0.01635062
0.80210303 0.37622602 0.01681718
0.83309802 0.37667906 0.01728403
0.86409568 0.37713413 0.01775084
0.89509558 0.37759091 0.01821731
0.92609726 0.37804909 0.01868314
0.95710030 0.37850836 0.01914801
0.98810425 0.37896840 0.01961163
0.00000000 0.39755578 0.00708143
0.03064771 0.39794614 0.00730535
0.06147759 0.39827894 0.00769720
0.09231963 0.39862052 0.00809571
0.12317338 0.39897057 0.00850055
0.15403841 0.39932877 0.00891142
0.18491427 0.39969481 0.00932800
0.21580054 0.40006839 0.00974997
0.24669677 0.40044918 0.01017701
0.27760252 0.40083687 0.01060883
0.30851737 0.40123116 0.01104513
0.33944088 0.40163173 0.01148564
0.37037261 0.40203827 0.01193010
0.40131211 0.40245046 0.01237819
0.43225893 0.40286801 0.01282960
0.46321264 0.40329059 0.01328396
0.49417280 0.40371790 0.01374093
0.52513897 0.40414961 0.01420021
0.55611072 0.40458541 0.01466147
0.58708762 0.40502500 0.01512442
0.61806922 0.40546805 0.01558877
0.64905508 0.40591427 0.01605421
0.68004476 0.40636333 0.01652043
0.71103783 0.40681492 0.01698713
0.74203385 0.40726874 0.01745399
0.77303237 0.40772447 0.01792072
0.80403297 0.40818179 0.01838699
0.83503520 0.40864040 0.01885251
0.86603862 0.40909999 0.01931696
0.89704279 0.40956023 0.01978004
0.92804728 0.41002082 0.02024142
0.95905165 0.41048145 0.02070082
0.99005545 0.41094181 0.02115792
0.00120201 0.42917121 0.00824238
0.03205992 0.42952427 0.00864946
0.06292895 0.42988536 0.00906246
0.09380866 0.43025418 0.00948107
0.12469862 0.43063042 0.00990499
0.15559837 0.43101376 0.01033390
0.18650750 0.43140390 0.01076750
0.21742555 0.43180051 0.01120547
0.24835208 0.43220330 0.01164751
0.27928667 0.43261193 0.01209330
0.31022887 0.43302612 0.01254254
0.34117824 0.43344553 0.01299492
0.37213435 0.43386986 0.01345015
0.40309676 0.43429880 0.01390791
0.43406502 0.43473203 0.01436790
0.46503870 0.43516924 0.01482980
0.49601736 0.43561013 0.01529331
0.52700056 0.43605437 0.01575810
0.55798787 0.43650166 0.01622386
0.58897883 0.43695168 0.01669030
0.61997303 0.43740412 0.01715709
0.65097001 0.43785867 0.01762394
0.68196934 0.43831501 0.01809054
0.71297058 0.43877284 0.01855658
0.74397329 0.43923184 0.01902174
0.77497704 0.43969170 0.01948573
0.80598138 0.44015211 0.01994822
0.83698587 0.44061275 0.02040892
0.86799008 0.44107332 0.02086752
0.89899358 0.44153349 0.02132370
0.92999591 0.44199297 0.02177715
0.96099664 0.44245143 0.02222758
0.99199534 0.44290856 0.02267466
0.00270440 0.46081453 0.00963481
0.03359798 0.46119339 0.01006058
0.06450119 0.46157925 0.01049123
0.09541362 0.46197178 0.01092646
0.12633481 0.46237067 0.01136596
0.15726433 0.46277562 0.01180941
0.18820174 0.46318632 0.01225651
0.21914660 0.46360244 0.01270694
0.25009848 0.46402368 0.01316041
0.28105693 0.46444972 0.01361660
0.31202152 0.46488026 0.01407520
0.34299180 0.46531498 0.01453591
0.37396734 0.46575357 0.01499841
0.40494771 0.46619571 0.01546240
0.43593245 0.46664109 0.01592757
0.46692114 0.46708941 0.01639361
0.49791334 0.46754035 0.01686021
0.52890859 0.46799359 0.01732706
0.55990648 0.46844883 0.01779386
0.59090656 0.46890576 0.01826029
0.62190839 0.46936405 0.01872604
0.65291152 0.46982340 0.01919081
0.68391554 0.47028349 0.01965429
0.71491998 0.47074402 0.02011617
0.74592443 0.47120467 0.02057614
0.77692843 0.47166513 0.02103389
0.80793155 0.47212509 0.02148911
0.83893335 0.47258423 0.02194150
0.86993339 0.47304224 0.02239075
0.90093124 0.47349882 0.02283654
0.93192645 0.47395364 0.02327857
0.96291859 0.47440639 0.02371652
0.99390721 0.47485677 0.02415010
0.00432090 0.49254050 0.01108599
0.03524517 0.49294164 0.01152696
0.06617762 0.49334871 0.01197177
0.09711779 0.49376142 0.01242012
0.12806526 0.49417944 0.01287170
0.15901958 0.49460247 0.01332620
0.18998032 0.49503018 0.01378330
0.22094703 0.49546228 0.01424271
0.25191928 0.49589844 0.01470411
0.28289663 0.49633836 0.01516719
0.31387863 0.49678172 0.01563164
0.34486487 0.49722821 0.01609716
0.37585488 0.49767752 0.01656344
0.40684824 0.49812933 0.01703017
0.43784451 0.49858333 0.01749703
0.46884324 0.49903922 0.01796373
0.49984401 0.49949668 0.01842995
0.53084636 0.49995539 0.01889538
0.56184987 0.50041505 0.01935971
0.59285409 0.50087534 0.01982265
0.62385859 0.50133595 0.02028387
0.65486292 0.50179657 0.02074306
0.68586665 0.50225688 0.02119993
0.71686934 0.50271657 0.02165416
0.74787056 0.50317534 0.02210544
0.77886985 0.50363287 0.02255346
0.80986679 0.50408884 0.02299792
0.84086093 0.50454294 0.02343850
0.87185184 0.50499487 0.02387490
0.90283908 0.50544431 0.02430681
0.93382221 0.50589094 0.02473391
0.96480078 0.50633446 0.02515591
0.99577438 0.50677455 0.02557249
0.00603481 0.52433723 0.01258417
0.03698482 0.52475710 0.01303685
0.06794153 0.52518187 0.01349233
0.09890449 0.52561122 0.01395031
0.12987327 0.52604483 0.01441047
0.16084743 0.52648240 0.01487252
0.19182652 0.52692361 0.01533614
0.22281012 0.52736814 0.01580101
0.25379778 0.52781569 0.01626685
0.28478907 0.52826595 0.01673332
0.31578353 0.52871860 0.01720014
0.34678075 0.52917332 0.01766698
0.37778028 0.52962982 0.01813353
0.40878167 0.53008777 0.01859950
0.43978450 0.53054686 0.01906457
0.47078831 0.53100679 0.01952843
0.50179269 0.53146723 0.01999077
0.53279717 0.53192788 0.02045129
0.56380134 0.53238842 0.02090968
0.59480474 0.53284854 0.02136562
0.62580694 0.53330794 0.02181881
0.65680751 0.53376629 0.02226894
0.68780600 0.53422328 0.02271570
0.71880197 0.53467861 0.02315878
0.74979498 0.53513196 0.02359788
0.78078461 0.53558302 0.02403268
0.81177040 0.53603147 0.02446287
0.84275192 0.53647701 0.02488816
0.87372874 0.53691931 0.02530822
0.90470040 0.53735808 0.02572275
0.93566648 0.53779300 0.02613144
0.96662654 0.53822374 0.02653399
0.99758013 0.53865001 0.02693007
0.00782944 0.55619283 0.01411760
0.03880023 0.55662791 0.01457849
0.06977623 0.55706684 0.01504114
0.10075702 0.55750930 0.01550525
0.13174215 0.55795496 0.01597051
0.16273118 0.55840354 0.01643662
0.19372367 0.55885470 0.01690325
0.22471919 0.55930814 0.01737011
0.25571730 0.55976355 0.01783688
0.28671755 0.56022061 0.01830326
0.31771952 0.56067901 0.01876894
0.34872276 0.56113844 0.01923360
0.37972683 0.56159859 0.01969695
0.41073129 0.56205915 0.02015866
0.44173572 0.56251979 0.02061844
0.47273965 0.56298022 0.02107597
0.50374267 0.56344011 0.02153094
0.53474433 0.56389916 0.02198305
0.56574419 0.56435706 0.02243199
0.59674181 0.56481348 0.02287745
0.62773675 0.56526812 0.02331912
0.65872859 0.56572067 0.02375668
0.68971687 0.56617082 0.02418984
0.72070115 0.56661825 0.02461829
0.75168101 0.56706264 0.02504171
0.78265600 0.56750370 0.02545979
0.81362569 0.56794110 0.02587223
0.84458963 0.56837453 0.02627872
0.87554738 0.56880369 0.02667895
0.90649851 0.56922825 0.02707261
0.93744258 0.56964791 0.02745940
0.96837915 0.57006235 0.02783899
0.99930779 0.57047127 0.02821109
0.00968809 0.58809541 0.01567452
0.04067469 0.58854217 0.01614012
0.07166503 0.58899172 0.01660646
0.10265868 0.58944375 0.01707321
0.13365519 0.58989795 0.01754007
0.16465413 0.59035399 0.01800674
0.19565506 0.59081158 0.01847289
0.22665754 0.59127039 0.01893824
0.25766113 0.59173012 0.01940246
0.28866540 0.59219045 0.01986524
0.31966990 0.59265108 0.02032629
0.35067419 0.59311168 0.02078528
0.38167785 0.59357195 0.02124192
0.41268042 0.59403157 0.02169589
0.44368147 0.59449023 0.02214688
0.47468057 0.59494763 0.02259459
0.50567727 0.59540344 0.02303870
0.53667113 0.59585736 0.02347891
0.56766172 0.59630907 0.02391491
0.59864860 0.59675826 0.02434639
0.62963132 0.59720462 0.02477304
0.66060946 0.59764784 0.02519455
0.69158257 0.59808760 0.02561061
0.72255021 0.59852359 0.02602093
0.75351195 0.59895550 0.02642517
0.78446734 0.59938302 0.02682305
0.81541596 0.59980584 0.02721424
0.84635735 0.60022363 0.02759844
0.87729108 0.60063610 0.02797534
0.90821671 0.60104293 0.02834464
0.93913381 0.60144380 0.02870602
0.97004193 0.60183840 0.02905917
1.00000000 0.60234356 0.03101330
0.01159406 0.62003309 0.01724318
0.04259151 0.62048800 0.01771001
0.07359123 0.62094464 0.01817652
0.10459277 0.62140271 0.01864242
0.13559571 0.62186189 0.01910739
0.16659960 0.62232188 0.01957112
0.19760400 0.62278235 0.02003331
0.22860847 0.62324300 0.02049365
0.25961259 0.62370352 0.02095182
0.29061590 0.62416359 0.02140752
0.32161797 0.62462290 0.02186044
0.35261836 0.62508114 0.02231027
0.38361663 0.62553799 0.02275671
0.41461235 0.62599315 0.02319943
0.44560507 0.62644630 0.02363815
0.47659436 0.62689713 0.02407253
0.50757978 0.62734533 0.02450229
0.53856088 0.62779058 0.02492711
0.56953724 0.62823257 0.02534667
0.60050841 0.62867100 0.02576068
0.63147395 0.62910554 0.02616882
0.66243343 0.62953589 0.02657078
0.69338641 0.62996173 0.02696625
0.72433244 0.63038276 0.02735494
0.75527110 0.63079865 0.02773652
0.78620193 0.63120910 0.02811069
0.81712451 0.63161379 0.02847714
0.84803839 0.63201242 0.02883556
0.87894313 0.63240467 0.02918564
0.90983831 0.63279022 0.02952708
0.94072347 0.63316877 0.02985956
0.97159818 0.63354000 0.03018278
1.00000000 0.63416686 0.03513835
0.01353067 0.65199399 0.01881182
0.04453400 0.65245350 0.01927638
0.07553813 0.65291370 0.01973958
0.10654261 0.65337427 0.02020113
0.13754700 0.65383491 0.02066072
0.16855087 0.65429530 0.02111802
0.19955378 0.65475513 0.02157275
0.23055529 0.65521409 0.02202458
0.26155496 0.65567186 0.02247321
0.29255236 0.65612813 0.02291833
0.32354703 0.65658259 0.02335963
0.35453856 0.65703494 0.02379681
0.38552649 0.65748484 0.02422955
0.41651038 0.65793200 0.02465754
0.44748981 0.65837611 0.02508048
0.47846433 0.65881684 0.02549806
0.50943351 0.65925388 0.02590996
0.54039689 0.65968694 0.02631589
0.57135405 0.66011568 0.02671552
0.60230455 0.66053981 0.02710856
0.63324795 0.66095900 0.02749470
0.66418381 0.66137294 0.02787361
0.69511169 0.66178133 0.02824501
0.72603115 0.66218386 0.02860857
0.75694176 0.66258020 0.02896399
0.78784307 0.66297004 0.02931096
0.81873465 0.66335308 0.02964918
0.84961605 0.66372900 0.02997832
0.88048685 0.66409750 0.03029809
0.91134660 0.66445825 0.03060818
