assets/luts/DB_Product_Crisp_Rec709_100.cube
TITLE "Product Crisp Rec709 100"
# Red changes fastest. Full-range normalized input.
LUT_3D_SIZE 33
DOMAIN_MIN 0 0 0
DOMAIN_MAX 1 1 1
0.00000000 0.00000000 0.00000000
0.02253464 0.00000000 0.00010998
0.04544564 0.00000000 0.00019813
0.06870570 0.00000000 0.00028141
0.09228281 0.00000000 0.00038196
0.11615872 0.00000000 0.00051188
0.14033732 0.00000000 0.00066541
0.16483587 0.00000000 0.00082514
0.18966926 0.00000000 0.00097473
0.21484112 0.00000000 0.00110658
0.24034520 0.00000000 0.00122129
0.26617138 0.00000000 0.00132300
0.29231013 0.00000000 0.00141556
0.31875392 0.00000000 0.00150129
0.34549677 0.00000000 0.00158123
0.37253346 0.00000000 0.00165574
0.39985907 0.00000000 0.00172489
0.42746879 0.00000000 0.00178871
0.45535780 0.00000000 0.00184720
0.48352130 0.00000000 0.00190035
0.51195448 0.00000000 0.00194816
0.54065255 0.00000000 0.00199064
0.56961070 0.00000000 0.00202781
0.59882410 0.00000000 0.00205967
0.62828796 0.00000000 0.00208626
0.65799746 0.00000000 0.00210759
0.68794779 0.00000000 0.00212369
0.71813413 0.00000000 0.00213460
0.74855166 0.00000000 0.00214036
0.77919557 0.00000000 0.00214100
0.81006104 0.00000000 0.00213658
0.84114325 0.00000000 0.00212714
0.87243737 0.00000000 0.00211274
0.00000000 0.02289591 0.00078031
0.02279916 0.02326658 0.00000000
0.04667260 0.02334547 0.00000000
0.07079812 0.02344648 0.00000000
0.09521949 0.02354544 0.00000000
0.12000039 0.02361647 0.00000000
0.14517682 0.02364997 0.00000000
0.17073324 0.02365759 0.00000000
0.19662064 0.02366121 0.00000000
0.22279201 0.02367794 0.00000000
0.24922296 0.02371373 0.00000000
0.27590960 0.02376609 0.00000000
0.30285652 0.02382993 0.00000000
0.33006752 0.02390118 0.00000000
0.35754284 0.02397763 0.00000000
0.38527987 0.02405835 0.00000000
0.41327455 0.02414305 0.00000000
0.44152233 0.02423163 0.00000000
0.47001848 0.02432405 0.00000000
0.49875829 0.02442030 0.00000000
0.52773701 0.02452036 0.00000000
0.55694994 0.02462419 0.00000000
0.58639238 0.02473176 0.00000000
0.61605963 0.02484305 0.00000000
0.64594704 0.02495801 0.00000000
0.67604994 0.02507660 0.00000000
0.70636367 0.02519876 0.00000000
0.73688363 0.02532446 0.00000000
0.76760517 0.02545364 0.00000000
0.79852371 0.02558623 0.00000000
0.82963463 0.02572217 0.00000000
0.86093336 0.02586141 0.00000000
0.89241533 0.02600386 0.00000000
0.00000000 0.04693231 0.00155694
0.02264188 0.04776594 0.00000000
0.04718769 0.04798134 0.00000000
0.07195291 0.04822670 0.00000000
0.09692662 0.04849099 0.00000000
0.12215464 0.04874895 0.00000000
0.14770797 0.04897729 0.00000000
0.17363040 0.04917075 0.00000000
0.19991406 0.04934298 0.00000000
0.22651775 0.04951386 0.00000000
0.25340037 0.04969672 0.00000000
0.28053925 0.04989471 0.00000000
0.30792842 0.05010475 0.00000000
0.33556876 0.05032250 0.00000000
0.36346095 0.05054485 0.00000000
0.39160334 0.05077028 0.00000000
0.41999248 0.05099815 0.00000000
0.44862406 0.05122828 0.00000000
0.47749346 0.05146059 0.00000000
0.50659600 0.05169505 0.00000000
0.53592699 0.05193163 0.00000000
0.56548173 0.05217028 0.00000000
0.59525555 0.05241097 0.00000000
0.62524381 0.05265366 0.00000000
0.65544184 0.05289830 0.00000000
0.68584502 0.05314484 0.00000000
0.71644874 0.05339322 0.00000000
0.74724837 0.05364339 0.00000000
0.77823933 0.05389528 0.00000000
0.80941704 0.05414883 0.00000000
0.84077692 0.05440397 0.00000000
0.87231441 0.05466062 0.00000000
0.90402496 0.05491872 0.00000000
0.00000000 0.07205488 0.00234064
0.02239828 0.07335238 0.00000000
0.04756169 0.07369327 0.00000000
0.07297410 0.07405500 0.00000000
0.09857525 0.07444249 0.00000000
0.12435176 0.07484568 0.00000000
0.15035033 0.07524349 0.00000000
0.17664302 0.07561817 0.00000000
0.20327610 0.07596689 0.00000000
0.23024835 0.07630041 0.00000000
0.25752796 0.07663257 0.00000000
0.28508097 0.07697170 0.00000000
0.31288660 0.07731927 0.00000000
0.34093645 0.07767304 0.00000000
0.36922767 0.07803035 0.00000000
0.39775803 0.07838944 0.00000000
0.42652427 0.07874949 0.00000000
0.45552231 0.07911016 0.00000000
0.48474764 0.07947135 0.00000000
0.51419563 0.07983300 0.00000000
0.54386161 0.08019507 0.00000000
0.57374093 0.08055751 0.00000000
0.60382894 0.08092027 0.00000000
0.63412102 0.08128331 0.00000000
0.66461253 0.08164656 0.00000000
0.69529888 0.08200998 0.00000000
0.72617548 0.08237350 0.00000000
0.75723772 0.08273705 0.00000000
0.78848105 0.08310056 0.00000000
0.81990090 0.08346397 0.00000000
0.85149273 0.08382719 0.00000000
0.88325199 0.08419016 0.00000000
0.91517416 0.08455278 0.00000000
0.00000000 0.09822425 0.00307386
0.02212772 0.09996749 0.00000000
0.04780306 0.10044045 0.00000000
0.07377097 0.10091794 0.00000000
0.09996716 0.10141077 0.00000000
0.12633698 0.10192363 0.00000000
0.15287258 0.10244966 0.00000000
0.17961859 0.10297402 0.00000000
0.20663796 0.10348415 0.00000000
0.23396956 0.10397728 0.00000000
0.26161334 0.10445908 0.00000000
0.28954505 0.10493714 0.00000000
0.31773809 0.10541608 0.00000000
0.34617470 0.10589693 0.00000000
0.37484569 0.10637887 0.00000000
0.40374607 0.10686084 0.00000000
0.43287187 0.10734211 0.00000000
0.46221891 0.10782236 0.00000000
0.49178273 0.10830145 0.00000000
0.52155877 0.10877930 0.00000000
0.55154238 0.10925586 0.00000000
0.58172895 0.10973108 0.00000000
0.61211385 0.11020489 0.00000000
0.64269247 0.11067726 0.00000000
0.67346022 0.11114810 0.00000000
0.70441251 0.11161735 0.00000000
0.73554478 0.11208496 0.00000000
0.76685246 0.11255084 0.00000000
0.79833100 0.11301492 0.00000000
0.82997587 0.11347712 0.00000000
0.86178252 0.11393736 0.00000000
0.89374646 0.11439555 0.00000000
0.92586316 0.11485161 0.00000000
0.00000000 0.12539815 0.00370045
0.02193505 0.12753841 0.00000000
0.04804936 0.12814867 0.00000000
0.07446978 0.12875261 0.00000000
0.10115825 0.12935752 0.00000000
0.12806273 0.12997205 0.00000000
0.15514489 0.13060045 0.00000000
0.18240486 0.13123887 0.00000000
0.20987908 0.13187776 0.00000000
0.23761216 0.13250834 0.00000000
0.26562844 0.13312733 0.00000000
0.29392512 0.13373653 0.00000000
0.32248396 0.13433945 0.00000000
0.35128566 0.13493871 0.00000000
0.38031665 0.13553542 0.00000000
0.40956866 0.13612969 0.00000000
0.43903620 0.13672137 0.00000000
0.46871464 0.13731028 0.00000000
0.49859945 0.13789632 0.00000000
0.52868605 0.13847941 0.00000000
0.55896984 0.13905949 0.00000000
0.58944622 0.13963651 0.00000000
0.62011060 0.14021039 0.00000000
0.65095839 0.14078108 0.00000000
0.68198502 0.14134850 0.00000000
0.71318594 0.14191259 0.00000000
0.74455658 0.14247327 0.00000000
0.77609242 0.14303045 0.00000000
0.80778892 0.14358407 0.00000000
0.83964156 0.14413402 0.00000000
0.87164583 0.14468023 0.00000000
0.90379724 0.14522261 0.00000000
0.93609130 0.14576106 0.00000000
0.00000000 0.15352470 0.00420262
0.02187277 0.15599812 0.00000000
0.04840760 0.15673965 0.00000000
0.07523314 0.15747193 0.00000000
0.10233505 0.15819721 0.00000000
0.12968425 0.15892075 0.00000000
0.15724656 0.15964864 0.00000000
0.18500092 0.16038400 0.00000000
0.21295136 0.16112467 0.00000000
0.24112126 0.16186472 0.00000000
0.26953475 0.16259828 0.00000000
0.29820188 0.16332241 0.00000000
0.32711722 0.16403726 0.00000000
0.35626770 0.16474446 0.00000000
0.38564044 0.16544559 0.00000000
0.41522585 0.16614160 0.00000000
0.44501724 0.16683291 0.00000000
0.47500937 0.16751960 0.00000000
0.50519753 0.16820167 0.00000000
0.53557712 0.16887907 0.00000000
0.56614354 0.16955173 0.00000000
0.59689222 0.17021959 0.00000000
0.62781859 0.17088258 0.00000000
0.65891809 0.17154062 0.00000000
0.69018617 0.17219365 0.00000000
0.72161829 0.17284159 0.00000000
0.75320992 0.17348434 0.00000000
0.78495654 0.17412184 0.00000000
0.81685365 0.17475398 0.00000000
0.84889673 0.17538069 0.00000000
0.88108131 0.17600186 0.00000000
0.91340290 0.17661740 0.00000000
0.94585703 0.17722721 0.00000000
0.00000000 0.18254709 0.00458778
0.02193671 0.18529073 0.00000000
0.04889671 0.18615013 0.00000000
0.07612444 0.18700078 0.00000000
0.10361516 0.18784253 0.00000000
0.13135697 0.18867697 0.00000000
0.15933116 0.18950739 0.00000000
0.18751885 0.19033736 0.00000000
0.21591010 0.19116859 0.00000000
0.24450780 0.19199971 0.00000000
0.27332248 0.19282722 0.00000000
0.30236279 0.19364766 0.00000000
0.33162959 0.19445915 0.00000000
0.36111670 0.19526158 0.00000000
0.39081515 0.19605575 0.00000000
0.42071649 0.19684258 0.00000000
0.45081396 0.19762266 0.00000000
0.48110203 0.19839627 0.00000000
0.51157585 0.19916348 0.00000000
0.54223076 0.19992427 0.00000000
0.57306218 0.20067859 0.00000000
0.60406557 0.20142636 0.00000000
0.63523636 0.20216752 0.00000000
0.66657003 0.20290198 0.00000000
0.69806203 0.20362967 0.00000000
0.72970786 0.20435049 0.00000000
0.76150299 0.20506436 0.00000000
0.79344294 0.20577119 0.00000000
0.82552322 0.20647089 0.00000000
0.85773933 0.20716336 0.00000000
0.89008681 0.20784850 0.00000000
0.92256120 0.20852622 0.00000000
0.95515804 0.20919640 0.00000000
0.00000000 0.21240853 0.00486667
0.02210565 0.21536533 0.00000000
0.04949086 0.21632840 0.00000000
0.07712521 0.21728294 0.00000000
0.10500521 0.21822851 0.00000000
0.13312534 0.21916515 0.00000000
0.16147692 0.22009378 0.00000000
0.19004898 0.22101613 0.00000000
0.21883164 0.22193389 0.00000000
0.24781956 0.22284768 0.00000000
0.27701248 0.22375661 0.00000000
0.30641225 0.22465886 0.00000000
0.33601901 0.22555273 0.00000000
0.36582955 0.22643733 0.00000000
0.39583817 0.22731262 0.00000000
0.42603846 0.22817901 0.00000000
0.45642440 0.22903688 0.00000000
0.48699067 0.22988650 0.00000000
0.51773239 0.23072797 0.00000000
0.54864490 0.23156126 0.00000000
0.57972364 0.23238634 0.00000000
0.61096405 0.23320313 0.00000000
0.64236162 0.23401154 0.00000000
0.67391183 0.23481150 0.00000000
0.70561015 0.23560291 0.00000000
0.73745211 0.23638568 0.00000000
0.76943320 0.23715973 0.00000000
0.80154894 0.23792495 0.00000000
0.83379486 0.23868125 0.00000000
0.86616650 0.23942853 0.00000000
0.89865941 0.24016668 0.00000000
0.93126912 0.24089560 0.00000000
0.96399122 0.24161517 0.00000000
0.00000000 0.24305350 0.00504565
0.02236443 0.24617078 0.00000000
0.05016467 0.24722495 0.00000000
0.07820034 0.24826979 0.00000000
0.10646728 0.24930508 0.00000000
0.13496108 0.25033063 0.00000000
0.16367646 0.25134649 0.00000000
0.19260705 0.25235312 0.00000000
0.22174599 0.25335123 0.00000000
0.25108725 0.25434141 0.00000000
0.28062652 0.25532378 0.00000000
0.31036104 0.25629782 0.00000000
0.34028836 0.25726271 0.00000000
0.37040518 0.25821777 0.00000000
0.40070710 0.25916266 0.00000000
0.43118906 0.26009737 0.00000000
0.46184587 0.26102204 0.00000000
0.49267257 0.26193677 0.00000000
0.52366438 0.26284161 0.00000000
0.55481671 0.26373654 0.00000000
0.58612498 0.26462150 0.00000000
0.61758469 0.26549641 0.00000000
0.64919132 0.26636118 0.00000000
0.68094037 0.26721573 0.00000000
0.71282735 0.26805996 0.00000000
0.74484778 0.26889378 0.00000000
0.77699719 0.26971708 0.00000000
0.80927112 0.27052977 0.00000000
0.84166510 0.27133174 0.00000000
0.87417469 0.27212289 0.00000000
0.90679546 0.27290311 0.00000000
0.93952296 0.27367228 0.00000000
0.97235278 0.27443031 0.00000000
0.00000000 0.27442714 0.00512816
0.02270526 0.27765465 0.00000000
0.05090457 0.27878861 0.00000000
0.07932784 0.27991185 0.00000000
0.10797053 0.28102429 0.00000000
0.13682813 0.28212580 0.00000000
0.16589598 0.28321632 0.00000000
0.19516918 0.28429586 0.00000000
0.22464251 0.28536456 0.00000000
0.25431079 0.28642262 0.00000000
0.28416914 0.28747019 0.00000000
0.31421321 0.28850721 0.00000000
0.34443901 0.28953340 0.00000000
0.37484251 0.29054845 0.00000000
0.40541942 0.29155211 0.00000000
0.43616515 0.29254423 0.00000000
0.46707499 0.29352477 0.00000000
0.49814426 0.29449374 0.00000000
0.52936831 0.29545110 0.00000000
0.56074259 0.29639680 0.00000000
0.59226259 0.29733078 0.00000000
0.62392378 0.29825294 0.00000000
0.65572169 0.29916320 0.00000000
0.68765183 0.30006146 0.00000000
0.71970973 0.30094762 0.00000000
0.75189092 0.30182158 0.00000000
0.78419096 0.30268324 0.00000000
0.81660539 0.30353249 0.00000000
0.84912977 0.30436922 0.00000000
0.88175967 0.30519333 0.00000000
0.91449067 0.30600470 0.00000000
0.94731834 0.30680321 0.00000000
0.98023828 0.30758875 0.00000000
0.00000000 0.30647479 0.00511706
0.02312339 0.30976395 0.00000000
0.05170380 0.31096689 0.00000000
0.08049739 0.31215751 0.00000000
0.10949955 0.31333577 0.00000000
0.13870565 0.31450159 0.00000000
0.16811109 0.31565492 0.00000000
0.19771123 0.31679569 0.00000000
0.22750137 0.31792387 0.00000000
0.25747678 0.31903947 0.00000000
0.28763274 0.32014249 0.00000000
0.31796466 0.32123290 0.00000000
0.34846806 0.32231063 0.00000000
0.37913854 0.32337552 0.00000000
0.40997165 0.32442744 0.00000000
0.44096290 0.32546626 0.00000000
0.47210773 0.32649189 0.00000000
0.50340160 0.32750426 0.00000000
0.53483997 0.32850330 0.00000000
0.56641831 0.32948894 0.00000000
0.59813213 0.33046109 0.00000000
0.62997696 0.33141966 0.00000000
0.66194831 0.33236455 0.00000000
0.69404172 0.33329565 0.00000000
0.72625274 0.33421288 0.00000000
0.75857692 0.33511611 0.00000000
0.79100983 0.33600524 0.00000000
0.82354702 0.33688017 0.00000000
0.85618408 0.33774077 0.00000000
0.88891658 0.33858693 0.00000000
0.92174011 0.33941855 0.00000000
0.95465028 0.34023549 0.00000000
0.98764267 0.34103764 0.00000000
0.00000000 0.33914174 0.00501569
0.02361439 0.34244562 0.00000000
0.05255745 0.34370685 0.00000000
0.08170311 0.34495412 0.00000000
0.11104672 0.34618738 0.00000000
0.14058368 0.34740656 0.00000000
0.17030938 0.34861160 0.00000000
0.20021923 0.34980245 0.00000000
0.23030863 0.35097903 0.00000000
0.26057298 0.35214129 0.00000000
0.29100770 0.35328918 0.00000000
0.32160820 0.35442263 0.00000000
0.35236996 0.35554157 0.00000000
0.38328846 0.35664591 0.00000000
0.41435919 0.35773557 0.00000000
0.44557767 0.35881043 0.00000000
0.47693938 0.35987040 0.00000000
0.50843983 0.36091538 0.00000000
0.54007452 0.36194530 0.00000000
0.57183896 0.36296006 0.00000000
0.60372868 0.36395955 0.00000000
0.63573922 0.36494369 0.00000000
0.66786613 0.36591236 0.00000000
0.70010495 0.36686546 0.00000000
0.73245124 0.36780289 0.00000000
0.76490058 0.36872453 0.00000000
0.79744854 0.36963028 0.00000000
0.83009070 0.37052001 0.00000000
0.86282265 0.37139360 0.00000000
0.89563998 0.37225095 0.00000000
0.92853830 0.37309193 0.00000000
0.96151322 0.37391642 0.00000000
0.99456034 0.37472429 0.00000000
0.00000000 0.37237323 0.00482810
0.02417339 0.37564675 0.00000000
0.05346057 0.37695563 0.00000000
0.08293980 0.37824888 0.00000000
0.11260647 0.37952643 0.00000000
0.14245599 0.38078823 0.00000000
0.17248377 0.38203421 0.00000000
0.20268524 0.38326430 0.00000000
0.23305584 0.38447844 0.00000000
0.26359101 0.38567653 0.00000000
0.29428620 0.38685852 0.00000000
0.32513687 0.38802432 0.00000000
0.35613851 0.38917385 0.00000000
0.38728660 0.39030703 0.00000000
0.41857664 0.39142377 0.00000000
0.45000413 0.39252396 0.00000000
0.48156460 0.39360752 0.00000000
0.51325356 0.39467435 0.00000000
0.54506654 0.39572434 0.00000000
0.57699908 0.39675740 0.00000000
0.60904672 0.39777343 0.00000000
0.64120502 0.39877231 0.00000000
0.67346954 0.39975394 0.00000000
0.70583585 0.40071821 0.00000000
0.73829952 0.40166500 0.00000000
0.77085614 0.40259421 0.00000000
0.80350129 0.40350571 0.00000000
0.83623057 0.40439939 0.00000000
0.86903958 0.40527513 0.00000000
0.90192393 0.40613279 0.00000000
0.93487923 0.40697227 0.00000000
0.96790110 0.40779343 0.00000000
1.00000000 0.40878772 0.00100322
0.00000000 0.40611440 0.00455906
0.02479490 0.40931460 0.00000000
0.05440762 0.41066049 0.00000000
0.08420190 0.41198906 0.00000000
0.11417315 0.41330025 0.00000000
0.14431679 0.41459399 0.00000000
0.17462827 0.41587020 0.00000000
0.20510303 0.41712882 0.00000000
0.23573653 0.41836976 0.00000000
0.26652425 0.41959294 0.00000000
0.29746165 0.42079829 0.00000000
0.32854423 0.42198570 0.00000000
0.35976749 0.42315510 0.00000000
0.39112692 0.42430640 0.00000000
0.42261804 0.42543949 0.00000000
0.45423638 0.42655428 0.00000000
0.48597747 0.42765067 0.00000000
0.51783684 0.42872856 0.00000000
0.54981005 0.42978784 0.00000000
0.58189265 0.43082841 0.00000000
0.61408020 0.43185016 0.00000000
0.64636827 0.43285297 0.00000000
0.67875243 0.43383675 0.00000000
0.71122827 0.43480136 0.00000000
0.74379138 0.43574669 0.00000000
0.77643735 0.43667263 0.00000000
0.80916178 0.43757906 0.00000000
0.84196029 0.43846585 0.00000000
0.87482848 0.43933287 0.00000000
0.90776198 0.44018001 0.00000000
0.94075640 0.44100713 0.00000000
0.97380738 0.44181411 0.00000000
1.00000000 0.44387785 0.00769874
0.00000000 0.44031035 0.00421405
0.02547287 0.44339660 0.00000000
0.05539255 0.44476887 0.00000000
0.08548332 0.44612212 0.00000000
0.11574063 0.44745628 0.00000000
0.14615993 0.44877129 0.00000000
0.17673667 0.45006706 0.00000000
0.20746632 0.45134351 0.00000000
0.23834437 0.45260056 0.00000000
0.26936631 0.45383811 0.00000000
0.30052763 0.45505608 0.00000000
0.33182384 0.45625438 0.00000000
0.36325045 0.45743292 0.00000000
0.39480300 0.45859158 0.00000000
0.42647701 0.45973028 0.00000000
0.45826802 0.46084891 0.00000000
0.49017159 0.46194737 0.00000000
0.52218326 0.46302555 0.00000000
0.55429860 0.46408335 0.00000000
0.58651319 0.46512064 0.00000000
0.61882259 0.46613732 0.00000000
0.65122239 0.46713327 0.00000000
0.68370818 0.46810838 0.00000000
0.71627555 0.46906252 0.00000000
0.74892012 0.46999558 0.00000000
0.78163748 0.47090744 0.00000000
0.81442325 0.47179796 0.00000000
0.84727305 0.47266703 0.00000000
0.88018250 0.47351451 0.00000000
0.91314724 0.47434028 0.00000000
0.94616289 0.47514421 0.00000000
0.97922509 0.47592616 0.00000000
1.00000000 0.47883365 0.01503130
0.00000000 0.47490608 0.00379918
0.02620070 0.47784037 0.00000000
0.05640874 0.47922837 0.00000000
0.08677745 0.48059566 0.00000000
0.11730230 0.48194215 0.00000000
0.14797876 0.48326776 0.00000000
0.17880231 0.48457241 0.00000000
0.20976844 0.48585601 0.00000000
0.24087265 0.48711846 0.00000000
0.27211045 0.48835968 0.00000000
0.30347736 0.48957957 0.00000000
0.33496891 0.49077803 0.00000000
0.36658062 0.49195497 0.00000000
0.39830804 0.49311027 0.00000000
0.43014672 0.49424383 0.00000000
0.46209221 0.49535556 0.00000000
0.49414009 0.49644533 0.00000000
0.52628591 0.49751303 0.00000000
0.55852527 0.49855856 0.00000000
0.59085374 0.49958180 0.00000000
0.62326691 0.50058262 0.00000000
0.65576038 0.50156092 0.00000000
0.68832975 0.50251657 0.00000000
0.72097064 0.50344944 0.00000000
0.75367865 0.50435942 0.00000000
0.78644940 0.50524638 0.00000000
0.81927853 0.50611018 0.00000000
0.85216165 0.50695071 0.00000000
0.88509441 0.50776783 0.00000000
0.91807244 0.50856141 0.00000000
0.95109138 0.50933132 0.00000000
0.98414688 0.51007742 0.00000000
1.00000000 0.51360003 0.02300817
0.00000000 0.50984657 0.00332117
0.02697131 0.51259363 0.00000000
0.05744911 0.51398675 0.00000000
0.08807719 0.51535743 0.00000000
0.11885105 0.51670559 0.00000000
0.14976618 0.51803115 0.00000000
0.18081808 0.51933400 0.00000000
0.21200225 0.52061406 0.00000000
0.24331423 0.52187124 0.00000000
0.27474953 0.52310542 0.00000000
0.30630369 0.52431652 0.00000000
0.33797225 0.52550442 0.00000000
0.36975078 0.52666903 0.00000000
0.40163481 0.52781024 0.00000000
0.43361993 0.52892793 0.00000000
0.46570169 0.53002200 0.00000000
0.49787569 0.53109233 0.00000000
0.53013750 0.53213880 0.00000000
0.56248273 0.53316130 0.00000000
0.59490695 0.53415970 0.00000000
0.62740579 0.53513390 0.00000000
0.65997484 0.53608376 0.00000000
0.69260973 0.53700915 0.00000000
0.72530607 0.53790997 0.00000000
0.75805949 0.53878606 0.00000000
0.79086561 0.53963732 0.00000000
0.82372008 0.54046360 0.00000000
0.85661853 0.54126478 0.00000000
0.88955660 0.54204073 0.00000000
0.92252994 0.54279130 0.00000000
0.95553421 0.54351637 0.00000000
0.98856505 0.54421579 0.00000000
1.00000000 0.54812193 0.03163615
0.00000000 0.54507671 0.00278728
0.02777717 0.54760427 0.00000000
0.05850612 0.54899187 0.00000000
0.08937502 0.55035530 0.00000000
0.12037935 0.55169449 0.00000000
0.15151465 0.55300932 0.00000000
0.18277643 0.55429971 0.00000000
0.21416021 0.55556556 0.00000000
0.24566154 0.55680676 0.00000000
0.27727596 0.55802322 0.00000000
0.30899902 0.55921482 0.00000000
0.34082629 0.56038145 0.00000000
0.37275333 0.56152302 0.00000000
0.40477571 0.56263940 0.00000000
0.43688901 0.56373048 0.00000000
0.46908882 0.56479615 0.00000000
0.50137074 0.56583628 0.00000000
0.53373036 0.56685077 0.00000000
0.56616329 0.56783947 0.00000000
0.59866513 0.56880228 0.00000000
0.63123151 0.56973907 0.00000000
0.66385804 0.57064972 0.00000000
0.69654035 0.57153408 0.00000000
0.72927407 0.57239205 0.00000000
0.76205483 0.57322348 0.00000000
0.79487828 0.57402824 0.00000000
0.82774005 0.57480620 0.00000000
0.86063580 0.57555723 0.00000000
0.89356117 0.57628119 0.00000000
0.92651182 0.57697795 0.00000000
0.95948341 0.57764736 0.00000000
0.99247159 0.57828930 0.00000000
1.00000000 0.58234437 0.04092149
0.00000000 0.58054136 0.00220527
0.02861036 0.58282027 0.00000000
0.05957187 0.58419172 0.00000000
0.09066300 0.58553727 0.00000000
0.12187929 0.58685682 0.00000000
0.15321625 0.58815028 0.00000000
0.18466944 0.58941753 0.00000000
0.21623439 0.59065849 0.00000000
0.24790667 0.59187303 0.00000000
0.27968183 0.59306106 0.00000000
0.31155544 0.59422246 0.00000000
0.34352308 0.59535712 0.00000000
0.37558033 0.59646492 0.00000000
0.40772277 0.59754575 0.00000000
0.43994601 0.59859948 0.00000000
0.47224564 0.59962601 0.00000000
0.50461726 0.60062521 0.00000000
0.53705650 0.60159695 0.00000000
0.56955896 0.60254111 0.00000000
0.60212026 0.60345756 0.00000000
0.63473604 0.60434618 0.00000000
0.66740192 0.60520683 0.00000000
0.70011355 0.60603939 0.00000000
0.73286655 0.60684372 0.00000000
0.76565658 0.60761970 0.00000000
0.79847928 0.60836718 0.00000000
0.83133030 0.60908603 0.00000000
0.86420529 0.60977611 0.00000000
0.89709993 0.61043729 0.00000000
0.93000986 0.61106943 0.00000000
0.96293075 0.61167239 0.00000000
0.99585826 0.61224604 0.00000000
1.00000000 0.61621240 0.05086985
0.00000000 0.61618532 0.00158336
0.02946260 0.61818974 0.00000000
0.06063807 0.61953440 0.00000000
0.09193289 0.62085142 0.00000000
0.12334259 0.62214069 0.00000000
0.15486273 0.62340210 0.00000000
0.18648887 0.62463556 0.00000000
0.21821656 0.62584094 0.00000000
0.25004137 0.62701814 0.00000000
0.28195889 0.62816704 0.00000000
0.31396470 0.62928753 0.00000000
0.34605438 0.63037950 0.00000000
0.37822353 0.63144282 0.00000000
0.41046776 0.63247737 0.00000000
0.44278267 0.63348303 0.00000000
0.47516387 0.63445968 0.00000000
0.50760698 0.63540720 0.00000000
0.54010763 0.63632544 0.00000000
0.57266144 0.63721430 0.00000000
0.60526404 0.63807363 0.00000000
0.63791107 0.63890332 0.00000000
0.67059817 0.63970321 0.00000000
0.70332099 0.64047319 0.00000000
0.73607517 0.64121311 0.00000000
0.76885637 0.64192285 0.00000000
0.80166024 0.64260226 0.00000000
0.83448243 0.64325121 0.00000000
0.86731862 0.64386956 0.00000000
0.90016446 0.64445717 0.00000000
0.93301562 0.64501390 0.00000000
0.96586777 0.64553961 0.00000000
0.99871659 0.64603416 0.00000000
1.00000000 0.64967116 0.06148622
0.00000000 0.65195336 0.00093017
0.03032529 0.65366086 0.00000000
0.06169615 0.65496810 0.00000000
0.09317610 0.65624595 0.00000000
0.12476071 0.65749427 0.00000000
0.15644554 0.65871298 0.00000000
0.18822617 0.65990195 0.00000000
0.22009817 0.66106108 0.00000000
0.25205712 0.66219024 0.00000000
0.28409862 0.66328932 0.00000000
0.31621827 0.66435820 0.00000000
0.34841167 0.66539676 0.00000000
0.38067443 0.66640488 0.00000000
0.41300216 0.66738243 0.00000000
0.44539048 0.66832929 0.00000000
0.47783501 0.66924532 0.00000000
0.51033139 0.67013041 0.00000000
0.54287525 0.67098442 0.00000000
0.57546222 0.67180722 0.00000000
0.60808795 0.67259868 0.00000000
0.64074808 0.67335866 0.00000000
0.67343826 0.67408703 0.00000000
0.70615414 0.67478365 0.00000000
0.73889139 0.67544839 0.00000000
0.77164565 0.67608111 0.00000000
0.80441259 0.67668167 0.00000000
0.83718788 0.67724994 0.00000000
0.86996718 0.67778576 0.00000000
0.90274616 0.67828901 0.00000000
0.93552050 0.67875954 0.00000000
