assets/luts/DB_Prairie_Gold_Rec709_100.cube
TITLE "Prairie Gold Rec709 100"
# Red changes fastest. Full-range normalized input.
LUT_3D_SIZE 33
DOMAIN_MIN 0 0 0
DOMAIN_MAX 1 1 1
0.00200000 0.00200000 0.00200000
0.03268843 0.00087435 0.00088757
0.06262725 0.00000000 0.00001188
0.08953785 0.00000000 0.00000017
0.11663201 0.00002130 0.00000000
0.14397497 0.00005730 0.00000000
0.17154868 0.00011242 0.00000000
0.19930872 0.00018746 0.00000000
0.22721457 0.00027958 0.00000000
0.25524701 0.00038515 0.00000000
0.28340596 0.00050199 0.00000000
0.31169903 0.00062966 0.00000000
0.34013282 0.00076861 0.00000000
0.36871014 0.00091927 0.00000000
0.39743079 0.00108185 0.00000000
0.42629308 0.00125627 0.00000000
0.45529472 0.00144236 0.00000000
0.48443328 0.00163990 0.00000000
0.51370628 0.00184865 0.00000000
0.54311127 0.00206835 0.00000000
0.57264579 0.00229875 0.00000000
0.60230741 0.00253960 0.00000000
0.63209371 0.00279063 0.00000000
0.66200228 0.00305157 0.00000000
0.69203072 0.00332216 0.00000000
0.72217664 0.00360211 0.00000000
0.75243768 0.00389116 0.00000000
0.78281147 0.00418902 0.00000000
0.81329566 0.00449540 0.00000000
0.84388793 0.00481002 0.00000000
0.87458594 0.00513259 0.00000000
0.90538737 0.00546281 0.00000000
0.93628993 0.00580038 0.00000000
0.00000000 0.02952361 0.00080708
0.02831888 0.02924897 0.00000000
0.05676617 0.02888904 0.00000000
0.08489024 0.02867996 0.00000000
0.11290915 0.02859260 0.00000000
0.14097031 0.02861366 0.00000000
0.16915591 0.02872286 0.00000000
0.19748427 0.02888960 0.00000000
0.22593541 0.02908283 0.00000000
0.25448571 0.02928221 0.00000000
0.28312718 0.02948117 0.00000000
0.31186615 0.02968229 0.00000000
0.34071354 0.02989083 0.00000000
0.36967788 0.03011072 0.00000000
0.39876369 0.03034376 0.00000000
0.42797254 0.03059023 0.00000000
0.45730439 0.03084975 0.00000000
0.48675848 0.03112175 0.00000000
0.51633361 0.03140562 0.00000000
0.54602840 0.03170081 0.00000000
0.57584125 0.03200680 0.00000000
0.60577047 0.03232312 0.00000000
0.63581426 0.03264931 0.00000000
0.66597074 0.03298496 0.00000000
0.69623797 0.03332966 0.00000000
0.72661397 0.03368302 0.00000000
0.75709669 0.03404465 0.00000000
0.78768409 0.03441419 0.00000000
0.81837408 0.03479128 0.00000000
0.84916455 0.03517555 0.00000000
0.88005339 0.03556665 0.00000000
0.91103847 0.03596423 0.00000000
0.94211765 0.03636795 0.00000000
0.00000000 0.05701965 0.00138542
0.02716805 0.05731291 0.00000000
0.05560666 0.05709309 0.00000000
0.08393267 0.05693618 0.00000000
0.11220142 0.05688336 0.00000000
0.14049279 0.05697495 0.00000000
0.16889005 0.05721616 0.00000000
0.19744367 0.05756665 0.00000000
0.22615672 0.05796245 0.00000000
0.25500318 0.05835008 0.00000000
0.28395742 0.05870584 0.00000000
0.31300935 0.05903249 0.00000000
0.34216161 0.05934440 0.00000000
0.37142082 0.05965523 0.00000000
0.40079206 0.05997324 0.00000000
0.43027769 0.06030196 0.00000000
0.45987816 0.06064226 0.00000000
0.48959294 0.06099392 0.00000000
0.51942102 0.06135642 0.00000000
0.54936112 0.06172919 0.00000000
0.57941181 0.06211168 0.00000000
0.60957152 0.06250338 0.00000000
0.63983858 0.06290379 0.00000000
0.67021124 0.06331246 0.00000000
0.70068767 0.06372895 0.00000000
0.73126601 0.06415283 0.00000000
0.76194433 0.06458368 0.00000000
0.79272067 0.06502112 0.00000000
0.82359305 0.06546474 0.00000000
0.85455944 0.06591416 0.00000000
0.88561782 0.06636900 0.00000000
0.91676613 0.06682890 0.00000000
0.94800230 0.06729348 0.00000000
0.00000000 0.08526390 0.00181528
0.02667809 0.08593423 0.00000000
0.05523458 0.08584146 0.00000000
0.08378635 0.08574145 0.00000000
0.11232465 0.08569731 0.00000000
0.14087279 0.08579359 0.00000000
0.16948814 0.08608538 0.00000000
0.19823353 0.08655863 0.00000000
0.22714255 0.08713690 0.00000000
0.25620942 0.08772841 0.00000000
0.28540796 0.08827262 0.00000000
0.31471608 0.08875457 0.00000000
0.34412542 0.08918986 0.00000000
0.37363716 0.08960213 0.00000000
0.40325495 0.09000940 0.00000000
0.43298118 0.09042133 0.00000000
0.46281649 0.09084169 0.00000000
0.49276036 0.09127137 0.00000000
0.52281173 0.09171021 0.00000000
0.55296924 0.09215775 0.00000000
0.58323140 0.09261346 0.00000000
0.61359660 0.09307684 0.00000000
0.64406316 0.09354742 0.00000000
0.67462932 0.09402473 0.00000000
0.70529327 0.09450833 0.00000000
0.73605314 0.09499780 0.00000000
0.76690703 0.09549270 0.00000000
0.79785301 0.09599265 0.00000000
0.82888912 0.09649723 0.00000000
0.86001335 0.09700605 0.00000000
0.89122372 0.09751873 0.00000000
0.92251819 0.09803490 0.00000000
0.95389473 0.09855416 0.00000000
0.00000000 0.11421432 0.00203750
0.02652358 0.11516664 0.00000000
0.05521290 0.11524496 0.00000000
0.08396427 0.11527248 0.00000000
0.11275555 0.11529326 0.00000000
0.14157961 0.11539598 0.00000000
0.17045949 0.11567259 0.00000000
0.19944034 0.11616060 0.00000000
0.22856268 0.11681588 0.00000000
0.25783958 0.11754106 0.00000000
0.28725717 0.11824373 0.00000000
0.31679321 0.11887689 0.00000000
0.34643310 0.11944041 0.00000000
0.37617276 0.11995805 0.00000000
0.40601359 0.12045497 0.00000000
0.43595761 0.12094775 0.00000000
0.46600557 0.12144433 0.00000000
0.49615702 0.12194751 0.00000000
0.52641083 0.12245781 0.00000000
0.55676556 0.12297499 0.00000000
0.58721962 0.12349862 0.00000000
0.61777133 0.12402821 0.00000000
0.64841894 0.12456331 0.00000000
0.67916066 0.12510348 0.00000000
0.70999463 0.12564827 0.00000000
0.74091898 0.12619727 0.00000000
0.77193179 0.12675005 0.00000000
0.80303112 0.12730623 0.00000000
0.83421501 0.12786539 0.00000000
0.86548145 0.12842714 0.00000000
0.89682847 0.12899110 0.00000000
0.92825403 0.12955688 0.00000000
0.95975612 0.13012411 0.00000000
0.00000000 0.14381083 0.00201519
0.02668171 0.14493025 0.00000000
0.05551605 0.14520061 0.00000000
0.08444218 0.14541804 0.00000000
0.11344596 0.14559435 0.00000000
0.14251619 0.14578528 0.00000000
0.17165774 0.14607574 0.00000000
0.20089376 0.14653454 0.00000000
0.23025274 0.14716907 0.00000000
0.25975049 0.14791926 0.00000000
0.28938266 0.14869628 0.00000000
0.31913298 0.14943192 0.00000000
0.34898674 0.15010176 0.00000000
0.37893728 0.15071611 0.00000000
0.40898425 0.15129792 0.00000000
0.43912918 0.15186682 0.00000000
0.46937296 0.15243420 0.00000000
0.49971527 0.15300497 0.00000000
0.53015501 0.15358059 0.00000000
0.56069066 0.15416117 0.00000000
0.59132057 0.15474636 0.00000000
0.62204296 0.15533574 0.00000000
0.65285605 0.15592888 0.00000000
0.68375797 0.15652534 0.00000000
0.71474685 0.15712470 0.00000000
0.74582076 0.15772654 0.00000000
0.77697778 0.15833046 0.00000000
0.80821594 0.15893606 0.00000000
0.83953327 0.15954293 0.00000000
0.87092778 0.16015070 0.00000000
0.90239745 0.16075898 0.00000000
0.93394027 0.16136737 0.00000000
0.96555421 0.16197551 0.00000000
0.00000000 0.17400068 0.00175247
0.02712694 0.17515745 0.00000000
0.05613286 0.17559629 0.00000000
0.08523895 0.17600462 0.00000000
0.11443907 0.17637555 0.00000000
0.14372668 0.17672823 0.00000000
0.17310212 0.17711178 0.00000000
0.20257625 0.17758608 0.00000000
0.23216529 0.17818661 0.00000000
0.26188019 0.17890017 0.00000000
0.29171953 0.17967318 0.00000000
0.32167208 0.18044506 0.00000000
0.35172539 0.18117838 0.00000000
0.38187224 0.18186621 0.00000000
0.41211102 0.18252064 0.00000000
0.44244266 0.18315772 0.00000000
0.47286801 0.18378907 0.00000000
0.50338691 0.18442069 0.00000000
0.53399829 0.18505482 0.00000000
0.56470064 0.18569191 0.00000000
0.59549224 0.18633176 0.00000000
0.62637127 0.18697399 0.00000000
0.65733586 0.18761819 0.00000000
0.68838413 0.18826395 0.00000000
0.71951415 0.18891084 0.00000000
0.75072398 0.18955846 0.00000000
0.78201166 0.19020641 0.00000000
0.81337521 0.19085431 0.00000000
0.84481265 0.19150175 0.00000000
0.87632196 0.19214835 0.00000000
0.90790114 0.19279372 0.00000000
0.93954815 0.19343749 0.00000000
0.97126098 0.19407928 0.00000000
0.00000000 0.20474478 0.00127044
0.02781407 0.20581870 0.00000000
0.05701241 0.20638506 0.00000000
0.08631274 0.20694257 0.00000000
0.11571225 0.20748203 0.00000000
0.14520758 0.20800373 0.00000000
0.17479817 0.20852493 0.00000000
0.20448886 0.20907775 0.00000000
0.23428833 0.20969372 0.00000000
0.26420338 0.21038381 0.00000000
0.29423379 0.21113052 0.00000000
0.32437219 0.21189912 0.00000000
0.35460889 0.21265803 0.00000000
0.38493691 0.21339208 0.00000000
0.41535348 0.21410205 0.00000000
0.44585849 0.21479633 0.00000000
0.47645235 0.21548335 0.00000000
0.50713477 0.21616838 0.00000000
0.53790474 0.21685377 0.00000000
0.56876071 0.21754014 0.00000000
0.59970093 0.21822742 0.00000000
0.63072353 0.21891526 0.00000000
0.66182661 0.21960328 0.00000000
0.69300825 0.22029106 0.00000000
0.72426648 0.22097820 0.00000000
0.75559934 0.22166431 0.00000000
0.78700485 0.22234900 0.00000000
0.81848101 0.22303187 0.00000000
0.85002583 0.22371253 0.00000000
0.88163728 0.22439060 0.00000000
0.91331335 0.22506571 0.00000000
0.94505200 0.22573746 0.00000000
0.97685120 0.22640549 0.00000000
0.00000000 0.23600938 0.00058838
0.02870422 0.23689881 0.00000000
0.05810191 0.23755974 0.00000000
0.08760179 0.23822255 0.00000000
0.11720209 0.23888186 0.00000000
0.14690059 0.23953412 0.00000000
0.17669602 0.24018173 0.00000000
0.20658958 0.24083547 0.00000000
0.23658490 0.24151122 0.00000000
0.26668567 0.24222111 0.00000000
0.29689239 0.24296527 0.00000000
0.32720114 0.24373136 0.00000000
0.35760546 0.24450224 0.00000000
0.38809951 0.24526515 0.00000000
0.41867983 0.24601567 0.00000000
0.44934511 0.24675572 0.00000000
0.48009484 0.24748935 0.00000000
0.51092836 0.24821985 0.00000000
0.54184448 0.24894893 0.00000000
0.57284163 0.24967715 0.00000000
0.60391801 0.25040443 0.00000000
0.63507173 0.25113047 0.00000000
0.66630084 0.25185488 0.00000000
0.69760339 0.25257727 0.00000000
0.72897740 0.25329724 0.00000000
0.76042087 0.25401441 0.00000000
0.79193183 0.25472839 0.00000000
0.82350824 0.25543878 0.00000000
0.85514810 0.25614521 0.00000000
0.88684939 0.25684730 0.00000000
0.91861007 0.25754466 0.00000000
0.95042811 0.25823692 0.00000000
0.98230148 0.25892370 0.00000000
0.00027841 0.26764855 0.00000000
0.02977116 0.26837788 0.00000000
0.05936592 0.26911326 0.00000000
0.08906166 0.26985294 0.00000000
0.11885697 0.27059463 0.00000000
0.14875005 0.27133598 0.00000000
0.17873928 0.27207590 0.00000000
0.20882385 0.27281614 0.00000000
0.23900418 0.27356158 0.00000000
0.26928125 0.27431806 0.00000000
0.29965516 0.27508862 0.00000000
0.33012401 0.27587118 0.00000000
0.36068413 0.27665954 0.00000000
0.39133138 0.27744704 0.00000000
0.42206250 0.27822954 0.00000000
0.45287539 0.27900610 0.00000000
0.48376870 0.27977769 0.00000000
0.51474118 0.28054562 0.00000000
0.54579138 0.28131071 0.00000000
0.57691763 0.28207319 0.00000000
0.60811808 0.28283295 0.00000000
0.63939080 0.28358965 0.00000000
0.67073381 0.28434294 0.00000000
0.70214515 0.28509242 0.00000000
0.73362281 0.28583771 0.00000000
0.76516478 0.28657841 0.00000000
0.79676906 0.28731416 0.00000000
0.82843363 0.28804455 0.00000000
0.86015645 0.28876922 0.00000000
0.89193550 0.28948779 0.00000000
0.92376874 0.29019986 0.00000000
0.95565414 0.29090508 0.00000000
0.98758965 0.29160306 0.00000000
0.00130955 0.29943552 0.00000000
0.03099547 0.30022877 0.00000000
0.06078108 0.30102610 0.00000000
0.09066514 0.30182665 0.00000000
0.12064626 0.30262943 0.00000000
0.15072283 0.30343331 0.00000000
0.18089315 0.30423727 0.00000000
0.21115569 0.30504090 0.00000000
0.24150930 0.30584482 0.00000000
0.27195321 0.30665052 0.00000000
0.30248658 0.30745942 0.00000000
0.33310798 0.30827166 0.00000000
0.36381517 0.30908570 0.00000000
0.39460539 0.30989907 0.00000000
0.42547599 0.31070954 0.00000000
0.45642470 0.31151586 0.00000000
0.48744968 0.31231776 0.00000000
0.51854925 0.31311534 0.00000000
0.54972168 0.31390873 0.00000000
0.58096516 0.31469786 0.00000000
0.61227778 0.31548248 0.00000000
0.64365758 0.31626228 0.00000000
0.67510258 0.31703686 0.00000000
0.70661077 0.31780586 0.00000000
0.73818014 0.31856889 0.00000000
0.76980867 0.31932556 0.00000000
0.80149434 0.32007550 0.00000000
0.83323512 0.32081833 0.00000000
0.86502897 0.32155366 0.00000000
0.89687387 0.32228112 0.00000000
0.92876776 0.32300034 0.00000000
0.96070861 0.32371093 0.00000000
0.99269437 0.32441253 0.00000000
0.00248758 0.33157277 0.00000000
0.03235971 0.33242064 0.00000000
0.06232830 0.33327034 0.00000000
0.09239192 0.33412129 0.00000000
0.12254905 0.33497288 0.00000000
0.15279807 0.33582446 0.00000000
0.18313726 0.33667538 0.00000000
0.21356490 0.33752507 0.00000000
0.24407931 0.33837318 0.00000000
0.27467894 0.33921966 0.00000000
0.30536226 0.34006461 0.00000000
0.33612768 0.34090802 0.00000000
0.36697330 0.34174947 0.00000000
0.39789702 0.34258811 0.00000000
0.42889664 0.34342297 0.00000000
0.45997002 0.34425324 0.00000000
0.49111516 0.34507839 0.00000000
0.52233014 0.34589813 0.00000000
0.55361307 0.34671219 0.00000000
0.58496203 0.34752032 0.00000000
0.61637506 0.34832219 0.00000000
0.64785016 0.34911745 0.00000000
0.67938533 0.34990572 0.00000000
0.71097856 0.35068663 0.00000000
0.74262781 0.35145979 0.00000000
0.77433107 0.35222482 0.00000000
0.80608630 0.35298135 0.00000000
0.83789146 0.35372900 0.00000000
0.86974451 0.35446739 0.00000000
0.90164342 0.35519615 0.00000000
0.93358613 0.35591490 0.00000000
0.96557061 0.35662326 0.00000000
0.99759480 0.35732086 0.00000000
0.00379658 0.36402771 0.00000000
0.03384666 0.36492148 0.00000000
0.06398941 0.36581493 0.00000000
0.09422321 0.36670754 0.00000000
0.12454641 0.36759883 0.00000000
0.15495729 0.36848828 0.00000000
0.18545409 0.36937541 0.00000000
0.21603501 0.37025973 0.00000000
0.24669821 0.37114080 0.00000000
0.27744188 0.37201822 0.00000000
0.30826421 0.37289168 0.00000000
0.33916338 0.37376090 0.00000000
0.37013749 0.37462550 0.00000000
0.40118459 0.37548507 0.00000000
0.43230266 0.37633907 0.00000000
0.46348966 0.37718700 0.00000000
0.49474358 0.37802839 0.00000000
0.52606243 0.37886283 0.00000000
0.55744423 0.37968998 0.00000000
0.58888699 0.38050947 0.00000000
0.62038871 0.38132095 0.00000000
0.65194739 0.38212404 0.00000000
0.68356099 0.38291836 0.00000000
0.71522750 0.38370355 0.00000000
0.74694488 0.38447922 0.00000000
0.77871110 0.38524499 0.00000000
0.81052411 0.38600049 0.00000000
0.84238188 0.38674534 0.00000000
0.87428235 0.38747917 0.00000000
0.90622350 0.38820160 0.00000000
0.93820326 0.38891225 0.00000000
0.97021960 0.38961076 0.00000000
1.00000000 0.39075047 0.00219111
0.00522008 0.39676782 0.00000000
0.03543897 0.39769909 0.00000000
0.06574633 0.39862798 0.00000000
0.09614042 0.39955402 0.00000000
0.12661947 0.40047675 0.00000000
0.15718169 0.40139573 0.00000000
0.18782523 0.40231051 0.00000000
0.21854822 0.40322066 0.00000000
0.24934879 0.40412575 0.00000000
0.28022501 0.40502537 0.00000000
0.31117498 0.40591911 0.00000000
0.34219677 0.40680661 0.00000000
0.37328843 0.40768747 0.00000000
0.40444800 0.40856130 0.00000000
0.43567348 0.40942770 0.00000000
0.46696288 0.41028626 0.00000000
0.49831417 0.41113656 0.00000000
0.52972535 0.41197822 0.00000000
0.56119440 0.41281084 0.00000000
0.59271931 0.41363405 0.00000000
0.62429805 0.41444749 0.00000000
0.65592861 0.41525076 0.00000000
0.68760894 0.41604350 0.00000000
0.71933702 0.41682533 0.00000000
0.75111080 0.41759587 0.00000000
0.78292824 0.41835475 0.00000000
0.81478730 0.41910158 0.00000000
0.84668594 0.41983600 0.00000000
0.87862209 0.42055764 0.00000000
0.91059373 0.42126611 0.00000000
0.94259880 0.42196104 0.00000000
0.97463524 0.42264207 0.00000000
1.00000000 0.42458720 0.00706824
0.00674110 0.42976075 0.00000000
0.03711900 0.43072130 0.00000000
0.06758089 0.43167750 0.00000000
0.09812495 0.43262890 0.00000000
0.12874934 0.43357508 0.00000000
0.15945216 0.43451559 0.00000000
0.19023154 0.43545004 0.00000000
0.22108554 0.43637799 0.00000000
0.25201224 0.43729905 0.00000000
0.28300969 0.43821280 0.00000000
0.31407592 0.43911886 0.00000000
0.34520896 0.44001683 0.00000000
0.37640683 0.44090631 0.00000000
0.40766753 0.44178692 0.00000000
0.43898907 0.44265828 0.00000000
0.47036942 0.44352000 0.00000000
0.50180658 0.44437168 0.00000000
0.53329852 0.44521295 0.00000000
0.56484321 0.44604342 0.00000000
0.59643862 0.44686271 0.00000000
0.62808272 0.44767045 0.00000000
0.65977348 0.44846627 0.00000000
0.69150885 0.44924977 0.00000000
0.72328679 0.45002060 0.00000000
0.75510526 0.45077837 0.00000000
0.78696222 0.45152271 0.00000000
0.81885560 0.45225324 0.00000000
0.85078338 0.45296960 0.00000000
0.88274349 0.45367140 0.00000000
0.91473389 0.45435828 0.00000000
0.94675252 0.45502986 0.00000000
0.97879733 0.45568577 0.00000000
1.00000000 0.45829133 0.01252499
0.00834221 0.46297425 0.00000000
0.03886883 0.46395603 0.00000000
0.06947478 0.46493153 0.00000000
0.10015816 0.46590034 0.00000000
0.13091707 0.46686204 0.00000000
0.16174957 0.46781622 0.00000000
0.19265373 0.46876247 0.00000000
0.22362758 0.46970040 0.00000000
0.25466917 0.47062960 0.00000000
0.28577650 0.47154969 0.00000000
0.31694759 0.47246026 0.00000000
0.34818045 0.47336094 0.00000000
0.37947305 0.47425133 0.00000000
0.41082340 0.47513106 0.00000000
0.44222948 0.47599973 0.00000000
0.47368926 0.47685697 0.00000000
0.50520071 0.47770240 0.00000000
0.53676180 0.47853564 0.00000000
0.56837049 0.47935631 0.00000000
0.60002475 0.48016403 0.00000000
0.63172254 0.48095843 0.00000000
0.66346182 0.48173913 0.00000000
0.69524053 0.48250576 0.00000000
0.72705664 0.48325794 0.00000000
0.75890810 0.48399529 0.00000000
0.79079285 0.48471746 0.00000000
0.82270885 0.48542405 0.00000000
0.85465404 0.48611470 0.00000000
0.88662638 0.48678904 0.00000000
0.91862381 0.48744669 0.00000000
0.95064428 0.48808728 0.00000000
0.98268573 0.48871044 0.00000000
1.00000000 0.49182392 0.01857641
0.01000553 0.49637624 0.00000000
0.04067024 0.49737128 0.00000000
0.07140946 0.49835817 0.00000000
0.10222125 0.49933651 0.00000000
0.13310365 0.50030588 0.00000000
0.16405471 0.50126591 0.00000000
0.19507245 0.50221618 0.00000000
0.22615488 0.50315631 0.00000000
0.25730000 0.50408590 0.00000000
0.28850582 0.50500457 0.00000000
0.31977033 0.50591194 0.00000000
0.35109150 0.50680761 0.00000000
0.38246733 0.50769121 0.00000000
0.41389577 0.50856236 0.00000000
0.44537481 0.50942068 0.00000000
0.47690241 0.51026578 0.00000000
0.50847653 0.51109730 0.00000000
0.54009514 0.51191485 0.00000000
0.57175619 0.51271807 0.00000000
0.60345763 0.51350656 0.00000000
0.63519743 0.51427997 0.00000000
0.66697354 0.51503791 0.00000000
0.69878390 0.51578001 0.00000000
0.73062647 0.51650590 0.00000000
0.76249920 0.51721521 0.00000000
0.79440004 0.51790755 0.00000000
0.82632693 0.51858257 0.00000000
0.85827781 0.51923988 0.00000000
0.89025065 0.51987912 0.00000000
0.92224338 0.52049991 0.00000000
0.95425395 0.52110188 0.00000000
0.98628030 0.52168465 0.00000000
1.00000000 0.52514613 0.02523650
0.01171283 0.52993471 0.00000000
0.04250471 0.53093513 0.00000000
0.07336618 0.53192557 0.00000000
0.10429527 0.53290561 0.00000000
0.13528997 0.53387488 0.00000000
0.16634832 0.53483297 0.00000000
0.19746831 0.53577951 0.00000000
0.22864792 0.53671410 0.00000000
0.25988516 0.53763636 0.00000000
0.29117799 0.53854590 0.00000000
0.32252439 0.53944236 0.00000000
0.35392235 0.54032534 0.00000000
0.38536982 0.54119446 0.00000000
0.41686476 0.54204936 0.00000000
0.44840515 0.54288965 0.00000000
0.47998894 0.54371496 0.00000000
0.51161409 0.54452491 0.00000000
0.54327855 0.54531912 0.00000000
0.57498028 0.54609723 0.00000000
0.60671722 0.54685885 0.00000000
0.63848734 0.54760362 0.00000000
0.67028857 0.54833116 0.00000000
0.70211888 0.54904109 0.00000000
0.73397620 0.54973305 0.00000000
0.76585848 0.55040667 0.00000000
0.79776368 0.55106156 0.00000000
0.82968973 0.55169736 0.00000000
0.86163458 0.55231370 0.00000000
0.89359618 0.55291020 0.00000000
0.92557247 0.55348650 0.00000000
0.95756139 0.55404221 0.00000000
0.98956089 0.55457698 0.00000000
1.00000000 0.55821926 0.03251814
0.01344552 0.56361777 0.00000000
0.04435346 0.56461577 0.00000000
0.07532598 0.56560195 0.00000000
0.10636108 0.56657594 0.00000000
0.13745676 0.56753733 0.00000000
0.16861101 0.56848576 0.00000000
0.19982182 0.56942084 0.00000000
0.23108715 0.57034218 0.00000000
0.26240498 0.57124941 0.00000000
0.29377328 0.57214214 0.00000000
0.32519002 0.57302000 0.00000000
0.35665316 0.57388260 0.00000000
0.38816066 0.57472959 0.00000000
0.41971048 0.57556057 0.00000000
0.45130057 0.57637517 0.00000000
0.48292889 0.57717302 0.00000000
0.51459339 0.57795375 0.00000000
0.54629203 0.57871697 0.00000000
0.57802274 0.57946233 0.00000000
0.60978349 0.58018943 0.00000000
0.64157221 0.58089792 0.00000000
0.67338687 0.58158742 0.00000000
0.70522540 0.58225755 0.00000000
0.73708574 0.58290794 0.00000000
0.76896586 0.58353823 0.00000000
0.80086368 0.58414804 0.00000000
0.83277716 0.58473699 0.00000000
0.86470423 0.58530472 0.00000000
0.89664285 0.58585086 0.00000000
0.92859095 0.58637503 0.00000000
0.96054647 0.58687687 0.00000000
0.99250736 0.58735600 0.00000000
1.00000000 0.59100471 0.04043301
0.01518471 0.59739363 0.00000000
0.04619742 0.59838143 0.00000000
0.07726965 0.59935561 0.00000000
0.10839939 0.60031580 0.00000000
0.13958460 0.60126161 0.00000000
0.17082328 0.60219266 0.00000000
0.20211339 0.60310858 0.00000000
0.23345289 0.60400898 0.00000000
0.26483975 0.60489349 0.00000000
0.29627193 0.60576173 0.00000000
0.32774739 0.60661333 0.00000000
0.35926408 0.60744790 0.00000000
0.39081997 0.60826508 0.00000000
0.42241299 0.60906449 0.00000000
0.45404112 0.60984575 0.00000000
0.48570229 0.61060850 0.00000000
0.51739445 0.61135235 0.00000000
0.54911555 0.61207695 0.00000000
0.58086355 0.61278191 0.00000000
0.61263638 0.61346686 0.00000000
0.64443200 0.61413143 0.00000000
0.67624835 0.61477524 0.00000000
0.70808337 0.61539793 0.00000000
0.73993501 0.61599913 0.00000000
0.77180121 0.61657846 0.00000000
0.80367992 0.61713555 0.00000000
0.83556908 0.61767003 0.00000000
0.86746662 0.61818152 0.00000000
0.89937050 0.61866967 0.00000000
0.93127864 0.61913409 0.00000000
0.96318900 0.61957443 0.00000000
0.99509950 0.61999030 0.00000000
1.00000000 0.62346402 0.04899151
0.01691127 0.63123056 0.00000000
0.04801734 0.63220043 0.00000000
0.07917783 0.63315489 0.00000000
0.11039071 0.63409358 0.00000000
0.14165394 0.63501611 0.00000000
0.17296549 0.63592210 0.00000000
0.20432332 0.63681117 0.00000000
0.23572539 0.63768296 0.00000000
0.26716966 0.63853709 0.00000000
0.29865408 0.63937317 0.00000000
0.33017661 0.64019084 0.00000000
0.36173519 0.64098973 0.00000000
0.39332779 0.64176945 0.00000000
0.42495234 0.64252964 0.00000000
0.45660680 0.64326992 0.00000000
0.48828911 0.64398992 0.00000000
0.51999722 0.64468927 0.00000000
0.55172909 0.64536759 0.00000000
0.58348264 0.64602452 0.00000000
0.61525584 0.64665967 0.00000000
0.64704662 0.64727269 0.00000000
0.67885292 0.64786319 0.00000000
0.71067270 0.64843081 0.00000000
0.74250388 0.64897518 0.00000000
0.77434443 0.64949592 0.00000000
0.80619227 0.64999266 0.00000000
0.83804534 0.65046504 0.00000000
0.86990160 0.65091268 0.00000000
0.90175897 0.65133521 0.00000000
0.93361539 0.65173226 0.00000000
0.96546880 0.65210347 0.00000000
0.99731714 0.65244846 0.00000000
1.00000000 0.65555885 0.05820269
0.01860582 0.66509691 0.00000000
0.04979375 0.66604114 0.00000000
0.08103096 0.66696820 0.00000000
0.11231541 0.66787770 0.00000000
0.14364507 0.66876926 0.00000000
0.17501788 0.66964252 0.00000000
0.20643181 0.67049709 0.00000000
0.23788481 0.67133261 0.00000000
0.26937483 0.67214869 0.00000000
0.30089983 0.67294497 0.00000000
0.33245774 0.67372107 0.00000000
0.36404653 0.67447661 0.00000000
0.39566413 0.67521124 0.00000000
0.42730850 0.67592456 0.00000000
0.45897758 0.67661622 0.00000000
0.49066932 0.67728584 0.00000000
0.52238166 0.67793304 0.00000000
0.55411255 0.67855745 0.00000000
0.58585994 0.67915871 0.00000000
0.61762175 0.67973644 0.00000000
0.64939595 0.68029028 0.00000000
0.68118047 0.68081984 0.00000000
0.71297325 0.68132476 0.00000000
0.74477224 0.68180466 0.00000000
0.77657536 0.68225919 0.00000000
0.80838057 0.68268796 0.00000000
0.84018581 0.68309061 0.00000000
0.87198900 0.68346676 0.00000000
0.90378808 0.68381606 0.00000000
0.93558100 0.68413812 0.00000000
