assets/luts/DB_Peach_Linen_Rec709_100.cube
TITLE "Peach Linen Rec709 100"
# Red changes fastest. Full-range normalized input.
LUT_3D_SIZE 33
DOMAIN_MIN 0 0 0
DOMAIN_MAX 1 1 1
0.01200000 0.01200000 0.01200000
0.04208908 0.01323642 0.01342916
0.07249958 0.01434102 0.01468448
0.10291717 0.01540580 0.01588933
0.13290938 0.01655811 0.01721028
0.16221019 0.01787728 0.01874755
0.19089400 0.01934291 0.02047026
0.21928715 0.02086008 0.02225276
0.24772618 0.02233017 0.02396761
0.27638467 0.02370213 0.02555073
0.30526525 0.02497528 0.02700297
0.33428826 0.02617338 0.02835583
0.36337280 0.02732069 0.02964073
0.39246830 0.02843264 0.03087739
0.42155140 0.02951661 0.03207524
0.45061377 0.03057554 0.03323802
0.47965314 0.03161056 0.03436723
0.50866918 0.03262224 0.03546367
0.53766207 0.03361099 0.03652792
0.56663209 0.03457719 0.03756054
0.59557954 0.03552122 0.03856208
0.62450470 0.03644345 0.03953309
0.65340788 0.03734427 0.04047412
0.68228938 0.03822403 0.04138572
0.71114950 0.03908313 0.04226843
0.73998854 0.03992194 0.04312282
0.76880679 0.04074082 0.04394942
0.79760456 0.04154017 0.04474879
0.82638214 0.04232035 0.04552147
0.85513984 0.04308173 0.04626802
0.88387794 0.04382470 0.04698898
0.91259676 0.04454962 0.04768490
0.94129659 0.04525689 0.04835634
0.01686468 0.04464912 0.01695112
0.04656018 0.04588059 0.01788108
0.07678171 0.04692014 0.01855049
0.10739352 0.04780629 0.01917831
0.13792596 0.04867741 0.02008144
0.16783428 0.04969621 0.02148750
0.19686779 0.05093981 0.02338079
0.22521538 0.05235489 0.02552109
0.25331636 0.05381246 0.02761172
0.28155051 0.05519985 0.02946322
0.31007257 0.05647066 0.03103887
0.33884836 0.05763480 0.03239794
0.36777354 0.05872346 0.03361953
0.39675854 0.05976367 0.03476105
0.42575247 0.06077105 0.03585270
0.45473359 0.06175257 0.03690707
0.48369464 0.06271088 0.03792866
0.51263380 0.06364697 0.03891908
0.54155091 0.06456136 0.03987912
0.57044616 0.06545447 0.04080938
0.59931985 0.06632667 0.04171040
0.62817225 0.06717834 0.04258273
0.65700369 0.06800985 0.04342694
0.68581445 0.06882158 0.04424356
0.71460484 0.06961390 0.04503315
0.74337514 0.07038719 0.04579626
0.77212567 0.07114183 0.04653342
0.80085672 0.07187819 0.04724521
0.82956859 0.07259664 0.04793215
0.85826158 0.07329756 0.04859481
0.88693599 0.07398133 0.04923374
0.91559211 0.07464832 0.04984947
0.94423025 0.07529891 0.05044256
0.02167772 0.07689782 0.02173553
0.05084342 0.07816686 0.02226265
0.08047885 0.07926132 0.02235869
0.11072900 0.08013649 0.02227016
0.14136513 0.08085981 0.02246053
0.17181838 0.08160214 0.02338163
0.20152948 0.08253327 0.02518483
0.23032817 0.08370698 0.02761905
0.25849884 0.08503977 0.03020767
0.28651339 0.08639042 0.03253944
0.31471796 0.08765458 0.03443915
0.34321648 0.08880063 0.03594339
0.37194604 0.08984753 0.03717867
0.40079975 0.09082781 0.03826171
0.42969735 0.09176613 0.03926414
0.45859700 0.09267561 0.04021948
0.48748212 0.09356175 0.04114044
0.51634758 0.09442657 0.04203122
0.54519224 0.09527087 0.04289330
0.57401610 0.09609514 0.04372741
0.60281941 0.09689976 0.04453412
0.63160245 0.09768511 0.04531401
0.66036552 0.09845157 0.04606761
0.68910892 0.09919951 0.04679547
0.71783296 0.09992930 0.04749815
0.74653792 0.10064133 0.04817619
0.77522411 0.10133596 0.04883014
0.80389182 0.10201358 0.04946056
0.83254136 0.10267456 0.05006798
0.86117303 0.10331927 0.05065297
0.88978712 0.10394809 0.05121607
0.91838393 0.10456140 0.05175783
0.94696377 0.10515957 0.05227880
0.02656130 0.10873116 0.02646656
0.05536167 0.10999222 0.02688384
0.08437279 0.11115561 0.02674579
0.11388911 0.11213267 0.02619787
0.14400559 0.11289569 0.02569681
0.17443361 0.11353389 0.02585534
0.20460899 0.11422020 0.02709348
0.23406231 0.11509822 0.02935923
0.26272698 0.11618811 0.03216722
0.29091491 0.11739422 0.03491768
0.31903552 0.11859124 0.03721676
0.34734461 0.11970114 0.03897668
0.37589086 0.12070960 0.04031209
0.40460485 0.12163857 0.04138712
0.43339951 0.12251540 0.04232558
0.46221635 0.12335862 0.04319470
0.49102728 0.12417737 0.04402312
0.51982195 0.12497531 0.04482093
0.54859746 0.12575381 0.04559135
0.57735330 0.12651349 0.04633554
0.60608961 0.12725478 0.04705417
0.63480666 0.12797806 0.04774782
0.66350475 0.12868371 0.04841703
0.69218418 0.12937211 0.04906235
0.72084525 0.13004363 0.04968433
0.74948825 0.13069864 0.05028353
0.77811348 0.13133752 0.05086048
0.80672124 0.13196065 0.05141575
0.83531184 0.13256840 0.05194987
0.86388557 0.13316115 0.05246341
0.89244273 0.13373928 0.05295690
0.92098361 0.13430315 0.05343090
0.94950852 0.13485314 0.05388595
0.03135269 0.14021958 0.03097431
0.06005915 0.14139852 0.03152862
0.08873924 0.14255059 0.03156481
0.11763244 0.14360335 0.03107763
0.14698198 0.14448528 0.03034699
0.17682169 0.14519060 0.02992538
0.20686374 0.14581183 0.03038507
0.23664664 0.14649218 0.03196542
0.26584805 0.14732879 0.03441080
0.29447936 0.14831440 0.03714610
0.32280612 0.14936415 0.03962937
0.35111807 0.15038770 0.04159393
0.37956920 0.15133835 0.04305222
0.40817098 0.15221415 0.04415434
0.43686794 0.15303373 0.04505411
0.46560308 0.15381583 0.04585192
0.49434170 0.15457196 0.04659707
0.52306840 0.15530746 0.04730898
0.55177797 0.15602445 0.04799416
0.58046914 0.15672381 0.04865469
0.60914183 0.15740602 0.04929146
0.63779628 0.15807148 0.04990509
0.66643278 0.15872058 0.05049612
0.69505161 0.15935369 0.05106512
0.72365309 0.15997117 0.05161262
0.75223752 0.16057342 0.05213919
0.78080518 0.16116080 0.05264536
0.80935637 0.16173369 0.05313169
0.83789141 0.16229247 0.05359873
0.86641058 0.16283751 0.05404703
0.89491419 0.16336918 0.05447713
0.92340253 0.16388786 0.05488959
0.95187591 0.16439394 0.05528495
0.03584506 0.17144305 0.03506167
0.06460715 0.17250306 0.03580060
0.09325420 0.17356433 0.03618281
0.12189217 0.17459390 0.03611941
0.15071090 0.17553532 0.03568890
0.17987457 0.17634302 0.03521646
0.20937097 0.17702738 0.03518716
0.23896758 0.17766488 0.03598743
0.26835181 0.17835214 0.03765493
0.29734311 0.17914065 0.03985359
0.32598499 0.18001130 0.04209621
0.35445844 0.18090438 0.04401810
0.38293216 0.18176700 0.04549918
0.41148220 0.18257714 0.04660739
0.44010495 0.18333808 0.04747497
0.46876640 0.18406215 0.04821212
0.49743643 0.18475989 0.04888289
0.52609830 0.18543731 0.04951615
0.55474518 0.18609709 0.05012260
0.58337501 0.18674039 0.05070575
0.61198745 0.18736778 0.05126690
0.64058268 0.18797967 0.05180672
0.66916097 0.18857647 0.05232580
0.69772260 0.18915853 0.05282468
0.72626788 0.18972624 0.05330393
0.75479711 0.19027997 0.05376408
0.78331058 0.19082010 0.05420569
0.81180859 0.19134700 0.05462930
0.84029145 0.19186105 0.05503547
0.86875945 0.19236262 0.05542475
0.89721290 0.19285209 0.05579768
0.92565208 0.19332984 0.05615481
0.95407730 0.19379624 0.05649669
0.03996470 0.20243985 0.03867199
0.06878086 0.20338775 0.03950536
0.09750027 0.20433432 0.04014851
0.12614096 0.20527302 0.04051687
0.15478363 0.20617922 0.04058432
0.18355267 0.20701731 0.04046341
0.21253712 0.20776524 0.04042361
0.24170562 0.20843866 0.04078472
0.27090429 0.20908838 0.04172955
0.29995761 0.20976730 0.04318218
0.32878402 0.21049593 0.04486033
0.35742471 0.21125661 0.04645408
0.38598030 0.21201568 0.04778002
0.41453234 0.21274810 0.04881354
0.44311198 0.21344602 0.04962471
0.47171393 0.21411305 0.05030024
0.50032181 0.21475579 0.05090223
0.52892281 0.21537922 0.05146341
0.55751042 0.21598604 0.05199757
0.58608229 0.21657753 0.05250965
0.61463787 0.21715435 0.05300139
0.64317726 0.21771693 0.05347363
0.67170071 0.21826566 0.05392697
0.70020852 0.21880093 0.05436196
0.72870099 0.21932311 0.05477917
0.75717840 0.21983258 0.05517912
0.78564107 0.22032970 0.05556238
0.81408928 0.22081486 0.05592950
0.84252335 0.22128844 0.05628101
0.87094356 0.22175080 0.05661748
0.89935023 0.22220232 0.05693946
0.92774363 0.22264338 0.05724748
0.95612409 0.22307435 0.05754211
0.04374734 0.23321606 0.04185456
0.07256135 0.23407364 0.04268149
0.10131919 0.23492060 0.04342124
0.13001314 0.23575875 0.04402758
0.15865956 0.23658270 0.04446115
0.18730899 0.23737766 0.04473158
0.21602829 0.23812569 0.04493431
0.24485511 0.23881940 0.04523731
0.27376039 0.23947164 0.04580006
0.30266041 0.24010964 0.04667429
0.33147368 0.24075685 0.04776921
0.36017132 0.24141880 0.04891286
0.38877951 0.24208461 0.04995446
0.41734451 0.24273905 0.05082703
0.44589938 0.24337269 0.05154143
0.47445493 0.24398365 0.05214366
0.50300819 0.24457430 0.05267786
0.53155299 0.24514759 0.05317210
0.56008503 0.24570561 0.05364006
0.58860235 0.24624954 0.05408728
0.61710445 0.24678003 0.05451586
0.64559139 0.24729754 0.05492674
0.67406340 0.24780247 0.05532056
0.70252077 0.24829520 0.05569787
0.73096380 0.24877610 0.05605925
0.75939279 0.24924554 0.05640522
0.78780803 0.24970391 0.05673635
0.81620983 0.25015158 0.05705318
0.84459849 0.25058893 0.05735627
0.87297430 0.25101632 0.05764615
0.90133756 0.25143415 0.05792338
0.92968858 0.25184277 0.05818852
0.95802765 0.25224257 0.05844210
0.04725026 0.26377220 0.04467610
0.07602105 0.26455640 0.04544170
0.10476050 0.26532485 0.04616463
0.13346213 0.26607954 0.04682786
0.16212428 0.26682090 0.04741018
0.19075800 0.26754568 0.04789963
0.21938922 0.26824686 0.04831374
0.24804722 0.26891741 0.04871034
0.27674369 0.26955628 0.04916993
0.30546038 0.27017103 0.04975198
0.33415991 0.27077357 0.05045651
0.36281124 0.27137233 0.05122448
0.39140701 0.27196799 0.05197659
0.41996002 0.27255562 0.05265675
0.44848809 0.27312981 0.05324907
0.47700261 0.27368786 0.05376687
0.50550694 0.27422978 0.05423241
0.53400007 0.27475679 0.05466368
0.56248029 0.27527013 0.05507112
0.59094657 0.27577071 0.05545960
0.61939859 0.27625912 0.05583122
0.64783645 0.27673581 0.05618695
0.67626040 0.27720118 0.05652746
0.70467072 0.27765561 0.05685333
0.73306770 0.27809948 0.05716509
0.76145164 0.27853316 0.05746330
0.78982285 0.27895703 0.05774852
0.81818162 0.27937146 0.05802128
0.84652825 0.27977682 0.05828214
0.87486304 0.28017350 0.05853166
0.90318629 0.28056187 0.05877037
0.93149830 0.28094231 0.05899882
0.95979936 0.28131518 0.05921758
0.05051177 0.29411467 0.04718333
0.07922369 0.29483512 0.04787074
0.10791401 0.29553873 0.04853029
0.13658051 0.29622650 0.04915780
0.16522103 0.29689935 0.04974628
0.19383604 0.29755738 0.05028854
0.22243138 0.29819921 0.05078349
0.25101798 0.29882233 0.05124348
0.27960626 0.29942476 0.05169513
0.30819846 0.30000714 0.05216844
0.33678607 0.30057298 0.05267936
0.36535549 0.30112665 0.05321941
0.39389724 0.30167073 0.05376187
0.42241043 0.30220512 0.05427872
0.45090018 0.30272825 0.05475439
0.47937239 0.30323876 0.05518793
0.50783051 0.30373623 0.05558672
0.53627562 0.30422106 0.05595929
0.56470762 0.30469389 0.05631176
0.59312631 0.30515533 0.05664756
0.62153166 0.30560590 0.05696839
0.64992384 0.30604603 0.05727519
0.67830311 0.30647609 0.05756861
0.70666975 0.30689648 0.05784923
0.73502407 0.30730756 0.05811760
0.76336636 0.30770973 0.05837427
0.79169691 0.30810334 0.05861978
0.82001603 0.30848877 0.05885470
0.84832402 0.30886641 0.05907956
0.87662118 0.30923663 0.05929492
0.90490779 0.30959979 0.05950132
0.93318418 0.30995629 0.05969932
0.96145062 0.31030649 0.05988947
0.05355296 0.32425499 0.04940626
0.08220384 0.32491747 0.05001543
0.11083635 0.32556378 0.05060155
0.13945018 0.32619445 0.05116421
0.16804475 0.32681006 0.05170211
0.19661970 0.32741111 0.05221328
0.22517575 0.32799779 0.05269621
0.25371545 0.32856979 0.05315221
0.28224265 0.32912660 0.05358729
0.31076044 0.32966802 0.05401112
0.33926893 0.33019474 0.05443261
0.36776513 0.33070823 0.05485457
0.39624516 0.33120996 0.05527223
0.42470685 0.33170076 0.05567675
0.45315059 0.33218074 0.05606074
0.48157818 0.33264969 0.05642138
0.50999141 0.33310757 0.05675996
0.53839135 0.33355459 0.05707950
0.56677846 0.33399116 0.05738287
0.59515296 0.33441771 0.05767206
0.62351504 0.33483469 0.05794828
0.65186493 0.33524249 0.05821236
0.68020290 0.33564149 0.05846491
0.70852926 0.33603209 0.05870651
0.73684430 0.33641464 0.05893770
0.76514831 0.33678953 0.05915903
0.79344159 0.33715714 0.05937107
0.82172445 0.33751783 0.05957435
0.84999718 0.33787199 0.05976943
0.87826008 0.33821999 0.05995685
0.90651346 0.33856220 0.06013716
0.93475760 0.33889901 0.06031092
0.96299281 0.33923078 0.06047867
0.05638766 0.35420676 0.05136801
0.08497972 0.35481585 0.05190394
0.11355482 0.35540992 0.05241915
0.14211316 0.35598937 0.05291406
0.17065485 0.35655463 0.05338889
0.19917994 0.35710613 0.05384362
0.22768860 0.35764425 0.05427812
0.25618138 0.35816929 0.05469259
0.28465929 0.35868143 0.05508818
0.31312359 0.35918081 0.05546729
0.34157516 0.35966771 0.05583297
0.37001403 0.36014265 0.05618754
0.39843953 0.36060630 0.05653142
0.42685093 0.36105928 0.05686323
0.45524804 0.36150203 0.05718104
0.48363128 0.36193484 0.05748367
0.51200135 0.36235793 0.05777122
0.54035886 0.36277160 0.05804466
0.56870428 0.36317621 0.05830522
0.59703794 0.36357214 0.05855399
0.62536012 0.36395977 0.05879182
0.65367110 0.36433949 0.05901938
0.68197117 0.36471169 0.05923728
0.71026062 0.36507673 0.05944606
0.73853976 0.36543501 0.05964629
0.76680888 0.36578688 0.05983852
0.79506828 0.36613273 0.06002329
0.82331826 0.36647293 0.06020115
0.85155911 0.36680786 0.06037266
0.87979115 0.36713789 0.06053836
0.90801466 0.36746340 0.06069880
0.93622994 0.36778477 0.06085454
0.96443731 0.36810236 0.06100611
0.05902771 0.38398414 0.05308992
0.08756414 0.38454414 0.05355862
0.11608468 0.38509036 0.05400853
0.14458961 0.38562320 0.05444017
0.17307920 0.38614302 0.05485405
0.20155370 0.38665023 0.05525062
0.23001336 0.38714520 0.05563031
0.25845846 0.38762830 0.05599352
0.28688939 0.38809990 0.05634078
0.31530664 0.38856031 0.05667287
0.34371069 0.38900987 0.05699081
0.37210195 0.38944894 0.05729570
0.40048060 0.38987794 0.05758835
0.42884672 0.39029732 0.05786911
0.45720039 0.39070748 0.05813804
0.48554184 0.39110881 0.05839517
0.51387143 0.39150166 0.05864077
0.54218952 0.39188638 0.05887536
0.57049648 0.39226333 0.05909962
0.59879264 0.39263289 0.05931426
0.62707829 0.39299543 0.05951990
0.65535375 0.39335133 0.05971717
0.68361929 0.39370097 0.05990662
0.71187522 0.39404472 0.06008881
0.74012185 0.39438296 0.06026430
0.76835946 0.39471606 0.06043363
0.79658835 0.39504440 0.06059735
0.82480884 0.39536836 0.06075602
0.85302120 0.39568831 0.06091017
0.88122575 0.39600462 0.06106037
0.90942278 0.39631768 0.06120716
0.93761260 0.39662785 0.06135109
0.96579549 0.39693552 0.06149270
0.06148454 0.41360142 0.05459295
0.08996871 0.41411658 0.05500062
0.11843800 0.41461923 0.05539135
0.14689270 0.41510975 0.05576568
0.17533311 0.41558851 0.05612417
0.20375953 0.41605589 0.05646734
0.23217223 0.41651227 0.05679573
0.26057152 0.41695802 0.05710986
0.28895768 0.41739353 0.05741025
0.31733105 0.41781915 0.05769747
0.34569196 0.41823526 0.05797213
0.37404074 0.41864222 0.05823487
0.40237771 0.41904041 0.05848633
0.43070312 0.41943022 0.05872708
0.45901723 0.41981203 0.05895762
0.48732032 0.42018622 0.05917838
0.51561268 0.42055317 0.05938984
0.54389461 0.42091324 0.05959251
0.57216642 0.42126682 0.05978695
0.60042843 0.42161427 0.05997374
0.62868094 0.42195597 0.06015344
0.65692424 0.42229230 0.06032663
0.68515865 0.42262363 0.06049386
0.71338445 0.42295033 0.06065567
0.74160194 0.42327278 0.06081263
0.76981142 0.42359137 0.06096529
0.79801320 0.42390645 0.06111418
0.82620757 0.42421841 0.06125986
0.85439483 0.42452763 0.06140288
0.88257528 0.42483448 0.06154379
0.91074922 0.42513933 0.06168314
0.93891694 0.42544256 0.06182147
0.96707875 0.42574455 0.06195935
0.06376955 0.44307288 0.05589801
0.09220484 0.44354746 0.05625087
0.12062625 0.44401078 0.05658863
0.14903409 0.44446324 0.05691185
0.17742864 0.44490520 0.05722107
0.20581022 0.44533704 0.05751685
0.23417910 0.44575914 0.05779972
0.26253561 0.44617187 0.05807024
0.29088002 0.44657561 0.05832894
0.31921264 0.44697074 0.05857638
0.34753378 0.44735762 0.05881312
0.37584374 0.44773663 0.05903970
0.40414282 0.44810815 0.05925670
0.43243132 0.44847255 0.05946467
0.46070954 0.44883021 0.05966417
0.48897777 0.44918151 0.05985574
0.51723630 0.44952682 0.06003989
0.54548543 0.44986652 0.06021718
0.57372546 0.45020098 0.06038815
0.60195670 0.45053058 0.06055336
0.63017944 0.45085570 0.06071335
0.65839398 0.45117670 0.06086868
0.68660062 0.45149396 0.06101990
0.71479967 0.45180787 0.06116756
0.74299142 0.45211879 0.06131221
0.77117616 0.45242710 0.06145440
0.79935421 0.45273318 0.06159467
0.82752585 0.45303739 0.06173359
0.85569138 0.45334013 0.06187169
0.88385112 0.45364176 0.06200953
0.91200534 0.45394265 0.06214766
0.94015436 0.45424319 0.06228662
0.96829847 0.45454375 0.06242697
0.06589412 0.47241284 0.05702602
0.09428391 0.47285107 0.05733028
0.12266083 0.47327932 0.05762130
0.15102518 0.47369796 0.05789962
0.17937726 0.47410738 0.05816579
0.20771736 0.47450793 0.05842036
0.23604578 0.47490001 0.05866388
0.26436283 0.47528398 0.05889690
0.29266880 0.47566022 0.05911996
0.32096398 0.47602911 0.05933362
0.34924869 0.47639102 0.05953843
0.37752322 0.47674632 0.05973494
0.40578786 0.47709540 0.05992369
0.43404293 0.47743863 0.06010524
0.46228871 0.47777637 0.06028014
0.49052551 0.47810902 0.06044893
0.51875362 0.47843694 0.06061217
0.54697334 0.47876052 0.06077040
0.57518497 0.47908011 0.06092417
0.60338882 0.47939611 0.06107404
0.63158517 0.47970889 0.06122054
0.65977433 0.48001881 0.06136423
0.68795661 0.48032627 0.06150566
0.71613228 0.48063163 0.06164538
0.74430167 0.48093526 0.06178393
0.77246506 0.48123755 0.06192188
0.80062275 0.48153887 0.06205976
0.82877505 0.48183959 0.06219812
0.85692224 0.48214009 0.06233753
0.88506464 0.48244075 0.06247851
0.91320254 0.48274194 0.06262163
0.94133624 0.48304404 0.06276744
0.96946604 0.48334742 0.06291647
0.06786963 0.50163556 0.05799790
0.09621731 0.50204171 0.05825978
0.12455313 0.50243913 0.05851027
0.15287737 0.50282822 0.05874990
0.18119035 0.50320933 0.05897923
0.20949236 0.50358285 0.05919881
0.23778370 0.50394915 0.05940919
0.26606467 0.50430861 0.05961092
0.29433557 0.50466161 0.05980454
0.32259669 0.50500851 0.05999061
0.35084834 0.50534970 0.06016968
0.37909081 0.50568555 0.06034229
0.40732441 0.50601643 0.06050899
0.43554943 0.50634273 0.06067034
0.46376617 0.50666481 0.06082688
0.49197493 0.50698306 0.06097916
0.52017602 0.50729784 0.06112773
0.54836972 0.50760953 0.06127315
0.57655634 0.50791851 0.06141595
0.60473618 0.50822516 0.06155669
0.63290953 0.50852985 0.06169593
0.66107669 0.50883295 0.06183420
0.68923797 0.50913484 0.06197205
0.71739367 0.50943590 0.06211005
0.74554407 0.50973650 0.06224873
0.77368949 0.51003702 0.06238864
0.80183022 0.51033783 0.06253034
0.82996655 0.51063930 0.06267437
0.85809879 0.51094182 0.06282129
0.88622724 0.51124576 0.06297164
0.91435220 0.51155150 0.06312597
0.94247396 0.51185940 0.06328484
0.97059282 0.51216985 0.06344878
0.06970747 0.53075537 0.05883455
0.09801642 0.53113367 0.05906027
0.12631451 0.53150452 0.05927644
0.15460204 0.53186829 0.05948361
0.18287931 0.53222536 0.05968232
0.21114661 0.53257609 0.05987313
0.23940425 0.53292087 0.06005659
0.26765252 0.53326007 0.06023324
0.29589173 0.53359407 0.06040363
0.32412217 0.53392324 0.06056832
0.35234414 0.53424796 0.06072786
0.38055795 0.53456860 0.06088278
0.40876388 0.53488554 0.06103365
0.43696224 0.53519915 0.06118101
0.46515333 0.53550981 0.06132541
0.49333744 0.53581790 0.06146740
0.52151488 0.53612379 0.06160753
0.54968595 0.53642786 0.06174635
0.57785094 0.53673048 0.06188440
0.60601015 0.53703202 0.06202225
0.63416389 0.53733287 0.06216043
0.66231244 0.53763340 0.06229949
0.69045611 0.53793398 0.06243999
0.71859521 0.53823499 0.06258248
0.74673002 0.53853680 0.06272750
0.77486085 0.53883979 0.06287560
0.80298799 0.53914434 0.06302734
0.83111175 0.53945082 0.06318326
0.85923242 0.53975961 0.06334390
0.88735030 0.54007108 0.06350983
0.91546570 0.54038561 0.06368159
0.94357890 0.54070357 0.06385973
0.97169022 0.54102534 0.06404480
0.07141902 0.55978654 0.05955690
0.09969262 0.56014126 0.05975267
0.12795638 0.56048978 0.05994074
0.15621057 0.56083249 0.06012166
0.18445551 0.56116975 0.06029597
0.21269149 0.56150195 0.06046422
0.24091881 0.56182945 0.06062697
0.26913778 0.56215264 0.06078476
0.29734868 0.56247189 0.06093815
0.32555182 0.56278758 0.06108768
0.35374750 0.56310007 0.06123390
0.38193601 0.56340976 0.06137735
0.41011766 0.56371700 0.06151860
0.43829275 0.56402218 0.06165819
0.46646157 0.56432568 0.06179667
0.49462442 0.56462786 0.06193458
0.52278160 0.56492911 0.06207249
0.55093342 0.56522980 0.06221092
0.57908016 0.56553030 0.06235045
0.60722213 0.56583099 0.06249161
0.63535963 0.56613225 0.06263495
0.66349296 0.56643445 0.06278103
0.69162241 0.56673797 0.06293039
0.71974828 0.56704318 0.06308359
0.74787088 0.56735045 0.06324117
0.77599051 0.56766018 0.06340367
0.80410745 0.56797271 0.06357166
0.83222201 0.56828845 0.06374568
0.86033450 0.56860775 0.06392628
0.88844520 0.56893100 0.06411401
0.91655442 0.56925857 0.06430941
0.94466246 0.56959084 0.06451304
0.97276961 0.56992817 0.06472545
0.07301566 0.58874338 0.06018585
0.10125731 0.58907876 0.06035790
0.12949010 0.58940920 0.06052408
0.15771434 0.58973509 0.06068496
0.18593034 0.59005681 0.06084109
0.21413838 0.59037471 0.06099300
0.24233877 0.59068920 0.06114126
0.27053181 0.59100062 0.06128641
0.29871779 0.59130938 0.06142900
0.32689701 0.59161583 0.06156959
0.35506978 0.59192035 0.06170871
0.38323640 0.59222333 0.06184691
0.41139715 0.59252513 0.06198476
0.43955234 0.59282613 0.06212279
0.46770228 0.59312670 0.06226157
0.49584725 0.59342723 0.06240162
0.52398756 0.59372809 0.06254351
0.55212350 0.59402964 0.06268779
0.58025538 0.59433228 0.06283500
0.60838350 0.59463637 0.06298569
0.63650815 0.59494229 0.06314042
0.66462963 0.59525041 0.06329973
0.69274824 0.59556111 0.06346417
0.72086428 0.59587477 0.06363429
0.74897805 0.59619176 0.06381064
0.77708985 0.59651246 0.06399377
0.80519998 0.59683724 0.06418423
0.83330874 0.59716647 0.06438256
0.86141642 0.59750054 0.06458933
0.88952332 0.59783982 0.06480507
0.91762975 0.59818468 0.06503033
0.94573600 0.59853550 0.06526567
0.97384237 0.59889266 0.06551164
0.07450878 0.61764018 0.06074232
0.10272185 0.61796047 0.06089685
0.13092707 0.61827708 0.06104738
0.15912475 0.61859041 0.06119444
0.18731518 0.61890082 0.06133859
0.21549867 0.61920869 0.06148039
0.24367551 0.61951440 0.06162037
0.27184600 0.61981831 0.06175910
0.30001045 0.62012082 0.06189711
0.32816914 0.62042228 0.06203496
0.35632238 0.62072308 0.06217320
0.38447048 0.62102360 0.06231238
0.41261372 0.62132420 0.06245304
0.44075240 0.62162527 0.06259573
0.46888683 0.62192718 0.06274102
0.49701731 0.62223030 0.06288943
0.52514413 0.62253501 0.06304153
0.55326759 0.62284169 0.06319786
0.58138799 0.62315071 0.06335897
0.60950563 0.62346244 0.06352542
0.63762081 0.62377727 0.06369774
0.66573383 0.62409557 0.06387650
0.69384499 0.62441771 0.06406223
0.72195458 0.62474406 0.06425549
0.75006291 0.62507502 0.06445683
0.77817028 0.62541094 0.06466680
0.80627697 0.62575220 0.06488595
0.83438330 0.62609919 0.06511482
0.86248956 0.62645228 0.06535396
0.89059605 0.62681183 0.06560393
0.91870307 0.62717823 0.06586528
0.94681092 0.62755186 0.06613854
0.97491990 0.62793308 0.06642428
0.07590976 0.64649124 0.06124723
0.10409763 0.64680068 0.06139046
0.13227867 0.64710772 0.06153153
0.16045316 0.64741273 0.06167100
0.18862142 0.64771609 0.06180940
0.21678373 0.64801817 0.06194729
0.24494041 0.64831935 0.06208522
0.27309174 0.64862000 0.06222373
0.30123803 0.64892051 0.06236339
0.32937958 0.64922124 0.06250472
0.35751668 0.64952257 0.06264830
0.38564964 0.64982487 0.06279466
0.41377875 0.65012853 0.06294435
0.44190431 0.65043391 0.06309792
0.47002662 0.65074140 0.06325593
0.49814599 0.65105136 0.06341892
0.52626270 0.65136418 0.06358744
0.55437706 0.65168023 0.06376205
0.58248936 0.65199988 0.06394328
0.61059992 0.65232351 0.06413169
0.63870902 0.65265150 0.06432783
0.66681696 0.65298422 0.06453225
0.69492404 0.65332204 0.06474549
0.72303057 0.65366535 0.06496812
0.75113684 0.65401451 0.06520066
0.77924315 0.65436991 0.06544369
0.80734980 0.65473191 0.06569773
0.83545709 0.65510090 0.06596335
0.86356531 0.65547725 0.06624110
0.89167477 0.65586133 0.06653152
