assets/luts/DB_Prairie_Gold_Rec709_50.cube
TITLE "Prairie Gold Rec709 50"
# Red changes fastest. Full-range normalized input.
LUT_3D_SIZE 33
DOMAIN_MIN 0 0 0
DOMAIN_MAX 1 1 1
0.00100000 0.00100000 0.00100000
0.03196922 0.00043718 0.00044379
0.06256363 0.00000000 0.00000594
0.09164393 0.00000000 0.00000008
0.12081600 0.00001065 0.00000000
0.15011248 0.00002865 0.00000000
0.17952434 0.00005621 0.00000000
0.20902936 0.00009373 0.00000000
0.23860728 0.00013979 0.00000000
0.26824851 0.00019258 0.00000000
0.29795298 0.00025099 0.00000000
0.32772451 0.00031483 0.00000000
0.35756641 0.00038430 0.00000000
0.38748007 0.00045964 0.00000000
0.41746540 0.00054092 0.00000000
0.44752154 0.00062813 0.00000000
0.47764736 0.00072118 0.00000000
0.50784164 0.00081995 0.00000000
0.53810314 0.00092432 0.00000000
0.56843063 0.00103418 0.00000000
0.59882290 0.00114938 0.00000000
0.62927871 0.00126980 0.00000000
0.65979686 0.00139531 0.00000000
0.69037614 0.00152579 0.00000000
0.72101536 0.00166108 0.00000000
0.75171332 0.00180106 0.00000000
0.78246884 0.00194558 0.00000000
0.81328073 0.00209451 0.00000000
0.84414783 0.00224770 0.00000000
0.87506896 0.00240501 0.00000000
0.90604297 0.00256629 0.00000000
0.93706869 0.00273140 0.00000000
0.96814496 0.00290019 0.00000000
0.00000000 0.03038681 0.00040354
0.02978444 0.03024948 0.00000000
0.05963308 0.03006952 0.00000000
0.08932012 0.02996498 0.00000000
0.11895457 0.02992130 0.00000000
0.14861016 0.02993183 0.00000000
0.17832796 0.02998643 0.00000000
0.20811713 0.03006980 0.00000000
0.23796770 0.03016642 0.00000000
0.26786786 0.03026611 0.00000000
0.29781359 0.03036558 0.00000000
0.32780808 0.03046615 0.00000000
0.35785677 0.03057042 0.00000000
0.38796394 0.03068036 0.00000000
0.41813184 0.03079688 0.00000000
0.44836127 0.03092011 0.00000000
0.47865220 0.03104988 0.00000000
0.50900424 0.03118588 0.00000000
0.53941681 0.03132781 0.00000000
0.56988920 0.03147540 0.00000000
0.60042062 0.03162840 0.00000000
0.63101024 0.03178656 0.00000000
0.66165713 0.03194966 0.00000000
0.69236037 0.03211748 0.00000000
0.72311899 0.03228983 0.00000000
0.75393198 0.03246651 0.00000000
0.78479835 0.03264733 0.00000000
0.81571705 0.03283210 0.00000000
0.84668704 0.03302064 0.00000000
0.87770728 0.03321277 0.00000000
0.90877670 0.03340832 0.00000000
0.93989424 0.03360712 0.00000000
0.97105882 0.03380898 0.00000000
0.00000000 0.05975983 0.00069271
0.02920902 0.05990646 0.00000000
0.05905333 0.05979655 0.00000000
0.08884133 0.05971809 0.00000000
0.11860071 0.05969168 0.00000000
0.14837140 0.05973748 0.00000000
0.17819502 0.05985808 0.00000000
0.20809683 0.06003332 0.00000000
0.23807836 0.06023122 0.00000000
0.26812659 0.06042504 0.00000000
0.29822871 0.06060292 0.00000000
0.32837967 0.06076625 0.00000000
0.35858080 0.06092220 0.00000000
0.38883541 0.06107761 0.00000000
0.41914603 0.06123662 0.00000000
0.44951384 0.06140098 0.00000000
0.47993908 0.06157113 0.00000000
0.51042147 0.06174696 0.00000000
0.54096051 0.06192821 0.00000000
0.57155556 0.06211459 0.00000000
0.60220591 0.06230584 0.00000000
0.63291076 0.06250169 0.00000000
0.66366929 0.06270190 0.00000000
0.69448062 0.06290623 0.00000000
0.72534384 0.06311448 0.00000000
0.75625800 0.06332641 0.00000000
0.78722216 0.06354184 0.00000000
0.81823534 0.06376056 0.00000000
0.84929652 0.06398237 0.00000000
0.88040472 0.06420708 0.00000000
0.91155891 0.06443450 0.00000000
0.94275806 0.06466445 0.00000000
0.97400115 0.06489674 0.00000000
0.00000000 0.08950695 0.00090764
0.02896405 0.08984211 0.00000000
0.05886729 0.08979573 0.00000000
0.08876818 0.08974573 0.00000000
0.11866232 0.08972365 0.00000000
0.14856140 0.08977179 0.00000000
0.17849407 0.08991769 0.00000000
0.20849176 0.09015431 0.00000000
0.23857127 0.09044345 0.00000000
0.26872971 0.09073921 0.00000000
0.29895398 0.09101131 0.00000000
0.32923304 0.09125228 0.00000000
0.35956271 0.09146993 0.00000000
0.38994358 0.09167606 0.00000000
0.42037747 0.09187970 0.00000000
0.45086559 0.09208566 0.00000000
0.48140824 0.09229584 0.00000000
0.51200518 0.09251069 0.00000000
0.54265586 0.09273011 0.00000000
0.57335962 0.09295387 0.00000000
0.60411570 0.09318173 0.00000000
0.63492330 0.09341342 0.00000000
0.66578158 0.09364871 0.00000000
0.69668966 0.09388737 0.00000000
0.72764663 0.09412917 0.00000000
0.75865157 0.09437390 0.00000000
0.78970352 0.09462135 0.00000000
0.82080151 0.09487132 0.00000000
0.85194456 0.09512361 0.00000000
0.88313168 0.09537803 0.00000000
0.91436186 0.09563437 0.00000000
0.94563410 0.09589245 0.00000000
0.97694736 0.09615208 0.00000000
0.00000000 0.11960716 0.00101875
0.02888679 0.12008332 0.00000000
0.05885645 0.12012248 0.00000000
0.08885714 0.12013624 0.00000000
0.11887778 0.12014663 0.00000000
0.14891481 0.12019799 0.00000000
0.17897974 0.12033629 0.00000000
0.20909517 0.12058030 0.00000000
0.23928134 0.12090794 0.00000000
0.26954479 0.12127053 0.00000000
0.29987859 0.12162186 0.00000000
0.33027161 0.12193844 0.00000000
0.36071655 0.12222020 0.00000000
0.39121138 0.12247902 0.00000000
0.42175679 0.12272749 0.00000000
0.45235381 0.12297388 0.00000000
0.48300278 0.12322217 0.00000000
0.51370351 0.12347375 0.00000000
0.54445541 0.12372890 0.00000000
0.57525778 0.12398750 0.00000000
0.60610981 0.12424931 0.00000000
0.63701066 0.12451410 0.00000000
0.66795947 0.12478166 0.00000000
0.69895533 0.12505174 0.00000000
0.72999732 0.12532414 0.00000000
0.76108449 0.12559863 0.00000000
0.79221590 0.12587503 0.00000000
0.82339056 0.12615311 0.00000000
0.85460750 0.12643269 0.00000000
0.88586573 0.12671357 0.00000000
0.91716423 0.12699555 0.00000000
0.94850202 0.12727844 0.00000000
0.97987806 0.12756205 0.00000000
0.00000000 0.15003042 0.00100759
0.02896585 0.15059013 0.00000000
0.05900802 0.15072531 0.00000000
0.08909609 0.15083402 0.00000000
0.11922298 0.15092217 0.00000000
0.14938309 0.15101764 0.00000000
0.17957887 0.15116287 0.00000000
0.20982188 0.15139227 0.00000000
0.24012637 0.15170954 0.00000000
0.27050024 0.15208463 0.00000000
0.30094133 0.15247314 0.00000000
0.33144149 0.15284096 0.00000000
0.36199337 0.15317588 0.00000000
0.39259364 0.15348305 0.00000000
0.42324212 0.15377396 0.00000000
0.45393959 0.15405841 0.00000000
0.48468648 0.15434210 0.00000000
0.51548264 0.15462749 0.00000000
0.54632750 0.15491530 0.00000000
0.57722033 0.15520558 0.00000000
0.60816028 0.15549818 0.00000000
0.63914648 0.15579287 0.00000000
0.67017802 0.15608944 0.00000000
0.70125399 0.15638767 0.00000000
0.73237342 0.15668735 0.00000000
0.76353538 0.15698827 0.00000000
0.79473889 0.15729023 0.00000000
0.82598297 0.15759303 0.00000000
0.85726664 0.15789647 0.00000000
0.88858889 0.15820035 0.00000000
0.91994872 0.15850449 0.00000000
0.95134513 0.15880869 0.00000000
0.98277710 0.15911276 0.00000000
0.00000000 0.18075034 0.00087624
0.02918847 0.18132872 0.00000000
0.05931643 0.18154815 0.00000000
0.08949448 0.18175231 0.00000000
0.11971954 0.18193777 0.00000000
0.14998834 0.18211412 0.00000000
0.18030106 0.18230589 0.00000000
0.21066312 0.18254304 0.00000000
0.24108265 0.18284331 0.00000000
0.27156510 0.18320008 0.00000000
0.30210977 0.18358659 0.00000000
0.33271104 0.18397253 0.00000000
0.36336270 0.18433919 0.00000000
0.39406112 0.18468311 0.00000000
0.42480551 0.18501032 0.00000000
0.45559633 0.18532886 0.00000000
0.48643401 0.18564453 0.00000000
0.51731845 0.18596035 0.00000000
0.54824914 0.18627741 0.00000000
0.57922532 0.18659595 0.00000000
0.61024612 0.18691588 0.00000000
0.64131063 0.18723700 0.00000000
0.67241793 0.18755910 0.00000000
0.70356706 0.18788197 0.00000000
0.73475707 0.18820542 0.00000000
0.76598699 0.18852923 0.00000000
0.79725583 0.18885321 0.00000000
0.82856261 0.18917715 0.00000000
0.85990632 0.18950087 0.00000000
0.89128598 0.18982417 0.00000000
0.92270057 0.19014686 0.00000000
0.95414908 0.19046875 0.00000000
0.98563049 0.19078964 0.00000000
0.00000000 0.21174739 0.00063522
0.02953204 0.21228435 0.00000000
0.05975620 0.21256753 0.00000000
0.09003137 0.21284628 0.00000000
0.12035612 0.21311601 0.00000000
0.15072879 0.21337687 0.00000000
0.18114909 0.21363747 0.00000000
0.21161943 0.21391388 0.00000000
0.24214416 0.21422186 0.00000000
0.27272669 0.21456691 0.00000000
0.30336689 0.21494026 0.00000000
0.33406109 0.21532456 0.00000000
0.36480445 0.21570401 0.00000000
0.39559345 0.21607104 0.00000000
0.42642674 0.21642602 0.00000000
0.45730425 0.21677317 0.00000000
0.48822617 0.21711668 0.00000000
0.51919239 0.21745919 0.00000000
0.55020237 0.21780188 0.00000000
0.58125536 0.21814507 0.00000000
0.61235046 0.21848871 0.00000000
0.64348677 0.21883263 0.00000000
0.67466331 0.21917664 0.00000000
0.70587912 0.21952053 0.00000000
0.73713324 0.21986410 0.00000000
0.76842467 0.22020716 0.00000000
0.79975242 0.22054950 0.00000000
0.83111551 0.22089093 0.00000000
0.86251291 0.22123126 0.00000000
0.89394364 0.22157030 0.00000000
0.92540667 0.22190785 0.00000000
0.95690100 0.22224373 0.00000000
0.98842560 0.22257775 0.00000000
0.00000000 0.24300469 0.00029419
0.02997711 0.24344940 0.00000000
0.06030096 0.24377987 0.00000000
0.09067590 0.24411127 0.00000000
0.12110105 0.24444093 0.00000000
0.15157530 0.24476706 0.00000000
0.18209801 0.24509086 0.00000000
0.21266979 0.24541773 0.00000000
0.24329245 0.24575561 0.00000000
0.27396783 0.24611055 0.00000000
0.30469619 0.24648264 0.00000000
0.33547557 0.24686568 0.00000000
0.36630273 0.24725112 0.00000000
0.39717475 0.24763257 0.00000000
0.42808992 0.24800784 0.00000000
0.45904755 0.24837786 0.00000000
0.49004742 0.24874468 0.00000000
0.52108918 0.24910992 0.00000000
0.55217224 0.24947447 0.00000000
0.58329581 0.24983858 0.00000000
0.61445901 0.25020222 0.00000000
0.64566086 0.25056523 0.00000000
0.67690042 0.25092744 0.00000000
0.70817669 0.25128863 0.00000000
0.73948870 0.25164862 0.00000000
0.77083544 0.25200721 0.00000000
0.80221591 0.25236419 0.00000000
0.83362912 0.25271939 0.00000000
0.86507405 0.25307261 0.00000000
0.89654969 0.25342365 0.00000000
0.92805503 0.25377233 0.00000000
0.95958906 0.25411846 0.00000000
0.99115074 0.25446185 0.00000000
0.00013920 0.27444928 0.00000000
0.03051058 0.27481394 0.00000000
0.06093296 0.27518163 0.00000000
0.09140583 0.27555147 0.00000000
0.12192848 0.27592232 0.00000000
0.15250003 0.27629299 0.00000000
0.18311964 0.27666295 0.00000000
0.21378693 0.27703307 0.00000000
0.24450209 0.27740579 0.00000000
0.27526562 0.27778403 0.00000000
0.30607758 0.27816931 0.00000000
0.33693701 0.27856059 0.00000000
0.36784206 0.27895477 0.00000000
0.39879069 0.27934852 0.00000000
0.42978125 0.27973977 0.00000000
0.46081270 0.28012805 0.00000000
0.49188435 0.28051384 0.00000000
0.52299559 0.28089781 0.00000000
0.55414569 0.28128035 0.00000000
0.58533382 0.28166160 0.00000000
0.61655904 0.28204147 0.00000000
0.64782040 0.28241983 0.00000000
0.67911691 0.28279647 0.00000000
0.71044757 0.28317121 0.00000000
0.74181140 0.28354385 0.00000000
0.77320739 0.28391421 0.00000000
0.80463453 0.28428208 0.00000000
0.83609181 0.28464728 0.00000000
0.86757822 0.28500961 0.00000000
0.89909275 0.28536889 0.00000000
0.93063437 0.28572493 0.00000000
0.96220207 0.28607754 0.00000000
0.99379483 0.28642653 0.00000000
0.00065477 0.30596776 0.00000000
0.03112274 0.30636438 0.00000000
0.06164054 0.30676305 0.00000000
0.09220757 0.30716332 0.00000000
0.12282313 0.30756472 0.00000000
0.15348641 0.30796666 0.00000000
0.18419657 0.30836863 0.00000000
0.21495284 0.30877045 0.00000000
0.24575465 0.30917241 0.00000000
0.27660160 0.30957526 0.00000000
0.30749329 0.30997971 0.00000000
0.33842899 0.31038583 0.00000000
0.36940758 0.31079285 0.00000000
0.40042770 0.31119954 0.00000000
0.43148799 0.31160477 0.00000000
0.46258735 0.31200793 0.00000000
0.49372484 0.31240888 0.00000000
0.52489962 0.31280767 0.00000000
0.55611084 0.31320437 0.00000000
0.58735758 0.31359893 0.00000000
0.61863889 0.31399124 0.00000000
0.64995379 0.31438114 0.00000000
0.68130129 0.31476843 0.00000000
0.71268038 0.31515293 0.00000000
0.74409007 0.31553444 0.00000000
0.77552934 0.31591278 0.00000000
0.80699717 0.31628775 0.00000000
0.83849256 0.31665916 0.00000000
0.87001449 0.31702683 0.00000000
0.90156193 0.31739056 0.00000000
0.93313388 0.31775017 0.00000000
0.96472931 0.31810546 0.00000000
0.99634719 0.31845626 0.00000000
0.00124379 0.33766139 0.00000000
0.03180485 0.33808532 0.00000000
0.06241415 0.33851017 0.00000000
0.09307096 0.33893565 0.00000000
0.12377453 0.33936144 0.00000000
0.15452403 0.33978723 0.00000000
0.18531863 0.34021269 0.00000000
0.21615745 0.34063753 0.00000000
0.24703965 0.34106159 0.00000000
0.27796447 0.34148483 0.00000000
0.30893113 0.34190730 0.00000000
0.33993884 0.34232901 0.00000000
0.37098665 0.34274973 0.00000000
0.40207351 0.34316905 0.00000000
0.43319832 0.34358648 0.00000000
0.46436001 0.34400162 0.00000000
0.49555758 0.34441420 0.00000000
0.52679007 0.34482406 0.00000000
0.55805654 0.34523110 0.00000000
0.58935602 0.34563516 0.00000000
0.62068753 0.34603609 0.00000000
0.65205008 0.34643372 0.00000000
0.68344267 0.34682786 0.00000000
0.71486428 0.34721831 0.00000000
0.74631391 0.34760489 0.00000000
0.77779053 0.34798741 0.00000000
0.80929315 0.34836568 0.00000000
0.84082073 0.34873950 0.00000000
0.87237225 0.34910870 0.00000000
0.90394671 0.34947307 0.00000000
0.93554307 0.34983245 0.00000000
0.96716031 0.35018663 0.00000000
0.99879740 0.35053543 0.00000000
0.00189829 0.36951385 0.00000000
0.03254833 0.36996074 0.00000000
0.06324470 0.37040746 0.00000000
0.09398660 0.37085377 0.00000000
0.12477320 0.37129941 0.00000000
0.15560365 0.37174414 0.00000000
0.18647705 0.37218770 0.00000000
0.21739250 0.37262987 0.00000000
0.24834911 0.37307040 0.00000000
0.27934594 0.37350911 0.00000000
0.31038211 0.37394584 0.00000000
0.34145669 0.37438045 0.00000000
0.37256874 0.37481275 0.00000000
0.40371730 0.37524253 0.00000000
0.43490133 0.37566954 0.00000000
0.46611983 0.37609350 0.00000000
0.49737179 0.37651419 0.00000000
0.52865622 0.37693142 0.00000000
0.55997211 0.37734499 0.00000000
0.59131849 0.37775473 0.00000000
0.62269436 0.37816047 0.00000000
0.65409869 0.37856202 0.00000000
0.68553050 0.37895918 0.00000000
0.71698875 0.37935177 0.00000000
0.74847244 0.37973961 0.00000000
0.77998055 0.38012250 0.00000000
0.81151205 0.38050025 0.00000000
0.84306594 0.38087267 0.00000000
0.87464118 0.38123958 0.00000000
0.90623675 0.38160080 0.00000000
0.93785163 0.38195613 0.00000000
0.96948480 0.38230538 0.00000000
1.00000000 0.38287523 0.00109555
0.00261004 0.40150891 0.00000000
0.03334449 0.40197454 0.00000000
0.06412316 0.40243899 0.00000000
0.09494521 0.40290201 0.00000000
0.12580974 0.40336338 0.00000000
0.15671584 0.40382286 0.00000000
0.18766261 0.40428026 0.00000000
0.21864911 0.40473533 0.00000000
0.24967439 0.40518788 0.00000000
0.28073751 0.40563768 0.00000000
0.31183749 0.40608456 0.00000000
0.34297338 0.40652830 0.00000000
0.37414422 0.40696873 0.00000000
0.40534900 0.40740565 0.00000000
0.43658674 0.40783885 0.00000000
0.46785644 0.40826813 0.00000000
0.49915709 0.40869328 0.00000000
0.53048767 0.40911411 0.00000000
0.56184720 0.40953042 0.00000000
0.59323465 0.40994203 0.00000000
0.62464903 0.41034874 0.00000000
0.65608930 0.41075038 0.00000000
0.68755447 0.41114675 0.00000000
0.71904351 0.41153767 0.00000000
0.75055540 0.41192294 0.00000000
0.78208912 0.41230237 0.00000000
0.81364365 0.41267579 0.00000000
0.84521797 0.41304300 0.00000000
0.87681105 0.41340382 0.00000000
0.90842187 0.41375805 0.00000000
0.94004940 0.41410552 0.00000000
0.97169262 0.41444603 0.00000000
1.00000000 0.41541860 0.00353412
0.00337055 0.43363037 0.00000000
0.03418450 0.43411065 0.00000000
0.06504045 0.43458875 0.00000000
0.09593748 0.43506445 0.00000000
0.12687467 0.43553754 0.00000000
0.15785108 0.43600780 0.00000000
0.18886577 0.43647502 0.00000000
0.21991777 0.43693900 0.00000000
0.25100612 0.43739952 0.00000000
0.28212984 0.43785640 0.00000000
0.31328796 0.43830943 0.00000000
0.34447948 0.43875841 0.00000000
0.37570341 0.43920315 0.00000000
0.40695877 0.43964346 0.00000000
0.43824453 0.44007914 0.00000000
0.46955971 0.44051000 0.00000000
0.50090329 0.44093584 0.00000000
0.53227426 0.44135647 0.00000000
0.56367160 0.44177171 0.00000000
0.59509431 0.44218136 0.00000000
0.62654136 0.44258523 0.00000000
0.65801174 0.44298313 0.00000000
0.68950442 0.44337489 0.00000000
0.72101840 0.44376030 0.00000000
0.75255263 0.44413918 0.00000000
0.78410611 0.44451135 0.00000000
0.81567780 0.44487662 0.00000000
0.84726669 0.44523480 0.00000000
0.87887174 0.44558570 0.00000000
0.91049194 0.44592914 0.00000000
0.94212626 0.44626493 0.00000000
0.97377367 0.44659288 0.00000000
1.00000000 0.44789567 0.00626250
0.00417110 0.46586213 0.00000000
0.03505942 0.46635302 0.00000000
0.06598739 0.46684077 0.00000000
0.09695408 0.46732517 0.00000000
0.12795853 0.46780602 0.00000000
0.15899978 0.46828311 0.00000000
0.19007686 0.46875624 0.00000000
0.22118879 0.46922520 0.00000000
0.25233458 0.46968980 0.00000000
0.28351325 0.47014984 0.00000000
0.31472380 0.47060513 0.00000000
0.34596522 0.47105547 0.00000000
0.37723653 0.47150067 0.00000000
0.40853670 0.47194053 0.00000000
0.43986474 0.47237487 0.00000000
0.47121963 0.47280349 0.00000000
0.50260035 0.47322620 0.00000000
0.53400590 0.47364282 0.00000000
0.56543525 0.47405315 0.00000000
0.59688738 0.47445702 0.00000000
0.62836127 0.47485421 0.00000000
0.65985591 0.47524456 0.00000000
0.69137027 0.47562788 0.00000000
0.72290332 0.47600397 0.00000000
0.75445405 0.47637265 0.00000000
0.78602142 0.47673373 0.00000000
0.81760442 0.47708703 0.00000000
0.84920202 0.47743235 0.00000000
0.88081319 0.47776952 0.00000000
0.91243691 0.47809835 0.00000000
0.94407214 0.47841864 0.00000000
0.97571787 0.47873022 0.00000000
1.00000000 0.48028696 0.00928821
0.00500277 0.49818812 0.00000000
0.03596012 0.49868564 0.00000000
0.06695473 0.49917908 0.00000000
0.09798562 0.49966825 0.00000000
0.12905183 0.50015294 0.00000000
0.16015236 0.50063295 0.00000000
0.19128622 0.50110809 0.00000000
0.22245244 0.50157815 0.00000000
0.25365000 0.50204295 0.00000000
0.28487791 0.50250229 0.00000000
0.31613516 0.50295597 0.00000000
0.34742075 0.50340380 0.00000000
0.37873366 0.50384561 0.00000000
0.41007289 0.50428118 0.00000000
0.44143741 0.50471034 0.00000000
0.47282621 0.50513289 0.00000000
0.50423827 0.50554865 0.00000000
0.53567257 0.50595743 0.00000000
0.56712809 0.50635903 0.00000000
0.59860382 0.50675328 0.00000000
0.63009872 0.50713998 0.00000000
0.66161177 0.50751895 0.00000000
0.69314195 0.50789001 0.00000000
0.72468824 0.50825295 0.00000000
0.75624960 0.50860760 0.00000000
0.78782502 0.50895378 0.00000000
0.81941346 0.50929129 0.00000000
0.85101391 0.50961994 0.00000000
0.88262533 0.50993956 0.00000000
0.91424669 0.51024995 0.00000000
0.94587697 0.51055094 0.00000000
0.97751515 0.51084233 0.00000000
1.00000000 0.51257307 0.01261825
0.00585641 0.53059235 0.00000000
0.03687736 0.53109257 0.00000000
0.06793309 0.53158778 0.00000000
0.09902263 0.53207781 0.00000000
0.13014499 0.53256244 0.00000000
0.16129916 0.53304149 0.00000000
0.19248415 0.53351475 0.00000000
0.22369896 0.53398205 0.00000000
0.25494258 0.53444318 0.00000000
0.28621399 0.53489795 0.00000000
0.31751220 0.53534618 0.00000000
0.34883617 0.53578767 0.00000000
0.38018491 0.53622223 0.00000000
0.41155738 0.53664968 0.00000000
0.44295258 0.53706983 0.00000000
0.47436947 0.53748248 0.00000000
0.50580704 0.53788745 0.00000000
0.53726427 0.53828456 0.00000000
0.56874014 0.53867361 0.00000000
0.60023361 0.53905442 0.00000000
0.63174367 0.53942681 0.00000000
0.66326929 0.53979058 0.00000000
0.69480944 0.54014555 0.00000000
0.72636310 0.54049153 0.00000000
0.75792924 0.54082833 0.00000000
0.78950684 0.54115578 0.00000000
0.82109487 0.54147368 0.00000000
0.85269229 0.54178185 0.00000000
0.88429809 0.54208010 0.00000000
0.91591124 0.54236825 0.00000000
0.94753070 0.54264611 0.00000000
0.97915545 0.54291349 0.00000000
1.00000000 0.54473463 0.01625907
0.00672276 0.56305889 0.00000000
0.03780173 0.56355788 0.00000000
0.06891299 0.56405098 0.00000000
0.10005554 0.56453797 0.00000000
0.13122838 0.56501867 0.00000000
0.16243051 0.56549288 0.00000000
0.19366091 0.56596042 0.00000000
0.22491857 0.56642109 0.00000000
0.25620249 0.56687470 0.00000000
0.28751164 0.56732107 0.00000000
0.31884501 0.56776000 0.00000000
0.35020158 0.56819130 0.00000000
0.38158033 0.56861479 0.00000000
0.41298024 0.56903028 0.00000000
0.44440029 0.56943758 0.00000000
0.47583945 0.56983651 0.00000000
0.50729670 0.57022687 0.00000000
0.53877101 0.57060849 0.00000000
0.57026137 0.57098116 0.00000000
0.60176674 0.57134472 0.00000000
0.63328611 0.57169896 0.00000000
0.66481843 0.57204371 0.00000000
0.69636270 0.57237877 0.00000000
0.72791787 0.57270397 0.00000000
0.75948293 0.57301911 0.00000000
0.79105684 0.57332402 0.00000000
0.82263858 0.57361850 0.00000000
0.85422712 0.57390236 0.00000000
0.88582142 0.57417543 0.00000000
0.91742047 0.57443752 0.00000000
0.94902323 0.57468844 0.00000000
0.98062868 0.57492800 0.00000000
1.00000000 0.57675235 0.02021650
0.00759236 0.59557182 0.00000000
0.03872371 0.59606571 0.00000000
0.06988483 0.59655281 0.00000000
0.10107469 0.59703290 0.00000000
0.13229230 0.59750581 0.00000000
0.16353664 0.59797133 0.00000000
0.19480669 0.59842929 0.00000000
0.22610144 0.59887949 0.00000000
0.25741987 0.59932175 0.00000000
0.28876096 0.59975587 0.00000000
0.32012369 0.60018166 0.00000000
0.35150704 0.60059895 0.00000000
0.38290998 0.60100754 0.00000000
0.41433150 0.60140724 0.00000000
0.44577056 0.60179787 0.00000000
0.47722614 0.60217925 0.00000000
0.50869722 0.60255118 0.00000000
0.54018278 0.60291347 0.00000000
0.57168178 0.60326595 0.00000000
0.60319319 0.60360843 0.00000000
0.63471600 0.60394071 0.00000000
0.66624917 0.60426262 0.00000000
0.69779169 0.60457397 0.00000000
0.72934251 0.60487456 0.00000000
0.76090061 0.60516423 0.00000000
0.79246496 0.60544277 0.00000000
0.82403454 0.60571001 0.00000000
0.85560831 0.60596576 0.00000000
0.88718525 0.60620984 0.00000000
0.91876432 0.60644205 0.00000000
0.95034450 0.60666221 0.00000000
0.98192475 0.60687015 0.00000000
1.00000000 0.60860701 0.02449575
0.00845564 0.62811528 0.00000000
0.03963367 0.62860021 0.00000000
0.07083892 0.62907745 0.00000000
0.10207035 0.62954679 0.00000000
0.13332697 0.63000805 0.00000000
0.16460774 0.63046105 0.00000000
0.19591166 0.63090559 0.00000000
0.22723770 0.63134148 0.00000000
0.25858483 0.63176854 0.00000000
0.28995204 0.63218659 0.00000000
0.32133830 0.63259542 0.00000000
0.35274260 0.63299486 0.00000000
0.38416389 0.63338473 0.00000000
0.41560117 0.63376482 0.00000000
0.44705340 0.63413496 0.00000000
0.47851955 0.63449496 0.00000000
0.50999861 0.63484463 0.00000000
0.54148954 0.63518380 0.00000000
0.57299132 0.63551226 0.00000000
0.60450292 0.63582984 0.00000000
0.63602331 0.63613635 0.00000000
0.66755146 0.63643160 0.00000000
0.69908635 0.63671541 0.00000000
0.73062694 0.63698759 0.00000000
0.76217221 0.63724796 0.00000000
0.79372113 0.63749633 0.00000000
0.82527267 0.63773252 0.00000000
0.85682580 0.63795634 0.00000000
0.88837948 0.63816760 0.00000000
0.91993269 0.63836613 0.00000000
0.95148440 0.63855173 0.00000000
0.98303357 0.63872423 0.00000000
1.00000000 0.64027943 0.02910135
0.00930291 0.66067346 0.00000000
0.04052188 0.66114557 0.00000000
0.07176548 0.66160910 0.00000000
0.10303271 0.66206385 0.00000000
0.13432253 0.66250963 0.00000000
0.16563394 0.66294626 0.00000000
0.19696591 0.66337354 0.00000000
0.22831741 0.66379130 0.00000000
0.25968742 0.66419934 0.00000000
0.29107491 0.66459748 0.00000000
0.32247887 0.66498553 0.00000000
0.35389826 0.66536331 0.00000000
0.38533206 0.66573062 0.00000000
0.41677925 0.66608728 0.00000000
0.44823879 0.66643311 0.00000000
0.47970966 0.66676792 0.00000000
0.51119083 0.66709152 0.00000000
0.54268128 0.66740373 0.00000000
0.57417997 0.66770436 0.00000000
0.60568588 0.66799322 0.00000000
0.63719798 0.66827014 0.00000000
0.66871524 0.66853492 0.00000000
0.70023663 0.66878738 0.00000000
0.73176112 0.66902733 0.00000000
0.76328768 0.66925459 0.00000000
0.79481529 0.66946898 0.00000000
0.82634290 0.66967030 0.00000000
0.85786950 0.66985838 0.00000000
0.88939404 0.67003303 0.00000000
0.92091550 0.67019406 0.00000000
