assets/luts/DB_Product_Crisp_Rec709_50.cube
TITLE "Product Crisp Rec709 50"
# Red changes fastest. Full-range normalized input.
LUT_3D_SIZE 5
DOMAIN_MIN 0 0 0
DOMAIN_MAX 1 1 1
0.00000000 0.00000000 0.00000000
0.21983463 0.00000000 0.00048736
0.44992953 0.00000000 0.00086245
0.68914398 0.00000000 0.00104313
0.93621869 0.00000000 0.00105637
0.00000000 0.23120427 0.00243333
0.23441582 0.23596694 0.00000000
0.47821220 0.23951844 0.00000000
0.72780508 0.24280145 0.00000000
0.98199561 0.24580759 0.00000000
0.00000000 0.48745304 0.00189959
0.24543633 0.49355923 0.00000000
0.49707004 0.49822266 0.00000000
0.75183932 0.50217971 0.00000000
1.00000000 0.50680001 0.01150408
0.00056176 0.75450075 0.00000000
0.25365101 0.75867564 0.00000000
0.50841241 0.76171497 0.00000000
0.76373128 0.76358453 0.00000000
1.00000000 0.76415932 0.05535350
0.04733263 1.00000000 0.04488940
0.29715717 1.00000000 0.06018186
0.54008252 1.00000000 0.07728304
0.77487610 1.00000000 0.09620132
1.00000000 0.99969498 0.12086553
0.00000000 0.00018914 0.21449265
0.22142467 0.00000000 0.22278059
0.45308596 0.00000000 0.22804243
0.69356066 0.00000000 0.23272163
0.94161689 0.00000000 0.23682440
0.00000000 0.23281306 0.23386408
0.23562766 0.23718683 0.23812234
0.49079476 0.23784323 0.23862026
0.74759121 0.23929960 0.23970051
1.00000000 0.24281683 0.24272692
0.00000000 0.48953509 0.24572654
0.24098375 0.49738088 0.24209968
0.49894576 0.50001667 0.24441675
0.75702041 0.50280773 0.24646596
1.00000000 0.50854175 0.26090382
0.00000000 0.75633968 0.25105643
0.25085212 0.76119011 0.24921025
0.50802749 0.76305932 0.25072134
0.76435278 0.76412124 0.25155672
1.00000000 0.76552515 0.29509614
0.05239568 1.00000000 0.28684922
0.30135848 1.00000000 0.29880027
0.54314175 1.00000000 0.31215579
0.77651409 1.00000000 0.32692068
1.00000000 0.99975562 0.34623932
0.00000000 0.00036886 0.43283979
0.22300785 0.00000000 0.44849739
0.45616039 0.00000000 0.45838975
0.69784836 0.00000000 0.46728820
0.94683860 0.00000000 0.47520274
0.00000000 0.23436211 0.46824296
0.23544039 0.23731738 0.49335288
0.49141291 0.23822081 0.49390778
0.74833123 0.23997437 0.49521467
1.00000000 0.24415267 0.49629687
0.00000000 0.49151004 0.49156559
0.24196429 0.49826808 0.49780489
0.50000000 0.50083156 0.50000000
0.75777952 0.50371747 0.50227978
1.00000000 0.51038604 0.50856831
0.00000000 0.75780283 0.50372738
0.25166877 0.76189933 0.50478533
0.50858743 0.76352303 0.50609285
0.76449846 0.76420104 0.50687246
1.00000000 0.76694828 0.53214208
0.05763809 1.00000000 0.52642228
0.30569087 1.00000000 0.53475648
0.54628422 1.00000000 0.54408960
0.77818797 1.00000000 0.55442289
1.00000000 0.99982691 0.56797852
0.00000000 0.00053836 0.65490736
0.22455597 0.00000000 0.67751917
0.45915308 0.00000000 0.69176180
0.70200711 0.00000000 0.70460086
0.95188368 0.00000000 0.71604998
0.00000000 0.23585120 0.70543010
0.23564722 0.23751273 0.74844328
0.49197251 0.23873395 0.74927866
0.74914788 0.24071727 0.75078975
1.00000000 0.24563507 0.74895874
0.00000000 0.49337823 0.73927175
0.24297769 0.49918233 0.75353652
0.50104507 0.50193560 0.75575662
0.75901679 0.50457819 0.75790074
1.00000000 0.51233348 0.75435000
0.00000000 0.75911470 0.75730156
0.25240878 0.76253520 0.76029949
0.50903749 0.76388429 0.76137598
0.76437234 0.76406050 0.76187766
1.00000000 0.76836077 0.76637800
0.06305940 1.00000000 0.76346815
0.31015403 1.00000000 0.76790957
0.54950980 1.00000000 0.77294302
0.77989751 1.00000000 0.77856578
1.00000000 0.99991125 0.78585541
0.00000000 0.00069698 0.88056026
0.22606939 0.00000000 0.90970297
0.46206419 0.00000000 0.92801628
0.70603688 0.00000000 0.94451791
0.95675190 0.00000000 0.95922493
0.00000000 0.23728025 0.94528458
0.23628180 0.23810473 1.00000000
0.49160205 0.24011782 1.00000000
0.74636133 0.24325653 1.00000000
0.99943833 0.24748863 1.00000000
0.00000000 0.49514001 0.98869950
0.24823220 0.49979670 1.00000000
0.50300317 0.50374515 1.00000000
0.75461712 0.50836116 1.00000000
1.00000000 0.51438460 0.99810178
0.01824994 0.75602507 1.00000000
0.27245205 0.75891281 1.00000000
0.52201969 0.76204310 1.00000000
0.76577384 0.76540087 1.00000000
1.00000000 0.76996984 0.99757165
0.06865919 1.00000000 0.99784622
0.31474772 1.00000000 0.99811844
0.55281842 1.00000000 0.99857437
0.78164372 1.00000000 0.99920744
1.00000000 1.00000000 1.00000000
