assets/luts/DB_Product_Crisp_Rec709_50.cube
TITLE "Product Crisp Rec709 50"
# Red changes fastest. Full-range normalized input.
LUT_3D_SIZE 33
DOMAIN_MIN 0 0 0
DOMAIN_MAX 1 1 1
0.00000000 0.00000000 0.00000000
0.02689232 0.00000000 0.00005499
0.05397282 0.00000000 0.00009906
0.08122785 0.00000000 0.00014071
0.10864140 0.00000000 0.00019098
0.13620436 0.00000000 0.00025594
0.16391866 0.00000000 0.00033271
0.19179293 0.00000000 0.00041257
0.21983463 0.00000000 0.00048736
0.24804556 0.00000000 0.00055329
0.27642260 0.00000000 0.00061065
0.30496069 0.00000000 0.00066150
0.33365507 0.00000000 0.00070778
0.36250196 0.00000000 0.00075065
0.39149838 0.00000000 0.00079062
0.42064173 0.00000000 0.00082787
0.44992953 0.00000000 0.00086245
0.47935939 0.00000000 0.00089436
0.50892890 0.00000000 0.00092360
0.53863565 0.00000000 0.00095017
0.56847724 0.00000000 0.00097408
0.59845128 0.00000000 0.00099532
0.62855535 0.00000000 0.00101390
0.65878705 0.00000000 0.00102984
0.68914398 0.00000000 0.00104313
0.71962373 0.00000000 0.00105379
0.75022389 0.00000000 0.00106185
0.78094206 0.00000000 0.00106730
0.81177583 0.00000000 0.00107018
0.84272279 0.00000000 0.00107050
0.87378052 0.00000000 0.00106829
0.90494663 0.00000000 0.00106357
0.93621869 0.00000000 0.00105637
0.00000000 0.02707295 0.00039016
0.02702458 0.02725829 0.00000000
0.05458630 0.02729773 0.00000000
0.08227406 0.02734824 0.00000000
0.11010974 0.02739772 0.00000000
0.13812519 0.02743324 0.00000000
0.16633841 0.02744998 0.00000000
0.19474162 0.02745380 0.00000000
0.22331032 0.02745560 0.00000000
0.25202101 0.02746397 0.00000000
0.28086148 0.02748187 0.00000000
0.30982980 0.02750805 0.00000000
0.33892826 0.02753997 0.00000000
0.36815876 0.02757559 0.00000000
0.39752142 0.02761381 0.00000000
0.42701493 0.02765418 0.00000000
0.45663727 0.02769653 0.00000000
0.48638616 0.02774081 0.00000000
0.51625924 0.02778703 0.00000000
0.54625414 0.02783515 0.00000000
0.57636851 0.02788518 0.00000000
0.60659997 0.02793709 0.00000000
0.63694619 0.02799088 0.00000000
0.66740482 0.02804653 0.00000000
0.69797352 0.02810400 0.00000000
0.72864997 0.02816330 0.00000000
0.75943184 0.02822438 0.00000000
0.79031681 0.02828723 0.00000000
0.82130259 0.02835182 0.00000000
0.85238685 0.02841811 0.00000000
0.88356732 0.02848609 0.00000000
0.91484168 0.02855570 0.00000000
0.94620767 0.02862693 0.00000000
0.00000000 0.05471615 0.00077847
0.02694594 0.05513297 0.00000000
0.05484385 0.05524067 0.00000000
0.08285146 0.05536335 0.00000000
0.11096331 0.05549550 0.00000000
0.13920232 0.05562447 0.00000000
0.16760398 0.05573865 0.00000000
0.19619020 0.05583537 0.00000000
0.22495703 0.05592149 0.00000000
0.25388388 0.05600693 0.00000000
0.28295018 0.05609836 0.00000000
0.31214463 0.05619735 0.00000000
0.34146421 0.05630238 0.00000000
0.37090938 0.05641125 0.00000000
0.40048048 0.05652243 0.00000000
0.43017667 0.05663514 0.00000000
0.45999624 0.05674908 0.00000000
0.48993703 0.05686414 0.00000000
0.51999673 0.05698030 0.00000000
0.55017300 0.05709753 0.00000000
0.58046349 0.05721581 0.00000000
0.61086586 0.05733514 0.00000000
0.64137778 0.05745549 0.00000000
0.67199690 0.05757683 0.00000000
0.70272092 0.05769915 0.00000000
0.73354751 0.05782242 0.00000000
0.76447437 0.05794661 0.00000000
0.79549919 0.05807169 0.00000000
0.82661967 0.05819764 0.00000000
0.85783352 0.05832441 0.00000000
0.88913846 0.05845198 0.00000000
0.92053220 0.05858031 0.00000000
0.95201248 0.05870936 0.00000000
0.00000000 0.08290244 0.00117032
0.02682414 0.08355119 0.00000000
0.05503085 0.08372163 0.00000000
0.08336205 0.08390250 0.00000000
0.11178762 0.08409625 0.00000000
0.14030088 0.08429784 0.00000000
0.16892516 0.08449675 0.00000000
0.19769651 0.08468408 0.00000000
0.22663805 0.08485845 0.00000000
0.25574918 0.08502521 0.00000000
0.28501398 0.08519129 0.00000000
0.31441549 0.08536085 0.00000000
0.34394330 0.08553463 0.00000000
0.37359322 0.08571152 0.00000000
0.40336384 0.08589018 0.00000000
0.43325401 0.08606972 0.00000000
0.46326214 0.08624974 0.00000000
0.49338616 0.08643008 0.00000000
0.52362382 0.08661068 0.00000000
0.55397281 0.08679150 0.00000000
0.58443080 0.08697253 0.00000000
0.61499546 0.08715375 0.00000000
0.64566447 0.08733513 0.00000000
0.67643551 0.08751665 0.00000000
0.70730627 0.08769828 0.00000000
0.73827444 0.08787999 0.00000000
0.76933774 0.08806175 0.00000000
0.80049386 0.08824352 0.00000000
0.83174053 0.08842528 0.00000000
0.86307545 0.08860698 0.00000000
0.89449637 0.08878860 0.00000000
0.92600100 0.08897008 0.00000000
0.95758708 0.08915139 0.00000000
0.00000000 0.11161213 0.00153693
0.02668886 0.11248374 0.00000000
0.05515153 0.11272022 0.00000000
0.08376048 0.11295897 0.00000000
0.11248358 0.11320538 0.00000000
0.14129349 0.11346181 0.00000000
0.17018629 0.11372483 0.00000000
0.19918430 0.11398701 0.00000000
0.22831898 0.11424208 0.00000000
0.25760978 0.11448864 0.00000000
0.28705667 0.11472954 0.00000000
0.31664752 0.11496857 0.00000000
0.34636904 0.11520804 0.00000000
0.37621235 0.11544846 0.00000000
0.40617284 0.11568944 0.00000000
0.43624804 0.11593042 0.00000000
0.46643593 0.11617106 0.00000000
0.49673445 0.11641118 0.00000000
0.52714137 0.11665073 0.00000000
0.55765438 0.11688965 0.00000000
0.58827119 0.11712793 0.00000000
0.61898947 0.11736554 0.00000000
0.64980692 0.11760245 0.00000000
0.68072123 0.11783863 0.00000000
0.71173011 0.11807405 0.00000000
0.74283126 0.11830868 0.00000000
0.77402239 0.11854248 0.00000000
0.80530123 0.11877542 0.00000000
0.83666550 0.11900746 0.00000000
0.86811293 0.11923856 0.00000000
0.89964126 0.11946868 0.00000000
0.93124823 0.11969778 0.00000000
0.96293158 0.11992581 0.00000000
0.00000000 0.14082408 0.00185023
0.02659253 0.14189420 0.00000000
0.05527468 0.14219934 0.00000000
0.08410989 0.14250130 0.00000000
0.11307913 0.14280376 0.00000000
0.14215637 0.14311102 0.00000000
0.17132245 0.14342522 0.00000000
0.20057743 0.14374444 0.00000000
0.22993954 0.14406388 0.00000000
0.25943108 0.14437917 0.00000000
0.28906422 0.14468867 0.00000000
0.31883756 0.14499326 0.00000000
0.34874198 0.14529472 0.00000000
0.37876783 0.14559436 0.00000000
0.40890832 0.14589271 0.00000000
0.43915933 0.14618985 0.00000000
0.46951810 0.14648569 0.00000000
0.49998232 0.14678014 0.00000000
0.53054972 0.14707316 0.00000000
0.56121802 0.14736471 0.00000000
0.59198492 0.14765475 0.00000000
0.62284811 0.14794325 0.00000000
0.65380530 0.14823020 0.00000000
0.68485419 0.14851554 0.00000000
0.71599251 0.14879925 0.00000000
0.74721797 0.14908130 0.00000000
0.77852829 0.14936163 0.00000000
0.80992121 0.14964023 0.00000000
0.84139446 0.14991703 0.00000000
0.87294578 0.15019201 0.00000000
0.90457292 0.15046512 0.00000000
0.93627362 0.15073631 0.00000000
0.96804565 0.15100553 0.00000000
0.00000000 0.17051235 0.00210131
0.02656139 0.17174906 0.00000000
0.05545380 0.17211982 0.00000000
0.08449157 0.17248596 0.00000000
0.11366752 0.17284860 0.00000000
0.14296712 0.17321038 0.00000000
0.17237328 0.17357432 0.00000000
0.20187546 0.17394200 0.00000000
0.23147568 0.17431233 0.00000000
0.26118563 0.17468236 0.00000000
0.29101737 0.17504914 0.00000000
0.32097594 0.17541120 0.00000000
0.35105861 0.17576863 0.00000000
0.38125885 0.17612223 0.00000000
0.41157022 0.17647279 0.00000000
0.44198793 0.17682080 0.00000000
0.47250862 0.17716645 0.00000000
0.50312969 0.17750980 0.00000000
0.53384877 0.17785084 0.00000000
0.56466356 0.17818953 0.00000000
0.59557177 0.17852586 0.00000000
0.62657111 0.17885979 0.00000000
0.65765930 0.17919129 0.00000000
0.68883405 0.17952031 0.00000000
0.72009309 0.17984683 0.00000000
0.75143415 0.18017079 0.00000000
0.78285496 0.18049217 0.00000000
0.81435327 0.18081092 0.00000000
0.84592682 0.18112699 0.00000000
0.87757337 0.18144034 0.00000000
0.90929066 0.18175093 0.00000000
0.94107645 0.18205870 0.00000000
0.97292852 0.18236361 0.00000000
0.00000000 0.20064855 0.00229389
0.02659336 0.20202037 0.00000000
0.05569836 0.20245007 0.00000000
0.08493722 0.20287539 0.00000000
0.11430758 0.20329627 0.00000000
0.14380348 0.20371349 0.00000000
0.17341558 0.20412869 0.00000000
0.20313443 0.20454368 0.00000000
0.23295505 0.20495930 0.00000000
0.26287890 0.20537486 0.00000000
0.29291124 0.20578861 0.00000000
0.32305640 0.20619883 0.00000000
0.35331479 0.20660458 0.00000000
0.38368335 0.20700579 0.00000000
0.41415757 0.20740288 0.00000000
0.44473325 0.20779629 0.00000000
0.47540698 0.20818633 0.00000000
0.50617602 0.20857313 0.00000000
0.53703792 0.20895674 0.00000000
0.56799038 0.20933713 0.00000000
0.59903109 0.20971429 0.00000000
0.63015779 0.21008818 0.00000000
0.66136818 0.21045876 0.00000000
0.69266001 0.21082599 0.00000000
0.72403102 0.21118983 0.00000000
0.75547893 0.21155024 0.00000000
0.78700150 0.21190718 0.00000000
0.81859647 0.21226060 0.00000000
0.85026161 0.21261045 0.00000000
0.88199467 0.21295668 0.00000000
0.91379341 0.21329925 0.00000000
0.94565560 0.21363811 0.00000000
0.97757902 0.21397320 0.00000000
0.00000000 0.23120427 0.00243333
0.02667783 0.23268267 0.00000000
0.05599543 0.23316420 0.00000000
0.08543761 0.23364147 0.00000000
0.11500260 0.23411426 0.00000000
0.14468767 0.23458257 0.00000000
0.17448846 0.23504689 0.00000000
0.20439949 0.23550806 0.00000000
0.23441582 0.23596694 0.00000000
0.26453478 0.23642384 0.00000000
0.29475624 0.23687830 0.00000000
0.32508113 0.23732943 0.00000000
0.35550950 0.23777636 0.00000000
0.38603977 0.23821866 0.00000000
0.41666908 0.23865631 0.00000000
0.44739423 0.23908950 0.00000000
0.47821220 0.23951844 0.00000000
0.50912034 0.23994325 0.00000000
0.54011620 0.24036398 0.00000000
0.57119745 0.24078063 0.00000000
0.60236182 0.24119317 0.00000000
0.63360703 0.24160156 0.00000000
0.66493081 0.24200577 0.00000000
0.69633091 0.24240575 0.00000000
0.72780508 0.24280145 0.00000000
0.75935105 0.24319284 0.00000000
0.79096660 0.24357987 0.00000000
0.82264947 0.24396248 0.00000000
0.85439743 0.24434063 0.00000000
0.88620825 0.24471427 0.00000000
0.91807970 0.24508334 0.00000000
0.95000956 0.24544780 0.00000000
0.98199561 0.24580759 0.00000000
0.00000000 0.26215175 0.00252282
0.02680721 0.26371039 0.00000000
0.05633234 0.26423747 0.00000000
0.08597517 0.26475990 0.00000000
0.11573364 0.26527754 0.00000000
0.14560554 0.26579031 0.00000000
0.17558823 0.26629825 0.00000000
0.20567852 0.26680156 0.00000000
0.23587300 0.26730061 0.00000000
0.26616862 0.26779571 0.00000000
0.29656326 0.26828689 0.00000000
0.32705552 0.26877391 0.00000000
0.35764418 0.26925636 0.00000000
0.38832759 0.26973388 0.00000000
0.41910355 0.27020633 0.00000000
0.44996953 0.27067369 0.00000000
0.48092294 0.27113602 0.00000000
0.51196128 0.27159339 0.00000000
0.54308219 0.27204581 0.00000000
0.57428335 0.27249327 0.00000000
0.60556249 0.27293575 0.00000000
0.63691735 0.27337320 0.00000000
0.66834566 0.27380559 0.00000000
0.69984518 0.27423287 0.00000000
0.73141368 0.27465498 0.00000000
0.76304889 0.27507189 0.00000000
0.79474860 0.27548354 0.00000000
0.82651056 0.27588988 0.00000000
0.85833255 0.27629087 0.00000000
0.89021235 0.27668644 0.00000000
0.92214773 0.27707655 0.00000000
0.95413648 0.27746114 0.00000000
0.98617639 0.27784015 0.00000000
0.00000000 0.29346357 0.00256408
0.02697763 0.29507733 0.00000000
0.05670228 0.29564431 0.00000000
0.08653892 0.29620593 0.00000000
0.11648527 0.29676214 0.00000000
0.14653906 0.29731290 0.00000000
0.17669799 0.29785816 0.00000000
0.20695959 0.29839793 0.00000000
0.23732126 0.29893228 0.00000000
0.26778040 0.29946131 0.00000000
0.29833457 0.29998510 0.00000000
0.32898160 0.30050360 0.00000000
0.35971950 0.30101670 0.00000000
0.39054626 0.30152423 0.00000000
0.42145971 0.30202605 0.00000000
0.45245758 0.30252211 0.00000000
0.48353750 0.30301239 0.00000000
0.51469713 0.30349687 0.00000000
0.54593415 0.30397555 0.00000000
0.57724630 0.30444840 0.00000000
0.60863129 0.30491539 0.00000000
0.64008689 0.30537647 0.00000000
0.67161084 0.30583160 0.00000000
0.70320091 0.30628073 0.00000000
0.73485486 0.30672381 0.00000000
0.76657046 0.30716079 0.00000000
0.79834548 0.30759162 0.00000000
0.83017769 0.30801625 0.00000000
0.86206488 0.30843461 0.00000000
0.89400484 0.30884667 0.00000000
0.92599533 0.30925235 0.00000000
0.95803417 0.30965160 0.00000000
0.99011914 0.31004437 0.00000000
0.00000000 0.32511239 0.00255853
0.02718669 0.32675698 0.00000000
0.05710190 0.32735844 0.00000000
0.08712370 0.32795376 0.00000000
0.11724977 0.32854288 0.00000000
0.14747782 0.32912580 0.00000000
0.17780554 0.32970246 0.00000000
0.20823061 0.33027285 0.00000000
0.23875069 0.33083694 0.00000000
0.26936339 0.33139474 0.00000000
0.30006637 0.33194624 0.00000000
0.33085733 0.33249145 0.00000000
0.36173403 0.33303031 0.00000000
0.39269427 0.33356276 0.00000000
0.42373582 0.33408872 0.00000000
0.45485645 0.33460813 0.00000000
0.48605387 0.33512094 0.00000000
0.51732580 0.33562713 0.00000000
0.54866998 0.33612665 0.00000000
0.58008415 0.33661947 0.00000000
0.61156607 0.33710555 0.00000000
0.64311348 0.33758483 0.00000000
0.67472415 0.33805727 0.00000000
0.70639586 0.33852283 0.00000000
0.73812637 0.33898144 0.00000000
0.76991346 0.33943305 0.00000000
0.80175491 0.33987762 0.00000000
0.83364851 0.34031508 0.00000000
0.86559204 0.34074538 0.00000000
0.89758329 0.34116847 0.00000000
0.92962006 0.34158427 0.00000000
0.96170014 0.34199275 0.00000000
0.99382133 0.34239382 0.00000000
0.00000000 0.35707087 0.00250785
0.02743220 0.35872281 0.00000000
0.05752873 0.35935343 0.00000000
0.08772655 0.35997706 0.00000000
0.11802336 0.36059369 0.00000000
0.14841684 0.36120328 0.00000000
0.17890469 0.36180580 0.00000000
0.20948461 0.36240122 0.00000000
0.24015431 0.36298952 0.00000000
0.27091149 0.36357065 0.00000000
0.30175385 0.36414459 0.00000000
0.33267910 0.36471131 0.00000000
0.36368498 0.36527078 0.00000000
0.39476923 0.36582296 0.00000000
0.42592960 0.36636778 0.00000000
0.45716383 0.36690521 0.00000000
0.48846969 0.36743520 0.00000000
0.51984491 0.36795769 0.00000000
0.55128726 0.36847265 0.00000000
0.58279448 0.36898003 0.00000000
0.61436434 0.36947978 0.00000000
0.64599461 0.36997184 0.00000000
0.67768306 0.37045618 0.00000000
0.70942747 0.37093273 0.00000000
0.74122562 0.37140145 0.00000000
0.77307529 0.37186227 0.00000000
0.80497427 0.37231514 0.00000000
0.83692035 0.37276000 0.00000000
0.86891132 0.37319680 0.00000000
0.90094499 0.37362548 0.00000000
0.93301915 0.37404597 0.00000000
0.96513161 0.37445821 0.00000000
0.99728017 0.37486215 0.00000000
0.00000000 0.38931161 0.00241405
0.02771169 0.39094837 0.00000000
0.05798028 0.39160281 0.00000000
0.08834490 0.39224944 0.00000000
0.11880323 0.39288821 0.00000000
0.14935299 0.39351912 0.00000000
0.17999189 0.39414211 0.00000000
0.21071762 0.39475715 0.00000000
0.24152792 0.39536422 0.00000000
0.27242050 0.39596327 0.00000000
0.30339310 0.39655426 0.00000000
0.33444344 0.39713716 0.00000000
0.36556926 0.39771193 0.00000000
0.39676830 0.39827852 0.00000000
0.42803832 0.39883688 0.00000000
0.45937707 0.39938698 0.00000000
0.49078230 0.39992876 0.00000000
0.52225178 0.40046217 0.00000000
0.55378327 0.40098717 0.00000000
0.58537454 0.40150370 0.00000000
0.61702336 0.40201171 0.00000000
0.64872751 0.40251115 0.00000000
0.68048477 0.40300197 0.00000000
0.71229293 0.40348410 0.00000000
0.74414976 0.40395750 0.00000000
0.77605307 0.40442211 0.00000000
0.80800065 0.40487786 0.00000000
0.83999029 0.40532470 0.00000000
0.87201979 0.40576256 0.00000000
0.90408697 0.40619140 0.00000000
0.93618962 0.40661114 0.00000000
0.96832555 0.40702172 0.00000000
1.00000000 0.40751886 0.00050161
0.00000000 0.42180720 0.00227953
0.02802245 0.42340730 0.00000000
0.05845381 0.42408024 0.00000000
0.08897595 0.42474453 0.00000000
0.11958657 0.42540012 0.00000000
0.15028339 0.42604699 0.00000000
0.18106413 0.42668510 0.00000000
0.21192651 0.42731441 0.00000000
0.24286827 0.42793488 0.00000000
0.27388712 0.42854647 0.00000000
0.30498083 0.42914914 0.00000000
0.33614712 0.42974285 0.00000000
0.36738374 0.43032755 0.00000000
0.39868846 0.43090320 0.00000000
0.43005902 0.43146974 0.00000000
0.46149319 0.43202714 0.00000000
0.49298873 0.43257533 0.00000000
0.52454342 0.43311428 0.00000000
0.55615503 0.43364392 0.00000000
0.58782133 0.43416420 0.00000000
0.61954010 0.43467508 0.00000000
0.65130913 0.43517649 0.00000000
0.68312621 0.43566837 0.00000000
0.71498913 0.43615068 0.00000000
0.74689569 0.43662335 0.00000000
0.77884367 0.43708632 0.00000000
0.81083089 0.43753953 0.00000000
0.84285514 0.43798292 0.00000000
0.87491424 0.43841644 0.00000000
0.90700599 0.43884000 0.00000000
0.93912820 0.43925357 0.00000000
0.97127869 0.43965706 0.00000000
1.00000000 0.44068893 0.00384937
0.00000000 0.45453017 0.00210703
0.02836143 0.45607330 0.00000000
0.05894627 0.45675943 0.00000000
0.08961666 0.45743606 0.00000000
0.12037032 0.45810314 0.00000000
0.15120496 0.45876065 0.00000000
0.18211833 0.45940853 0.00000000
0.21310816 0.46004676 0.00000000
0.24417219 0.46067528 0.00000000
0.27530815 0.46129406 0.00000000
0.30651381 0.46190304 0.00000000
0.33778692 0.46250219 0.00000000
0.36912523 0.46309146 0.00000000
0.40052650 0.46367079 0.00000000
0.43198851 0.46424014 0.00000000
0.46350901 0.46479946 0.00000000
0.49508579 0.46534869 0.00000000
0.52671663 0.46588778 0.00000000
0.55839930 0.46641667 0.00000000
0.59013159 0.46693532 0.00000000
0.62191129 0.46744366 0.00000000
0.65373619 0.46794164 0.00000000
0.68560409 0.46842919 0.00000000
0.71751278 0.46890626 0.00000000
0.74946006 0.46937279 0.00000000
0.78144374 0.46982872 0.00000000
0.81346162 0.47027398 0.00000000
0.84551152 0.47070851 0.00000000
0.87759125 0.47113225 0.00000000
0.90969862 0.47154514 0.00000000
0.94183144 0.47194710 0.00000000
0.97398755 0.47233808 0.00000000
1.00000000 0.47379183 0.00751565
0.00000000 0.48745304 0.00189959
0.02872535 0.48892018 0.00000000
0.05945437 0.48961419 0.00000000
0.09026373 0.49029783 0.00000000
0.12115115 0.49097108 0.00000000
0.15211438 0.49163388 0.00000000
0.18315116 0.49228620 0.00000000
0.21425922 0.49292800 0.00000000
0.24543633 0.49355923 0.00000000
0.27668023 0.49417984 0.00000000
0.30798868 0.49478979 0.00000000
0.33935945 0.49538902 0.00000000
0.37079031 0.49597748 0.00000000
0.40227902 0.49655513 0.00000000
0.43382336 0.49712192 0.00000000
0.46542111 0.49767778 0.00000000
0.49707004 0.49822266 0.00000000
0.52876796 0.49875652 0.00000000
0.56051263 0.49927928 0.00000000
0.59230187 0.49979090 0.00000000
0.62413345 0.50029131 0.00000000
0.65600519 0.50078046 0.00000000
0.68791487 0.50125828 0.00000000
0.71986032 0.50172472 0.00000000
0.75183932 0.50217971 0.00000000
0.78384970 0.50262319 0.00000000
0.81588926 0.50305509 0.00000000
0.84795583 0.50347535 0.00000000
0.88004720 0.50388391 0.00000000
0.91216122 0.50428070 0.00000000
0.94429569 0.50466566 0.00000000
0.97644844 0.50503871 0.00000000
1.00000000 0.50680001 0.01150408
0.00000000 0.52054829 0.00166059
0.02911065 0.52192182 0.00000000
0.05997455 0.52261837 0.00000000
0.09091360 0.52330372 0.00000000
0.12192553 0.52397780 0.00000000
0.15300809 0.52464057 0.00000000
0.18415904 0.52529200 0.00000000
0.21537613 0.52593203 0.00000000
0.24665711 0.52656062 0.00000000
0.27799976 0.52717771 0.00000000
0.30940184 0.52778326 0.00000000
0.34086113 0.52837721 0.00000000
0.37237539 0.52895952 0.00000000
0.40394241 0.52953012 0.00000000
0.43555996 0.53008897 0.00000000
0.46722585 0.53063600 0.00000000
0.49893785 0.53117116 0.00000000
0.53069375 0.53169440 0.00000000
0.56249136 0.53220565 0.00000000
0.59432848 0.53270485 0.00000000
0.62620289 0.53319195 0.00000000
0.65811242 0.53366688 0.00000000
0.69005487 0.53412958 0.00000000
0.72202804 0.53457998 0.00000000
0.75402974 0.53501803 0.00000000
0.78605781 0.53544366 0.00000000
0.81811004 0.53585680 0.00000000
0.85018427 0.53625739 0.00000000
0.88227830 0.53664536 0.00000000
0.91438997 0.53702065 0.00000000
0.94651710 0.53738318 0.00000000
0.97865752 0.53773289 0.00000000
1.00000000 0.53968597 0.01581808
0.00000000 0.55378836 0.00139364
0.02951358 0.55505213 0.00000000
0.06050306 0.55574593 0.00000000
0.09156251 0.55642765 0.00000000
0.12268968 0.55709724 0.00000000
0.15388233 0.55775466 0.00000000
0.18513821 0.55839986 0.00000000
0.21645510 0.55903278 0.00000000
0.24783077 0.55965338 0.00000000
0.27926298 0.56026161 0.00000000
0.31074951 0.56085741 0.00000000
0.34228814 0.56144073 0.00000000
0.37387666 0.56201151 0.00000000
0.40551285 0.56256970 0.00000000
0.43719450 0.56311524 0.00000000
0.46891941 0.56364807 0.00000000
0.50068537 0.56416814 0.00000000
0.53249018 0.56467538 0.00000000
0.56433165 0.56516974 0.00000000
0.59620757 0.56565114 0.00000000
0.62811576 0.56611954 0.00000000
0.66005402 0.56657486 0.00000000
0.69202018 0.56701704 0.00000000
0.72401204 0.56744602 0.00000000
0.75602742 0.56786174 0.00000000
0.78806414 0.56826412 0.00000000
0.82012003 0.56865310 0.00000000
0.85219290 0.56902861 0.00000000
0.88428058 0.56939060 0.00000000
0.91638091 0.56973897 0.00000000
0.94849170 0.57007368 0.00000000
0.98061080 0.57039465 0.00000000
1.00000000 0.57242218 0.02046075
0.00000000 0.58714568 0.00110263
0.02993018 0.58828514 0.00000000
0.06103593 0.58897086 0.00000000
0.09220650 0.58964363 0.00000000
0.12343964 0.59030341 0.00000000
0.15473313 0.59095014 0.00000000
0.18608472 0.59158377 0.00000000
0.21749220 0.59220424 0.00000000
0.24895333 0.59281152 0.00000000
0.28046591 0.59340553 0.00000000
0.31202772 0.59398623 0.00000000
0.34363654 0.59455356 0.00000000
0.37529016 0.59510746 0.00000000
0.40698639 0.59564787 0.00000000
0.43872300 0.59617474 0.00000000
0.47049782 0.59668801 0.00000000
0.50230863 0.59718760 0.00000000
0.53415325 0.59767347 0.00000000
0.56602948 0.59814555 0.00000000
0.59793513 0.59860378 0.00000000
0.62986802 0.59904809 0.00000000
0.66182596 0.59947842 0.00000000
0.69380677 0.59989470 0.00000000
0.72580828 0.60029686 0.00000000
0.75782829 0.60068485 0.00000000
0.78986464 0.60105859 0.00000000
0.82191515 0.60141801 0.00000000
0.85397765 0.60176305 0.00000000
0.88604996 0.60209365 0.00000000
0.91812993 0.60240972 0.00000000
0.95021537 0.60271120 0.00000000
0.98230413 0.60299802 0.00000000
1.00000000 0.60498120 0.02543492
0.00000000 0.62059266 0.00079168
0.03035630 0.62159487 0.00000000
0.06156903 0.62226720 0.00000000
0.09284144 0.62292571 0.00000000
0.12417130 0.62357035 0.00000000
0.15555637 0.62420105 0.00000000
0.18699443 0.62481778 0.00000000
0.21848328 0.62542047 0.00000000
0.25002069 0.62600907 0.00000000
0.28160445 0.62658352 0.00000000
0.31323235 0.62714377 0.00000000
0.34490219 0.62768975 0.00000000
0.37661177 0.62822141 0.00000000
0.40835888 0.62873868 0.00000000
0.44014133 0.62924152 0.00000000
0.47195694 0.62972984 0.00000000
0.50380349 0.63020360 0.00000000
0.53567882 0.63066272 0.00000000
0.56758072 0.63110715 0.00000000
0.59950702 0.63153682 0.00000000
0.63145554 0.63195166 0.00000000
0.66342409 0.63235161 0.00000000
0.69541050 0.63273659 0.00000000
0.72741259 0.63310656 0.00000000
0.75942818 0.63346142 0.00000000
0.79145512 0.63380113 0.00000000
0.82349122 0.63412560 0.00000000
0.85553431 0.63443478 0.00000000
0.88758223 0.63472858 0.00000000
0.91963281 0.63500695 0.00000000
0.95168389 0.63526980 0.00000000
0.98373329 0.63551708 0.00000000
1.00000000 0.63733558 0.03074311
0.00000000 0.65410168 0.00046508
0.03078764 0.65495543 0.00000000
0.06209807 0.65560905 0.00000000
0.09346305 0.65624797 0.00000000
0.12488036 0.65687214 0.00000000
0.15634777 0.65748149 0.00000000
0.18786308 0.65807598 0.00000000
0.21942408 0.65865554 0.00000000
0.25102856 0.65922012 0.00000000
0.28267431 0.65976966 0.00000000
0.31435914 0.66030410 0.00000000
0.34608084 0.66082338 0.00000000
0.37783721 0.66132744 0.00000000
0.40962608 0.66181622 0.00000000
0.44144524 0.66228964 0.00000000
0.47329251 0.66274766 0.00000000
0.50516570 0.66319021 0.00000000
0.53706263 0.66361721 0.00000000
0.56898111 0.66402861 0.00000000
0.60091897 0.66442434 0.00000000
0.63287404 0.66480433 0.00000000
0.66484413 0.66516851 0.00000000
0.69682707 0.66551682 0.00000000
0.72882069 0.66584920 0.00000000
0.76082282 0.66616556 0.00000000
0.79283130 0.66646584 0.00000000
0.82484394 0.66674997 0.00000000
0.85685859 0.66701788 0.00000000
0.88887308 0.66726950 0.00000000
0.92088525 0.66750477 0.00000000
