assets/luts/DB_Peach_Linen_Rec709_50.cube
TITLE "Peach Linen Rec709 50"
# Red changes fastest. Full-range normalized input.
LUT_3D_SIZE 9
DOMAIN_MIN 0 0 0
DOMAIN_MAX 1 1 1
0.00600000 0.00600000 0.00600000
0.12895469 0.00827905 0.00860514
0.24886309 0.01116509 0.01198381
0.36918640 0.01366035 0.01482036
0.48982657 0.01580528 0.01718362
0.61028977 0.01776061 0.01928104
0.73057475 0.01954157 0.02113422
0.85069107 0.02116017 0.02276073
0.97064830 0.02262844 0.02417817
0.01567635 0.13260979 0.01548716
0.13599099 0.13474264 0.01517349
0.25792403 0.13616439 0.01720540
0.37728460 0.13816918 0.02152611
0.49717085 0.13978598 0.02329853
0.61707091 0.14120301 0.02464573
0.73682655 0.14248559 0.02580631
0.85644570 0.14364623 0.02679937
0.97593795 0.14469697 0.02764247
0.02362513 0.25688610 0.02233805
0.14356214 0.25841045 0.02370509
0.26337184 0.25977814 0.02458496
0.38320351 0.26098399 0.02598830
0.50275347 0.26211489 0.02711620
0.62219930 0.26312956 0.02791561
0.74153385 0.26404974 0.02858254
0.86076413 0.26488841 0.02914107
0.97989968 0.26565759 0.02960879
0.02951385 0.37949207 0.02654496
0.14903960 0.38057151 0.02742702
0.26844470 0.38154995 0.02817039
0.38774030 0.38243897 0.02879417
0.50693571 0.38325083 0.02932038
0.62603915 0.38399772 0.02975995
0.74506092 0.38469148 0.03013215
0.86401060 0.38534415 0.03045509
0.98289775 0.38596776 0.03074635
0.03393482 0.50081778 0.02899895
0.15309518 0.50160466 0.02948962
0.27216778 0.50233080 0.02990227
0.39116220 0.50300822 0.03025450
0.51008801 0.50364892 0.03056387
0.62895476 0.50426492 0.03084796
0.74777204 0.50486825 0.03112436
0.86654940 0.50547091 0.03141065
0.98529641 0.50608493 0.03172439
0.03725439 0.62132009 0.03037116
0.15615759 0.62195041 0.03066930
0.27500522 0.62256041 0.03094856
0.39380686 0.62316210 0.03122652
0.51257206 0.62376751 0.03152076
0.63131041 0.62438864 0.03184887
0.75003146 0.62503751 0.03222842
0.86874478 0.62572614 0.03267698
0.98745995 0.62646654 0.03321214
0.03983685 0.74145645 0.03133083
0.15859117 0.74206618 0.03163537
0.27732211 0.74269602 0.03198017
0.39603924 0.74335798 0.03238281
0.51475213 0.74406407 0.03286086
0.63347034 0.74482630 0.03343192
0.75220345 0.74565670 0.03411355
0.87096102 0.74656728 0.03492333
0.98975262 0.74757006 0.03587884
0.04204646 0.86168430 0.03254720
0.16076018 0.86240944 0.03305707
0.27948270 0.86319510 0.03366635
0.39822361 0.86405330 0.03439260
0.51699246 0.86499605 0.03525340
0.63579883 0.86603537 0.03626634
0.75465228 0.86718328 0.03744898
0.87356238 0.86845180 0.03881892
0.99253869 0.86985292 0.04039372
0.04424748 0.98246110 0.03468948
0.16302888 0.98343762 0.03560364
0.28185128 0.98451508 0.03667632
0.40072424 0.98570551 0.03792512
0.51965734 0.98702091 0.03936761
0.63866014 0.98847330 0.04102136
0.75774221 0.99007470 0.04290396
0.87691312 0.99183713 0.04503298
0.99618243 0.99377259 0.04742601
0.00710778 0.00696523 0.12524220
0.12838969 0.00962647 0.12843757
0.24935583 0.01211745 0.13120641
0.37007506 0.01441150 0.13373121
0.49065819 0.01648962 0.13599939
0.61105980 0.01838438 0.13801190
0.73128643 0.02010886 0.13978613
0.85134765 0.02167506 0.14133967
0.97125302 0.02309501 0.14269010
0.01672662 0.13327661 0.13458856
0.13693248 0.13524760 0.13648318
0.25860643 0.13654178 0.13762021
0.37822264 0.13859934 0.14012285
0.49781582 0.14027986 0.14184937
0.61765758 0.14165299 0.14313474
0.73736578 0.14289282 0.14423646
0.85694076 0.14401479 0.14517662
0.97639209 0.14503093 0.14597281
0.02429411 0.25741524 0.14093644
0.14392951 0.25893005 0.14209237
0.26275243 0.26019523 0.14062500
0.38409130 0.26093582 0.14177953
0.50335891 0.26240804 0.14525808
0.62264068 0.26345138 0.14622887
0.74193740 0.26434309 0.14685850
0.86113444 0.26515682 0.14738421
0.98024000 0.26590513 0.14782509
0.03002059 0.37987074 0.14493601
0.14950213 0.38091499 0.14576771
0.26878998 0.38187448 0.14636721
0.38795906 0.38272535 0.14657357
0.50729491 0.38349289 0.14736327
0.62637126 0.38423753 0.14796171
0.74536558 0.38491713 0.14832145
0.86429294 0.38555859 0.14863167
0.98316103 0.38617506 0.14891618
0.03431384 0.50109257 0.14725042
0.15344333 0.50185748 0.14771262
0.27248825 0.50256573 0.14810272
0.39145738 0.50322947 0.14843687
0.51036207 0.50386031 0.14873413
0.62921189 0.50447060 0.14901629
0.74801456 0.50507239 0.14929459
0.86678054 0.50567756 0.14958824
0.98551943 0.50629816 0.14991530
0.03754248 0.62153717 0.14855062
0.15642573 0.62215925 0.14884037
0.27525667 0.62276508 0.14911722
0.39404486 0.62336668 0.14939874
0.51279987 0.62397608 0.14970251
0.63153127 0.62460528 0.15004612
0.75024862 0.62526631 0.15044713
0.86896150 0.62597117 0.15092313
0.98767947 0.62673189 0.15149170
0.04007077 0.74166201 0.14950583
0.15881607 0.74227722 0.14982207
0.27754125 0.74291662 0.15018454
0.39625586 0.74359222 0.15061082
0.51496949 0.74431603 0.15111849
0.63369169 0.74510006 0.15172512
0.75243203 0.74595635 0.15244830
0.87120008 0.74689689 0.15330560
0.99000542 0.74793371 0.15431461
0.04226298 0.86192452 0.15078530
0.16097861 0.86266886 0.15132696
0.27970631 0.86347781 0.15197399
0.39845563 0.86436338 0.15274396
0.51723615 0.86533758 0.15365446
0.63605744 0.86641243 0.15472306
0.75492905 0.86759995 0.15596734
0.87386056 0.86891215 0.15740487
0.99286154 0.87036105 0.15905325
0.04448337 0.98278216 0.15305825
0.16327762 0.98379161 0.15402427
0.28211612 0.98490609 0.15515479
0.40100844 0.98613761 0.15646739
0.51996413 0.98749819 0.15797966
0.63899278 0.98899984 0.15970916
0.75810395 0.99065457 0.16167347
0.87730720 0.99247442 0.16389018
0.99661211 0.99447138 0.16637687
0.00819535 0.00790822 0.24439271
0.12931928 0.01052866 0.24742778
0.25023319 0.01293492 0.25015960
0.37094615 0.01513911 0.25260619
0.49146853 0.01715293 0.25478566
0.61180964 0.01898852 0.25671527
0.73197903 0.02065789 0.25841258
0.85198625 0.02217308 0.25989518
0.97184087 0.02354609 0.26118063
0.01763306 0.13396874 0.25343023
0.13807719 0.13591328 0.25553693
0.25840824 0.13764861 0.25741870
0.37852487 0.13927610 0.25898746
0.49842888 0.14076265 0.26038509
0.61822775 0.14208800 0.26160310
0.73788964 0.14328646 0.26264798
0.85742156 0.14437114 0.26353728
0.97683306 0.14535408 0.26428857
0.02495100 0.25792580 0.25951238
0.14477214 0.25934450 0.26084645
0.26383163 0.26051964 0.26167499
0.38443901 0.26106981 0.26190343
0.50399982 0.26261999 0.26357963
0.62307434 0.26376024 0.26452695
0.74232932 0.26462751 0.26512263
0.86149420 0.26541768 0.26561757
0.98057088 0.26614651 0.26603363
0.03051278 0.38023683 0.26330990
0.14995101 0.38124709 0.26409533
0.26889294 0.38220347 0.26452300
0.38649987 0.38283695 0.26257127
0.50746708 0.38317654 0.26315483
0.62678151 0.38440135 0.26596074
0.74566344 0.38513791 0.26650441
0.86456845 0.38577015 0.26680529
0.98341858 0.38638086 0.26708507
0.03468202 0.50135943 0.26549156
0.15378173 0.50210375 0.26592732
0.27279744 0.50279594 0.26629526
0.39165149 0.50345640 0.26652086
0.51040636 0.50405716 0.26645516
0.62944721 0.50465204 0.26700793
0.74825432 0.50527564 0.26746080
0.86700857 0.50588598 0.26776966
0.98574042 0.50651456 0.26811210
0.03782342 0.62175100 0.26672656
0.15668784 0.62236621 0.26700996
0.27550319 0.62296926 0.26728642
0.39427897 0.62357217 0.26757346
0.51302390 0.62418706 0.26788734
0.63174943 0.62482558 0.26824699
0.75046524 0.62550013 0.26867399
0.86917881 0.62622265 0.26917995
0.98790068 0.62700507 0.26978397
0.04030126 0.74186897 0.26768414
0.15903865 0.74249105 0.26801410
0.27775917 0.74314140 0.26839627
0.39647238 0.74383202 0.26884822
0.51518784 0.74457493 0.26938753
0.63391513 0.74538216 0.27003177
0.75266381 0.74626571 0.27079852
0.87144345 0.74723760 0.27170537
0.99026362 0.74830985 0.27276990
0.04247978 0.86217080 0.26903352
0.16119844 0.86293574 0.26960900
0.27993241 0.86376936 0.27029581
0.39869125 0.86468368 0.27111153
0.51748454 0.86569072 0.27207375
0.63632185 0.86680248 0.27320004
0.75521273 0.86803100 0.27450798
0.87416676 0.86938828 0.27601515
0.99319351 0.87088633 0.27773913
0.04472327 0.98311394 0.27144396
0.16353147 0.98415771 0.27246387
0.28238717 0.98531059 0.27365426
0.40129994 0.98658460 0.27503270
0.52027934 0.98799173 0.27661676
0.63933493 0.98954403 0.27842404
0.75847630 0.99125349 0.28047210
0.87771300 0.99313213 0.28277852
0.99705461 0.99519198 0.28536089
0.00925487 0.00882295 0.36353324
0.13030621 0.01136940 0.36646309
0.25115079 0.01370567 0.36909630
0.37179819 0.01584376 0.37145045
0.49225796 0.01779569 0.37354311
0.61253969 0.01957348 0.37539186
0.73265292 0.02118915 0.37701428
0.85260725 0.02265470 0.37842795
0.97241222 0.02398217 0.37965045
0.01846261 0.13465030 0.37224165
0.13885644 0.13653744 0.37424354
0.25907581 0.13825468 0.37600828
0.37913029 0.13981427 0.37755252
0.49902889 0.14122832 0.37889424
0.61878183 0.14250851 0.38005149
0.73839851 0.14366698 0.38104156
0.85788846 0.14471576 0.38188201
0.97726126 0.14566687 0.38259043
0.02558649 0.25842043 0.37806327
0.14543028 0.25978429 0.37933652
0.26511191 0.26101414 0.38045024
0.38470346 0.26208692 0.38142359
0.50418337 0.26311911 0.38216683
0.62348365 0.26406502 0.38281911
0.74270993 0.26490348 0.38337565
0.86184379 0.26567147 0.38384183
0.98089268 0.26638221 0.38423511
0.03099078 0.38059080 0.38166732
0.15039397 0.38156734 0.38240994
0.26959679 0.38245949 0.38303351
0.38775948 0.38308995 0.38333065
0.50757279 0.38315758 0.38314481
0.62721021 0.38448452 0.38416125
0.74595795 0.38535202 0.38468216
0.86483750 0.38597928 0.38497663
0.98367076 0.38658564 0.38525371
0.03503973 0.50161885 0.38372304
0.15411077 0.50234396 0.38413440
0.27309819 0.50302129 0.38448429
0.39157600 0.50368531 0.38459311
0.50836115 0.50396488 0.38269397
0.62915551 0.50417526 0.38303943
0.74855567 0.50540220 0.38545500
0.86723487 0.50609601 0.38595442
0.98595977 0.50673460 0.38631547
0.03809761 0.62196204 0.38489967
0.15694429 0.62257177 0.38517874
0.27574514 0.62317342 0.38545685
0.39450683 0.62377940 0.38574999
0.51314541 0.62440770 0.38599201
0.63172226 0.62502853 0.38604478
0.75066071 0.62571347 0.38674647
0.86939849 0.62647970 0.38744267
0.98812397 0.62728655 0.38808960
0.04052870 0.74207781 0.38586643
0.15925929 0.74270814 0.38621216
0.27797625 0.74337082 0.38661605
0.39668915 0.74407785 0.38709569
0.51540748 0.74484127 0.38766860
0.63414000 0.74567317 0.38835110
0.75289817 0.74658524 0.38916203
0.87169148 0.74758985 0.39012285
0.99052760 0.74869895 0.39124539
0.04269725 0.86242362 0.38729256
0.16142003 0.86321054 0.38790388
0.28016138 0.86407022 0.38863250
0.39893085 0.86501468 0.38949600
0.51773801 0.86605593 0.39051196
0.63659244 0.86720600 0.39169797
0.75550369 0.86847690 0.39307160
0.87448135 0.86988063 0.39465043
0.99353497 0.87142923 0.39645203
0.04496753 0.98345692 0.38984730
0.16379080 0.98453640 0.39092314
0.28266480 0.98572907 0.39217542
0.40159913 0.98704694 0.39362172
0.52060333 0.98850202 0.39527961
0.63968698 0.99010634 0.39716669
0.75885965 0.99187191 0.39930052
0.87813091 0.99381074 0.40169868
0.99751032 0.99593486 0.40437876
0.01028943 0.00971206 0.48263759
0.13126948 0.01218578 0.48546473
0.25204602 0.01445339 0.48800119
0.37262863 0.01652692 0.49026457
0.49302686 0.01841836 0.49227242
0.61325030 0.02013975 0.49404234
0.73330849 0.02170309 0.49559190
0.85321102 0.02312040 0.49693867
0.97296745 0.02440370 0.49810025
0.01927027 0.13531097 0.49102421
0.13960376 0.13713911 0.49294340
0.25976593 0.13880157 0.49463106
0.37976635 0.14031035 0.49610476
0.49961458 0.14167749 0.49738207
0.61932020 0.14291498 0.49848059
0.73889277 0.14403485 0.49941788
0.85834186 0.14504911 0.50021152
0.97767704 0.14596979 0.50087910
0.02620403 0.25889884 0.49659159
0.14599923 0.26021739 0.49780178
0.26565528 0.26141066 0.49883962
0.38518178 0.26249054 0.49972301
0.50458852 0.26346930 0.50046858
0.62388444 0.26435906 0.50109430
0.74307964 0.26517146 0.50161824
0.86218358 0.26591866 0.50205769
0.98120579 0.26661269 0.50243020
0.03145496 0.38093313 0.50000897
0.15082016 0.38187806 0.50070908
0.27007740 0.38273815 0.50129648
0.38920928 0.38351882 0.50180968
0.50827802 0.38419430 0.50227380
0.62732959 0.38489782 0.50257102
0.74623517 0.38556907 0.50286252
0.86510045 0.38618649 0.50314640
0.98391797 0.38678986 0.50342279
0.03538733 0.50187129 0.50194557
0.15443081 0.50257858 0.50233455
0.27339898 0.50324150 0.50266946
0.39219928 0.50387308 0.50297572
0.50977804 0.50423237 0.50320540
0.62912816 0.50409953 0.50303437
0.74886944 0.50545037 0.50367482
0.86746263 0.50630573 0.50414404
0.98617785 0.50695874 0.50452609
0.03836541 0.62217076 0.50307064
0.15719545 0.62277640 0.50334742
0.27598293 0.62337804 0.50362919
0.39473146 0.62398830 0.50393254
0.51298808 0.62463083 0.50411678
0.62946416 0.62487609 0.50267475
0.75026076 0.62522070 0.50314148
0.86968465 0.62666370 0.50556175
0.98835075 0.62757614 0.50640821
0.04075346 0.74228899 0.50405341
0.15947835 0.74292896 0.50441692
0.27819286 0.74360535 0.50484457
0.39690655 0.74433019 0.50535393
0.51562609 0.74511584 0.50596117
0.63427049 0.74597990 0.50660661
0.75291525 0.74689440 0.50715749
0.87193571 0.74792926 0.50840314
0.99079965 0.74910020 0.50973649
0.04291575 0.86268345 0.50556311
0.16164377 0.86349373 0.50621229
0.28039359 0.86438085 0.50698474
0.39917479 0.86535684 0.50789805
0.51799693 0.86643370 0.50896979
0.63686952 0.86762346 0.51021748
0.75580144 0.86893825 0.51165747
0.87480406 0.87038974 0.51330854
0.99388634 0.87199020 0.51519217
0.04521655 0.98381157 0.50826897
0.16405597 0.98492814 0.50940275
0.28294939 0.98616198 0.51071895
0.40190637 0.98752510 0.51223514
0.52093648 0.98902952 0.51396889
0.64004929 0.99068725 0.51593780
0.75925437 0.99251032 0.51815942
0.87856128 0.99451072 0.52065136
0.99797960 0.99670049 0.52343117
0.01129941 0.01057600 0.60170638
0.13220928 0.01297838 0.60443284
0.25291889 0.01517873 0.60687459
0.37343781 0.01718908 0.60904922
0.49377560 0.01902142 0.61097429
0.61394185 0.02068779 0.61266741
0.73394611 0.02220019 0.61414613
0.85379795 0.02357064 0.61542804
0.97350694 0.02481116 0.61653071
0.02005707 0.13595114 0.60977803
0.14033131 0.13772167 0.61161662
0.26043747 0.13933059 0.61322965
0.38038513 0.14078992 0.61463468
0.50018386 0.14211168 0.61584930
0.61984322 0.14330788 0.61689109
0.73937278 0.14439054 0.61777763
0.85878212 0.14537167 0.61852649
0.97808079 0.14626329 0.61915526
0.02680441 0.25936142 0.61509800
0.14655130 0.26063608 0.61624766
0.26616230 0.26178955 0.61723090
0.38564698 0.26283386 0.61806528
0.50501492 0.26378101 0.61876838
0.62427568 0.26464303 0.61935778
0.74343883 0.26543192 0.61985107
0.86251394 0.26615972 0.62026582
0.98151058 0.26683842 0.62061961
0.03190570 0.38126429 0.61833552
0.15123352 0.38217906 0.61899520
0.27045763 0.38301307 0.61954757
0.38958759 0.38377832 0.62001029
0.50863293 0.38448668 0.62040128
0.62760361 0.38515046 0.62073710
0.74650854 0.38578177 0.62103571
0.86535768 0.38639223 0.62131526
0.98416056 0.38699399 0.62159300
0.03572521 0.50211721 0.62015983
0.15474223 0.50280807 0.62052845
0.27368775 0.50345859 0.62084891
0.39257017 0.50408076 0.62113943
0.51136662 0.50467833 0.62144278
0.63013459 0.50522362 0.62179089
0.74896178 0.50586354 0.62202654
0.86767923 0.50652528 0.62234457
0.98639502 0.50718746 0.62274468
0.03862719 0.62237763 0.62124017
0.15744171 0.62298056 0.62151667
0.27621691 0.62358358 0.62180415
0.39496177 0.62419874 0.62212028
0.51357831 0.62483676 0.62249908
0.63094934 0.62522075 0.62305447
0.75022550 0.62519009 0.62326214
0.86999311 0.62677500 0.62392747
0.98858438 0.62787191 0.62474163
0.04097592 0.74250299 0.62224576
0.15969621 0.74315398 0.62262908
0.27840938 0.74384548 0.62308251
0.39712497 0.74458949 0.62362362
0.51584669 0.74539861 0.62426929
0.63413858 0.74629530 0.62490806
0.75093675 0.74686767 0.62419524
0.87188699 0.74760156 0.62516914
0.99117173 0.74943896 0.62810190
0.04313567 0.86295075 0.62384584
0.16187002 0.86378578 0.62453491
0.28062942 0.86470173 0.62535323
0.39942345 0.86571063 0.62631837
0.51826167 0.86682448 0.62744791
0.63715099 0.86805572 0.62875808
0.75602548 0.86942450 0.63019063
0.87499384 0.87090972 0.63160833
0.99427250 0.87255145 0.63380215
0.04547069 0.98417836 0.62670964
0.16432738 0.98533341 0.62790340
0.28324131 0.98660980 0.62928555
0.40222205 0.98801956 0.63087365
0.52127918 0.98957470 0.63268529
0.64042225 0.99128723 0.63473805
0.75966079 0.99316919 0.63704944
0.87900397 0.99523276 0.63963575
0.99846288 0.99748955 0.64251578
0.01228520 0.01141526 0.72074032
0.13312598 0.01374769 0.72336812
0.25376976 0.01588216 0.72571718
0.37422610 0.01783071 0.72780509
0.49450456 0.01960534 0.72964942
0.61461472 0.02121807 0.73126775
0.73456614 0.02268092 0.73267766
0.85436840 0.02400590 0.73389673
0.97403106 0.02520503 0.73494254
0.02082338 0.13657129 0.72850381
0.14103947 0.13828558 0.73026383
0.26109073 0.13984236 0.73180425
0.38098674 0.14125362 0.73314264
0.50073706 0.14253139 0.73429660
0.62035127 0.14368769 0.73528370
0.73983893 0.14473452 0.73612151
0.85920961 0.14568391 0.73682761
0.97847288 0.14654786 0.73741959
0.02738803 0.25980863 0.73358318
0.14708769 0.26104079 0.73467436
0.26665472 0.26215584 0.73560507
0.38609868 0.26316581 0.73639289
0.50542915 0.26408270 0.73705541
0.62465569 0.26491854 0.73761021
0.74378787 0.26568534 0.73807485
0.86283525 0.26639511 0.73846692
0.98180742 0.26705988 0.73880401
0.03234339 0.38158476 0.73664767
0.15163491 0.38247075 0.73726894
0.27082599 0.38328006 0.73778888
0.38992619 0.38402471 0.73822507
0.50894508 0.38471671 0.73859508
0.62789223 0.38536807 0.73891651
0.74677721 0.38599082 0.73920692
0.86560959 0.38659696 0.73948390
0.98439892 0.38719852 0.73976503
0.03605374 0.50235710 0.73836651
0.15504540 0.50303292 0.73871680
0.27396881 0.50367247 0.73902490
0.39283353 0.50428778 0.73930839
0.51164908 0.50489085 0.73958491
0.63042499 0.50549353 0.73987243
0.74917131 0.50610818 0.74018740
0.86789690 0.50674689 0.74054781
0.98661167 0.50742124 0.74097189
0.03888334 0.62258312 0.73940893
0.15768343 0.62318474 0.73968719
0.27644745 0.62379052 0.73998239
0.39518497 0.62441247 0.74031211
0.51390435 0.62506257 0.74069467
0.63258128 0.62574367 0.74117708
0.75127587 0.62642780 0.74179643
0.87007823 0.62726763 0.74235989
0.98881165 0.62818410 0.74309453
0.04119646 0.74272027 0.74044416
0.15991326 0.74338367 0.74084932
0.27862617 0.74409166 0.74133056
0.39734477 0.74485624 0.74190545
0.51607805 0.74568948 0.74259172
0.63473259 0.74660202 0.74342959
0.75233542 0.74732892 0.74463311
0.87198518 0.74772370 0.74551812
0.99159683 0.74971586 0.74672630
0.04335737 0.86322600 0.74214145
0.16209915 0.86408717 0.74287244
0.28086924 0.86503334 0.74373865
0.39967721 0.86607653 0.74475765
0.51853261 0.86722876 0.74594703
0.63743969 0.86850270 0.74732374
0.75603687 0.86993398 0.74878102
0.87390678 0.87123670 0.74893712
0.99513835 0.87260656 0.75083054
0.04573033 0.98455776 0.74517002
0.16460539 0.98575267 0.74642578
0.28354093 0.98707301 0.74787590
0.40254654 0.98853079 0.74953795
0.52163178 0.99013803 0.75142950
0.64080621 0.99190675 0.75356814
0.76007732 0.99384949 0.75596999
0.87940913 0.99599301 0.75857001
0.99896654 0.99832944 0.76121238
0.01324716 0.01223031 0.83974008
0.13401996 0.01449416 0.84227124
0.25459901 0.01656415 0.84452965
0.37499387 0.01845228 0.84653286
0.49521410 0.02017058 0.84829847
0.61526928 0.02173107 0.84984405
0.73516898 0.02314575 0.85118718
0.85492275 0.02442664 0.85234544
0.97454017 0.02558576 0.85333640
0.02156958 0.13717188 0.84720224
0.14172862 0.13883133 0.84888571
0.26172608 0.14033735 0.85035555
0.38157155 0.14170193 0.85162934
0.50127457 0.14293710 0.85272465
0.62084473 0.14405487 0.85365908
0.74029159 0.14506726 0.85445019
0.85962472 0.14598629 0.85511557
0.97885369 0.14682397 0.85567278
0.02795524 0.26024096 0.85204784
0.14760878 0.26143200 0.85308255
0.26713295 0.26251001 0.85396276
0.38653729 0.26348702 0.85470606
0.50583139 0.26437504 0.85533002
0.62502481 0.26518609 0.85585223
0.74412712 0.26593217 0.85629026
0.86314789 0.26662531 0.85666168
0.98209668 0.26727753 0.85698409
0.03276838 0.38189499 0.85494611
0.15202472 0.38275359 0.85553099
0.27118386 0.38353960 0.85602052
0.39025538 0.38426502 0.85643227
0.50924884 0.38494187 0.85678381
0.62817380 0.38558217 0.85709273
0.74703984 0.38619793 0.85737661
0.86585653 0.38680116 0.85765303
0.98463342 0.38740390 0.85793956
0.03637329 0.50259142 0.85656629
0.15534070 0.50325358 0.85690029
0.27424311 0.50388355 0.85719806
0.39309007 0.50449336 0.85747719
0.51189116 0.50509502 0.85775525
0.63065595 0.50570056 0.85804983
0.74939401 0.50632197 0.85837850
0.86811489 0.50697129 0.85875884
0.98682818 0.50766053 0.85920843
0.03913422 0.62278772 0.85757762
0.15792099 0.62338940 0.85785966
0.27667494 0.62399932 0.85816461
0.39540563 0.62462951 0.85851006
0.51412264 0.62529196 0.85891358
0.63283549 0.62599870 0.85939281
0.75155371 0.62676156 0.85996577
0.87028734 0.62759291 0.86064881
0.98904524 0.62850484 0.86145996
0.04141545 0.74294131 0.85864932
0.16012985 0.74361851 0.85907834
0.27884363 0.74434436 0.85958941
0.39756633 0.74513090 0.86020011
0.51630754 0.74599014 0.86092802
0.63507568 0.74693403 0.86179151
0.75385059 0.74796584 0.86284011
0.87270451 0.74905972 0.86411200
0.99167717 0.75036142 0.86539756
0.04358123 0.86350967 0.86045063
0.16233156 0.86439836 0.86122557
0.28111344 0.86537613 0.86214170
0.39993644 0.86645500 0.86321659
0.51881013 0.86764700 0.86446782
0.63774357 0.86896417 0.86591311
0.75666085 0.87042036 0.86759325
0.87499830 0.87183072 0.86969654
0.99552759 0.87299478 0.87149233
0.04599584 0.98495024 0.86365078
0.16489037 0.98618640 0.86497058
0.28384864 0.98755206 0.86649069
0.40288022 0.98905926 0.86822871
0.52199467 0.99071999 0.87020221
0.64120158 0.99254628 0.87242876
0.76050632 0.99455105 0.87492510
0.87969235 0.99680211 0.87754975
0.99950213 0.99928024 0.87858202
0.01418567 0.01302161 0.95870635
0.13489160 0.01521827 0.96114292
0.25540702 0.01722516 0.96331268
0.37574150 0.01905427 0.96523324
0.49590461 0.02071763 0.96692215
0.61590591 0.02222725 0.96839701
0.73575498 0.02359514 0.96967538
0.85546138 0.02483334 0.97077486
0.97503467 0.02595384 0.97171301
0.02229604 0.13775339 0.96587400
0.14239914 0.13935939 0.96748295
0.26234391 0.14081602 0.96888424
0.38213992 0.14213531 0.97009545
0.50179676 0.14332926 0.97113415
0.62132397 0.14440990 0.97201794
0.74073113 0.14538924 0.97276437
0.86002782 0.14627929 0.97339105
0.97922358 0.14709207 0.97391553
0.02850642 0.26065886 0.97049264
0.14811495 0.26181017 0.97147291
0.26759735 0.26285253 0.97230466
0.38696319 0.26379798 0.97300546
0.50622203 0.26465851 0.97359290
0.62538343 0.26544614 0.97408455
0.74445698 0.26617290 0.97449798
0.86345223 0.26685080 0.97485079
0.98237875 0.26749185 0.97516055
0.03318106 0.38219546 0.97323152
0.15240332 0.38302806 0.97378205
0.27153163 0.38379214 0.97424319
0.39057557 0.38449972 0.97463252
0.50954469 0.38516281 0.97496762
0.62844857 0.38579343 0.97526607
0.74729678 0.38640359 0.97554544
0.86609888 0.38700531 0.97582332
0.98486444 0.38761061 0.97611729
0.03668424 0.50282065 0.97475987
0.15562850 0.50347052 0.97507959
0.27451101 0.50409230 0.97536906
0.39334132 0.50469800 0.97564586
0.51212901 0.50529963 0.97592756
0.63088365 0.50590921 0.97623174
0.74961480 0.50653876 0.97657599
0.86833203 0.50720028 0.97697788
0.98704491 0.50790580 0.97745498
0.03938022 0.62299187 0.97574692
0.15815477 0.62359500 0.97603477
0.27689974 0.62421046 0.97635151
0.39562472 0.62485026 0.97671470
0.51433926 0.62552641 0.97714194
0.63305293 0.62625094 0.97765080
0.75177531 0.62703585 0.97825885
0.87051596 0.62789316 0.97898368
0.98928444 0.62883489 0.97984287
0.04163326 0.74316658 0.97686191
0.16034638 0.74385895 0.97731682
0.27906211 0.74460407 0.97785976
0.39779003 0.74541395 0.97850829
0.51653970 0.74630061 0.97928000
0.63532070 0.74727606 0.98019247
0.75414254 0.74835230 0.98126334
0.87301481 0.74954120 0.98251063
0.99194745 0.75085510 0.98395066
0.04380763 0.86380223 0.97877406
0.16256760 0.86471982 0.97959498
0.28136237 0.86573058 0.98056305
0.40020152 0.86684652 0.98169586
0.51909460 0.86807966 0.98301098
0.63805120 0.86944202 0.98452599
0.75707992 0.87094559 0.98625926
0.87617188 0.87259587 0.98825942
0.99542321 0.87437227 0.99055915
0.04626760 0.98535627 0.98215261
0.16518270 0.98663506 0.98353847
0.28416480 0.98804744 0.98513062
0.40322345 0.98960543 0.98694663
0.52236823 0.99132104 0.98900410
0.64160871 0.99320628 0.99132059
0.76095404 0.99527326 0.99391380
0.88036179 0.99754328 0.99681606
1.00000000 1.00000000 1.00000000
