assets/luts/DB_Peach_Linen_Rec709_100.cube
TITLE "Peach Linen Rec709 100"
# Red changes fastest. Full-range normalized input.
LUT_3D_SIZE 9
DOMAIN_MIN 0 0 0
DOMAIN_MAX 1 1 1
0.01200000 0.01200000 0.01200000
0.13290938 0.01655811 0.01721028
0.24772618 0.02233017 0.02396761
0.36337280 0.02732069 0.02964073
0.47965314 0.03161056 0.03436723
0.59557954 0.03552122 0.03856208
0.71114950 0.03908313 0.04226843
0.82638214 0.04232035 0.04552147
0.94129659 0.04525689 0.04835634
0.03135269 0.14021958 0.03097431
0.14698198 0.14448528 0.03034699
0.26584805 0.14732879 0.03441080
0.37956920 0.15133835 0.04305222
0.49434170 0.15457196 0.04659707
0.60914183 0.15740602 0.04929146
0.72365309 0.15997117 0.05161262
0.83789141 0.16229247 0.05359873
0.95187591 0.16439394 0.05528495
0.04725026 0.26377220 0.04467610
0.16212428 0.26682090 0.04741018
0.27674369 0.26955628 0.04916993
0.39140701 0.27196799 0.05197659
0.50550694 0.27422978 0.05423241
0.61939859 0.27625912 0.05583122
0.73306770 0.27809948 0.05716509
0.84652825 0.27977682 0.05828214
0.95979936 0.28131518 0.05921758
0.05902771 0.38398414 0.05308992
0.17307920 0.38614302 0.05485405
0.28688939 0.38809990 0.05634078
0.40048060 0.38987794 0.05758835
0.51387143 0.39150166 0.05864077
0.62707829 0.39299543 0.05951990
0.74012185 0.39438296 0.06026430
0.85302120 0.39568831 0.06091017
0.96579549 0.39693552 0.06149270
0.06786963 0.50163556 0.05799790
0.18119035 0.50320933 0.05897923
0.29433557 0.50466161 0.05980454
0.40732441 0.50601643 0.06050899
0.52017602 0.50729784 0.06112773
0.63290953 0.50852985 0.06169593
0.74554407 0.50973650 0.06224873
0.85809879 0.51094182 0.06282129
0.97059282 0.51216985 0.06344878
0.07450878 0.61764018 0.06074232
0.18731518 0.61890082 0.06133859
0.30001045 0.62012082 0.06189711
0.41261372 0.62132420 0.06245304
0.52514413 0.62253501 0.06304153
0.63762081 0.62377727 0.06369774
0.75006291 0.62507502 0.06445683
0.86248956 0.62645228 0.06535396
0.97491990 0.62793308 0.06642428
0.07967370 0.73291289 0.06266167
0.19218234 0.73413237 0.06327074
0.30464422 0.73539205 0.06396034
0.41707848 0.73671596 0.06476562
0.52950425 0.73812813 0.06572173
0.64194068 0.73965260 0.06686383
0.75440689 0.74131340 0.06822709
0.86692204 0.74313456 0.06984665
0.97950524 0.74514011 0.07175768
0.08409291 0.84836860 0.06509439
0.19652035 0.84981887 0.06611415
0.30896541 0.85139020 0.06733270
0.42144722 0.85310659 0.06878519
0.53398493 0.85499210 0.07050680
0.64659766 0.85707075 0.07253267
0.75930455 0.85936657 0.07489796
0.87212475 0.86190359 0.07763783
0.98507738 0.86470585 0.08078744
0.08849496 0.96492220 0.06937897
0.20105776 0.96687524 0.07120727
0.31370256 0.96903017 0.07335265
0.42644849 0.97141102 0.07585024
0.53931469 0.97404182 0.07873521
0.65232028 0.97694661 0.08204272
0.76548442 0.98014941 0.08580792
0.87882624 0.98367426 0.09006597
0.99236486 0.98754518 0.09485203
0.01421555 0.01393046 0.12548441
0.13177938 0.01925294 0.13187513
0.24871167 0.02423489 0.13741281
0.36515012 0.02882300 0.14246241
0.48131638 0.03297923 0.14699879
0.59711959 0.03676876 0.15102379
0.71257286 0.04021771 0.15457225
0.82769529 0.04335012 0.15767934
0.94250603 0.04619002 0.16038019
0.03345324 0.14155323 0.14417711
0.14886497 0.14549521 0.14796637
0.26721287 0.14808356 0.15024042
0.38144529 0.15219867 0.15524571
0.49563164 0.15555971 0.15869874
0.61031515 0.15830599 0.16126948
0.72473155 0.16078564 0.16347292
0.83888152 0.16302959 0.16535325
0.95278418 0.16506186 0.16694562
0.04858821 0.26483047 0.15687287
0.16285903 0.26786010 0.15918475
0.27550487 0.27039046 0.15624999
0.39318261 0.27187163 0.15855906
0.50671783 0.27481608 0.16551616
0.62028137 0.27690277 0.16745775
0.73387481 0.27868619 0.16871699
0.84726888 0.28031364 0.16976843
0.96048001 0.28181026 0.17065018
0.06004119 0.38474148 0.16487201
0.17400426 0.38682998 0.16653541
0.28757996 0.38874897 0.16773441
0.40091812 0.39045070 0.16814714
0.51458981 0.39198579 0.16972655
0.62774252 0.39347507 0.17092342
0.74073117 0.39483426 0.17164289
0.85358589 0.39611718 0.17226335
0.96632205 0.39735011 0.17283236
0.06862769 0.50218514 0.16950084
0.18188666 0.50371495 0.17042525
0.29497649 0.50513147 0.17120543
0.40791476 0.50645894 0.17187374
0.52072414 0.50772062 0.17246825
0.63342379 0.50894120 0.17303257
0.74602912 0.51014478 0.17358918
0.85856108 0.51135512 0.17417647
0.97103885 0.51259632 0.17483061
0.07508495 0.61807435 0.17210124
0.18785146 0.61931849 0.17268074
0.30051334 0.62053015 0.17323444
0.41308972 0.62173336 0.17379748
0.52559974 0.62295216 0.17440503
0.63806254 0.62421057 0.17509223
0.75049724 0.62553262 0.17589426
0.86292300 0.62694235 0.17684627
0.97535894 0.62846379 0.17798340
0.08014153 0.73332401 0.17401166
0.19263214 0.73455445 0.17464414
0.30508250 0.73583325 0.17536908
0.41751173 0.73718444 0.17622164
0.52993898 0.73863205 0.17723698
0.64238337 0.74020013 0.17845024
0.75486406 0.74191269 0.17989660
0.86740017 0.74379378 0.18161120
0.98001084 0.74586741 0.18362921
0.08452595 0.84884904 0.17657060
0.19695723 0.85033773 0.17765392
0.30941262 0.85195562 0.17894798
0.42191127 0.85372676 0.18048792
0.53447231 0.85567516 0.18230892
0.64711487 0.85782486 0.18444611
0.75985810 0.86019990 0.18693467
0.87272112 0.86282430 0.18980975
0.98572309 0.86572210 0.19310650
0.08896675 0.96556431 0.18111650
0.20155525 0.96758322 0.18304854
0.31423225 0.96981218 0.18530958
0.42701687 0.97227522 0.18793479
0.53992827 0.97499638 0.19095931
0.65298556 0.97799967 0.19441831
0.76620789 0.98130915 0.19834695
0.87961440 0.98494883 0.20278037
0.99322422 0.98894275 0.20775374
0.01639071 0.01581644 0.23878543
0.13363857 0.02105732 0.24485556
0.25046638 0.02586983 0.25031920
0.36689230 0.03027822 0.25521238
0.48293705 0.03430586 0.25957132
0.59861929 0.03797703 0.26343054
0.71395805 0.04131579 0.26682517
0.82897249 0.04434616 0.26979035
0.94368173 0.04709219 0.27236125
0.03526612 0.14293749 0.25686046
0.15115437 0.14682656 0.26107386
0.26681648 0.15029722 0.26483740
0.38204975 0.15355220 0.26797491
0.49685775 0.15652530 0.27077017
0.61145551 0.15917601 0.27320620
0.72577928 0.16157292 0.27529596
0.83984311 0.16374229 0.27707455
0.95366613 0.16570815 0.27857713
0.04990199 0.26585160 0.26902477
0.16454429 0.26868900 0.27169291
0.27766327 0.27103928 0.27334997
0.39387801 0.27213963 0.27380685
0.50799963 0.27523999 0.27715926
0.62114868 0.27752047 0.27905391
0.73465863 0.27925503 0.28024526
0.84798840 0.28083537 0.28123514
0.96114176 0.28229303 0.28206727
0.06102555 0.38547365 0.27661980
0.17490202 0.38749419 0.27819065
0.28778587 0.38940694 0.27904601
0.39799974 0.39067389 0.27514255
0.51493416 0.39135307 0.27630965
0.62856303 0.39380269 0.28192148
0.74132687 0.39527582 0.28300881
0.85413690 0.39654029 0.28361059
0.96683715 0.39776172 0.28417014
0.06936404 0.50271887 0.28098311
0.18256346 0.50420750 0.28185464
0.29559487 0.50559187 0.28259053
0.40830298 0.50691280 0.28304172
0.52081273 0.50811433 0.28291031
0.63389442 0.50930407 0.28401585
0.74650863 0.51055128 0.28492161
0.85901714 0.51177196 0.28553933
0.97148084 0.51302913 0.28622420
0.07564685 0.61850200 0.28345312
0.18837568 0.61973242 0.28401991
0.30100638 0.62093851 0.28457284
0.41355793 0.62214435 0.28514693
0.52604780 0.62337412 0.28577467
0.63849887 0.62465116 0.28649397
0.75093048 0.62600025 0.28734799
0.86335761 0.62744531 0.28835991
0.97580136 0.62901015 0.28956793
0.08060251 0.73373794 0.28536827
0.19307730 0.73498211 0.28602821
0.30551834 0.73628280 0.28679255
0.41794475 0.73766404 0.28769644
0.53037568 0.73914987 0.28877505
0.64283025 0.74076432 0.29006353
0.75532761 0.74253142 0.29159705
0.86788690 0.74447520 0.29341075
0.98052724 0.74661969 0.29553979
0.08495956 0.84934160 0.28806705
0.19739688 0.85087148 0.28921800
0.30986482 0.85253872 0.29059162
0.42238251 0.85436736 0.29222306
0.53496909 0.85638143 0.29414750
0.64764369 0.85860497 0.29640008
0.76042546 0.86106200 0.29901596
0.87333352 0.86377655 0.30203030
0.98638702 0.86677266 0.30547825
0.08944653 0.96622788 0.29288792
0.20206294 0.96831543 0.29492775
0.31477435 0.97062119 0.29730852
0.42759988 0.97316919 0.30006539
0.54055867 0.97598347 0.30323353
0.65366987 0.97908805 0.30684807
0.76695260 0.98250697 0.31094419
0.88042601 0.98626426 0.31555704
0.99410922 0.99038395 0.32072178
0.01850974 0.01764591 0.35206648
0.13561242 0.02273881 0.35792618
0.25230159 0.02741133 0.36319260
0.36859638 0.03168751 0.36790089
0.48451593 0.03559138 0.37208621
0.60007937 0.03914696 0.37578371
0.71530585 0.04237830 0.37902855
0.83021449 0.04530941 0.38185590
0.94482444 0.04796434 0.38430089
0.03692523 0.14430060 0.36948331
0.15271288 0.14807488 0.37348707
0.26815163 0.15150937 0.37701656
0.38326057 0.15462853 0.38010505
0.49805777 0.15745664 0.38278848
0.61256366 0.16001702 0.38510297
0.72679702 0.16233396 0.38708311
0.84077693 0.16443152 0.38876403
0.95452251 0.16633374 0.39018087
0.05117298 0.26684087 0.38112654
0.16586055 0.26956859 0.38367303
0.28022382 0.27202829 0.38590049
0.39440691 0.27417385 0.38784718
0.50836674 0.27623823 0.38933365
0.62196729 0.27813003 0.39063821
0.73541986 0.27980697 0.39175131
0.84868758 0.28134295 0.39268366
0.96178537 0.28276442 0.39347022
0.06198155 0.38618160 0.38833465
0.17578794 0.38813468 0.38981988
0.28919359 0.38991898 0.39106702
0.40051895 0.39117990 0.39166129
0.51514558 0.39131517 0.39128962
0.62942042 0.39396904 0.39332250
0.74191590 0.39570404 0.39436433
0.85467500 0.39695857 0.39495327
0.96734153 0.39817127 0.39550742
0.07007945 0.50323770 0.39244609
0.18322154 0.50468793 0.39326880
0.29619637 0.50604258 0.39396858
0.40815200 0.50737062 0.39418623
0.51672231 0.50792975 0.39038794
0.63331102 0.50835052 0.39107886
0.74711134 0.51080440 0.39590999
0.85946974 0.51219202 0.39690884
0.97191953 0.51346920 0.39763094
0.07619522 0.61892407 0.39479934
0.18888858 0.62014354 0.39535749
0.30149029 0.62134684 0.39591370
0.41401366 0.62255880 0.39649999
0.52629082 0.62381541 0.39698402
0.63844452 0.62505706 0.39708955
0.75132142 0.62642695 0.39849294
0.86379699 0.62795940 0.39988533
0.97624793 0.62957310 0.40117921
0.08105739 0.73415562 0.39673286
0.19351857 0.73541629 0.39742431
0.30595250 0.73674164 0.39823210
0.41837830 0.73815570 0.39919139
0.53081497 0.73968254 0.40033721
0.64328000 0.74134634 0.40170220
0.75579634 0.74317048 0.40332406
0.86838296 0.74517969 0.40524569
0.98105520 0.74739789 0.40749078
0.08539450 0.84984724 0.39958513
0.19784007 0.85142107 0.40080775
0.31032276 0.85314043 0.40226499
0.42286169 0.85502935 0.40399200
0.53547602 0.85711186 0.40602393
0.64818487 0.85941200 0.40839594
0.76100738 0.86195379 0.41114320
0.87396269 0.86476127 0.41430085
0.98706993 0.86785846 0.41790406
0.08993507 0.96691385 0.40469460
0.20258159 0.96907280 0.40684628
0.31532961 0.97145814 0.40935083
0.42819825 0.97409387 0.41224343
0.54120666 0.97700404 0.41555922
0.65437396 0.98021268 0.41933337
0.76771930 0.98374382 0.42360103
0.88126182 0.98762149 0.42839736
0.99502064 0.99186972 0.43375752
0.02057886 0.01942411 0.46527517
0.13753896 0.02437156 0.47092945
0.25409205 0.02890679 0.47600239
0.37025726 0.03305383 0.48052913
0.48605373 0.03683672 0.48454484
0.60150059 0.04027950 0.48808468
0.71661698 0.04340618 0.49118379
0.83142204 0.04624080 0.49387734
0.94593491 0.04880740 0.49620049
0.03854055 0.14562194 0.48204841
0.15420752 0.14927822 0.48588681
0.26953186 0.15260313 0.48926212
0.38453269 0.15562071 0.49220951
0.49922916 0.15835497 0.49476415
0.61364039 0.16082996 0.49696117
0.72778554 0.16306970 0.49883575
0.84168372 0.16509823 0.50042304
0.95535408 0.16693957 0.50175820
0.05240806 0.26779769 0.49318318
0.16699847 0.27043477 0.49560355
0.28131056 0.27282132 0.49767923
0.39536357 0.27498108 0.49944601
0.50917703 0.27693860 0.50093717
0.62276889 0.27871813 0.50218860
0.73615929 0.28034293 0.50323647
0.84936716 0.28183732 0.50411537
0.96241158 0.28322538 0.50486041
0.06290992 0.38686626 0.50001794
0.17664032 0.38875612 0.50141816
0.29015480 0.39047630 0.50259296
0.40341855 0.39203765 0.50361936
0.51655603 0.39338859 0.50454759
0.62965918 0.39479563 0.50514204
0.74247033 0.39613814 0.50572503
0.85520090 0.39737298 0.50629280
0.96783594 0.39857972 0.50684558
0.07077466 0.50374257 0.50389115
0.18386163 0.50515716 0.50466910
0.29679797 0.50648301 0.50533892
0.40939855 0.50774616 0.50595143
0.51955608 0.50846474 0.50641079
0.63325632 0.50819907 0.50606874
0.74773888 0.51090074 0.50734965
0.85992527 0.51261147 0.50828808
0.97235570 0.51391748 0.50905219
0.07673082 0.61934151 0.50614129
0.18939091 0.62055279 0.50669483
0.30196585 0.62175608 0.50725839
0.41446293 0.62297661 0.50786508
0.52597617 0.62426167 0.50823355
0.63392832 0.62475218 0.50534949
0.75052152 0.62544140 0.50628297
0.86436930 0.62832741 0.51112350
0.97670149 0.63015227 0.51281642
0.08150692 0.73457799 0.50810682
0.19395670 0.73585792 0.50883384
0.30638572 0.73721071 0.50968913
0.41881310 0.73866037 0.51070786
0.53125218 0.74023169 0.51192235
0.64354098 0.74195980 0.51321322
0.75583050 0.74378879 0.51431497
0.86887141 0.74585852 0.51680628
0.98159931 0.74820040 0.51947298
0.08583150 0.85036690 0.51112621
0.19828754 0.85198745 0.51242457
0.31078718 0.85376170 0.51396948
0.42334958 0.85571367 0.51579610
0.53599386 0.85786740 0.51793958
0.64873903 0.86024693 0.52043497
0.76160288 0.86287651 0.52331494
0.87460812 0.86577949 0.52661707
0.98777269 0.86898040 0.53038434
0.09043310 0.96762315 0.51653793
0.20311195 0.96985629 0.51880550
0.31589878 0.97232396 0.52143790
0.42881274 0.97505020 0.52447027
0.54187297 0.97805904 0.52793779
0.65509859 0.98137451 0.53187559
0.76850874 0.98502063 0.53631885
0.88212257 0.98902145 0.54130271
0.99595920 0.99340099 0.54686234
0.02259882 0.02115200 0.57841277
0.13941856 0.02595676 0.58386568
0.25583778 0.03035747 0.58874918
0.37187561 0.03437815 0.59309843
0.48755121 0.03804284 0.59694859
0.60288370 0.04137557 0.60033481
0.71789221 0.04440038 0.60329225
0.83259590 0.04714128 0.60585607
0.94701388 0.04962233 0.60806143
0.04011415 0.14690228 0.59455606
0.15566261 0.15044333 0.59823325
0.27087494 0.15366118 0.60145929
0.38577026 0.15657984 0.60426936
0.50036772 0.15922336 0.60669861
0.61468644 0.16161576 0.60878219
0.72874557 0.16378108 0.61055526
0.84256424 0.16574334 0.61205298
0.95616158 0.16752659 0.61331051
0.05360883 0.26872284 0.60519600
0.16810259 0.27127215 0.60749533
0.28232459 0.27357910 0.60946179
0.39629396 0.27566771 0.61113055
0.51002984 0.27756202 0.61253676
0.62355136 0.27928605 0.61371557
0.73687766 0.28086385 0.61470214
0.85002788 0.28231943 0.61553164
0.96302115 0.28367684 0.61623921
0.06381141 0.38752859 0.61167104
0.17746703 0.38935812 0.61299039
0.29091527 0.39102614 0.61409515
0.40417517 0.39255664 0.61502059
0.51726586 0.39397335 0.61580256
0.63020722 0.39530091 0.61647420
0.74301708 0.39656354 0.61707142
0.85571537 0.39778445 0.61763051
0.96832113 0.39898799 0.61818600
0.07145042 0.50423443 0.61531967
0.18448446 0.50561615 0.61605691
0.29737549 0.50691719 0.61669783
0.41014034 0.50816152 0.61727886
0.52273325 0.50935666 0.61788556
0.63526919 0.51044725 0.61858178
0.74792357 0.51172709 0.61905308
0.86035847 0.51305055 0.61968914
0.97279005 0.51437493 0.62048935
0.07725438 0.61975526 0.61748033
0.18988342 0.62096113 0.61803334
0.30243381 0.62216716 0.61860829
0.41492354 0.62339747 0.61924055
0.52715661 0.62467351 0.61999816
0.63689869 0.62544149 0.62110894
0.75045100 0.62538018 0.62152427
0.86498622 0.62854999 0.62285494
0.97716876 0.63074383 0.62448325
0.08195185 0.73500598 0.61949151
0.19439243 0.73630796 0.62025815
0.30681875 0.73769095 0.62116501
0.41924993 0.73917898 0.62224725
0.53169337 0.74079723 0.62353857
0.64327716 0.74259060 0.62481611
0.75187350 0.74373535 0.62339049
0.86877397 0.74520313 0.62533828
0.98234346 0.74887792 0.63120380
0.08627134 0.85090150 0.62269168
0.19874003 0.85257156 0.62406982
0.31125884 0.85440347 0.62570646
0.42384690 0.85642126 0.62763674
0.53652333 0.85864897 0.62989583
0.64930199 0.86111144 0.63251616
0.76205096 0.86384900 0.63538125
0.87498768 0.86681943 0.63821667
0.98854500 0.87010290 0.64260431
0.09094138 0.96835672 0.62841928
0.20365476 0.97066682 0.63080681
0.31648262 0.97321961 0.63357110
0.42944411 0.97603912 0.63674730
0.54255835 0.97914940 0.64037059
0.65584450 0.98257446 0.64447610
0.76932157 0.98633838 0.64909889
0.88300793 0.99046551 0.65427149
0.99692577 0.99497910 0.66003156
0.02457039 0.02283052 0.69148064
0.14125196 0.02749537 0.69673623
0.25753952 0.03176432 0.70143436
0.37345219 0.03566141 0.70561017
0.48900912 0.03921068 0.70929883
0.60422944 0.04243614 0.71253549
0.71913229 0.04536184 0.71535532
0.83373680 0.04801180 0.71779346
0.94806211 0.05041005 0.71988507
0.04164677 0.14814257 0.70700762
0.15707893 0.15157117 0.71052766
0.27218146 0.15468472 0.71360849
0.38697348 0.15750724 0.71628529
0.50147413 0.16006279 0.71859320
0.61570255 0.16237538 0.72056739
0.72967787 0.16446904 0.72224301
0.84341923 0.16636781 0.72365522
0.95694576 0.16809573 0.72483917
0.05477605 0.26961727 0.71716637
0.16917538 0.27208158 0.71934872
0.28330943 0.27431168 0.72121014
0.39719736 0.27633161 0.72278579
0.51085830 0.27816540 0.72411083
0.62431138 0.27983708 0.72522041
0.73757574 0.28137067 0.72614970
0.85067051 0.28279022 0.72693385
0.96361483 0.28411975 0.72760801
0.06468677 0.38816951 0.72329535
0.17826982 0.38994150 0.72453788
0.29165198 0.39156012 0.72557775
0.40485238 0.39304942 0.72645013
0.51789017 0.39443341 0.72719017
0.63078447 0.39573614 0.72783302
0.74355442 0.39698163 0.72841385
0.85621917 0.39819392 0.72896781
0.96879785 0.39939704 0.72953006
0.07210747 0.50471420 0.72673302
0.18509081 0.50606583 0.72743361
0.29793762 0.50734494 0.72804981
0.41066706 0.50857556 0.72861679
0.52329817 0.50978170 0.72916982
0.63584999 0.51098707 0.72974485
0.74834262 0.51221636 0.73037480
0.86079380 0.51349377 0.73109563
0.97322334 0.51484247 0.73194378
0.07776668 0.62016625 0.72881786
0.19036686 0.62136948 0.72937437
0.30289490 0.62258104 0.72996478
0.41536993 0.62382495 0.73062423
0.52780870 0.62512514 0.73138934
0.64016257 0.62648733 0.73235415
0.75255174 0.62785560 0.73359286
0.86515645 0.62953527 0.73471978
0.97762329 0.63136820 0.73618906
0.08239292 0.73544055 0.73088833
0.19482652 0.73676735 0.73169864
0.30725235 0.73818331 0.73266112
0.41968955 0.73971248 0.73381091
0.53215611 0.74137896 0.73518343
0.64446518 0.74320404 0.73685918
0.75467084 0.74465783 0.73926621
0.86897037 0.74544739 0.74103624
0.98319367 0.74943173 0.74345259
0.08671474 0.85145201 0.73428290
0.19919831 0.85317433 0.73574488
0.31173849 0.85506667 0.73747730
0.42435442 0.85715306 0.73951531
0.53706522 0.85945752 0.74189406
0.64987938 0.86200540 0.74464747
0.76207375 0.86486795 0.74756205
0.87281357 0.86747339 0.74787424
0.99027669 0.87021313 0.75166109
0.09146066 0.96911552 0.74034003
0.20421077 0.97150534 0.74285156
0.31708187 0.97414602 0.74575180
0.43009309 0.97706158 0.74907589
0.54326356 0.98027607 0.75285900
0.65661243 0.98381350 0.75713628
0.77015465 0.98769898 0.76193998
0.88381826 0.99198602 0.76714002
0.99793307 0.99665888 0.77242475
0.02649431 0.02446061 0.80448016
0.14303993 0.02898832 0.80954249
0.25919802 0.03312829 0.81405929
0.37498774 0.03690456 0.81806573
0.49042821 0.04034117 0.82159694
0.60553857 0.04346213 0.82468810
0.72033795 0.04629149 0.82737436
0.83484550 0.04885328 0.82969088
0.94908035 0.05117152 0.83167281
0.04313917 0.14934376 0.81940447
0.15845724 0.15266267 0.82277141
0.27345217 0.15567469 0.82571109
0.38814309 0.15840386 0.82825867
0.50254914 0.16087419 0.83044931
0.61668946 0.16310974 0.83231816
0.73058318 0.16513452 0.83390038
0.84424944 0.16697258 0.83523113
0.95770738 0.16864793 0.83634557
0.05591047 0.27048191 0.82909567
0.17021756 0.27286399 0.83116509
0.28426589 0.27502002 0.83292552
0.39807459 0.27697404 0.83441212
0.51166279 0.27875008 0.83566005
0.62504963 0.28037217 0.83670446
0.73825425 0.28186434 0.83758051
0.85129578 0.28325063 0.83832337
0.96419337 0.28455506 0.83896818
0.06553676 0.38878998 0.83489222
0.17904944 0.39050718 0.83606199
0.29236773 0.39207919 0.83704104
0.40551076 0.39353003 0.83786453
0.51849767 0.39488373 0.83856762
0.63134760 0.39616433 0.83918547
0.74407968 0.39739585 0.83975323
0.85671305 0.39860233 0.84030606
0.96926685 0.39980780 0.84087912
0.07274658 0.50518285 0.83813259
0.18568140 0.50650715 0.83880057
0.29848621 0.50776710 0.83939612
0.41118014 0.50898672 0.83995437
0.52378233 0.51019005 0.84051050
0.63631191 0.51140111 0.84109965
0.74878801 0.51264395 0.84175699
0.86122978 0.51394258 0.84251768
0.97365636 0.51532105 0.84341686
0.07826844 0.62057543 0.84015524
0.19084198 0.62177879 0.84071932
0.30334988 0.62299864 0.84132922
0.41581127 0.62425901 0.84202012
0.52824529 0.62558393 0.84282715
0.64067099 0.62699740 0.84378563
0.75310742 0.62852312 0.84493154
0.86557469 0.63018582 0.84629762
0.97809047 0.63200968 0.84791991
0.08283090 0.73588263 0.84229863
0.19525971 0.73723701 0.84315668
0.30768725 0.73868873 0.84417883
0.42013267 0.74026181 0.84540023
0.53261509 0.74198028 0.84685605
0.64515137 0.74386806 0.84858302
0.75770118 0.74593169 0.85068022
0.87040903 0.74811944 0.85322400
0.98335434 0.75072284 0.85579513
0.08716247 0.85201934 0.84590125
0.19966311 0.85379671 0.84745114
0.31222687 0.85575226 0.84928339
0.42487288 0.85791001 0.85143317
0.53762027 0.86029399 0.85393564
0.65048714 0.86292834 0.85682622
0.76332170 0.86584072 0.86018650
0.87499660 0.86866144 0.86439308
0.99105519 0.87098956 0.86798467
0.09199169 0.96990047 0.85230155
0.20478074 0.97237279 0.85494115
0.31769727 0.97510413 0.85798139
0.43076043 0.97811851 0.86145742
0.54398935 0.98143998 0.86540441
0.65740315 0.98509256 0.86985752
0.77101264 0.98910209 0.87485020
0.88438469 0.99360423 0.88009950
0.99900427 0.99856048 0.88216404
0.02837133 0.02604322 0.91741270
0.14478320 0.03043655 0.92228583
0.26081404 0.03445031 0.92662537
0.37648301 0.03810854 0.93046647
0.49180922 0.04143525 0.93384430
0.60681183 0.04445449 0.93679401
0.72150996 0.04719029 0.93935076
0.83592275 0.04966667 0.94154971
0.95006934 0.05190767 0.94342601
0.04459209 0.15050678 0.93174800
0.15979827 0.15371878 0.93496589
0.27468781 0.15663204 0.93776847
0.38927985 0.15927062 0.94019089
0.50359351 0.16165852 0.94226830
0.61764794 0.16381980 0.94403587
0.73146227 0.16577847 0.94552875
0.84505563 0.16755858 0.94678209
0.95844717 0.16918415 0.94783107
0.05701284 0.27131772 0.94098529
0.17122991 0.27362034 0.94294583
0.28519471 0.27570507 0.94460932
0.39892638 0.27759595 0.94601093
0.51244405 0.27931701 0.94718580
0.62576686 0.28089229 0.94816909
0.73891395 0.28234580 0.94899597
0.85190445 0.28370159 0.94970158
0.96475750 0.28498369 0.95032110
0.06636213 0.38939092 0.94646305
0.17980664 0.39105613 0.94756410
0.29306327 0.39258429 0.94848638
0.40615113 0.39399945 0.94926504
0.51908938 0.39532563 0.94993524
0.63189714 0.39658686 0.95053214
0.74459355 0.39780718 0.95109089
0.85719775 0.39901062 0.95164665
0.96972888 0.40022121 0.95223457
0.07336848 0.50564130 0.94951974
0.18625701 0.50694105 0.95015919
0.29902201 0.50818461 0.95073812
0.41168264 0.50939600 0.95129172
0.52425802 0.51059926 0.95185512
0.63676730 0.51181842 0.95246348
0.74922960 0.51307751 0.95315198
0.86166406 0.51440056 0.95395575
0.97408983 0.51581161 0.95490996
0.07876043 0.62098374 0.95149384
0.19130953 0.62219001 0.95206954
0.30379949 0.62342092 0.95270301
0.41624944 0.62470052 0.95342941
0.52867852 0.62605282 0.95428388
0.64110587 0.62750187 0.95530159
0.75355062 0.62907169 0.95651770
0.86603191 0.63078632 0.95796736
0.97856888 0.63266978 0.95968573
0.08326652 0.73633316 0.95372381
0.19569275 0.73771791 0.95463364
0.30812422 0.73920814 0.95571952
0.42058006 0.74082790 0.95701658
0.53307940 0.74260121 0.95856000
0.64564139 0.74455211 0.96038493
0.75828508 0.74670460 0.96252667
0.87102962 0.74908240 0.96502125
0.98389490 0.75171019 0.96790132
0.08761526 0.85260446 0.95754812
0.20013520 0.85443964 0.95918995
0.31272474 0.85646116 0.96112610
0.42540303 0.85869305 0.96339171
0.53818921 0.86115933 0.96602195
0.65110239 0.86388404 0.96905197
0.76415984 0.86689118 0.97251852
0.87734376 0.87019174 0.97651885
0.99084642 0.87374454 0.98111830
0.09253521 0.97071253 0.96430523
0.20536541 0.97327012 0.96707694
0.31832959 0.97609488 0.97026124
0.43144690 0.97921086 0.97389327
0.54473646 0.98264208 0.97800819
0.65821741 0.98641257 0.98264117
0.77190809 0.99054651 0.98782759
0.88572358 0.99508655 0.99363212
1.00000000 1.00000000 1.00000000
