assets/luts/DB_Product_Crisp_Rec709_100.cube
TITLE "Product Crisp Rec709 100"
# Red changes fastest. Full-range normalized input.
LUT_3D_SIZE 5
DOMAIN_MIN 0 0 0
DOMAIN_MAX 1 1 1
0.00000000 0.00000000 0.00000000
0.18966926 0.00000000 0.00097473
0.39985907 0.00000000 0.00172489
0.62828796 0.00000000 0.00208626
0.87243737 0.00000000 0.00211274
0.00000000 0.21240853 0.00486667
0.21883164 0.22193389 0.00000000
0.45642440 0.22903688 0.00000000
0.70561015 0.23560291 0.00000000
0.96399122 0.24161517 0.00000000
0.00000000 0.47490608 0.00379918
0.24087265 0.48711846 0.00000000
0.49414009 0.49644533 0.00000000
0.75367865 0.50435942 0.00000000
1.00000000 0.51360003 0.02300817
0.00112353 0.75900149 0.00000000
0.25730202 0.76735129 0.00000000
0.51682482 0.77342994 0.00000000
0.77746256 0.77716905 0.00000000
1.00000000 0.77831865 0.11070701
0.09466526 1.00000000 0.08977881
0.34431433 1.00000000 0.12036372
0.58016505 1.00000000 0.15456607
0.79975220 1.00000000 0.19240263
1.00000000 0.99938996 0.24173106
0.00000000 0.00037828 0.17898530
0.19284934 0.00000000 0.19556118
0.40617193 0.00000000 0.20608487
0.63712133 0.00000000 0.21544327
0.88323378 0.00000000 0.22364881
0.00000000 0.21562612 0.21772816
0.22125532 0.22437367 0.22624468
0.48158951 0.22568646 0.22724053
0.74518242 0.22859921 0.22940101
1.00000000 0.23563367 0.23545384
0.00000000 0.47907018 0.24145309
0.23196751 0.49476177 0.23419936
0.49789152 0.50003333 0.23883350
0.76404083 0.50561547 0.24293192
1.00000000 0.51708349 0.27180763
0.00000000 0.76267935 0.25211286
0.25170424 0.77238022 0.24842050
0.51605498 0.77611865 0.25144268
0.77870555 0.77824249 0.25311344
1.00000000 0.78105030 0.34019228
0.10479135 1.00000000 0.32369844
0.35271696 1.00000000 0.34760055
0.58628351 1.00000000 0.37431159
0.80302818 1.00000000 0.40384136
1.00000000 0.99951124 0.44247864
0.00000000 0.00073771 0.36567959
0.19601571 0.00000000 0.39699478
0.41232079 0.00000000 0.41677949
0.64569672 0.00000000 0.43457639
0.89367720 0.00000000 0.45040548
0.00000000 0.21872421 0.43648592
0.22088077 0.22463475 0.48670576
0.48282583 0.22644163 0.48781556
0.74666246 0.22994874 0.49042934
1.00000000 0.23830533 0.49259373
0.00000000 0.48302009 0.48313117
0.23392859 0.49653616 0.49560977
0.50000000 0.50166312 0.50000000
0.76555905 0.50743494 0.50455956
1.00000000 0.52077208 0.51713663
0.00000000 0.76560567 0.50745477
0.25333754 0.77379866 0.50957066
0.51717485 0.77704606 0.51218569
0.77899693 0.77840209 0.51374492
1.00000000 0.78389657 0.56428417
0.11527618 1.00000000 0.55284457
0.36138174 1.00000000 0.56951296
0.59256845 1.00000000 0.58817921
0.80637595 1.00000000 0.60884578
1.00000000 0.99965382 0.63595704
0.00000000 0.00107673 0.55981472
0.19911194 0.00000000 0.60503835
0.41830616 0.00000000 0.63352360
0.65401422 0.00000000 0.65920173
0.90376735 0.00000000 0.68209996
0.00000000 0.22170240 0.66086021
0.22129445 0.22502546 0.74688656
0.48394502 0.22746790 0.74855732
0.74829576 0.23143454 0.75157950
1.00000000 0.24127015 0.74791747
0.00000000 0.48675645 0.72854351
0.23595538 0.49836465 0.75707305
0.50209013 0.50387120 0.76151323
0.76803359 0.50915639 0.76580148
1.00000000 0.52466696 0.75870000
0.00000000 0.76822939 0.76460311
0.25481757 0.77507040 0.77059899
0.51807497 0.77776858 0.77275195
0.77874468 0.77812101 0.77375532
1.00000000 0.78672153 0.78275601
0.12611880 1.00000000 0.77693631
0.37030807 1.00000000 0.78581915
0.59901960 1.00000000 0.79588603
0.80979501 1.00000000 0.80713157
1.00000000 0.99982250 0.82171082
0.00000000 0.00139396 0.76112051
0.20213878 0.00000000 0.81940594
0.42412839 0.00000000 0.85603256
0.66207376 0.00000000 0.88903581
0.91350381 0.00000000 0.91844986
0.00000000 0.22456050 0.89056917
0.22256360 0.22620945 1.00000000
0.48320409 0.23023565 1.00000000
0.74272267 0.23651307 1.00000000
0.99887665 0.24497726 1.00000000
0.00000000 0.49028002 0.97739900
0.24646440 0.49959341 1.00000000
0.50600633 0.50749030 1.00000000
0.75923424 0.51672232 1.00000000
1.00000000 0.52876920 0.99620356
0.03649988 0.76205014 1.00000000
0.29490410 0.76782562 1.00000000
0.54403938 0.77408621 1.00000000
0.78154768 0.78080174 1.00000000
1.00000000 0.78993968 0.99514331
0.13731837 1.00000000 0.99569245
0.37949544 1.00000000 0.99623689
0.60563685 1.00000000 0.99714874
0.81328743 1.00000000 0.99841488
1.00000000 1.00000000 1.00000000
