assets/luts/DB_Peach_Linen_Rec709_50.cube
TITLE "Peach Linen Rec709 50"
# Red changes fastest. Full-range normalized input.
LUT_3D_SIZE 33
DOMAIN_MIN 0 0 0
DOMAIN_MAX 1 1 1
0.00600000 0.00600000 0.00600000
0.03666954 0.00661821 0.00671458
0.06749979 0.00717051 0.00734224
0.09833359 0.00770290 0.00794467
0.12895469 0.00827905 0.00860514
0.15923009 0.00893864 0.00937377
0.18919700 0.00967145 0.01023513
0.21901857 0.01043004 0.01112638
0.24886309 0.01116509 0.01198381
0.27881734 0.01185107 0.01277536
0.30888262 0.01248764 0.01350149
0.33901913 0.01308669 0.01417792
0.36918640 0.01366035 0.01482036
0.39935915 0.01421632 0.01543870
0.42952570 0.01475831 0.01603762
0.45968188 0.01528777 0.01661901
0.48982657 0.01580528 0.01718362
0.51995959 0.01631112 0.01773184
0.55008104 0.01680549 0.01826396
0.58019105 0.01728859 0.01878027
0.61028977 0.01776061 0.01928104
0.64037735 0.01822173 0.01976654
0.67045394 0.01867213 0.02023706
0.70051969 0.01911202 0.02069286
0.73057475 0.01954157 0.02113422
0.76061927 0.01996097 0.02156141
0.79065340 0.02037041 0.02197471
0.82067728 0.02077008 0.02237439
0.85069107 0.02116017 0.02276073
0.88069492 0.02154086 0.02313401
0.91068897 0.02191235 0.02349449
0.94067338 0.02227481 0.02384245
0.97064830 0.02262844 0.02417817
0.00843234 0.03794956 0.00847556
0.03890509 0.03856529 0.00894054
0.06964086 0.03908507 0.00927524
0.10057176 0.03952815 0.00958915
0.13146298 0.03996371 0.01004072
0.16204214 0.04047310 0.01074375
0.19218389 0.04109490 0.01169039
0.22198269 0.04180244 0.01276054
0.25165818 0.04253123 0.01380586
0.28140026 0.04322492 0.01473161
0.31128629 0.04386033 0.01551943
0.34129918 0.04444240 0.01619897
0.37138677 0.04498673 0.01680977
0.40150427 0.04550684 0.01738053
0.43162624 0.04601053 0.01792635
0.46174180 0.04650129 0.01845353
0.49184732 0.04698044 0.01896433
0.52194190 0.04744848 0.01945954
0.55202545 0.04790568 0.01993956
0.58209808 0.04835224 0.02040469
0.61215992 0.04878834 0.02085520
0.64221113 0.04921417 0.02129137
0.67225185 0.04962993 0.02171347
0.70228223 0.05003579 0.02212178
0.73230242 0.05043195 0.02251658
0.76231257 0.05081860 0.02289813
0.79231284 0.05119591 0.02326671
0.82230336 0.05156409 0.02362260
0.85228430 0.05192332 0.02396608
0.88225579 0.05227378 0.02429741
0.91221799 0.05261567 0.02461687
0.94217105 0.05294916 0.02492473
0.97211512 0.05327446 0.02522128
0.01083886 0.06969891 0.01086776
0.04104671 0.07033343 0.01113133
0.07148943 0.07088066 0.01117934
0.10223950 0.07131824 0.01113508
0.13318257 0.07167991 0.01123026
0.16403419 0.07205107 0.01169081
0.19451474 0.07251663 0.01259242
0.22453909 0.07310349 0.01380953
0.25424942 0.07376989 0.01510383
0.28388170 0.07444521 0.01626972
0.31360898 0.07507729 0.01721957
0.34348324 0.07565032 0.01797170
0.37347302 0.07617377 0.01858933
0.40352488 0.07666390 0.01913085
0.43359867 0.07713307 0.01963207
0.46367350 0.07758780 0.02010974
0.49374106 0.07803087 0.02057022
0.52379879 0.07846328 0.02101561
0.55384612 0.07888544 0.02144665
0.58388305 0.07929757 0.02186370
0.61390970 0.07969988 0.02226706
0.64392622 0.08009256 0.02265700
0.67393276 0.08047578 0.02303380
0.70392946 0.08084975 0.02339773
0.73391648 0.08121465 0.02374907
0.76389396 0.08157066 0.02408809
0.79386205 0.08191798 0.02441507
0.82382091 0.08225679 0.02473028
0.85377068 0.08258728 0.02503399
0.88371151 0.08290964 0.02532649
0.91364356 0.08322405 0.02560804
0.94356697 0.08353070 0.02587891
0.97348188 0.08382978 0.02613940
0.01328065 0.10124058 0.01323328
0.04330583 0.10187111 0.01344192
0.07343639 0.10245280 0.01337290
0.10381955 0.10294133 0.01309894
0.13450279 0.10332285 0.01284840
0.16534181 0.10364194 0.01292767
0.19605449 0.10398510 0.01354674
0.22640615 0.10442411 0.01467962
0.25636349 0.10496905 0.01608361
0.28608245 0.10557211 0.01745884
0.31576776 0.10617062 0.01860838
0.34554731 0.10672557 0.01948834
0.37544543 0.10722980 0.02015604
0.40542743 0.10769429 0.02069356
0.43544976 0.10813270 0.02116279
0.46548318 0.10855431 0.02159735
0.49551364 0.10896368 0.02201156
0.52553598 0.10936265 0.02241047
0.55554873 0.10975190 0.02279567
0.58555165 0.11013174 0.02316777
0.61554480 0.11050239 0.02352709
0.64552833 0.11086403 0.02387391
0.67550238 0.11121686 0.02420851
0.70546709 0.11156106 0.02453117
0.73542262 0.11189681 0.02484217
0.76536912 0.11222432 0.02514176
0.79530674 0.11254376 0.02543024
0.82523562 0.11285533 0.02570787
0.85515592 0.11315920 0.02597494
0.88506778 0.11345558 0.02623170
0.91497136 0.11374464 0.02647845
0.94486681 0.11402657 0.02671545
0.97475426 0.11430157 0.02694298
0.01567635 0.13260979 0.01548716
0.04565458 0.13319926 0.01576431
0.07561962 0.13377529 0.01578240
0.10569122 0.13430168 0.01553881
0.13599099 0.13474264 0.01517349
0.16653584 0.13509530 0.01496269
0.19718187 0.13540592 0.01519254
0.22769832 0.13574609 0.01598271
0.25792403 0.13616439 0.01720540
0.28786468 0.13665720 0.01857305
0.31765306 0.13718208 0.01981469
0.34743403 0.13769385 0.02079697
0.37728460 0.13816918 0.02152611
0.40721049 0.13860707 0.02207717
0.43718397 0.13901687 0.02252706
0.46717654 0.13940792 0.02292596
0.49717085 0.13978598 0.02329853
0.52715920 0.14015373 0.02365449
0.55713899 0.14051222 0.02399708
0.58710957 0.14086190 0.02432734
0.61707091 0.14120301 0.02464573
0.64702314 0.14153574 0.02495254
0.67696639 0.14186029 0.02524806
0.70690081 0.14217684 0.02553256
0.73682655 0.14248559 0.02580631
0.76674376 0.14278671 0.02606959
0.79665259 0.14308040 0.02632268
0.82655319 0.14336685 0.02656585
0.85644570 0.14364623 0.02679937
0.88633029 0.14391875 0.02702351
0.91620709 0.14418459 0.02723856
0.94607627 0.14444393 0.02744479
0.97593795 0.14469697 0.02764247
0.01792253 0.16384653 0.01753083
0.04792858 0.16437653 0.01790030
0.07787710 0.16490716 0.01809140
0.10782108 0.16542195 0.01805970
0.13785545 0.16589266 0.01784445
0.16806228 0.16629651 0.01760823
0.19843548 0.16663869 0.01759358
0.22885879 0.16695744 0.01799371
0.25917590 0.16730107 0.01882747
0.28929655 0.16769533 0.01992679
0.31924249 0.16813065 0.02104810
0.34910422 0.16857719 0.02200905
0.37896608 0.16900850 0.02274959
0.40886610 0.16941357 0.02330370
0.43880248 0.16979404 0.02373749
0.46875820 0.17015607 0.02410606
0.49871821 0.17050495 0.02444144
0.52867415 0.17084365 0.02475807
0.55862259 0.17117355 0.02506130
0.58856250 0.17149520 0.02535288
0.61849373 0.17180889 0.02563345
0.64841634 0.17211484 0.02590336
0.67833048 0.17241323 0.02616290
0.70823630 0.17270426 0.02641234
0.73813394 0.17298812 0.02665196
0.76802355 0.17326498 0.02688204
0.79790529 0.17353505 0.02710284
0.82777930 0.17379850 0.02731465
0.85764573 0.17405552 0.02751774
0.88750473 0.17430631 0.02771237
0.91735645 0.17455105 0.02789884
0.94720104 0.17478992 0.02807740
0.97703865 0.17502312 0.02824835
0.01998235 0.19496992 0.01933599
0.05001543 0.19544388 0.01975268
0.08000013 0.19591716 0.02007426
0.10994548 0.19638651 0.02025844
0.13989181 0.19683961 0.02029216
0.16990134 0.19725866 0.02023170
0.20001856 0.19763262 0.02021181
0.23022781 0.19796933 0.02039236
0.26045215 0.19829419 0.02086478
0.29060381 0.19863365 0.02159109
0.32064201 0.19899797 0.02243017
0.35058736 0.19937831 0.02322704
0.38049015 0.19975784 0.02389001
0.41039117 0.20012405 0.02440677
0.44030599 0.20047301 0.02481235
0.47023196 0.20080653 0.02515012
0.50016090 0.20112789 0.02545111
0.53008640 0.20143961 0.02573171
0.56000521 0.20174302 0.02599879
0.58991614 0.20203877 0.02625482
0.61981893 0.20232717 0.02650070
0.64971363 0.20260846 0.02673682
0.67960036 0.20288283 0.02696349
0.70947926 0.20315047 0.02718098
0.73935049 0.20341156 0.02738958
0.76921420 0.20366629 0.02758956
0.79907053 0.20391485 0.02778119
0.82891964 0.20415743 0.02796475
0.85876168 0.20439422 0.02814051
0.88859678 0.20462540 0.02830874
0.91842511 0.20485116 0.02846973
0.94824682 0.20507169 0.02862374
0.97806204 0.20528718 0.02877105
0.02187367 0.22598303 0.02092728
0.05190567 0.22641182 0.02134074
0.08190960 0.22683530 0.02171062
0.11188157 0.22725438 0.02201379
0.14182978 0.22766635 0.02223058
0.17177949 0.22806383 0.02236579
0.20176415 0.22843784 0.02246716
0.23180256 0.22878470 0.02261865
0.26188020 0.22911082 0.02290003
0.29195520 0.22942982 0.02333714
0.32198684 0.22975342 0.02388461
0.35196066 0.23008440 0.02445643
0.38188976 0.23041730 0.02497723
0.41179726 0.23074453 0.02541352
0.44169969 0.23106134 0.02577072
0.47160246 0.23136683 0.02607183
0.50150409 0.23166215 0.02633893
0.53140150 0.23194880 0.02658605
0.56129251 0.23222781 0.02682003
0.59117618 0.23249977 0.02704364
0.62105223 0.23276501 0.02725793
0.65092069 0.23302377 0.02746337
0.68078170 0.23327624 0.02766028
0.71063538 0.23352260 0.02784894
0.74048190 0.23376305 0.02802962
0.77032139 0.23399777 0.02820261
0.80015402 0.23422696 0.02836818
0.82997992 0.23445079 0.02852659
0.85979924 0.23466946 0.02867813
0.88961215 0.23488316 0.02882307
0.91941878 0.23509207 0.02896169
0.94921929 0.23529638 0.02909426
0.97901382 0.23549628 0.02922105
0.02362513 0.25688610 0.02233805
0.05363552 0.25727820 0.02272085
0.08363025 0.25766243 0.02308231
0.11360607 0.25803977 0.02341393
0.14356214 0.25841045 0.02370509
0.17350400 0.25877284 0.02394981
0.20344461 0.25912343 0.02415687
0.23339861 0.25945870 0.02435517
0.26337184 0.25977814 0.02458496
0.29335519 0.26008551 0.02487599
0.32332995 0.26038678 0.02522826
0.35328062 0.26068616 0.02561224
0.38320351 0.26098399 0.02598830
0.41310501 0.26127781 0.02632837
0.44299404 0.26156491 0.02662453
0.47287631 0.26184393 0.02688343
0.50275347 0.26211489 0.02711620
0.53262504 0.26237839 0.02733184
0.56249015 0.26263507 0.02753556
0.59234828 0.26288535 0.02772980
0.62219930 0.26312956 0.02791561
0.65204323 0.26336790 0.02809348
0.68188020 0.26360059 0.02826373
0.71171036 0.26382781 0.02842666
0.74153385 0.26404974 0.02858254
0.77135082 0.26426658 0.02873165
0.80116143 0.26447851 0.02887426
0.83096581 0.26468573 0.02901064
0.86076413 0.26488841 0.02914107
0.89055652 0.26508675 0.02926583
0.92034315 0.26528094 0.02938518
0.95012415 0.26547115 0.02949941
0.97989968 0.26565759 0.02960879
0.02525588 0.28768234 0.02359167
0.05523684 0.28804256 0.02393537
0.08520700 0.28839436 0.02426515
0.11516525 0.28873825 0.02457890
0.14511052 0.28907467 0.02487314
0.17504302 0.28940369 0.02514427
0.20496569 0.28972461 0.02539174
0.23488399 0.29003616 0.02562174
0.26480313 0.29033738 0.02584756
0.29472423 0.29062857 0.02608422
0.32464304 0.29091149 0.02633968
0.35455275 0.29118833 0.02660971
0.38444862 0.29146036 0.02688094
0.41433021 0.29172756 0.02713936
0.44420009 0.29198913 0.02737719
0.47406119 0.29224438 0.02759397
0.50391526 0.29249312 0.02779336
0.53376281 0.29273553 0.02797964
0.56360381 0.29297194 0.02815588
0.59343815 0.29320267 0.02832378
0.62326583 0.29342795 0.02848419
0.65308692 0.29364801 0.02863759
0.68290155 0.29386305 0.02878431
0.71270988 0.29407324 0.02892462
0.74251203 0.29427878 0.02905880
0.77230818 0.29447986 0.02918713
0.80209845 0.29467667 0.02930989
0.83188302 0.29486939 0.02942735
0.86166201 0.29505821 0.02953978
0.89143559 0.29524331 0.02964746
0.92120390 0.29542490 0.02975066
0.95096709 0.29560314 0.02984966
0.98072531 0.29577824 0.02994473
0.02677648 0.31837750 0.02470313
0.05672692 0.31870874 0.02500772
0.08666818 0.31903189 0.02530078
0.11660009 0.31934723 0.02558210
0.14652238 0.31965503 0.02585106
0.17643485 0.31995556 0.02610664
0.20633787 0.32024889 0.02634810
0.23623272 0.32053490 0.02657611
0.26612133 0.32081330 0.02679364
0.29600522 0.32108401 0.02700556
0.32588447 0.32134737 0.02721631
0.35575757 0.32160412 0.02742729
0.38562258 0.32185498 0.02763612
0.41547843 0.32210038 0.02783838
0.44532529 0.32234037 0.02803037
0.47516409 0.32257485 0.02821069
0.50499570 0.32280379 0.02837998
0.53482068 0.32302730 0.02853975
0.56463923 0.32324558 0.02869143
0.59445148 0.32345886 0.02883603
0.62425752 0.32366735 0.02897414
0.65405746 0.32387124 0.02910618
0.68385145 0.32407075 0.02923246
0.71363963 0.32426604 0.02935325
0.74342215 0.32445732 0.02946885
0.77319915 0.32464477 0.02957952
0.80297080 0.32482857 0.02968553
0.83273722 0.32500892 0.02978718
0.86249859 0.32518600 0.02988471
0.89225504 0.32536000 0.02997842
0.92200673 0.32553110 0.03006858
0.95175380 0.32569950 0.03015546
0.98149641 0.32586539 0.03023934
0.02819383 0.34897838 0.02568401
0.05811486 0.34928292 0.02595197
0.08802741 0.34957996 0.02620958
0.11793158 0.34986969 0.02645703
0.14782742 0.35015232 0.02669444
0.17771497 0.35042807 0.02692181
0.20759430 0.35069713 0.02713906
0.23746569 0.35095965 0.02734630
0.26732965 0.35121572 0.02754409
0.29718679 0.35146540 0.02773364
0.32703758 0.35170886 0.02791648
0.35688202 0.35194633 0.02809377
0.38671976 0.35217815 0.02826571
0.41655046 0.35240464 0.02843162
0.44637402 0.35262602 0.02859052
0.47619064 0.35284242 0.02874183
0.50600067 0.35305396 0.02888561
0.53580443 0.35326080 0.02902233
0.56560214 0.35346311 0.02915261
0.59539397 0.35366107 0.02927700
0.62518006 0.35385488 0.02939591
0.65496055 0.35404475 0.02950969
0.68473559 0.35423084 0.02961864
0.71450531 0.35441337 0.02972303
0.74426988 0.35459250 0.02982315
0.77402944 0.35476844 0.02991926
0.80378414 0.35494136 0.03001164
0.83353413 0.35511146 0.03010058
0.86327956 0.35527893 0.03018633
0.89302057 0.35544395 0.03026918
0.92275733 0.35560670 0.03034940
0.95248997 0.35576738 0.03042727
0.98221865 0.35592618 0.03050306
0.02951385 0.37949207 0.02654496
0.05940707 0.37977207 0.02677931
0.08929234 0.38004518 0.02700426
0.11916981 0.38031160 0.02722008
0.14903960 0.38057151 0.02742702
0.17890185 0.38082511 0.02762531
0.20875668 0.38107260 0.02781516
0.23860423 0.38131415 0.02799676
0.26844470 0.38154995 0.02817039
0.29827832 0.38178016 0.02833643
0.32810535 0.38200493 0.02849541
0.35792598 0.38222447 0.02864785
0.38774030 0.38243897 0.02879417
0.41754836 0.38264866 0.02893456
0.44735019 0.38285374 0.02906902
0.47714592 0.38305440 0.02919759
0.50693571 0.38325083 0.02932038
0.53671976 0.38344319 0.02943768
0.56649824 0.38363167 0.02954981
0.59627132 0.38381645 0.02965713
0.62603915 0.38399772 0.02975995
0.65580187 0.38417567 0.02985858
0.68555964 0.38435048 0.02995331
0.71531261 0.38452236 0.03004441
0.74506092 0.38469148 0.03013215
0.77480473 0.38485803 0.03021682
0.80454418 0.38502220 0.03029868
0.83427942 0.38518418 0.03037801
0.86401060 0.38534415 0.03045509
0.89373788 0.38550231 0.03053019
0.92346139 0.38565884 0.03060358
0.95318130 0.38581393 0.03067554
0.98289775 0.38596776 0.03074635
0.03074227 0.40992571 0.02729647
0.06060936 0.41018329 0.02750031
0.09046900 0.41043461 0.02769568
0.12032135 0.41067987 0.02788284
0.15016656 0.41091925 0.02806208
0.18000476 0.41115294 0.02823367
0.20983612 0.41138113 0.02839786
0.23966076 0.41160401 0.02855493
0.26947884 0.41182176 0.02870512
0.29929053 0.41203457 0.02884874
0.32909598 0.41224263 0.02898606
0.35889537 0.41244611 0.02911743
0.38868885 0.41264521 0.02924317
0.41847656 0.41284011 0.02936354
0.44825862 0.41303101 0.02947881
0.47803516 0.41321811 0.02958919
0.50780634 0.41340158 0.02969492
0.53757230 0.41358162 0.02979626
0.56733321 0.41375841 0.02989348
0.59708921 0.41393214 0.02998687
0.62684047 0.41410299 0.03007672
0.65658712 0.41427115 0.03016331
0.68632932 0.41443681 0.03024693
0.71606722 0.41460016 0.03032784
0.74580097 0.41476139 0.03040632
0.77553071 0.41492068 0.03048264
0.80525660 0.41507823 0.03055709
0.83497879 0.41523421 0.03062993
0.86469742 0.41538882 0.03070144
0.89441264 0.41554224 0.03077190
0.92412461 0.41569467 0.03084157
0.95383347 0.41584628 0.03091074
0.98353938 0.41599728 0.03097967
0.03188477 0.44028644 0.02794900
0.06172742 0.44052373 0.02812543
0.09156313 0.44075539 0.02829432
0.12139204 0.44098162 0.02845593
0.15121432 0.44120260 0.02861054
0.18103011 0.44141852 0.02875842
0.21083955 0.44162957 0.02889986
0.24064280 0.44183594 0.02903512
0.27044001 0.44203781 0.02916447
0.30023132 0.44223537 0.02928819
0.33001689 0.44242881 0.02940656
0.35979687 0.44261831 0.02951985
0.38957141 0.44280407 0.02962835
0.41934066 0.44298628 0.02973234
0.44910477 0.44316511 0.02983209
0.47886388 0.44334076 0.02992787
0.50861815 0.44351341 0.03001995
0.53836771 0.44368326 0.03010859
0.56811273 0.44385049 0.03019408
0.59785335 0.44401529 0.03027668
0.62758972 0.44417785 0.03035667
0.65732199 0.44433835 0.03043434
0.68705031 0.44449698 0.03050995
0.71677484 0.44465393 0.03058378
0.74649571 0.44480939 0.03065610
0.77621308 0.44496355 0.03072720
0.80592710 0.44511659 0.03079734
0.83563792 0.44526870 0.03086680
0.86534569 0.44542006 0.03093585
0.89505056 0.44557088 0.03100477
0.92475267 0.44572133 0.03107383
0.95445218 0.44587160 0.03114331
0.98414924 0.44602188 0.03121348
0.03294706 0.47058142 0.02851301
0.06276696 0.47080053 0.02866514
0.09258042 0.47101466 0.02881065
0.12238759 0.47122398 0.02894981
0.15218863 0.47142869 0.02908289
0.18198368 0.47162897 0.02921018
0.21177289 0.47182500 0.02933194
0.24155641 0.47201699 0.02944845
0.27133440 0.47220511 0.02955998
0.30110699 0.47238955 0.02966681
0.33087435 0.47257051 0.02976922
0.36063661 0.47274816 0.02986747
0.39039393 0.47292270 0.02996184
0.42014646 0.47309431 0.03005262
0.44989435 0.47326319 0.03014007
0.47963775 0.47342951 0.03022447
0.50937681 0.47359347 0.03030609
0.53911167 0.47375526 0.03038520
0.56884249 0.47391506 0.03046209
0.59856941 0.47407306 0.03053702
0.62829259 0.47422944 0.03061027
0.65801217 0.47438441 0.03068211
0.68772830 0.47453813 0.03075283
0.71744114 0.47469081 0.03082269
0.74715083 0.47484263 0.03089197
0.77685753 0.47499377 0.03096094
0.80656138 0.47514443 0.03102988
0.83626252 0.47529480 0.03109906
0.86596112 0.47544505 0.03116876
0.89565732 0.47559538 0.03123926
0.92535127 0.47574597 0.03131082
0.95504312 0.47589702 0.03138372
0.98473302 0.47604871 0.03145824
0.03393482 0.50081778 0.02899895
0.06373366 0.50102085 0.02912989
0.09352656 0.50121957 0.02925513
0.12331369 0.50141411 0.02937495
0.15309518 0.50160466 0.02948962
0.18287118 0.50179143 0.02959941
0.21264185 0.50197458 0.02970460
0.24240734 0.50215431 0.02980546
0.27216778 0.50233080 0.02990227
0.30192334 0.50250426 0.02999531
0.33167417 0.50267485 0.03008484
0.36142041 0.50284277 0.03017114
0.39116220 0.50300822 0.03025450
0.42089971 0.50317136 0.03033517
0.45063309 0.50333241 0.03041344
0.48036247 0.50349153 0.03048958
0.51008801 0.50364892 0.03056387
0.53980986 0.50380477 0.03063657
0.56952817 0.50395926 0.03070798
0.59924309 0.50411258 0.03077835
0.62895476 0.50426492 0.03084796
0.65866335 0.50441647 0.03091710
0.68836899 0.50456742 0.03098603
0.71807183 0.50471795 0.03105502
0.74777204 0.50486825 0.03112436
0.77746975 0.50501851 0.03119432
0.80716511 0.50516891 0.03126517
0.83685828 0.50531965 0.03133719
0.86654940 0.50547091 0.03141065
0.89623862 0.50562288 0.03148582
0.92592610 0.50577575 0.03156299
0.95561198 0.50592970 0.03164242
0.98529641 0.50608493 0.03172439
0.03485373 0.53100268 0.02941728
0.06463321 0.53119184 0.02953014
0.09440726 0.53137726 0.02963822
0.12417602 0.53155915 0.02974180
0.15393965 0.53173768 0.02984116
0.18369831 0.53191304 0.02993657
0.21345213 0.53208543 0.03002829
0.24320126 0.53225503 0.03011662
0.27294587 0.53242203 0.03020182
0.30268609 0.53258662 0.03028416
0.33242207 0.53274898 0.03036393
0.36215397 0.53290930 0.03044139
0.39188194 0.53306777 0.03051683
0.42160612 0.53322458 0.03059051
0.45132666 0.53337991 0.03066271
0.48104372 0.53353395 0.03073370
0.51075744 0.53368690 0.03080376
0.54046798 0.53383893 0.03087317
0.57017547 0.53399024 0.03094220
0.59988008 0.53414101 0.03101112
0.62958194 0.53429144 0.03108021
0.65928122 0.53444170 0.03114975
0.68897806 0.53459199 0.03122000
0.71867260 0.53474249 0.03129124
0.74836501 0.53489340 0.03136375
0.77805542 0.53504490 0.03143780
0.80774399 0.53519717 0.03151367
0.83743087 0.53535041 0.03159163
0.86711621 0.53550481 0.03167195
0.89680015 0.53566054 0.03175492
0.92648285 0.53581780 0.03184080
0.95616445 0.53597678 0.03192987
0.98584511 0.53613767 0.03202240
0.03570951 0.56114327 0.02977845
0.06547131 0.56132063 0.02987634
0.09522819 0.56149489 0.02997037
0.12498029 0.56166624 0.03006083
0.15472775 0.56183487 0.03014798
0.18447074 0.56200097 0.03023211
0.21420941 0.56216473 0.03031349
0.24394389 0.56232632 0.03039238
0.27367434 0.56248595 0.03046907
0.30340091 0.56264379 0.03054384
0.33312375 0.56280004 0.03061695
0.36284301 0.56295488 0.03068868
0.39255883 0.56310850 0.03075930
0.42227137 0.56326109 0.03082910
0.45198078 0.56341284 0.03089833
0.48168721 0.56356393 0.03096729
0.51139080 0.56371456 0.03103624
0.54109171 0.56386490 0.03110546
0.57079008 0.56401515 0.03117522
0.60048607 0.56416550 0.03124580
0.63017982 0.56431613 0.03131748
0.65987148 0.56446723 0.03139052
0.68956120 0.56461898 0.03146520
0.71924914 0.56477159 0.03154179
0.74893544 0.56492523 0.03162058
0.77862025 0.56508009 0.03170184
0.80830372 0.56523636 0.03178583
0.83798601 0.56539422 0.03187284
0.86766725 0.56555388 0.03196314
0.89734760 0.56571550 0.03205700
0.92702721 0.56587928 0.03215470
0.95670623 0.56604542 0.03225652
0.98638480 0.56621409 0.03236272
0.03650783 0.59124669 0.03009293
0.06625365 0.59141438 0.03017895
0.09599505 0.59157960 0.03026204
0.12573217 0.59174255 0.03034248
0.15546517 0.59190340 0.03042054
0.18519419 0.59206236 0.03049650
0.21491939 0.59221960 0.03057063
0.24464090 0.59237531 0.03064321
0.27435889 0.59252969 0.03071450
0.30407351 0.59268291 0.03078479
0.33378489 0.59283518 0.03085435
0.36349320 0.59298666 0.03092346
0.39319857 0.59313756 0.03099238
0.42290117 0.59328806 0.03106140
0.45260114 0.59343835 0.03113078
0.48229862 0.59358862 0.03120081
0.51199378 0.59373904 0.03127176
0.54168675 0.59388982 0.03134390
0.57137769 0.59404114 0.03141750
0.60106675 0.59419318 0.03149285
0.63075407 0.59434614 0.03157021
0.66043981 0.59450021 0.03164986
0.69012412 0.59465556 0.03173208
0.71980714 0.59481239 0.03181714
0.74948903 0.59497088 0.03190532
0.77916993 0.59513123 0.03199688
0.80884999 0.59529362 0.03209211
0.83852937 0.59545824 0.03219128
0.86820821 0.59562527 0.03229466
0.89788666 0.59579491 0.03240253
0.92756488 0.59596734 0.03251517
0.95724300 0.59614275 0.03263284
0.98692119 0.59632133 0.03275582
0.03725439 0.62132009 0.03037116
0.06698592 0.62148023 0.03044843
0.09671353 0.62163854 0.03052369
0.12643737 0.62179520 0.03059722
0.15615759 0.62195041 0.03066930
0.18587433 0.62210435 0.03074019
0.21558775 0.62225720 0.03081019
0.24529800 0.62240916 0.03087955
0.27500522 0.62256041 0.03094856
0.30470957 0.62271114 0.03101748
0.33441119 0.62286154 0.03108660
0.36411024 0.62301180 0.03115619
0.39380686 0.62316210 0.03122652
0.42350120 0.62331264 0.03129787
0.45319342 0.62346359 0.03137051
0.48288365 0.62361515 0.03144472
0.51257206 0.62376751 0.03152076
0.54225879 0.62392084 0.03159893
0.57194399 0.62407535 0.03167949
0.60162782 0.62423122 0.03176271
0.63131041 0.62438864 0.03184887
0.66099192 0.62454778 0.03193825
0.69067249 0.62470885 0.03203112
0.72035229 0.62487203 0.03212775
0.75003146 0.62503751 0.03222842
0.77971014 0.62520547 0.03233340
0.80938849 0.62537610 0.03244297
0.83906665 0.62554960 0.03255741
0.86874478 0.62572614 0.03267698
0.89842303 0.62590592 0.03280197
0.92810154 0.62608912 0.03293264
0.95778046 0.62627593 0.03306927
0.98745995 0.62646654 0.03321214
0.03795488 0.65137062 0.03062361
0.06767382 0.65152534 0.03069523
0.09738933 0.65167886 0.03076577
0.12710158 0.65183136 0.03083550
0.15681071 0.65198304 0.03090470
0.18651687 0.65213408 0.03097364
0.21622020 0.65228468 0.03104261
0.24592087 0.65243500 0.03111187
0.27561902 0.65258525 0.03118169
0.30531479 0.65273562 0.03125236
0.33500834 0.65288628 0.03132415
0.36469982 0.65303744 0.03139733
0.39438937 0.65318926 0.03147217
0.42407715 0.65334196 0.03154896
0.45376331 0.65349570 0.03162797
0.48344799 0.65365068 0.03170946
0.51313135 0.65380709 0.03179372
0.54281353 0.65396511 0.03188102
0.57249468 0.65412494 0.03197164
0.60217496 0.65428676 0.03206585
0.63185451 0.65445075 0.03216392
0.66153348 0.65461711 0.03226612
0.69121202 0.65478602 0.03237275
0.72089029 0.65495767 0.03248406
0.75056842 0.65513226 0.03260033
0.78024658 0.65530995 0.03272184
0.80992490 0.65549096 0.03284887
0.83960354 0.65567545 0.03298168
0.86928266 0.65586362 0.03312055
0.89896239 0.65605567 0.03326576
