assets/luts/DB_Product_Crisp_Rec709_100.cube
TITLE "Product Crisp Rec709 100"
# Red changes fastest. Full-range normalized input.
LUT_3D_SIZE 9
DOMAIN_MIN 0 0 0
DOMAIN_MAX 1 1 1
0.00000000 0.00000000 0.00000000
0.09228281 0.00000000 0.00038196
0.18966926 0.00000000 0.00097473
0.29231013 0.00000000 0.00141556
0.39985907 0.00000000 0.00172489
0.51195448 0.00000000 0.00194816
0.62828796 0.00000000 0.00208626
0.74855166 0.00000000 0.00214036
0.87243737 0.00000000 0.00211274
0.00000000 0.09822425 0.00307386
0.09996716 0.10141077 0.00000000
0.20663796 0.10348415 0.00000000
0.31773809 0.10541608 0.00000000
0.43287187 0.10734211 0.00000000
0.55154238 0.10925586 0.00000000
0.67346022 0.11114810 0.00000000
0.79833100 0.11301492 0.00000000
0.92586316 0.11485161 0.00000000
0.00000000 0.21240853 0.00486667
0.10500521 0.21822851 0.00000000
0.21883164 0.22193389 0.00000000
0.33601901 0.22555273 0.00000000
0.45642440 0.22903688 0.00000000
0.57972364 0.23238634 0.00000000
0.70561015 0.23560291 0.00000000
0.83379486 0.23868125 0.00000000
0.96399122 0.24161517 0.00000000
0.00000000 0.33914174 0.00501569
0.11104672 0.34618738 0.00000000
0.23030863 0.35097903 0.00000000
0.35236996 0.35554157 0.00000000
0.47693938 0.35987040 0.00000000
0.60372868 0.36395955 0.00000000
0.73245124 0.36780289 0.00000000
0.86282265 0.37139360 0.00000000
0.99456034 0.37472429 0.00000000
0.00000000 0.47490608 0.00379918
0.11730230 0.48194215 0.00000000
0.24087265 0.48711846 0.00000000
0.36658062 0.49195497 0.00000000
0.49414009 0.49644533 0.00000000
0.62326691 0.50058262 0.00000000
0.75367865 0.50435942 0.00000000
0.88509441 0.50776783 0.00000000
1.00000000 0.51360003 0.02300817
0.00000000 0.61618532 0.00158336
0.12334259 0.62214069 0.00000000
0.25004137 0.62701814 0.00000000
0.37822353 0.63144282 0.00000000
0.50760698 0.63540720 0.00000000
0.63791107 0.63890332 0.00000000
0.76885637 0.64192285 0.00000000
0.90016446 0.64445717 0.00000000
1.00000000 0.64967116 0.06148622
0.00112353 0.75900149 0.00000000
0.12865477 0.76345619 0.00000000
0.25730202 0.76735129 0.00000000
0.38678507 0.77067868 0.00000000
0.51682482 0.77342994 0.00000000
0.64714312 0.77559638 0.00000000
0.77746256 0.77716905 0.00000000
0.90750625 0.77813889 0.00000000
1.00000000 0.77831865 0.11070701
0.00371075 0.89967824 0.00000000
0.13265983 0.90258153 0.00000000
0.26208043 0.90480935 0.00000000
0.39169484 0.90635286 0.00000000
0.52122600 0.90720305 0.00000000
0.65039731 0.90735073 0.00000000
0.77893241 0.90678669 0.00000000
0.90655497 0.90550165 0.00000000
1.00000000 0.89604838 0.17081788
0.09466526 1.00000000 0.08977881
0.22106029 1.00000000 0.10462079
0.34431433 1.00000000 0.12036372
0.46411870 1.00000000 0.13701126
0.58016505 1.00000000 0.15456607
0.69214541 1.00000000 0.17302972
0.79975220 1.00000000 0.19240263
0.90267826 1.00000000 0.21268401
1.00000000 0.99938996 0.24173106
0.00000000 0.00019067 0.08852171
0.09283726 0.00000000 0.09428144
0.19124755 0.00000000 0.09740571
0.29474637 0.00000000 0.10034754
0.40303604 0.00000000 0.10309521
0.51580218 0.00000000 0.10565409
0.63273690 0.00000000 0.10802499
0.75353219 0.00000000 0.11020954
0.87787968 0.00000000 0.11221050
0.00000000 0.09923285 0.10082574
0.09984841 0.10221315 0.10421409
0.22541184 0.09945577 0.10120221
0.35315152 0.09700838 0.09947562
0.48180506 0.09542480 0.09796652
0.61093642 0.09465204 0.09705163
0.74077084 0.09452601 0.09670195
0.87124546 0.09497965 0.09686116
1.00000000 0.09656686 0.09808727
0.00000000 0.21403233 0.11054228
0.09166048 0.22498486 0.09760407
0.22167224 0.22415501 0.09768443
0.35027708 0.22462493 0.09775716
0.48142924 0.22529732 0.09713545
0.61279673 0.22641606 0.09779862
0.74450677 0.22798189 0.09893800
0.87661930 0.22990943 0.10039913
1.00000000 0.23440726 0.10629652
0.00000000 0.34112607 0.11757708
0.09195535 0.35563687 0.09726619
0.22341669 0.35691479 0.09822849
0.35527336 0.35857491 0.09972362
0.48743136 0.36067604 0.10112153
0.62002188 0.36300428 0.10281305
0.75281274 0.36552839 0.10480667
0.88576797 0.36819578 0.10693762
1.00000000 0.37516915 0.12268664
0.00000000 0.47701494 0.12210504
0.09837135 0.49150323 0.10163302
0.23101613 0.49390250 0.10351725
0.36387331 0.49648596 0.10557118
0.49687156 0.49918928 0.10773799
0.62994186 0.50194795 0.10995842
0.76301363 0.50469615 0.11218151
0.89601633 0.50736936 0.11435021
1.00000000 0.51531619 0.14782323
0.00000000 0.61818350 0.12448432
0.10798489 0.63019101 0.10854101
0.24106382 0.63295308 0.11077032
0.37411849 0.63568146 0.11298034
0.50707863 0.63831128 0.11511522
0.63987398 0.64077768 0.11711911
0.77243427 0.64301580 0.11893616
0.90468922 0.64496078 0.12051051
1.00000000 0.65132095 0.18218364
0.00000000 0.76110231 0.12521208
0.11811909 0.76923154 0.11586287
0.25083700 0.77162234 0.11780520
0.38329426 0.77376124 0.11954036
0.51542060 0.77558339 0.12101248
0.64714577 0.77702392 0.12216572
0.77839949 0.77801797 0.12294421
0.90911149 0.77850067 0.12329211
1.00000000 0.77967006 0.22610572
0.00000000 0.90223288 0.12487524
0.12609881 0.90615543 0.12147219
0.25766048 0.90744092 0.12249546
0.38872511 0.90825631 0.12312365
0.51922245 0.90853675 0.12330092
0.64908222 0.90821736 0.12297141
0.77823416 0.90723329 0.12207925
0.90660800 0.90551967 0.12056861
1.00000000 0.89686923 0.27973860
0.09968340 1.00000000 0.20731777
0.22568874 1.00000000 0.22057375
0.34848283 1.00000000 0.23463009
0.46775713 1.00000000 0.24949006
0.58320345 1.00000000 0.26515590
0.69451395 1.00000000 0.28162875
0.80138122 1.00000000 0.29890855
0.90349827 1.00000000 0.31699400
1.00000000 0.99944791 0.34299612
0.00000000 0.00037828 0.17898530
0.09356618 0.00000000 0.18986375
0.19284934 0.00000000 0.19556118
0.29715353 0.00000000 0.20096875
0.40617193 0.00000000 0.20608487
0.51959712 0.00000000 0.21090938
0.63712133 0.00000000 0.21544327
0.75843638 0.00000000 0.21968868
0.88323378 0.00000000 0.22364881
0.00000000 0.10023867 0.20022803
0.09814694 0.10110211 0.23353730
0.22500274 0.09832394 0.23075571
0.35277706 0.09633240 0.22886783
0.48142886 0.09508533 0.22758775
0.61080404 0.09454021 0.22687234
0.74086375 0.09461832 0.22670175
0.87153981 0.09525406 0.22702108
1.00000000 0.09717556 0.22805211
0.00000000 0.21562612 0.21772816
0.09117753 0.22479598 0.22722830
0.22125532 0.22437367 0.22624468
0.35047481 0.22490608 0.22625606
0.48158951 0.22568646 0.22724053
0.61332081 0.22690488 0.22814652
0.74518242 0.22859921 0.22940101
0.87741611 0.23063474 0.23095845
1.00000000 0.23563367 0.23545384
0.00000000 0.34306849 0.23141588
0.09238312 0.35602947 0.22752998
0.22418189 0.35737650 0.22863087
0.35648026 0.35870507 0.23110827
0.48736240 0.36126337 0.23299411
0.62078605 0.36385006 0.23359808
0.75379957 0.36642161 0.23551916
0.88679720 0.36912273 0.23768167
1.00000000 0.37678186 0.24984945
0.00000000 0.47907018 0.24145309
0.09924137 0.49229332 0.23225052
0.23196751 0.49476177 0.23419936
0.36491364 0.49736411 0.23636484
0.49789152 0.50003333 0.23883350
0.63092287 0.50286669 0.24085956
0.76404083 0.50561547 0.24293192
0.89700790 0.50824864 0.24506435
1.00000000 0.51708349 0.27180763
0.00000000 0.62011666 0.24818915
0.10902887 0.63112878 0.23929679
0.24210744 0.63388668 0.24152581
0.37513791 0.63658883 0.24371663
0.50805013 0.63917006 0.24581459
0.64077292 0.64156606 0.24776268
0.77323763 0.64371239 0.24950130
0.90537309 0.64554311 0.25098006
1.00000000 0.65301083 0.30180847
0.00000000 0.76267935 0.25211286
0.11906697 0.77006769 0.24654226
0.25170424 0.77238022 0.24842050
0.38405700 0.77441882 0.25007259
0.51605498 0.77611865 0.25144268
0.64762793 0.77741482 0.25247492
0.77870555 0.77824249 0.25311344
0.90921760 0.77853678 0.25330240
1.00000000 0.78105030 0.34019228
0.00000000 0.90322065 0.25380227
0.12668054 0.90664068 0.25186053
0.25808129 0.90777379 0.25275589
0.38896114 0.90841478 0.25323722
0.51924984 0.90849879 0.25324864
0.64887711 0.90796095 0.25273432
0.77777268 0.90673639 0.25163838
0.90586628 0.90476026 0.24990500
1.00000000 0.89770735 0.38711038
0.10479135 1.00000000 0.32369844
0.23039488 1.00000000 0.33529968
0.35271696 1.00000000 0.34760055
0.47144919 1.00000000 0.36060391
0.58628351 1.00000000 0.37431159
0.69691226 1.00000000 0.38872425
0.80302818 1.00000000 0.40384136
0.90432446 1.00000000 0.41966112
1.00000000 0.99951124 0.44247864
0.00000000 0.00056046 0.27138552
0.09430302 0.00000000 0.28723036
0.19444132 0.00000000 0.29543386
0.29953163 0.00000000 0.30324344
0.40926682 0.00000000 0.31065818
0.52333934 0.00000000 0.31767839
0.64144126 0.00000000 0.32430557
0.76326424 0.00000000 0.33054231
0.88849963 0.00000000 0.33639225
0.00000000 0.10123011 0.30132484
0.09697345 0.10005448 0.36257430
0.22417768 0.09753826 0.36013348
0.35225535 0.09581705 0.35838771
0.48113667 0.09482590 0.35728073
0.61075085 0.09450018 0.35675601
0.74102775 0.09477494 0.35675806
0.87189713 0.09558530 0.35723105
1.00000000 0.09786776 0.35788399
0.00000000 0.21719013 0.32638744
0.09091573 0.22463359 0.35702442
0.22079253 0.22453260 0.35666407
0.35125416 0.22502464 0.35675450
0.48230632 0.22601269 0.35747340
0.61390903 0.22743761 0.35853380
0.74590190 0.22925567 0.35989885
0.87824865 0.23139173 0.36154615
1.00000000 0.23693296 0.36423208
0.00000000 0.34496902 0.34649655
0.09286305 0.35647511 0.35783965
0.22464246 0.35803911 0.35896869
0.35703458 0.35976313 0.36015292
0.48818363 0.36214438 0.36212369
0.62148356 0.36474216 0.36421864
0.75479695 0.36732980 0.36624502
0.88783487 0.37005617 0.36843245
1.00000000 0.37845674 0.37638814
0.00000000 0.48107187 0.36180720
0.10014121 0.49310964 0.36289173
0.23294068 0.49563990 0.36489712
0.36606495 0.49819086 0.36715903
0.49885880 0.50025891 0.37103421
0.63055594 0.50347859 0.37340508
0.76486474 0.50652253 0.37383071
0.89797893 0.50910938 0.37576469
1.00000000 0.51890207 0.39492440
0.00000000 0.62198493 0.37266122
0.11007540 0.63206760 0.37005460
0.24314551 0.63481385 0.37227689
0.37614481 0.63748149 0.37444340
0.50901910 0.63997460 0.37657832
0.64156209 0.64222369 0.37878622
0.77391626 0.64435005 0.38020058
0.90600649 0.64608137 0.38141855
1.00000000 0.65474092 0.42032417
0.00000000 0.76418042 0.37953945
0.11999015 0.77087972 0.37720201
0.25253867 0.77310650 0.37900971
0.38477883 0.77503733 0.38057230
0.51664037 0.77660732 0.38183398
0.64805301 0.77775128 0.38274019
0.77894576 0.77840494 0.38323377
0.90925017 0.77850384 0.38325490
1.00000000 0.78245941 0.45293063
0.00000000 0.90412158 0.38301150
0.12721029 0.90707665 0.38220756
0.25844202 0.90804991 0.38296858
0.38912900 0.90850902 0.38329659
0.51920095 0.90838912 0.38313573
0.64858761 0.90762533 0.38243015
0.77721871 0.90615281 0.38112400
0.90502398 0.90390669 0.37916142
1.00000000 0.89856274 0.49289776
0.10998899 1.00000000 0.43888574
0.23517860 1.00000000 0.44876346
0.35701662 1.00000000 0.45923991
0.47519479 1.00000000 0.47031757
0.58940519 1.00000000 0.48199781
0.69934032 1.00000000 0.49428083
0.80469309 1.00000000 0.50716561
0.90515685 1.00000000 0.52064982
1.00000000 0.99957991 0.54014385
0.00000000 0.00073771 0.36567959
0.09503376 0.00000000 0.38635572
0.19601571 0.00000000 0.39699478
0.30188048 0.00000000 0.40713617
0.41232079 0.00000000 0.41677949
0.52702890 0.00000000 0.42592557
0.64569672 0.00000000 0.43457639
0.76801575 0.00000000 0.44273501
0.89367720 0.00000000 0.45040548
0.00000000 0.10220394 0.40409028
0.09592168 0.09910675 0.49166431
0.22343051 0.09686773 0.48946610
0.35178903 0.09540174 0.48794328
0.48092698 0.09464392 0.48704001
0.61077408 0.09452940 0.48670043
0.74126007 0.09499333 0.48686867
0.87231468 0.09597083 0.48748890
1.00000000 0.09864366 0.48754525
0.00000000 0.21872421 0.43648592
0.09079292 0.22453117 0.48685407
0.22088077 0.22463475 0.48670576
0.35158184 0.22529322 0.48704450
0.48282583 0.22644163 0.48781556
0.61454298 0.22801503 0.48896268
0.74666246 0.22994874 0.49042934
0.87911414 0.23217784 0.49216006
1.00000000 0.23830533 0.49259373
0.00000000 0.34682767 0.46278345
0.09340012 0.35696859 0.48819291
0.22527231 0.35868055 0.48946184
0.35752923 0.36072528 0.49100210
0.49002524 0.36305167 0.49274563
0.62281606 0.36558532 0.49482011
0.75582213 0.36824740 0.49697817
0.88887826 0.37099357 0.49918775
1.00000000 0.38019395 0.50226544
0.00000000 0.48302009 0.48313117
0.10106810 0.49394963 0.49355444
0.23392859 0.49653616 0.49560977
0.36696761 0.49921745 0.49776423
0.50000000 0.50166312 0.50000000
0.63146330 0.50448004 0.50275509
0.76555905 0.50743494 0.50455956
0.89892149 0.50994970 0.50644899
1.00000000 0.52077208 0.51713663
0.00000000 0.62378843 0.49786385
0.11112173 0.63300493 0.50081225
0.24417528 0.63573205 0.50302137
0.37713537 0.63835782 0.50515551
0.51002319 0.64068444 0.50734999
0.64174712 0.64212948 0.51139799
0.77275182 0.64457222 0.51297097
0.90636720 0.64656830 0.51200644
1.00000000 0.65651100 0.53769426
0.00000000 0.76560567 0.50745477
0.12088586 0.77166511 0.50783994
0.25333754 0.77379866 0.50957066
0.38545699 0.77561422 0.51103730
0.51717485 0.77704606 0.51218569
0.64842633 0.77799769 0.51305065
0.77899693 0.77840209 0.51374492
0.90910776 0.77837829 0.51332337
1.00000000 0.78389657 0.56428417
0.00000000 0.90493586 0.51246557
0.12768532 0.90746080 0.51251110
0.25873993 0.90826673 0.51313133
0.38922592 0.90853648 0.51329957
0.51907302 0.90820518 0.51295999
0.64821098 0.90720796 0.51205678
0.77656952 0.90547965 0.51053541
0.90407769 0.90295596 0.50833864
1.00000000 0.89943536 0.59706523
0.11527618 1.00000000 0.55284457
0.24003980 1.00000000 0.56092992
0.36138174 1.00000000 0.56951296
0.47899388 1.00000000 0.57859575
0.59256845 1.00000000 0.58817921
0.70179811 1.00000000 0.59826306
0.80637595 1.00000000 0.60884578
0.90599549 1.00000000 0.61992452
1.00000000 0.99965382 0.63595704
0.00000000 0.00090986 0.46183389
0.09575851 0.00000000 0.48720397
0.19757254 0.00000000 0.50020820
0.30420016 0.00000000 0.51261122
0.41533389 0.00000000 0.52441316
0.53066582 0.00000000 0.53561536
0.64988770 0.00000000 0.54622026
0.77269090 0.00000000 0.55623137
0.89876646 0.00000000 0.56565315
0.00000000 0.10316002 0.50848991
0.09497602 0.09825566 0.62083858
0.22278129 0.09628644 0.61887600
0.35141239 0.09506822 0.61756985
0.48079905 0.09453614 0.61686427
0.61087100 0.09462534 0.61670341
0.74155798 0.09527095 0.61703142
0.87278971 0.09640811 0.61779244
1.00000000 0.09950350 0.61699830
0.00000000 0.22022831 0.54798858
0.09074962 0.22450011 0.61674559
0.22105361 0.22479938 0.61676918
0.35194705 0.22563146 0.61726129
0.48335966 0.22693148 0.61816608
0.61522117 0.22863457 0.61942770
0.74746133 0.23067588 0.62099029
0.88000985 0.23299053 0.62279799
1.00000000 0.23975100 0.62050134
0.00000000 0.34864447 0.58024084
0.09398910 0.35750827 0.61858703
0.22599660 0.35934200 0.61996468
0.35835717 0.36149033 0.62162291
0.49100038 0.36388842 0.62350551
0.62385606 0.36647140 0.62555766
0.75685446 0.36917430 0.62772309
0.88992460 0.37193240 0.62994540
1.00000000 0.38199368 0.62744415
0.00000000 0.48491492 0.60538872
0.10201932 0.49481077 0.62423648
0.23493511 0.49744491 0.62633611
0.36796801 0.50017523 0.62852791
0.50104760 0.50293092 0.63073583
0.63401673 0.50565834 0.63290334
0.76699863 0.50830152 0.63509063
0.89985581 0.51076472 0.63710821
1.00000000 0.52269366 0.63840743
0.00000000 0.62552729 0.62376029
0.11216512 0.63393824 0.63156756
0.24519399 0.63663875 0.63375707
0.37810338 0.63921731 0.63585138
0.51084619 0.64158244 0.63779673
0.64296542 0.64335522 0.63984708
0.77323882 0.64522245 0.64210026
0.90654137 0.64702428 0.64241289
1.00000000 0.65832009 0.65388306
0.00000000 0.76695527 0.63582171
0.12175135 0.77242130 0.63845385
0.25409809 0.77445414 0.64010115
0.38608873 0.77614696 0.64146540
0.51765491 0.77743331 0.64249243
0.64877015 0.77811376 0.64336524
0.77808450 0.77762972 0.64613534
0.90684413 0.77784592 0.64567267
1.00000000 0.78531378 0.67421181
0.00000000 0.90566368 0.64212708
0.12810287 0.90779060 0.64276895
0.25897225 0.90842171 0.64324194
0.38924915 0.90849461 0.64324399
0.51886330 0.90794445 0.64271924
0.64774527 0.90670552 0.64161361
0.77582860 0.90468482 0.63996355
0.90290789 0.90182460 0.63787274
1.00000000 0.90030670 0.69953727
0.12065282 1.00000000 0.66553981
0.24497839 1.00000000 0.67176389
0.36581225 1.00000000 0.67838446
0.48284640 1.00000000 0.68540315
0.59577325 1.00000000 0.69282042
0.70428563 1.00000000 0.70063550
0.80807677 1.00000000 0.70884636
0.90684024 1.00000000 0.71744929
1.00000000 0.99973293 0.72988244
0.00000000 0.00107673 0.55981472
0.09647740 0.00000000 0.58973925
0.19911194 0.00000000 0.60503835
0.30649075 0.00000000 0.61963292
0.41830616 0.00000000 0.63352360
0.53425013 0.00000000 0.64671224
0.65401422 0.00000000 0.65920173
0.77728966 0.00000000 0.67099601
0.90376735 0.00000000 0.68209996
0.00000000 0.10409826 0.61448926
0.09413372 0.09749866 0.75009500
0.22222732 0.09579175 0.74836162
0.35112289 0.09481383 0.74726568
0.48075016 0.09450001 0.74675136
0.61103886 0.09478544 0.74676278
0.74191871 0.09560526 0.74724411
0.87331946 0.09689461 0.74813947
1.00000000 0.10044748 0.74620551
0.00000000 0.22170240 0.66086021
0.09078240 0.22453797 0.74669760
0.22129445 0.22502546 0.74688656
0.35237207 0.22602373 0.74752509
0.48394502 0.22746790 0.74855732
0.61594300 0.22929313 0.74992741
0.74829576 0.23143454 0.75157950
0.88093303 0.23382727 0.75345774
1.00000000 0.24127015 0.74791747
0.00000000 0.35041946 0.69883292
0.09462690 0.35809171 0.74901995
0.22676218 0.36003955 0.75049917
0.35922666 0.36227997 0.75224006
0.49195006 0.36474809 0.75418676
0.62486211 0.36737907 0.75628342
0.75789256 0.37010802 0.75847419
0.89097113 0.37287010 0.76070321
1.00000000 0.38385610 0.75188709
0.00000000 0.48675645 0.72854351
0.10299209 0.49569050 0.75493566
0.23595538 0.49836465 0.75707305
0.36901149 0.50111318 0.75928421
0.50209013 0.50387120 0.76151323
0.63512083 0.50657388 0.76370399
0.76803359 0.50915639 0.76580148
0.90075859 0.51155373 0.76774946
1.00000000 0.52466696 0.75870000
0.00000000 0.62720164 0.75031374
0.11320280 0.63486498 0.76231833
0.24619890 0.63753139 0.76448179
0.37905141 0.64005398 0.76653112
0.51169037 0.64236762 0.76841007
0.64403823 0.64440030 0.77004967
0.77592941 0.64609798 0.77140188
0.90754637 0.64741248 0.77246759
1.00000000 0.66017283 0.76885229
0.00000000 0.76822939 0.76460311
0.12258389 0.77314576 0.76904155
0.25481757 0.77507040 0.77059899
0.38667129 0.77663301 0.77185441
0.51807497 0.77776858 0.77275195
0.64897139 0.77838551 0.77324797
0.77874468 0.77812101 0.77375532
0.90643521 0.77768098 0.77410919
1.00000000 0.78672153 0.78275601
0.00000000 0.90630525 0.77195860
0.12846019 0.90806350 0.77297892
0.25913625 0.90851231 0.77329825
0.38919595 0.90838089 0.77312765
0.51856905 0.90760437 0.77241129
0.64718703 0.90611640 0.77109514
0.77501938 0.90373532 0.76936622
0.90081019 0.90007257 0.76918200
1.00000000 0.90076479 0.80000436
0.12611880 1.00000000 0.77693631
0.24999428 1.00000000 0.78123016
0.37030807 1.00000000 0.78581915
0.48675232 1.00000000 0.79070444
0.59901960 1.00000000 0.79588603
0.70680289 1.00000000 0.80136268
0.80979501 1.00000000 0.80713157
0.90767473 1.00000000 0.81317123
1.00000000 0.99982250 0.82171082
0.00000000 0.00123814 0.65958824
0.09719056 0.00000000 0.69392575
0.20063400 0.00000000 0.71144950
0.30875230 0.00000000 0.72816561
0.42123766 0.00000000 0.74407525
0.53778183 0.00000000 0.75918072
0.65807624 0.00000000 0.77348538
0.78181199 0.00000000 0.78699358
0.90867983 0.00000000 0.79971062
0.00000000 0.10501857 0.72205372
0.09339200 0.09683322 0.87943139
0.22176584 0.09538115 0.87792075
0.35091778 0.09463603 0.87702859
0.48077755 0.09453299 0.87669908
0.61127489 0.09500718 0.87687635
0.74233952 0.09599373 0.87750454
0.87390119 0.09742777 0.87852781
1.00000000 0.10147582 0.87512929
0.00000000 0.22314647 0.77506553
0.09088851 0.22464222 0.87670789
0.22160051 0.22531045 0.87705579
0.35285423 0.22646742 0.87783428
0.48457940 0.22804828 0.87898752
0.61670574 0.22998815 0.88045964
0.74916300 0.23222219 0.88219480
0.88188091 0.23468552 0.88413713
1.00000000 0.24286298 0.87480471
0.00000000 0.35215269 0.81852379
0.09531078 0.35871637 0.87948949
0.22756573 0.36077085 0.88106384
0.36012602 0.36309587 0.88288089
0.49292137 0.36562657 0.88488478
0.62588151 0.36829809 0.88701966
0.75893618 0.37104557 0.88922968
0.89201511 0.37380414 0.89145899
1.00000000 0.38578138 0.87555713
0.00000000 0.48854478 0.85255909
0.10398367 0.49658629 0.88564979
0.23698636 0.49929297 0.88781849
0.37005800 0.50205200 0.89004200
0.50312832 0.50479850 0.89226446
0.63612704 0.50746763 0.89443001
0.76898391 0.50999450 0.89648280
0.90162865 0.51231427 0.89836698
1.00000000 0.52669210 0.87797761
0.00000000 0.62881163 0.87748734
0.11423203 0.63578261 0.89306238
0.24718724 0.63840745 0.89519335
0.37997502 0.64086644 0.89719122
0.51252509 0.64309470 0.89900015
0.64476717 0.64502738 0.90056423
0.77663073 0.64659960 0.90182739
0.90804593 0.64774658 0.90273447
1.00000000 0.66206534 0.88256677
0.00000000 0.76942822 0.89376177
0.12338070 0.77383595 0.89960087
0.25549323 0.77564492 0.90106200
0.38720192 0.77706982 0.90220214
0.51843653 0.77804580 0.90296545
0.64912695 0.77850774 0.90329575
0.77919171 0.77838417 0.90312806
0.90846401 0.77762390 0.90241548
1.00000000 0.78836715 0.88970179
0.00000000 0.90686076 0.90192268
0.12875454 0.90827696 0.90313884
0.25922916 0.90853599 0.90329805
0.38906356 0.90819277 0.90294837
0.51818750 0.90718242 0.90203396
0.64653087 0.90543995 0.90049897
0.77403643 0.90287807 0.89829975
0.90015159 0.89924207 0.89578591
1.00000000 0.90158632 0.89972741
0.13167401 1.00000000 0.88699892
0.25508740 1.00000000 0.88929352
0.37486915 1.00000000 0.89178173
0.49071160 1.00000000 0.89446426
0.60230746 1.00000000 0.89734063
0.70934990 1.00000000 0.90040908
0.81153131 1.00000000 0.90366648
0.90847393 1.00000000 0.90707969
1.00000000 0.99993588 0.91098943
0.00000000 0.00139396 0.76112051
0.09789810 0.00000000 0.79972768
0.20213878 0.00000000 0.81940594
0.31098488 0.00000000 0.83817368
0.42412839 0.00000000 0.85603256
0.54126092 0.00000000 0.87298533
0.66207376 0.00000000 0.88903581
0.78625784 0.00000000 0.90418877
0.91350381 0.00000000 0.91844986
0.00000000 0.10592087 0.83114860
0.09346471 0.09693674 1.00000000
0.22108460 0.09590638 1.00000000
0.34961767 0.09557421 1.00000000
0.47878751 0.09593101 1.00000000
0.60831734 0.09696767 1.00000000
0.73792983 0.09867523 1.00000000
0.86734690 0.10104498 1.00000000
0.99628950 0.10406848 1.00000000
0.00000000 0.22456050 0.89056917
0.09251872 0.22506212 1.00000000
0.22256360 0.22620945 1.00000000
0.35288465 0.22793690 1.00000000
0.48320409 0.23023565 1.00000000
0.61324332 0.23309712 1.00000000
0.74272267 0.23651307 1.00000000
0.87136124 0.24047559 1.00000000
0.99887665 0.24497726 1.00000000
0.00000000 0.35384419 0.93927748
0.09989112 0.35924318 1.00000000
0.23120589 0.36187734 1.00000000
0.36215630 0.36497458 1.00000000
0.49246225 0.36852677 1.00000000
0.62184234 0.37252618 1.00000000
0.75001358 0.37696553 1.00000000
0.87669122 0.38183809 1.00000000
1.00000000 0.38776968 0.99841721
0.00000000 0.49028002 0.97739900
0.11503773 0.49616244 1.00000000
0.24646440 0.49959341 1.00000000
0.37688174 0.50337174 1.00000000
0.50600633 0.50749030 1.00000000
0.63355295 0.51194248 1.00000000
0.75923424 0.51672232 1.00000000
0.88276055 0.52182452 1.00000000
1.00000000 0.52876920 0.99620356
0.00569669 0.62919341 1.00000000
0.13745333 0.63249083 1.00000000
0.26783580 0.63602803 1.00000000
0.39655853 0.63979849 1.00000000
0.52333379 0.64379637 1.00000000
0.64787141 0.64801653 1.00000000
0.76987860 0.65245461 1.00000000
0.88905965 0.65710712 1.00000000
1.00000000 0.66399791 0.99499079
0.03649988 0.76205014 1.00000000
0.16671504 0.76487482 1.00000000
0.29490410 0.76782562 1.00000000
0.42077661 0.77089749 1.00000000
0.54403938 0.77408621 1.00000000
0.66439623 0.77738842 1.00000000
0.78154768 0.78080174 1.00000000
0.89519063 0.78432481 1.00000000
1.00000000 0.78993968 0.99514331
0.07498517 0.88826895 1.00000000
0.20252833 0.88992270 1.00000000
0.32738715 0.89159080 1.00000000
0.44926518 0.89326998 1.00000000
0.56786263 0.89495799 1.00000000
0.68287605 0.89665362 1.00000000
0.79399798 0.89835672 1.00000000
0.90090835 0.90006358 1.00000000
1.00000000 0.90306447 0.99688600
0.13731837 1.00000000 0.99569245
0.26025766 1.00000000 0.99591872
0.37949544 1.00000000 0.99623689
0.49472421 1.00000000 0.99664722
0.60563685 1.00000000 0.99714874
0.71192669 1.00000000 0.99773916
0.81328743 1.00000000 0.99841488
0.90939747 1.00000000 0.99917655
1.00000000 1.00000000 1.00000000
