assets/luts/DB_Product_Crisp_Rec709_50.cube
TITLE "Product Crisp Rec709 50"
# Red changes fastest. Full-range normalized input.
LUT_3D_SIZE 9
DOMAIN_MIN 0 0 0
DOMAIN_MAX 1 1 1
0.00000000 0.00000000 0.00000000
0.10864140 0.00000000 0.00019098
0.21983463 0.00000000 0.00048736
0.33365507 0.00000000 0.00070778
0.44992953 0.00000000 0.00086245
0.56847724 0.00000000 0.00097408
0.68914398 0.00000000 0.00104313
0.81177583 0.00000000 0.00107018
0.93621869 0.00000000 0.00105637
0.00000000 0.11161213 0.00153693
0.11248358 0.11320538 0.00000000
0.22831898 0.11424208 0.00000000
0.34636904 0.11520804 0.00000000
0.46643593 0.11617106 0.00000000
0.58827119 0.11712793 0.00000000
0.71173011 0.11807405 0.00000000
0.83666550 0.11900746 0.00000000
0.96293158 0.11992581 0.00000000
0.00000000 0.23120427 0.00243333
0.11500260 0.23411426 0.00000000
0.23441582 0.23596694 0.00000000
0.35550950 0.23777636 0.00000000
0.47821220 0.23951844 0.00000000
0.60236182 0.24119317 0.00000000
0.72780508 0.24280145 0.00000000
0.85439743 0.24434063 0.00000000
0.98199561 0.24580759 0.00000000
0.00000000 0.35707087 0.00250785
0.11802336 0.36059369 0.00000000
0.24015431 0.36298952 0.00000000
0.36368498 0.36527078 0.00000000
0.48846969 0.36743520 0.00000000
0.61436434 0.36947978 0.00000000
0.74122562 0.37140145 0.00000000
0.86891132 0.37319680 0.00000000
0.99728017 0.37486215 0.00000000
0.00000000 0.48745304 0.00189959
0.12115115 0.49097108 0.00000000
0.24543633 0.49355923 0.00000000
0.37079031 0.49597748 0.00000000
0.49707004 0.49822266 0.00000000
0.62413345 0.50029131 0.00000000
0.75183932 0.50217971 0.00000000
0.88004720 0.50388391 0.00000000
1.00000000 0.50680001 0.01150408
0.00000000 0.62059266 0.00079168
0.12417130 0.62357035 0.00000000
0.25002069 0.62600907 0.00000000
0.37661177 0.62822141 0.00000000
0.50380349 0.63020360 0.00000000
0.63145554 0.63195166 0.00000000
0.75942818 0.63346142 0.00000000
0.88758223 0.63472858 0.00000000
1.00000000 0.63733558 0.03074311
0.00056176 0.75450075 0.00000000
0.12682738 0.75672810 0.00000000
0.25365101 0.75867564 0.00000000
0.38089253 0.76033934 0.00000000
0.50841241 0.76171497 0.00000000
0.63607156 0.76279819 0.00000000
0.76373128 0.76358453 0.00000000
0.89125312 0.76406945 0.00000000
1.00000000 0.76415932 0.05535350
0.00185537 0.88733912 0.00000000
0.12882991 0.88879076 0.00000000
0.25604021 0.88990467 0.00000000
0.38334742 0.89067643 0.00000000
0.51061300 0.89110152 0.00000000
0.63769866 0.89117537 0.00000000
0.76446620 0.89089334 0.00000000
0.89077748 0.89025083 0.00000000
1.00000000 0.88552419 0.08540894
0.04733263 1.00000000 0.04488940
0.17303015 1.00000000 0.05231039
0.29715717 1.00000000 0.06018186
0.41955935 1.00000000 0.06850563
0.54008252 1.00000000 0.07728304
0.65857270 1.00000000 0.08651486
0.77487610 1.00000000 0.09620132
0.88883913 1.00000000 0.10634200
1.00000000 0.99969498 0.12086553
0.00000000 0.00009533 0.10676085
0.10891863 0.00000000 0.10964072
0.22062377 0.00000000 0.11120286
0.33487319 0.00000000 0.11267377
0.45151802 0.00000000 0.11404760
0.57040109 0.00000000 0.11532705
0.69136845 0.00000000 0.11651249
0.81426610 0.00000000 0.11760477
0.93893984 0.00000000 0.11860525
0.00000000 0.11211642 0.11291287
0.11242420 0.11360658 0.11460705
0.23770592 0.11222788 0.11310111
0.36407576 0.11100419 0.11223781
0.49090253 0.11021240 0.11148326
0.61796821 0.10982602 0.11102581
0.74538542 0.10976301 0.11085098
0.87312273 0.10998983 0.11093058
1.00000000 0.11078343 0.11154363
0.00000000 0.23201617 0.11777114
0.10833024 0.23749243 0.11130204
0.23583612 0.23707750 0.11134222
0.36263854 0.23731246 0.11137858
0.49071462 0.23764866 0.11106773
0.61889836 0.23820803 0.11139931
0.74725339 0.23899094 0.11196900
0.87580965 0.23995471 0.11269957
1.00000000 0.24220363 0.11564826
0.00000000 0.35806303 0.12128854
0.10847767 0.36531843 0.11113310
0.23670835 0.36595739 0.11161425
0.36513668 0.36678745 0.11236181
0.49371568 0.36783802 0.11306077
0.62251094 0.36900214 0.11390653
0.75140637 0.37026419 0.11490333
0.88038399 0.37159789 0.11596881
1.00000000 0.37508458 0.12384332
0.00000000 0.48850747 0.12355252
0.11168567 0.49575161 0.11331651
0.24050806 0.49695125 0.11425862
0.36943665 0.49824298 0.11528559
0.49843578 0.49959464 0.11636899
0.62747093 0.50097397 0.11747921
0.75650682 0.50234807 0.11859076
0.88550816 0.50368468 0.11967511
1.00000000 0.50765810 0.13641161
0.00000000 0.62159175 0.12474216
0.11649244 0.62759551 0.11677051
0.24553191 0.62897654 0.11788516
0.37455924 0.63034073 0.11899017
0.50353932 0.63165564 0.12005761
0.63243699 0.63288884 0.12105956
0.76121713 0.63400790 0.12196808
0.88984461 0.63498039 0.12275525
1.00000000 0.63816047 0.15359182
0.00000000 0.75555115 0.12510604
0.12155955 0.75961577 0.12043143
0.25041850 0.76081117 0.12140260
0.37914713 0.76188062 0.12227018
0.50771030 0.76279170 0.12300624
0.63607289 0.76351196 0.12358286
0.76419974 0.76400898 0.12397210
0.89205575 0.76425034 0.12414605
1.00000000 0.76483503 0.17555286
0.00000000 0.88861644 0.12493762
0.12554941 0.89057771 0.12323609
0.25383024 0.89122046 0.12374773
0.38186256 0.89162816 0.12406183
0.50961122 0.89176837 0.12415046
0.63704111 0.89160868 0.12398570
0.76411708 0.89111664 0.12353963
0.89080400 0.89025983 0.12278431
1.00000000 0.88593461 0.20236930
0.04984170 1.00000000 0.16615888
0.17534437 1.00000000 0.17278687
0.29924142 1.00000000 0.17981504
0.42137857 1.00000000 0.18724503
0.54160172 1.00000000 0.19507795
0.65975698 1.00000000 0.20331438
0.77569061 1.00000000 0.21195428
0.88924913 1.00000000 0.22099700
1.00000000 0.99972395 0.23399806
0.00000000 0.00018914 0.21449265
0.10928309 0.00000000 0.21993188
0.22142467 0.00000000 0.22278059
0.33607677 0.00000000 0.22548437
0.45308596 0.00000000 0.22804243
0.57229856 0.00000000 0.23045469
0.69356066 0.00000000 0.23272163
0.81671819 0.00000000 0.23484434
0.94161689 0.00000000 0.23682440
0.00000000 0.11261934 0.22511402
0.11157347 0.11305105 0.24176865
0.23750137 0.11166197 0.24037785
0.36388853 0.11066620 0.23943391
0.49071443 0.11004266 0.23879387
0.61790202 0.10977011 0.23843617
0.74543188 0.10980916 0.23835088
0.87326990 0.11012703 0.23851054
1.00000000 0.11108778 0.23902606
0.00000000 0.23281306 0.23386408
0.10808877 0.23739799 0.23861415
0.23562766 0.23718683 0.23812234
0.36273741 0.23745304 0.23812803
0.49079476 0.23784323 0.23862026
0.61916041 0.23845244 0.23907326
0.74759121 0.23929960 0.23970051
0.87620806 0.24031737 0.24047922
1.00000000 0.24281683 0.24272692
0.00000000 0.35903424 0.24070794
0.10869156 0.36551473 0.23876499
0.23709095 0.36618825 0.23931544
0.36574013 0.36685253 0.24055413
0.49368120 0.36813169 0.24149706
0.62289303 0.36942503 0.24179904
0.75189979 0.37071081 0.24275958
0.88089860 0.37206136 0.24384084
1.00000000 0.37589093 0.24992473
0.00000000 0.48953509 0.24572654
0.11212069 0.49614666 0.24112526
0.24098375 0.49738088 0.24209968
0.36995682 0.49868206 0.24318242
0.49894576 0.50001667 0.24441675
0.62796143 0.50143335 0.24542978
0.75702041 0.50280773 0.24646596
0.88600395 0.50412432 0.24753218
1.00000000 0.50854175 0.26090382
0.00000000 0.62255833 0.24909457
0.11701443 0.62806439 0.24464840
0.24605372 0.62944334 0.24576291
0.37506896 0.63079442 0.24685832
0.50402507 0.63208503 0.24790729
0.63288646 0.63328303 0.24888134
0.76161882 0.63435619 0.24975065
0.89018655 0.63527156 0.25049003
1.00000000 0.63900542 0.27590424
0.00000000 0.75633968 0.25105643
0.12203349 0.76003384 0.24827113
0.25085212 0.76119011 0.24921025
0.37952850 0.76220941 0.25003630
0.50802749 0.76305932 0.25072134
0.63631396 0.76370741 0.25123746
0.76435278 0.76412124 0.25155672
0.89210880 0.76426839 0.25165120
1.00000000 0.76552515 0.29509614
0.00000000 0.88911033 0.25190113
0.12584027 0.89082034 0.25093026
0.25404064 0.89138690 0.25137795
0.38198057 0.89170739 0.25161861
0.50962492 0.89174940 0.25162432
0.63693855 0.89148047 0.25136716
0.76388634 0.89086820 0.25081919
0.89043314 0.88988013 0.24995250
1.00000000 0.88635367 0.31855519
0.05239568 1.00000000 0.28684922
0.17769744 1.00000000 0.29264984
0.30135848 1.00000000 0.29880027
0.42322459 1.00000000 0.30530196
0.54314175 1.00000000 0.31215579
0.66095613 1.00000000 0.31936212
0.77651409 1.00000000 0.32692068
0.88966223 1.00000000 0.33483056
1.00000000 0.99975562 0.34623932
0.00000000 0.00028023 0.32319276
0.10965151 0.00000000 0.33111518
0.22222066 0.00000000 0.33521693
0.33726582 0.00000000 0.33912172
0.45463341 0.00000000 0.34282909
0.57416967 0.00000000 0.34633920
0.69572063 0.00000000 0.34965279
0.81913212 0.00000000 0.35277116
0.94424981 0.00000000 0.35569613
0.00000000 0.11311506 0.33816242
0.11098672 0.11252724 0.36878715
0.23708884 0.11126913 0.36756674
0.36362768 0.11040853 0.36669385
0.49056834 0.10991295 0.36614037
0.61787542 0.10975009 0.36587800
0.74551387 0.10988747 0.36587903
0.87344857 0.11029265 0.36611553
1.00000000 0.11143388 0.36644199
0.00000000 0.23359507 0.35069372
0.10795786 0.23731679 0.36601221
0.23539627 0.23726630 0.36583203
0.36312708 0.23751232 0.36587725
0.49115316 0.23800634 0.36623670
0.61945451 0.23871881 0.36676690
0.74795095 0.23962783 0.36744943
0.87662432 0.24069586 0.36827308
1.00000000 0.24346648 0.36961604
0.00000000 0.35998451 0.36074828
0.10893153 0.36573756 0.36641982
0.23732123 0.36651955 0.36698434
0.36601729 0.36738156 0.36757646
0.49409181 0.36857219 0.36856184
0.62324178 0.36987108 0.36960932
0.75239848 0.37116490 0.37062251
0.88141743 0.37252809 0.37171622
1.00000000 0.37672837 0.37569407
0.00000000 0.49053593 0.36840360
0.11257060 0.49655482 0.36894586
0.24147034 0.49781995 0.36994856
0.37053248 0.49909543 0.37107951
0.49942940 0.50012946 0.37301710
0.62777797 0.50173929 0.37420254
0.75743237 0.50326126 0.37441535
0.88648946 0.50455469 0.37538235
1.00000000 0.50945104 0.38496220
0.00000000 0.62349247 0.37383061
0.11753770 0.62853380 0.37252730
0.24657276 0.62990692 0.37363845
0.37557240 0.63124074 0.37472170
0.50450955 0.63248730 0.37578916
0.63328105 0.63361185 0.37689311
0.76195813 0.63467502 0.37760029
0.89050325 0.63554069 0.37820928
1.00000000 0.63987046 0.39766209
0.00000000 0.75709021 0.37726972
0.12249507 0.76043986 0.37610101
0.25126934 0.76155325 0.37700486
0.37988941 0.76251866 0.37778615
0.50832018 0.76330366 0.37841699
0.63652651 0.76387564 0.37887009
0.76447288 0.76420247 0.37911688
0.89212509 0.76425192 0.37912745
1.00000000 0.76622971 0.41396532
0.00000000 0.88956079 0.37900575
0.12610514 0.89103832 0.37860378
0.25422101 0.89152496 0.37898429
0.38206450 0.89175451 0.37914829
0.50960047 0.89169456 0.37906786
0.63679380 0.89131267 0.37871507
0.76360935 0.89057641 0.37806200
0.89001199 0.88945335 0.37708071
1.00000000 0.88678137 0.43394888
0.05499449 1.00000000 0.40694287
0.18008930 1.00000000 0.41188173
0.30350831 1.00000000 0.41711996
0.42509739 1.00000000 0.42265879
0.54470259 1.00000000 0.42849890
0.66217016 1.00000000 0.43464041
0.77734654 1.00000000 0.44108280
0.89007843 1.00000000 0.44782491
1.00000000 0.99978995 0.45757192
0.00000000 0.00036886 0.43283979
0.11001688 0.00000000 0.44317786
0.22300785 0.00000000 0.44849739
0.33844024 0.00000000 0.45356809
0.45616039 0.00000000 0.45838975
0.57601445 0.00000000 0.46296279
0.69784836 0.00000000 0.46728820
0.82150788 0.00000000 0.47136751
0.94683860 0.00000000 0.47520274
0.00000000 0.11360197 0.45204514
0.11046084 0.11205337 0.49583215
0.23671526 0.11093386 0.49473305
0.36339452 0.11020087 0.49397164
0.49046349 0.10982196 0.49352001
0.61788704 0.10976470 0.49335021
0.74563004 0.10999666 0.49343434
0.87365734 0.11048542 0.49374445
1.00000000 0.11182183 0.49377263
0.00000000 0.23436211 0.46824296
0.10789646 0.23726559 0.49342703
0.23544039 0.23731738 0.49335288
0.36329092 0.23764661 0.49352225
0.49141291 0.23822081 0.49390778
0.61977149 0.23900751 0.49448134
0.74833123 0.23997437 0.49521467
0.87705707 0.24108892 0.49608003
1.00000000 0.24415267 0.49629687
0.00000000 0.36091384 0.48139172
0.10920006 0.36598429 0.49409646
0.23763616 0.36684028 0.49473092
0.36626461 0.36786264 0.49550105
0.49501262 0.36902583 0.49637282
0.62390803 0.37029266 0.49741006
0.75291106 0.37162370 0.49848908
0.88193913 0.37299679 0.49959387
1.00000000 0.37759697 0.50113272
0.00000000 0.49151004 0.49156559
0.11303405 0.49697482 0.49677722
0.24196429 0.49826808 0.49780489
0.37098381 0.49960872 0.49888212
0.50000000 0.50083156 0.50000000
0.62823165 0.50224002 0.50137754
0.75777952 0.50371747 0.50227978
0.88696075 0.50497485 0.50322449
1.00000000 0.51038604 0.50856831
0.00000000 0.62439422 0.49893192
0.11806087 0.62900246 0.50040613
0.24708764 0.63036602 0.50151069
0.37606769 0.63167891 0.50257776
0.50501160 0.63284222 0.50367500
0.63337356 0.63356474 0.50569899
0.76137591 0.63478611 0.50648548
0.89068360 0.63578415 0.50600322
1.00000000 0.64075550 0.51884713
0.00000000 0.75780283 0.50372738
0.12294293 0.76083255 0.50391997
0.25166877 0.76189933 0.50478533
0.38022849 0.76280711 0.50551865
0.50858743 0.76352303 0.50609285
0.63671316 0.76399884 0.50652532
0.76449846 0.76420104 0.50687246
0.89205388 0.76418915 0.50666169
1.00000000 0.76694828 0.53214208
0.00000000 0.88996793 0.50623278
0.12634266 0.89123040 0.50625555
0.25436996 0.89163336 0.50656566
0.38211296 0.89176824 0.50664979
0.50953651 0.89160259 0.50647999
0.63660549 0.89110398 0.50602839
0.76328476 0.89023982 0.50526771
0.88953885 0.88897798 0.50416932
1.00000000 0.88721768 0.54853261
0.05763809 1.00000000 0.52642228
0.18251990 1.00000000 0.53046496
0.30569087 1.00000000 0.53475648
0.42699694 1.00000000 0.53929788
0.54628422 1.00000000 0.54408960
0.66339905 1.00000000 0.54913153
0.77818797 1.00000000 0.55442289
0.89049775 1.00000000 0.55996226
1.00000000 0.99982691 0.56797852
0.00000000 0.00045493 0.54341695
0.11037926 0.00000000 0.55610198
0.22378627 0.00000000 0.56260410
0.33960008 0.00000000 0.56880561
0.45766694 0.00000000 0.57470658
0.57783291 0.00000000 0.58030768
0.69994385 0.00000000 0.58561013
0.82384545 0.00000000 0.59061568
0.94938323 0.00000000 0.59532658
0.00000000 0.11408001 0.56674496
0.10998801 0.11162783 0.62291929
0.23639065 0.11064322 0.62193800
0.36320620 0.11003411 0.62128493
0.49039953 0.10976807 0.62093214
0.61793550 0.10981267 0.62085171
0.74577899 0.11013547 0.62101571
0.87389486 0.11070406 0.62139622
1.00000000 0.11225175 0.62099915
0.00000000 0.23511416 0.58649429
0.10787481 0.23725005 0.62087280
0.23552681 0.23739969 0.62088459
0.36347352 0.23781573 0.62113065
0.49167983 0.23846574 0.62158304
0.62011059 0.23931729 0.62221385
0.74873066 0.24033794 0.62299514
0.87750493 0.24149527 0.62389899
1.00000000 0.24487550 0.62275067
0.00000000 0.36182224 0.60262042
0.10949455 0.36625413 0.62179351
0.23799830 0.36717100 0.62248234
0.36667858 0.36824516 0.62331145
0.49550019 0.36944421 0.62425276
0.62442803 0.37073570 0.62527883
0.75342723 0.37208715 0.62636154
0.88246230 0.37346620 0.62747270
1.00000000 0.37849684 0.62622207
0.00000000 0.49245746 0.61519436
0.11350966 0.49740538 0.62461824
0.24246756 0.49872245 0.62566806
0.37148400 0.50008761 0.62676396
0.50052380 0.50146546 0.62786792
0.62950837 0.50282917 0.62895167
0.75849931 0.50415076 0.63004531
0.88742790 0.50538236 0.63105410
1.00000000 0.51134683 0.63170371
0.00000000 0.62526364 0.62438015
0.11858256 0.62946912 0.62828378
0.24759699 0.63081937 0.62937853
0.37655169 0.63210866 0.63042569
0.50542310 0.63329122 0.63139836
0.63398271 0.63417761 0.63242354
0.76161941 0.63511123 0.63355013
0.89077069 0.63601214 0.63370645
1.00000000 0.64166005 0.63944153
0.00000000 0.75847763 0.63041086
0.12337568 0.76121065 0.63172692
0.25204904 0.76222707 0.63255057
0.38054436 0.76307348 0.63323270
0.50882746 0.76371665 0.63374621
0.63688508 0.76405688 0.63418262
0.76404225 0.76381486 0.63556767
0.89092206 0.76392296 0.63533634
1.00000000 0.76765689 0.64960591
0.00000000 0.89033184 0.63356354
0.12655143 0.89139530 0.63388447
0.25448613 0.89171085 0.63412097
0.38212458 0.89174731 0.63412200
0.50943165 0.89147222 0.63385962
0.63637263 0.89085276 0.63330681
0.76291430 0.88984241 0.63248178
0.88895395 0.88841230 0.63143637
1.00000000 0.88765335 0.66226864
0.06032641 1.00000000 0.64526990
0.18498920 1.00000000 0.64838194
0.30790612 1.00000000 0.65169223
0.42892320 1.00000000 0.65520158
0.54788663 1.00000000 0.65891021
0.66464281 1.00000000 0.66281775
0.77903838 1.00000000 0.66692318
0.89092012 1.00000000 0.67122464
1.00000000 0.99986646 0.67744122
0.00000000 0.00053836 0.65490736
0.11073870 0.00000000 0.66986963
0.22455597 0.00000000 0.67751917
0.34074537 0.00000000 0.68481646
0.45915308 0.00000000 0.69176180
0.57962506 0.00000000 0.69835612
0.70200711 0.00000000 0.70460086
0.82614483 0.00000000 0.71049800
0.95188368 0.00000000 0.71604998
0.00000000 0.11454913 0.68224463
0.10956686 0.11124933 0.75004750
0.23611366 0.11039588 0.74918081
0.36306145 0.10990691 0.74863284
0.49037508 0.10975000 0.74837568
0.61801943 0.10989272 0.74838139
0.74595936 0.11030263 0.74862205
0.87415973 0.11094730 0.74906974
1.00000000 0.11272374 0.74810275
0.00000000 0.23585120 0.70543010
0.10789120 0.23726898 0.74834880
0.23564722 0.23751273 0.74844328
0.36368604 0.23801186 0.74876254
0.49197251 0.23873395 0.74927866
0.62047150 0.23964656 0.74996370
0.74914788 0.24071727 0.75078975
0.87796651 0.24191364 0.75172887
1.00000000 0.24563507 0.74895874
0.00000000 0.36270973 0.72441646
0.10981345 0.36654585 0.74950997
0.23838109 0.36751978 0.75024959
0.36711333 0.36863998 0.75112003
0.49597503 0.36987405 0.75209338
0.62493106 0.37118953 0.75314171
0.75394628 0.37255401 0.75423710
0.88298557 0.37393505 0.75535160
1.00000000 0.37942805 0.75094354
0.00000000 0.49337823 0.73927175
0.11399605 0.49784525 0.75246783
0.24297769 0.49918233 0.75353652
0.37200574 0.50055659 0.75464210
0.50104507 0.50193560 0.75575662
0.63006042 0.50328694 0.75685200
0.75901679 0.50457819 0.75790074
0.88787930 0.50577686 0.75887473
1.00000000 0.51233348 0.75435000
0.00000000 0.62610082 0.75015687
0.11910140 0.62993249 0.75615916
0.24809945 0.63126570 0.75724089
0.37702571 0.63252699 0.75826556
0.50584518 0.63368381 0.75920503
0.63451912 0.63470015 0.76002484
0.76296470 0.63554899 0.76070094
0.89127318 0.63620624 0.76123380
1.00000000 0.64258642 0.75942615
0.00000000 0.75911470 0.75730156
0.12379194 0.76157288 0.75952078
0.25240878 0.76253520 0.76029949
0.38083564 0.76331650 0.76092720
0.50903749 0.76388429 0.76137598
0.63698570 0.76419275 0.76162398
0.76437234 0.76406050 0.76187766
0.89071761 0.76384049 0.76205460
1.00000000 0.76836077 0.76637800
0.00000000 0.89065262 0.76097930
0.12673010 0.89153175 0.76148946
0.25456812 0.89175616 0.76164912
0.38209798 0.89169045 0.76156383
0.50928452 0.89130219 0.76120565
0.63609352 0.89055820 0.76054757
0.76250969 0.88936766 0.75968311
0.88790509 0.88753629 0.75959100
1.00000000 0.88788240 0.77500218
0.06305940 1.00000000 0.76346815
0.18749714 1.00000000 0.76561508
0.31015403 1.00000000 0.76790957
0.43087616 1.00000000 0.77035222
0.54950980 1.00000000 0.77294302
0.66590144 1.00000000 0.77568134
0.77989751 1.00000000 0.77856578
0.89133736 1.00000000 0.78158562
1.00000000 0.99991125 0.78585541
0.00000000 0.00061907 0.76729412
0.11109528 0.00000000 0.78446287
0.22531700 0.00000000 0.79322475
0.34187615 0.00000000 0.80158280
0.46061883 0.00000000 0.80953762
0.58139091 0.00000000 0.81709036
0.70403812 0.00000000 0.82424269
0.82840599 0.00000000 0.83099679
0.95433991 0.00000000 0.83735531
0.00000000 0.11500928 0.79852686
0.10919600 0.11091661 0.87721569
0.23588292 0.11019057 0.87646037
0.36295889 0.10981801 0.87601430
0.49038878 0.10976650 0.87584954
0.61813744 0.11000359 0.87593817
0.74616976 0.11049686 0.87625227
0.87445059 0.11121389 0.87676391
1.00000000 0.11323791 0.87506465
0.00000000 0.23657324 0.82503277
0.10794425 0.23732111 0.87585395
0.23580026 0.23765523 0.87602790
0.36392711 0.23823371 0.87641714
0.49228970 0.23902414 0.87699376
0.62085287 0.23999408 0.87772982
0.74958150 0.24111109 0.87859740
0.87844045 0.24234276 0.87956857
1.00000000 0.24643149 0.87490235
0.00000000 0.36357634 0.84676190
0.11015539 0.36685819 0.87724475
0.23878287 0.36788542 0.87803192
0.36756301 0.36904793 0.87894044
0.49646068 0.37031329 0.87994239
0.62544076 0.37164905 0.88100983
0.75446809 0.37302279 0.88211484
0.88350756 0.37440207 0.88322949
1.00000000 0.38039069 0.87527857
0.00000000 0.49427239 0.86377955
0.11449184 0.49829314 0.88032489
0.24349318 0.49964649 0.88140925
0.37252900 0.50102600 0.88252100
0.50156416 0.50239925 0.88363223
0.63056352 0.50373381 0.88471500
0.75949195 0.50499725 0.88574140
0.88831433 0.50615714 0.88668349
1.00000000 0.51334605 0.87648880
0.00000000 0.62690581 0.87624367
0.11961601 0.63039130 0.88403119
0.24859362 0.63170373 0.88509667
0.37748751 0.63293322 0.88609561
0.50626254 0.63404735 0.88700007
0.63488359 0.63501369 0.88778211
0.76331537 0.63579980 0.88841370
0.89152296 0.63637329 0.88886724
1.00000000 0.64353267 0.87878338
0.00000000 0.75971411 0.88438088
0.12419035 0.76191798 0.88730043
0.25274661 0.76282246 0.88803100
0.38110096 0.76353491 0.88860107
0.50921827 0.76402290 0.88898272
0.63706348 0.76425387 0.88914787
0.76459585 0.76419209 0.88906403
0.89173201 0.76381195 0.88870774
1.00000000 0.76918357 0.88235090
0.00000000 0.89093038 0.88846134
0.12687727 0.89163848 0.88906942
0.25461458 0.89176800 0.88914902
0.38203178 0.89159638 0.88897419
0.50909375 0.89109121 0.88851698
0.63576543 0.89021998 0.88774948
0.76201821 0.88893904 0.88664988
0.88757580 0.88712104 0.88539295
1.00000000 0.88829316 0.88736370
0.06583701 1.00000000 0.88099946
0.19004370 1.00000000 0.88214676
0.31243458 1.00000000 0.88339086
0.43285580 1.00000000 0.88473213
0.55115373 1.00000000 0.88617031
0.66717495 1.00000000 0.88770454
0.78076566 1.00000000 0.88933324
0.89173697 1.00000000 0.89103984
1.00000000 0.99996794 0.89299471
0.00000000 0.00069698 0.88056026
0.11144905 0.00000000 0.89986384
0.22606939 0.00000000 0.90970297
0.34299244 0.00000000 0.91908684
0.46206419 0.00000000 0.92801628
0.58313046 0.00000000 0.93649267
0.70603688 0.00000000 0.94451791
0.83062892 0.00000000 0.95209438
0.95675190 0.00000000 0.95922493
0.00000000 0.11546044 0.91557430
0.10923236 0.11096837 1.00000000
0.23554230 0.11045319 1.00000000
0.36230884 0.11028710 1.00000000
0.48939375 0.11046550 1.00000000
0.61665867 0.11098383 1.00000000
0.74396492 0.11183762 1.00000000
0.87117345 0.11302249 1.00000000
0.99814475 0.11453424 1.00000000
0.00000000 0.23728025 0.94528458
0.10875936 0.23753106 1.00000000
0.23628180 0.23810473 1.00000000
0.36394233 0.23896845 1.00000000
0.49160205 0.24011782 1.00000000
0.61912166 0.24154856 1.00000000
0.74636133 0.24325653 1.00000000
0.87318062 0.24523780 1.00000000
0.99943833 0.24748863 1.00000000
0.00000000 0.36442210 0.96963874
0.11244556 0.36712159 1.00000000
0.24060295 0.36843867 1.00000000
0.36857815 0.36998729 1.00000000
0.49623113 0.37176338 1.00000000
0.62342117 0.37376309 1.00000000
0.75000679 0.37598277 1.00000000
0.87584561 0.37841904 1.00000000
1.00000000 0.38138484 0.99920861
0.00000000 0.49514001 0.98869950
0.12001886 0.49808122 1.00000000
0.24823220 0.49979670 1.00000000
0.37594087 0.50168587 1.00000000
0.50300317 0.50374515 1.00000000
0.62927647 0.50597124 1.00000000
0.75461712 0.50836116 1.00000000
0.87888027 0.51091226 1.00000000
1.00000000 0.51438460 0.99810178
0.00284834 0.62709670 1.00000000
0.13122666 0.62874542 1.00000000
0.25891790 0.63051402 1.00000000
0.38577927 0.63239925 1.00000000
0.51166689 0.63439819 1.00000000
0.63643571 0.63650826 1.00000000
0.75993930 0.63872730 1.00000000
0.88202982 0.64105356 1.00000000
1.00000000 0.64449895 0.99749540
0.01824994 0.75602507 1.00000000
0.14585752 0.75743741 1.00000000
0.27245205 0.75891281 1.00000000
0.39788830 0.76044875 1.00000000
0.52201969 0.76204310 1.00000000
0.64469811 0.76369421 1.00000000
0.76577384 0.76540087 1.00000000
0.88509531 0.76716240 1.00000000
1.00000000 0.76996984 0.99757165
0.03749259 0.88163447 1.00000000
0.16376416 0.88246135 1.00000000
0.28869357 0.88329540 1.00000000
0.41213259 0.88413499 1.00000000
0.53393132 0.88497899 1.00000000
0.65393803 0.88582681 1.00000000
0.77199899 0.88667836 1.00000000
0.88795418 0.88753179 1.00000000
1.00000000 0.88903224 0.99844300
0.06865919 1.00000000 0.99784622
0.19262883 1.00000000 0.99795936
0.31474772 1.00000000 0.99811844
0.43486210 1.00000000 0.99832361
0.55281842 1.00000000 0.99857437
0.66846335 1.00000000 0.99886958
0.78164372 1.00000000 0.99920744
0.89219874 1.00000000 0.99958827
1.00000000 1.00000000 1.00000000
