assets/luts/DB_Prairie_Gold_Rec709_100.cube
TITLE "Prairie Gold Rec709 100"
# Red changes fastest. Full-range normalized input.
LUT_3D_SIZE 9
DOMAIN_MIN 0 0 0
DOMAIN_MAX 1 1 1
0.00200000 0.00200000 0.00200000
0.11663201 0.00002130 0.00000000
0.22721457 0.00027958 0.00000000
0.34013282 0.00076861 0.00000000
0.45529472 0.00144236 0.00000000
0.57264579 0.00229875 0.00000000
0.69203072 0.00332216 0.00000000
0.81329566 0.00449540 0.00000000
0.93628993 0.00580038 0.00000000
0.00000000 0.11421432 0.00203750
0.11275555 0.11529326 0.00000000
0.22856268 0.11681588 0.00000000
0.34643310 0.11944041 0.00000000
0.46600557 0.12144433 0.00000000
0.58721962 0.12349862 0.00000000
0.70999463 0.12564827 0.00000000
0.83421501 0.12786539 0.00000000
0.95975612 0.13012411 0.00000000
0.00000000 0.23600938 0.00058838
0.11720209 0.23888186 0.00000000
0.23658490 0.24151122 0.00000000
0.35760546 0.24450224 0.00000000
0.48009484 0.24748935 0.00000000
0.60391801 0.25040443 0.00000000
0.72897740 0.25329724 0.00000000
0.85514810 0.25614521 0.00000000
0.98230148 0.25892370 0.00000000
0.00379658 0.36402771 0.00000000
0.12454641 0.36759883 0.00000000
0.24669821 0.37114080 0.00000000
0.37013749 0.37462550 0.00000000
0.49474358 0.37802839 0.00000000
0.62038871 0.38132095 0.00000000
0.74694488 0.38447922 0.00000000
0.87428235 0.38747917 0.00000000
1.00000000 0.39075047 0.00219111
0.01000553 0.49637624 0.00000000
0.13310365 0.50030588 0.00000000
0.25730000 0.50408590 0.00000000
0.38246733 0.50769121 0.00000000
0.50847653 0.51109730 0.00000000
0.63519743 0.51427997 0.00000000
0.76249920 0.51721521 0.00000000
0.89025065 0.51987912 0.00000000
1.00000000 0.52514613 0.02523650
0.01691127 0.63123056 0.00000000
0.14165394 0.63501611 0.00000000
0.26716966 0.63853709 0.00000000
0.39332779 0.64176945 0.00000000
0.51999722 0.64468927 0.00000000
0.64704662 0.64727269 0.00000000
0.77434443 0.64949592 0.00000000
0.90175897 0.65133521 0.00000000
1.00000000 0.65555885 0.05820269
0.02330099 0.76655669 0.00000000
0.14895074 0.76970554 0.00000000
0.27504218 0.77247676 0.00000000
0.40144384 0.77484651 0.00000000
0.52802410 0.77679103 0.00000000
0.65465120 0.77828659 0.00000000
0.78119318 0.77930952 0.00000000
0.90751779 0.77983623 0.00000000
1.00000000 0.77953207 0.10170420
0.02791234 0.90033533 0.00000000
0.15372092 0.90235813 0.00000000
0.27963851 0.90389060 0.00000000
0.40553340 0.90490899 0.00000000
0.53127364 0.90538961 0.00000000
0.65672699 0.90530889 0.00000000
0.78176075 0.90464338 0.00000000
0.90624165 0.90336979 0.00000000
1.00000000 0.89464760 0.15597558
0.10539601 1.00000000 0.07906165
0.22777652 1.00000000 0.09145586
0.34761986 1.00000000 0.10468882
0.46471269 1.00000000 0.11876573
0.57884240 1.00000000 0.13368957
0.68979717 1.00000000 0.14946101
0.79736604 1.00000000 0.16607825
0.90133889 1.00000000 0.18353693
1.00000000 0.99853207 0.22080720
0.00000000 0.00045367 0.12976007
0.11497193 0.00000000 0.11635508
0.22784515 0.00000000 0.11468354
0.34337633 0.00000000 0.11452919
0.46173876 0.00000000 0.11464893
0.58283984 0.00000000 0.11475549
0.70650325 0.00000000 0.11474865
0.83252954 0.00000000 0.11459272
0.96071013 0.00000000 0.11427877
0.00000000 0.11485816 0.11367218
0.11260740 0.11632896 0.11442279
0.23902261 0.11454073 0.11223290
0.36820368 0.11435893 0.10997069
0.49768050 0.11399082 0.10799184
0.62726190 0.11391726 0.10641845
0.75731311 0.11421054 0.10512406
0.88778941 0.11482754 0.10408393
1.00000000 0.12072574 0.10860391
0.00000000 0.23705120 0.11636952
0.10847797 0.24338936 0.10754543
0.23749884 0.24123305 0.10811346
0.36627846 0.24219514 0.10706407
0.49868151 0.24473541 0.10396673
0.62989871 0.24584993 0.10303669
0.76116581 0.24705596 0.10250861
0.89267289 0.24843527 0.10216213
1.00000000 0.25599056 0.11383152
0.00000000 0.36678865 0.11612329
0.11012259 0.37493306 0.10347570
0.24119606 0.37591365 0.10292468
0.37233884 0.37690199 0.10286897
0.50399694 0.37858169 0.10228297
0.63588873 0.38025305 0.10194719
0.76775847 0.38187053 0.10193198
0.89968078 0.38350853 0.10202984
1.00000000 0.39211184 0.12608658
0.00000000 0.50164987 0.11330528
0.11564075 0.50900360 0.10201058
0.24743801 0.51057864 0.10192358
0.37932844 0.51220509 0.10195838
0.51125739 0.51383986 0.10209131
0.64317413 0.51544120 0.10229517
0.77502035 0.51695998 0.10255553
0.90674230 0.51835300 0.10284848
1.00000000 0.52657952 0.14651353
0.00000000 0.63913666 0.10895797
0.12283586 0.64417101 0.10215523
0.25473211 0.64574606 0.10238445
0.38653911 0.64722399 0.10265964
0.51820246 0.64856030 0.10295876
0.64966775 0.64971047 0.10325979
0.78088061 0.65063001 0.10354070
0.91178662 0.65127440 0.10377946
1.00000000 0.65690636 0.17603089
0.00000000 0.77672497 0.10436458
0.12963636 0.77874292 0.10306929
0.26101605 0.77981428 0.10336554
0.39212349 0.78063880 0.10363366
0.52290430 0.78117198 0.10385161
0.65330407 0.78136931 0.10399736
0.78326842 0.78118630 0.10404889
0.91274295 0.78057843 0.10398418
1.00000000 0.78063615 0.21524966
0.00332309 0.91060898 0.10371997
0.13397147 0.91102504 0.10391419
0.26421902 0.91108906 0.10402819
0.39401134 0.91075652 0.10403995
0.52329404 0.90998293 0.10392744
0.65201272 0.90872378 0.10366864
0.78011300 0.90693457 0.10324152
0.90754047 0.90457079 0.10262405
1.00000000 0.89535117 0.26439978
0.10933356 1.00000000 0.19476185
0.23137300 1.00000000 0.20597791
0.35082623 1.00000000 0.21796555
0.46748015 1.00000000 0.23072923
0.58112242 1.00000000 0.24427114
0.69154153 1.00000000 0.25859112
0.79852677 1.00000000 0.27368650
0.90186835 1.00000000 0.28955201
1.00000000 0.99867860 0.32326629
0.00000000 0.00080169 0.23409223
0.11381263 0.00000000 0.23108445
0.22766150 0.00000000 0.22974092
0.34393689 0.00000000 0.23034213
0.46292269 0.00000000 0.23142797
0.58455030 0.00000000 0.23257781
0.70866191 0.00000000 0.23363331
0.83506832 0.00000000 0.23452857
0.96356676 0.00000000 0.23523761
0.00000000 0.11549470 0.22603030
0.11167052 0.11630846 0.24339359
0.23963416 0.11500292 0.24092235
0.36829470 0.11425058 0.23890863
0.49757310 0.11392231 0.23716310
0.62731654 0.11397779 0.23568899
0.75751822 0.11438600 0.23448342
0.88812651 0.11510281 0.23352463
1.00000000 0.12152798 0.23506435
0.00000000 0.23807720 0.23306258
0.10832854 0.24358084 0.23658943
0.23793045 0.24259861 0.23544076
0.36625496 0.24215679 0.23515499
0.49865498 0.24483992 0.23350400
0.63037534 0.24623347 0.23257996
0.76174147 0.24750709 0.23211185
0.89331842 0.24893538 0.23182153
1.00000000 0.25717488 0.23914942
0.00000000 0.36799997 0.23690866
0.11054489 0.37526968 0.23297103
0.24168884 0.37600458 0.23267182
0.37084612 0.37389120 0.23548612
0.50129307 0.37618732 0.23522465
0.63624878 0.38059760 0.23194756
0.76849293 0.38242518 0.23169633
0.90042570 0.38406242 0.23182330
1.00000000 0.39351993 0.24943563
0.00000000 0.50286830 0.23756783
0.11632553 0.50952985 0.23170618
0.24816057 0.51112530 0.23166475
0.38001904 0.51264302 0.23186750
0.51159409 0.51390567 0.23253525
0.64368714 0.51580301 0.23237344
0.77570157 0.51744461 0.23240101
0.90737753 0.51878964 0.23269135
1.00000000 0.52805305 0.26706754
0.00000000 0.64019283 0.23598093
0.12357477 0.64471404 0.23196655
0.25544681 0.64626110 0.23221386
0.38721110 0.64769585 0.23249973
0.51881234 0.64897251 0.23280408
0.65019636 0.65004825 0.23310289
0.78131319 0.65088155 0.23336833
0.91210316 0.65142276 0.23358706
1.00000000 0.65828717 0.29296210
0.00000000 0.77745418 0.23338484
0.13022036 0.77913168 0.23291169
0.26151369 0.78012420 0.23320086
0.39251631 0.78085477 0.23345440
0.52317381 0.78127888 0.23365030
0.65343181 0.78135204 0.23376653
0.78323592 0.78102973 0.23378106
0.91253173 0.78026746 0.23367185
1.00000000 0.78176638 0.32772727
0.00367315 0.91078699 0.23353356
0.13419151 0.91108849 0.23370300
0.26429056 0.91102282 0.23378475
0.39391591 0.91054549 0.23375678
0.52301316 0.90961199 0.23359706
0.65152793 0.90817782 0.23328357
0.77940582 0.90619848 0.23279428
0.90659244 0.90362945 0.23210715
1.00000000 0.89607338 0.37158883
0.11332680 1.00000000 0.30958059
0.23501646 1.00000000 0.31957229
0.35407096 1.00000000 0.33026814
0.47027745 1.00000000 0.34167184
0.58342386 1.00000000 0.35378481
0.69329895 1.00000000 0.36660601
0.79969234 1.00000000 0.38013191
0.90239454 1.00000000 0.39435631
1.00000000 0.99883584 0.42432695
0.00000000 0.00113495 0.33975768
0.11312299 0.00000000 0.34545029
0.22768776 0.00000000 0.34515549
0.34461923 0.00000000 0.34676934
0.46417387 0.00000000 0.34891354
0.58629345 0.00000000 0.35113655
0.71082882 0.00000000 0.35325449
0.83759635 0.00000000 0.35518507
0.96639677 0.00000000 0.35689198
0.00000000 0.11612631 0.33923166
0.11101034 0.11583199 0.37230113
0.23925949 0.11473090 0.37000396
0.36811434 0.11410145 0.36803477
0.49752101 0.11389904 0.36637112
0.62742436 0.11407906 0.36499053
0.75777022 0.11459706 0.36387124
0.88850423 0.11540854 0.36299124
1.00000000 0.12238988 0.36130923
0.00000000 0.23908241 0.35065761
0.10830617 0.24366204 0.36583640
0.23837008 0.24394141 0.36453787
0.36874209 0.24448045 0.36349085
0.49964802 0.24546656 0.36272719
0.63090387 0.24664700 0.36213734
0.76234295 0.24797656 0.36173499
0.89398347 0.24944868 0.36149831
1.00000000 0.25841263 0.36407177
0.00000000 0.36917881 0.35848264
0.11100123 0.37563824 0.36248847
0.24226965 0.37676275 0.36199360
0.37263170 0.37632733 0.36251735
0.50145373 0.37631177 0.36380498
0.63638728 0.38082614 0.36188783
0.76922086 0.38297648 0.36147629
0.90116901 0.38461224 0.36162559
1.00000000 0.39497504 0.37221082
0.00000000 0.50404495 0.36246926
0.11702525 0.51006556 0.36141730
0.24889182 0.51167636 0.36141733
0.38058156 0.51278443 0.36195200
0.50853637 0.50999349 0.36662582
0.63958949 0.51263955 0.36655773
0.77592515 0.51767107 0.36259190
0.90798679 0.51920358 0.36253681
1.00000000 0.52956698 0.38687162
0.00000000 0.64119938 0.36347874
0.12430752 0.64524925 0.36178485
0.25614908 0.64676318 0.36204770
0.38786349 0.64814688 0.36234455
0.51931019 0.64922838 0.36280865
0.65014899 0.64982383 0.36368597
0.78145157 0.65092135 0.36347777
0.91236629 0.65152754 0.36339571
1.00000000 0.65970146 0.40897003
0.00000000 0.77812673 0.36270803
0.13077711 0.77949536 0.36275252
0.26197781 0.78040391 0.36303206
0.39286932 0.78103539 0.36326850
0.52339722 0.78134524 0.36343991
0.65350605 0.78128767 0.36352632
0.78314195 0.78081995 0.36350345
0.91225506 0.77990027 0.36334344
1.00000000 0.78292288 0.43911146
0.00398113 0.91092779 0.36333957
0.13436319 0.91110959 0.36348170
0.26430746 0.91090911 0.36352866
0.39375957 0.91028185 0.36345842
0.52266511 0.90918331 0.36324895
0.65096969 0.90756899 0.36287822
0.77861892 0.90539437 0.36232421
0.90555840 0.90261497 0.36156490
1.00000000 0.89681426 0.47751799
0.11737548 1.00000000 0.42349423
0.23870670 1.00000000 0.43221525
0.35735387 1.00000000 0.44157275
0.47310443 1.00000000 0.45156965
0.58574657 1.00000000 0.46220655
0.69506935 1.00000000 0.47348157
0.80086269 1.00000000 0.48539026
0.90291744 1.00000000 0.49792548
1.00000000 0.99900374 0.52396535
0.00000000 0.00145504 0.44672103
0.11271387 0.00000000 0.46008546
0.22787336 0.00000000 0.46112422
0.34539322 0.00000000 0.46387863
0.46547584 0.00000000 0.46712971
0.58805955 0.00000000 0.47043601
0.71299772 0.00000000 0.47360628
0.84010930 0.00000000 0.47655056
0.96919701 0.00000000 0.47922672
0.00000000 0.11676096 0.45332677
0.11043279 0.11540247 0.50122312
0.23889391 0.11446660 0.49904004
0.36794228 0.11398711 0.49717687
0.49752351 0.11391952 0.49561161
0.62758321 0.11421930 0.49432221
0.75806699 0.11484196 0.49328666
0.88892045 0.11574299 0.49248291
1.00000000 0.12331180 0.48731054
0.00000000 0.24006671 0.46914233
0.10836738 0.24372847 0.49511141
0.23858776 0.24415092 0.49391693
0.36921209 0.24487979 0.49296803
0.50018645 0.24587119 0.49224335
0.63145694 0.24708042 0.49172049
0.76296810 0.24846260 0.49137719
0.89466592 0.24997343 0.49119159
1.00000000 0.25970414 0.48857081
0.00000000 0.37032487 0.48082360
0.11149265 0.37602874 0.49203093
0.24285666 0.37730499 0.49157570
0.37441386 0.37869419 0.49129295
0.50596900 0.38009780 0.49119922
0.63793894 0.38183578 0.49118167
0.76997716 0.38353738 0.49125388
0.90190864 0.38515625 0.49143583
1.00000000 0.39647747 0.49438481
0.00000000 0.50517986 0.48798484
0.11773779 0.51060898 0.49114308
0.24963000 0.51223678 0.49117826
0.38150952 0.51375731 0.49136688
0.51137370 0.51303349 0.49311599
0.63956578 0.51265577 0.49543136
0.77583697 0.51773116 0.49275663
0.90855785 0.51958910 0.49238756
1.00000000 0.53112153 0.50589895
0.00000000 0.64215650 0.49142512
0.12503200 0.64577491 0.49160927
0.25683680 0.64725058 0.49188512
0.38849510 0.64857820 0.49218880
0.51956220 0.64912842 0.49304334
0.64555290 0.64520697 0.49875346
0.77603553 0.64716532 0.49837155
0.91208689 0.65134151 0.49357962
1.00000000 0.66114731 0.52402809
0.00000000 0.77874289 0.49230693
0.13130446 0.77983221 0.49259092
0.26240626 0.78065166 0.49285829
0.39318040 0.78117893 0.49307509
0.52357112 0.78136659 0.49322260
0.65342373 0.78104523 0.49344469
0.78240532 0.78005398 0.49398175
0.91165204 0.77931570 0.49328679
1.00000000 0.78410025 0.54937161
0.00424489 0.91102963 0.49313714
0.13448437 0.91108660 0.49324942
0.26426761 0.91074618 0.49325905
0.39354020 0.90996386 0.49314399
0.52224775 0.90869515 0.49288223
0.65033584 0.90689547 0.49245183
0.77774920 0.90451931 0.49183267
0.90443394 0.90152375 0.49100052
1.00000000 0.89757361 0.58216195
0.12147936 1.00000000 0.53647909
0.24244348 1.00000000 0.54388304
0.36067478 1.00000000 0.55185554
0.47596093 1.00000000 0.56039871
0.58809044 1.00000000 0.56951233
0.69685264 1.00000000 0.57919364
0.80203778 1.00000000 0.58943728
0.90343702 1.00000000 0.60023514
1.00000000 0.99918222 0.62215782
0.00000000 0.00176189 0.55495879
0.11248176 0.00000000 0.57527074
0.22817388 0.00000000 0.57775400
0.34623667 0.00000000 0.58171100
0.46681603 0.00000000 0.58608909
0.58984079 0.00000000 0.59047480
0.71516338 0.00000000 0.59467964
0.84260348 0.00000000 0.59861149
0.97196476 0.00000000 0.60222548
0.00000000 0.11739384 0.56834092
0.10992924 0.11503071 0.63018449
0.23859590 0.11425481 0.62811253
0.36783133 0.11392020 0.62635300
0.49758115 0.11398236 0.62488389
0.62779097 0.11439678 0.62368317
0.75840640 0.11511897 0.62272881
0.88937302 0.11610442 0.62199878
1.00000000 0.12429410 0.61304027
0.00000000 0.24102927 0.58850220
0.10848181 0.24383480 0.62441684
0.23884559 0.24436642 0.62330836
0.36959517 0.24518960 0.62243822
0.50067616 0.24625984 0.62178440
0.63203416 0.24753264 0.62132486
0.76361477 0.24896349 0.62103758
0.89536362 0.25050788 0.62090053
1.00000000 0.26104974 0.61261885
0.00000000 0.37143795 0.60390931
0.11201601 0.37644212 0.62159576
0.24346135 0.37777761 0.62120149
0.37510948 0.37925489 0.62097143
0.50690548 0.38082912 0.62088349
0.63879596 0.38245675 0.62091597
0.77072688 0.38409298 0.62104653
0.90264243 0.38569270 0.62125318
1.00000000 0.39802751 0.61593032
0.00000000 0.50627310 0.61408955
0.11846103 0.51115837 0.62088266
0.25037237 0.51279408 0.62095331
0.38230300 0.51442072 0.62111428
0.51414920 0.51593909 0.62136059
0.64568826 0.51723935 0.62172954
0.77751932 0.51873264 0.62197044
0.90913284 0.51996229 0.62222016
1.00000000 0.53271698 0.62412278
0.00000000 0.64306439 0.61979361
0.12574606 0.64628927 0.62143895
0.25750783 0.64772155 0.62172524
0.38910627 0.64899573 0.62202784
0.52040220 0.64993994 0.62240595
0.64881898 0.64823546 0.62470013
0.77553797 0.64683894 0.62728259
0.91144042 0.65096856 0.62374484
1.00000000 0.66261802 0.63811312
0.00051194 0.77915250 0.62213732
0.13180030 0.78014050 0.62242602
0.26279693 0.78086572 0.62267869
0.39344742 0.78128363 0.62287330
0.52369480 0.78134415 0.62299272
0.65303681 0.78043607 0.62360322
0.77687907 0.77519867 0.62908995
0.90549902 0.77537814 0.62797434
1.00000000 0.78500912 0.65836478
0.00446230 0.91109078 0.62292542
0.13455294 0.91101778 0.62300531
0.26416886 0.91053228 0.62297506
0.39325566 0.90958977 0.62281265
0.52175895 0.90814575 0.62249606
0.64962321 0.90615323 0.62200639
0.77671390 0.90346906 0.62147218
0.90276485 0.89999367 0.62108319
1.00000000 0.89824204 0.68526208
0.12563820 1.00000000 0.64851147
0.24622661 1.00000000 0.65455187
0.36403349 1.00000000 0.66109261
0.47884681 1.00000000 0.66813503
0.59045535 1.00000000 0.67567805
0.69864875 1.00000000 0.68371802
0.80321749 1.00000000 0.69224857
0.90395236 1.00000000 0.70125872
1.00000000 0.99937128 0.71887520
0.00000000 0.00205541 0.66444735
0.11236939 0.00000000 0.69115034
0.22855977 0.00000000 0.69510746
0.34713332 0.00000000 0.70028992
0.46818466 0.00000000 0.70579606
0.59163083 0.00000000 0.71124718
0.71732142 0.00000000 0.71646306
0.84507572 0.00000000 0.72135282
0.97469760 0.00000000 0.72587095
0.00000000 0.11802120 0.68428674
0.10949757 0.11471496 0.75918444
0.23836349 0.11409392 0.75722105
0.36777971 0.11389904 0.75556262
0.49769185 0.11408582 0.75418713
0.62804551 0.11460975 0.75307254
0.75878630 0.11542634 0.75219683
0.88985983 0.11649107 0.75153798
1.00000000 0.12533716 0.73847046
0.00000000 0.24196926 0.70872087
0.10864701 0.24397988 0.75375230
0.23914791 0.24461551 0.75272723
0.37001614 0.24552759 0.75193303
0.50119730 0.24667161 0.75134765
0.63263700 0.24800307 0.75094908
0.76428085 0.24947747 0.75071529
0.89607445 0.25105030 0.75062426
1.00000000 0.26244977 0.73618824
0.00000000 0.37251788 0.72771699
0.11256903 0.37687699 0.75118208
0.24408935 0.37826564 0.75084605
0.37579402 0.37978103 0.75066678
0.50762863 0.38137864 0.75062225
0.63953880 0.38301399 0.75069042
0.77147013 0.38464256 0.75084927
0.90336823 0.38621984 0.75107677
1.00000000 0.39962545 0.73682014
0.00000000 0.50732474 0.74075812
0.11919283 0.51171199 0.75063518
0.25111700 0.51335002 0.75073891
0.38304253 0.51496507 0.75092531
0.51491497 0.51651257 0.75117233
0.64667924 0.51794759 0.75145801
0.77828241 0.51922682 0.75176029
0.90967031 0.52030538 0.75205694
1.00000000 0.53435353 0.74151646
0.00000000 0.64392329 0.74855761
0.12644758 0.64679059 0.75127301
0.25816004 0.64817435 0.75156722
0.38969087 0.64938541 0.75187000
0.52098480 0.65037795 0.75215975
0.65192344 0.65104842 0.75244256
0.78227325 0.65128946 0.75276390
0.91274101 0.65153154 0.75279183
1.00000000 0.66414310 0.75119457
0.00106711 0.77951474 0.75197804
0.13226250 0.78041848 0.75225697
0.26314767 0.78104433 0.75249239
0.39366824 0.78134777 0.75266227
0.52376957 0.78128378 0.75274489
0.65330174 0.78068605 0.75280752
0.77963010 0.77745162 0.75473322
0.90431715 0.77451141 0.75660714
1.00000000 0.78572339 0.76650924
0.00463124 0.91110948 0.75270353
0.13456676 0.91090139 0.75274849
0.26400909 0.91026567 0.75267583
0.39290382 0.90915784 0.75246353
0.52119657 0.90753338 0.75208956
0.64883097 0.90534313 0.75153635
0.77541146 0.90210689 0.75128899
0.89749818 0.89563561 0.75485617
1.00000000 0.89644819 0.78472024
0.12985177 1.00000000 0.75956763
0.25005587 1.00000000 0.76419791
0.36742985 1.00000000 0.76926006
0.48176194 1.00000000 0.77475460
0.59284121 1.00000000 0.78067959
0.70045762 1.00000000 0.78703048
0.80439870 1.00000000 0.79379806
0.90437707 1.00000000 0.80085132
1.00000000 0.99958189 0.81329817
0.00000000 0.00233554 0.77516293
0.11234252 0.00000000 0.80780072
0.22901060 0.00000000 0.81322036
0.34807099 0.00000000 0.81962686
0.46957400 0.00000000 0.82624901
0.59342444 0.00000000 0.83274412
0.71946815 0.00000000 0.83894304
0.84752326 0.00000000 0.84475825
0.97739340 0.00000000 0.85014501
0.00000000 0.11864021 0.80116793
0.10913564 0.11445350 0.88822210
0.23819454 0.11398218 0.88636474
0.36778528 0.11392190 0.88480487
0.49785346 0.11422817 0.88352045
0.62834470 0.11485648 0.88248946
0.75920459 0.11576233 0.88168987
0.89037874 0.11690121 0.88109965
1.00000000 0.12644131 0.86357319
0.00000000 0.24288603 0.82978049
0.10886085 0.24416198 0.88311693
0.23949260 0.24489648 0.88217273
0.37047320 0.24589232 0.88145192
0.50174826 0.24710499 0.88093245
0.63326339 0.24848998 0.88059231
0.76496419 0.25000280 0.88040947
0.89679627 0.25159894 0.88036190
1.00000000 0.26390455 0.85925139
0.00000000 0.37356455 0.85222338
0.11314959 0.37733161 0.88078902
0.24473861 0.37876829 0.88050870
0.37649351 0.38031659 0.88037765
0.50835988 0.38193201 0.88037386
0.64028334 0.38357005 0.88047530
0.77220948 0.38518619 0.88065993
0.90408393 0.38673594 0.88090574
1.00000000 0.40127155 0.85702715
0.00000000 0.50833490 0.86796504
0.11993105 0.51226809 0.88039977
0.25186179 0.51390330 0.88053405
0.38377541 0.51550043 0.88074350
0.51561752 0.51701495 0.88100611
0.64733374 0.51840238 0.88129984
0.77886966 0.51961821 0.88160266
0.91017090 0.52061792 0.88189256
1.00000000 0.53603140 0.85805346
0.00000000 0.64473342 0.87769039
0.12713443 0.64727712 0.88111060
0.25879130 0.64860723 0.88141019
0.39024809 0.64974953 0.88171086
0.52145038 0.65065951 0.88199058
0.65234371 0.65129262 0.88222734
0.78287292 0.65160390 0.88239923
0.91298536 0.65155010 0.88248397
1.00000000 0.66569699 0.86324683
0.00159278 0.77985005 0.88181628
0.13268891 0.78066442 0.88208291
0.26345637 0.78118576 0.88229854
0.39384074 0.78136959 0.88244114
0.52378764 0.78117139 0.88248870
0.65324169 0.78054541 0.88241970
0.78208393 0.77939448 0.88224063
0.91009733 0.77763251 0.88198438
1.00000000 0.78770487 0.87326845
0.00474957 0.91108400 0.88247062
0.13452370 0.91073567 0.88247810
0.26378616 0.90994462 0.88236049
0.39248256 0.90866633 0.88209576
0.52055850 0.90685630 0.88166187
0.64795943 0.90446961 0.88103707
0.77456220 0.90137105 0.88026826
0.89846959 0.89620034 0.88067870
1.00000000 0.89675438 0.88824952
0.13411986 1.00000000 0.86962380
0.25393110 1.00000000 0.87279730
0.37086371 1.00000000 0.87633393
0.48470620 1.00000000 0.88023337
0.59524795 1.00000000 0.88449279
0.70227922 1.00000000 0.88910675
0.80558454 1.00000000 0.89406594
0.90457243 1.00000000 0.89912369
1.00000000 0.99984400 0.90350900
0.00000000 0.00260222 0.88708162
0.11237937 0.00000000 0.92526155
0.22951180 0.00000000 0.93211118
0.34904035 0.00000000 0.93972486
0.47097785 0.00000000 0.94744179
0.59521729 0.00000000 0.95495396
0.72160039 0.00000000 0.96210450
0.84994370 0.00000000 0.96881048
0.98005026 0.00000000 0.97502883
0.00000000 0.11924868 0.91898171
0.11027319 0.11556506 1.00000000
0.23746008 0.11567324 1.00000000
0.36541450 0.11613108 1.00000000
0.49400010 0.11691621 1.00000000
0.62307995 0.11800644 1.00000000
0.75251628 0.11937983 1.00000000
0.88217030 0.12101474 1.00000000
1.00000000 0.12760691 0.98832057
0.00000000 0.24377904 0.95166199
0.11185392 0.24482991 1.00000000
0.24085081 0.24609375 1.00000000
0.37027265 0.24759749 1.00000000
0.49998120 0.24931934 1.00000000
0.62983703 0.25123784 1.00000000
0.75969936 0.25333194 1.00000000
0.88942580 0.25558108 1.00000000
1.00000000 0.26541439 0.98178078
0.00000000 0.37457787 0.97740477
0.11786283 0.37763478 1.00000000
0.24791285 0.37956747 1.00000000
0.37804075 0.38163164 1.00000000
0.50810522 0.38380642 1.00000000
0.63796320 0.38607142 1.00000000
0.76746961 0.38840687 1.00000000
0.89647710 0.39079369 1.00000000
1.00000000 0.40296609 0.97652430
0.00000000 0.50930371 0.99568460
0.12711139 0.51193845 1.00000000
0.25745494 0.51405400 1.00000000
0.38752342 0.51619436 1.00000000
0.51717117 0.51833994 1.00000000
0.64625011 0.52047186 1.00000000
0.77460944 0.52257206 1.00000000
0.90209528 0.52462337 1.00000000
1.00000000 0.53775078 0.97370732
0.00809843 0.64381103 1.00000000
0.13846428 0.64568390 1.00000000
0.26834323 0.64749586 1.00000000
0.39758671 0.64922819 1.00000000
0.52604327 0.65086300 1.00000000
0.65355824 0.65238338 1.00000000
0.77997334 0.65377348 1.00000000
0.90512630 0.65501864 1.00000000
1.00000000 0.66728130 0.97424766
0.02137374 0.77559968 1.00000000
0.15088637 0.77678429 1.00000000
0.27954918 0.77780428 1.00000000
0.40720700 0.77864290 1.00000000
0.53370087 0.77928448 1.00000000
0.65886765 0.77971464 1.00000000
0.78253945 0.77992030 1.00000000
0.90454253 0.77988966 1.00000000
1.00000000 0.78910189 0.97874565
0.03556912 0.90310489 1.00000000
0.16349951 0.90310615 1.00000000
0.29020807 0.90284179 1.00000000
0.41553119 0.90229755 1.00000000
0.53930037 0.90146063 1.00000000
0.66134170 0.90031982 1.00000000
0.78147479 0.89886478 1.00000000
0.89947045 0.89705688 1.00000000
1.00000000 0.90061482 0.98759519
0.13844225 1.00000000 0.97865619
0.25785211 1.00000000 0.98032616
0.37433492 1.00000000 0.98229023
0.48767948 1.00000000 0.98454724
0.59767549 1.00000000 0.98709346
0.70411351 1.00000000 0.98992251
0.80678443 1.00000000 0.99302536
0.90539423 1.00000000 0.99641244
1.00000000 1.00000000 1.00000000
