assets/luts/DB_Prairie_Gold_Rec709_50.cube
TITLE "Prairie Gold Rec709 50"
# Red changes fastest. Full-range normalized input.
LUT_3D_SIZE 5
DOMAIN_MIN 0 0 0
DOMAIN_MAX 1 1 1
0.00100000 0.00100000 0.00100000
0.23860728 0.00013979 0.00000000
0.47764736 0.00072118 0.00000000
0.72101536 0.00166108 0.00000000
0.96814496 0.00290019 0.00000000
0.00000000 0.24300469 0.00029419
0.24329245 0.24575561 0.00000000
0.49004742 0.24874468 0.00000000
0.73948870 0.25164862 0.00000000
0.99115074 0.25446185 0.00000000
0.00500277 0.49818812 0.00000000
0.25365000 0.50204295 0.00000000
0.50423827 0.50554865 0.00000000
0.75624960 0.50860760 0.00000000
1.00000000 0.51257307 0.01261825
0.01165049 0.75827834 0.00000000
0.26252109 0.76123838 0.00000000
0.51401205 0.76339552 0.00000000
0.76559659 0.76465476 0.00000000
1.00000000 0.76476604 0.05085210
0.05269800 1.00000000 0.03953083
0.29880993 1.00000000 0.05234441
0.53942120 1.00000000 0.06684479
0.77368302 1.00000000 0.08303912
1.00000000 0.99926603 0.11040360
0.00000000 0.00040085 0.24204611
0.23883075 0.00000000 0.23987046
0.48146135 0.00000000 0.24071398
0.72933095 0.00000000 0.24181666
0.98178338 0.00000000 0.24261880
0.00000000 0.24403860 0.24153129
0.24396522 0.24629931 0.24272038
0.49932749 0.24741996 0.24175200
0.75587074 0.24875355 0.24105593
1.00000000 0.25358744 0.24457471
0.00000000 0.50143415 0.24378391
0.24908029 0.50556265 0.24083237
0.50579704 0.50695284 0.24126763
0.76285078 0.50872231 0.24120050
1.00000000 0.51402653 0.25853377
0.00000000 0.76372709 0.24169242
0.25575685 0.76506210 0.24160043
0.51158691 0.76563944 0.24182515
0.76661796 0.76551487 0.24189053
1.00000000 0.76588319 0.28886364
0.05666340 1.00000000 0.27979029
0.30203548 1.00000000 0.29013407
0.54171193 1.00000000 0.30189240
0.77484617 1.00000000 0.31506596
1.00000000 0.99941792 0.33716348
0.00000000 0.00072752 0.47336051
0.23893668 0.00000000 0.48056211
0.48273792 0.00000000 0.48356485
0.73149886 0.00000000 0.48680314
0.98459851 0.00000000 0.48961336
0.00000000 0.24503336 0.48457117
0.24429388 0.24707546 0.49695847
0.50009322 0.24793559 0.49612167
0.75648405 0.24923130 0.49568860
1.00000000 0.25485207 0.49428540
0.00000000 0.50258993 0.49399242
0.24981500 0.50611839 0.49558913
0.50568685 0.50651675 0.49655799
0.76291848 0.50886558 0.49637831
1.00000000 0.51556077 0.50294947
0.00000000 0.76437145 0.49615347
0.25620313 0.76532583 0.49642915
0.51178556 0.76568329 0.49661130
0.76620266 0.76502699 0.49699087
1.00000000 0.76705013 0.52468580
0.06073968 1.00000000 0.51823955
0.30533739 1.00000000 0.52592777
0.54404522 1.00000000 0.53475616
0.77601889 1.00000000 0.54471864
1.00000000 0.99959111 0.56107891
0.00000000 0.00102770 0.70722367
0.23927988 0.00000000 0.72255373
0.48409233 0.00000000 0.72789803
0.73366071 0.00000000 0.73323153
0.98734880 0.00000000 0.73793548
0.00000000 0.24598463 0.72936043
0.24457396 0.24730775 0.75136362
0.50059865 0.24833580 0.75067383
0.75714042 0.24973873 0.75035765
1.00000000 0.25622489 0.74309412
0.00000000 0.50366237 0.74537906
0.25055850 0.50667501 0.75036946
0.50745748 0.50825628 0.75058616
0.76414120 0.50961341 0.75088014
1.00000000 0.51717677 0.74575823
0.00053356 0.76475737 0.75098902
0.25657384 0.76552217 0.75124620
0.51188479 0.76564189 0.75137244
0.76481505 0.76372581 0.75236661
1.00000000 0.76786169 0.75825462
0.06492589 1.00000000 0.75478381
0.30871493 1.00000000 0.75963003
0.54642061 1.00000000 0.76533979
0.77719935 1.00000000 0.77189903
1.00000000 0.99979095 0.78164908
0.00000000 0.00130111 0.94354081
0.23975590 0.00000000 0.96605559
0.48548892 0.00000000 0.97372090
0.73580019 0.00000000 0.98105225
0.99002513 0.00000000 0.98751442
0.00000000 0.24688952 0.97583099
0.24542540 0.24804687 1.00000000
0.49999060 0.24965967 1.00000000
0.75484968 0.25166597 1.00000000
1.00000000 0.25770719 0.99089039
0.00000000 0.50465186 0.99784230
0.25372747 0.50702700 1.00000000
0.50858558 0.50916997 1.00000000
0.76230472 0.51128603 1.00000000
1.00000000 0.51887539 0.98685366
0.01068687 0.76279984 1.00000000
0.26477459 0.76390214 1.00000000
0.51685043 0.76464224 1.00000000
0.76626972 0.76496015 1.00000000
1.00000000 0.76955094 0.98937282
0.06922113 1.00000000 0.98932810
0.31216746 1.00000000 0.99114512
0.54883774 1.00000000 0.99354673
0.77839222 1.00000000 0.99651268
1.00000000 1.00000000 1.00000000
