assets/luts/DB_Prairie_Gold_Rec709_100.cube
TITLE "Prairie Gold Rec709 100"
# Red changes fastest. Full-range normalized input.
LUT_3D_SIZE 5
DOMAIN_MIN 0 0 0
DOMAIN_MAX 1 1 1
0.00200000 0.00200000 0.00200000
0.22721457 0.00027958 0.00000000
0.45529472 0.00144236 0.00000000
0.69203072 0.00332216 0.00000000
0.93628993 0.00580038 0.00000000
0.00000000 0.23600938 0.00058838
0.23658490 0.24151122 0.00000000
0.48009484 0.24748935 0.00000000
0.72897740 0.25329724 0.00000000
0.98230148 0.25892370 0.00000000
0.01000553 0.49637624 0.00000000
0.25730000 0.50408590 0.00000000
0.50847653 0.51109730 0.00000000
0.76249920 0.51721521 0.00000000
1.00000000 0.52514613 0.02523650
0.02330099 0.76655669 0.00000000
0.27504218 0.77247676 0.00000000
0.52802410 0.77679103 0.00000000
0.78119318 0.77930952 0.00000000
1.00000000 0.77953207 0.10170420
0.10539601 1.00000000 0.07906165
0.34761986 1.00000000 0.10468882
0.57884240 1.00000000 0.13368957
0.79736604 1.00000000 0.16607825
1.00000000 0.99853207 0.22080720
0.00000000 0.00080169 0.23409223
0.22766150 0.00000000 0.22974092
0.46292269 0.00000000 0.23142797
0.70866191 0.00000000 0.23363331
0.96356676 0.00000000 0.23523761
0.00000000 0.23807720 0.23306258
0.23793045 0.24259861 0.23544076
0.49865498 0.24483992 0.23350400
0.76174147 0.24750709 0.23211185
1.00000000 0.25717488 0.23914942
0.00000000 0.50286830 0.23756783
0.24816057 0.51112530 0.23166475
0.51159409 0.51390567 0.23253525
0.77570157 0.51744461 0.23240101
1.00000000 0.52805305 0.26706754
0.00000000 0.77745418 0.23338484
0.26151369 0.78012420 0.23320086
0.52317381 0.78127888 0.23365030
0.78323592 0.78102973 0.23378106
1.00000000 0.78176638 0.32772727
0.11332680 1.00000000 0.30958059
0.35407096 1.00000000 0.33026814
0.58342386 1.00000000 0.35378481
0.79969234 1.00000000 0.38013191
1.00000000 0.99883584 0.42432695
0.00000000 0.00145504 0.44672103
0.22787336 0.00000000 0.46112422
0.46547584 0.00000000 0.46712971
0.71299772 0.00000000 0.47360628
0.96919701 0.00000000 0.47922672
0.00000000 0.24006671 0.46914233
0.23858776 0.24415092 0.49391693
0.50018645 0.24587119 0.49224335
0.76296810 0.24846260 0.49137719
1.00000000 0.25970414 0.48857081
0.00000000 0.50517986 0.48798484
0.24963000 0.51223678 0.49117826
0.51137370 0.51303349 0.49311599
0.77583697 0.51773116 0.49275663
1.00000000 0.53112153 0.50589895
0.00000000 0.77874289 0.49230693
0.26240626 0.78065166 0.49285829
0.52357112 0.78136659 0.49322260
0.78240532 0.78005398 0.49398175
1.00000000 0.78410025 0.54937161
0.12147936 1.00000000 0.53647909
0.36067478 1.00000000 0.55185554
0.58809044 1.00000000 0.56951233
0.80203778 1.00000000 0.58943728
1.00000000 0.99918222 0.62215782
0.00000000 0.00205541 0.66444735
0.22855977 0.00000000 0.69510746
0.46818466 0.00000000 0.70579606
0.71732142 0.00000000 0.71646306
0.97469760 0.00000000 0.72587095
0.00000000 0.24196926 0.70872087
0.23914791 0.24461551 0.75272723
0.50119730 0.24667161 0.75134765
0.76428085 0.24947747 0.75071529
1.00000000 0.26244977 0.73618824
0.00000000 0.50732474 0.74075812
0.25111700 0.51335002 0.75073891
0.51491497 0.51651257 0.75117233
0.77828241 0.51922682 0.75176029
1.00000000 0.53435353 0.74151646
0.00106711 0.77951474 0.75197804
0.26314767 0.78104433 0.75249239
0.52376957 0.78128378 0.75274489
0.77963010 0.77745162 0.75473322
1.00000000 0.78572339 0.76650924
0.12985177 1.00000000 0.75956763
0.36742985 1.00000000 0.76926006
0.59284121 1.00000000 0.78067959
0.80439870 1.00000000 0.79379806
1.00000000 0.99958189 0.81329817
0.00000000 0.00260222 0.88708162
0.22951180 0.00000000 0.93211118
0.47097785 0.00000000 0.94744179
0.72160039 0.00000000 0.96210450
0.98005026 0.00000000 0.97502883
0.00000000 0.24377904 0.95166199
0.24085081 0.24609375 1.00000000
0.49998120 0.24931934 1.00000000
0.75969936 0.25333194 1.00000000
1.00000000 0.26541439 0.98178078
0.00000000 0.50930371 0.99568460
0.25745494 0.51405400 1.00000000
0.51717117 0.51833994 1.00000000
0.77460944 0.52257206 1.00000000
1.00000000 0.53775078 0.97370732
0.02137374 0.77559968 1.00000000
0.27954918 0.77780428 1.00000000
0.53370087 0.77928448 1.00000000
0.78253945 0.77992030 1.00000000
1.00000000 0.78910189 0.97874565
0.13844225 1.00000000 0.97865619
0.37433492 1.00000000 0.98229023
0.59767549 1.00000000 0.98709346
0.80678443 1.00000000 0.99302536
1.00000000 1.00000000 1.00000000
