assets/luts/DB_Prairie_Gold_Rec709_50.cube
TITLE "Prairie Gold Rec709 50"
# Red changes fastest. Full-range normalized input.
LUT_3D_SIZE 9
DOMAIN_MIN 0 0 0
DOMAIN_MAX 1 1 1
0.00100000 0.00100000 0.00100000
0.12081600 0.00001065 0.00000000
0.23860728 0.00013979 0.00000000
0.35756641 0.00038430 0.00000000
0.47764736 0.00072118 0.00000000
0.59882290 0.00114938 0.00000000
0.72101536 0.00166108 0.00000000
0.84414783 0.00224770 0.00000000
0.96814496 0.00290019 0.00000000
0.00000000 0.11960716 0.00101875
0.11887778 0.12014663 0.00000000
0.23928134 0.12090794 0.00000000
0.36071655 0.12222020 0.00000000
0.48300278 0.12322217 0.00000000
0.60610981 0.12424931 0.00000000
0.72999732 0.12532414 0.00000000
0.85460750 0.12643269 0.00000000
0.97987806 0.12756205 0.00000000
0.00000000 0.24300469 0.00029419
0.12110105 0.24444093 0.00000000
0.24329245 0.24575561 0.00000000
0.36630273 0.24725112 0.00000000
0.49004742 0.24874468 0.00000000
0.61445901 0.25020222 0.00000000
0.73948870 0.25164862 0.00000000
0.86507405 0.25307261 0.00000000
0.99115074 0.25446185 0.00000000
0.00189829 0.36951385 0.00000000
0.12477320 0.37129941 0.00000000
0.24834911 0.37307040 0.00000000
0.37256874 0.37481275 0.00000000
0.49737179 0.37651419 0.00000000
0.62269436 0.37816047 0.00000000
0.74847244 0.37973961 0.00000000
0.87464118 0.38123958 0.00000000
1.00000000 0.38287523 0.00109555
0.00500277 0.49818812 0.00000000
0.12905183 0.50015294 0.00000000
0.25365000 0.50204295 0.00000000
0.37873366 0.50384561 0.00000000
0.50423827 0.50554865 0.00000000
0.63009872 0.50713998 0.00000000
0.75624960 0.50860760 0.00000000
0.88262533 0.50993956 0.00000000
1.00000000 0.51257307 0.01261825
0.00845564 0.62811528 0.00000000
0.13332697 0.63000805 0.00000000
0.25858483 0.63176854 0.00000000
0.38416389 0.63338473 0.00000000
0.50999861 0.63484463 0.00000000
0.63602331 0.63613635 0.00000000
0.76217221 0.63724796 0.00000000
0.88837948 0.63816760 0.00000000
1.00000000 0.64027943 0.02910135
0.01165049 0.75827834 0.00000000
0.13697537 0.75985277 0.00000000
0.26252109 0.76123838 0.00000000
0.38822192 0.76242326 0.00000000
0.51401205 0.76339552 0.00000000
0.63982560 0.76414330 0.00000000
0.76559659 0.76465476 0.00000000
0.89125889 0.76491812 0.00000000
1.00000000 0.76476604 0.05085210
0.01395617 0.88766766 0.00000000
0.13936046 0.88867907 0.00000000
0.26481926 0.88944530 0.00000000
0.39026670 0.88995449 0.00000000
0.51563682 0.89019481 0.00000000
0.64086350 0.89015445 0.00000000
0.76588038 0.88982169 0.00000000
0.89062082 0.88918489 0.00000000
1.00000000 0.88482380 0.07798779
0.05269800 1.00000000 0.03953083
0.17638826 1.00000000 0.04572793
0.29880993 1.00000000 0.05234441
0.41985634 1.00000000 0.05938286
0.53942120 1.00000000 0.06684479
0.65739859 1.00000000 0.07473050
0.77368302 1.00000000 0.08303912
0.88816944 1.00000000 0.09176846
1.00000000 0.99926603 0.11040360
0.00000000 0.00022683 0.12738004
0.11998596 0.00000000 0.12067754
0.23892257 0.00000000 0.11984177
0.35918816 0.00000000 0.11976459
0.48086938 0.00000000 0.11982447
0.60391992 0.00000000 0.11987775
0.72825163 0.00000000 0.11987433
0.85376477 0.00000000 0.11979636
0.98035507 0.00000000 0.11963938
0.00000000 0.11992908 0.11933609
0.11880370 0.12066448 0.11971140
0.24451131 0.11977036 0.11861645
0.37160184 0.11967947 0.11748534
0.49884025 0.11949541 0.11649592
0.62613095 0.11945863 0.11570922
0.75365656 0.11960527 0.11506203
0.88139471 0.11991377 0.11454197
1.00000000 0.12286287 0.11680196
0.00000000 0.24352560 0.12068476
0.11673899 0.24669468 0.11627272
0.24374942 0.24561653 0.11655673
0.37063923 0.24609757 0.11603204
0.49934075 0.24736771 0.11448336
0.62744935 0.24792496 0.11401835
0.75558290 0.24852798 0.11375431
0.88383644 0.24921764 0.11358106
1.00000000 0.25299528 0.11941576
0.00000000 0.37089432 0.12056164
0.11756129 0.37496653 0.11423785
0.24559803 0.37545683 0.11396234
0.37366942 0.37595100 0.11393449
0.50199847 0.37679084 0.11364149
0.63044437 0.37762653 0.11347360
0.75887923 0.37843526 0.11346599
0.88734039 0.37925426 0.11351492
1.00000000 0.38355592 0.12554329
0.00000000 0.50082493 0.11915264
0.12032038 0.50450180 0.11350529
0.24871901 0.50528932 0.11346179
0.37716422 0.50610254 0.11347919
0.50562870 0.50691993 0.11354566
0.63408707 0.50772060 0.11364758
0.76251018 0.50847999 0.11377777
0.89087115 0.50917650 0.11392424
1.00000000 0.51328976 0.13575677
0.00000000 0.63206833 0.11697898
0.12391793 0.63458551 0.11357761
0.25236606 0.63537303 0.11369223
0.38076956 0.63611200 0.11382982
0.50910123 0.63678015 0.11397938
0.63733388 0.63735523 0.11412989
0.76544030 0.63781500 0.11427035
0.89339331 0.63813720 0.11438973
1.00000000 0.64095318 0.15051545
0.00000000 0.76336248 0.11468229
0.12731818 0.76437146 0.11403465
0.25550803 0.76490714 0.11418277
0.38356175 0.76531940 0.11431683
0.51145215 0.76558599 0.11442580
0.63915204 0.76568466 0.11449868
0.76663421 0.76559315 0.11452445
0.89387148 0.76528922 0.11449209
1.00000000 0.76531808 0.17012483
0.00166154 0.89280449 0.11435999
0.12948573 0.89301252 0.11445709
0.25710951 0.89304453 0.11451409
0.38450567 0.89287826 0.11451997
0.51164702 0.89249146 0.11446372
0.63850636 0.89186189 0.11433432
0.76505650 0.89096728 0.11412076
0.89127024 0.88978540 0.11381203
1.00000000 0.88517559 0.19469989
0.05466678 1.00000000 0.15988092
0.17818650 1.00000000 0.16548896
0.30041311 1.00000000 0.17148278
0.42124007 1.00000000 0.17786462
0.54056121 1.00000000 0.18463557
0.65827076 1.00000000 0.19179556
0.77426338 1.00000000 0.19934325
0.88843418 1.00000000 0.20727600
1.00000000 0.99933930 0.22413315
0.00000000 0.00040085 0.24204611
0.11940631 0.00000000 0.24054223
0.23883075 0.00000000 0.23987046
0.35946844 0.00000000 0.24017107
0.48146135 0.00000000 0.24071398
0.60477515 0.00000000 0.24128891
0.72933095 0.00000000 0.24181666
0.85503416 0.00000000 0.24226428
0.98178338 0.00000000 0.24261880
0.00000000 0.12024735 0.23801515
0.11833526 0.12065423 0.24669679
0.24481708 0.12000146 0.24546117
0.37164735 0.11962529 0.24445432
0.49878655 0.11946116 0.24358155
0.62615827 0.11948890 0.24284449
0.75375911 0.11969300 0.24224171
0.88156326 0.12005141 0.24176231
1.00000000 0.12326399 0.24253217
0.00000000 0.24403860 0.24153129
0.11666427 0.24679042 0.24329471
0.24396522 0.24629931 0.24272038
0.37062748 0.24607840 0.24257749
0.49932749 0.24741996 0.24175200
0.62768767 0.24811674 0.24128998
0.75587074 0.24875355 0.24105593
0.88415921 0.24946769 0.24091076
1.00000000 0.25358744 0.24457471
0.00000000 0.37149999 0.24345433
0.11777244 0.37513484 0.24148551
0.24584442 0.37550229 0.24133591
0.37292306 0.37444560 0.24274306
0.50064654 0.37559366 0.24261232
0.63062439 0.37779880 0.24097378
0.75924646 0.37871259 0.24084817
0.88771285 0.37953121 0.24091165
1.00000000 0.38425996 0.24971781
0.00000000 0.50143415 0.24378391
0.12066276 0.50476493 0.24085309
0.24908029 0.50556265 0.24083237
0.37750952 0.50632151 0.24093375
0.50579704 0.50695284 0.24126763
0.63434357 0.50790150 0.24118672
0.76285078 0.50872231 0.24120050
0.89118876 0.50939482 0.24134568
1.00000000 0.51402653 0.25853377
0.00000000 0.63259641 0.24299046
0.12428738 0.63485702 0.24098328
0.25272341 0.63563055 0.24110693
0.38110555 0.63634792 0.24124987
0.50940617 0.63698625 0.24140204
0.63759818 0.63752412 0.24155144
0.76565659 0.63794078 0.24168416
0.89355158 0.63821138 0.24179353
1.00000000 0.64164358 0.27148105
0.00000000 0.76372709 0.24169242
0.12761018 0.76456584 0.24145584
0.25575685 0.76506210 0.24160043
0.38375815 0.76542738 0.24172720
0.51158691 0.76563944 0.24182515
0.63921591 0.76567602 0.24188327
0.76661796 0.76551487 0.24189053
0.89376586 0.76513373 0.24183593
1.00000000 0.76588319 0.28886364
0.00183658 0.89289350 0.24176678
0.12959575 0.89304424 0.24185150
0.25714528 0.89301141 0.24189238
0.38445795 0.89277275 0.24187839
0.51150658 0.89230600 0.24179853
0.63826397 0.89158891 0.24164179
0.76470291 0.89059924 0.24139714
0.89079622 0.88931472 0.24105358
1.00000000 0.88553669 0.31079441
0.05666340 1.00000000 0.27979029
0.18000823 1.00000000 0.28478614
0.30203548 1.00000000 0.29013407
0.42263872 1.00000000 0.29583592
0.54171193 1.00000000 0.30189240
0.65914948 1.00000000 0.30830301
0.77484617 1.00000000 0.31506596
0.88869727 1.00000000 0.32217815
1.00000000 0.99941792 0.33716348
0.00000000 0.00056747 0.35737884
0.11906149 0.00000000 0.36022515
0.23884388 0.00000000 0.36007775
0.35980961 0.00000000 0.36088467
0.48208694 0.00000000 0.36195677
0.60564673 0.00000000 0.36306827
0.73041441 0.00000000 0.36412724
0.85629817 0.00000000 0.36509253
0.98319839 0.00000000 0.36594599
0.00000000 0.12056315 0.35711583
0.11800517 0.12041600 0.37365056
0.24462975 0.11986545 0.37250198
0.37155717 0.11955072 0.37151738
0.49876051 0.11944952 0.37068556
0.62621218 0.11953953 0.36999526
0.75388511 0.11979853 0.36943562
0.88175212 0.12020427 0.36899562
1.00000000 0.12369494 0.36815461
0.00000000 0.24454121 0.36282881
0.11665308 0.24683102 0.37041820
0.24418504 0.24697071 0.36976894
0.37187104 0.24724022 0.36924543
0.49982401 0.24773328 0.36886359
0.62795193 0.24832350 0.36856867
0.75617148 0.24898828 0.36836750
0.88449174 0.24972434 0.36824915
1.00000000 0.25420631 0.36953588
0.00000000 0.37208940 0.36674132
0.11800061 0.37531912 0.36874423
0.24613482 0.37588138 0.36849680
0.37381585 0.37566367 0.36875867
0.50072686 0.37565588 0.36940249
0.63069364 0.37791307 0.36844391
0.75961043 0.37898824 0.36823814
0.88808451 0.37980612 0.36831279
1.00000000 0.38498752 0.37360541
0.00000000 0.50202248 0.36873463
0.12101262 0.50503278 0.36820865
0.24944591 0.50583818 0.36820867
0.37779078 0.50639222 0.36847600
0.50426818 0.50499675 0.37081291
0.63229474 0.50631977 0.37077887
0.76296258 0.50883553 0.36879595
0.89149339 0.50960179 0.36876840
1.00000000 0.51478349 0.38093581
0.00000000 0.63309969 0.36923937
0.12465376 0.63512462 0.36839243
0.25307454 0.63588159 0.36852385
0.38143175 0.63657344 0.36867228
0.50965509 0.63711419 0.36890432
0.63757449 0.63741191 0.36934299
0.76572579 0.63796067 0.36923888
0.89368315 0.63826377 0.36919786
1.00000000 0.64235073 0.39198501
0.00000000 0.76406336 0.36885401
0.12788855 0.76474768 0.36887626
0.25598890 0.76520195 0.36901603
0.38393466 0.76551770 0.36913425
0.51169861 0.76567262 0.36921996
0.63925302 0.76564384 0.36926316
0.76657098 0.76540997 0.36925173
0.89362753 0.76495014 0.36917172
1.00000000 0.76646144 0.40705573
0.00199056 0.89296390 0.36916978
0.12968159 0.89305479 0.36924085
0.25715373 0.89295455 0.36926433
0.38437979 0.89264093 0.36922921
0.51133256 0.89209166 0.36912447
0.63798485 0.89128449 0.36893911
0.76430946 0.89019719 0.36866211
0.89027920 0.88880748 0.36828245
1.00000000 0.88590713 0.42625900
0.05868774 1.00000000 0.39924711
0.18185335 1.00000000 0.40360763
0.30367694 1.00000000 0.40828638
0.42405221 1.00000000 0.41328483
0.54287329 1.00000000 0.41860328
0.66003468 1.00000000 0.42424079
0.77543135 1.00000000 0.43019513
0.88895872 1.00000000 0.43646274
1.00000000 0.99950187 0.44948268
0.00000000 0.00072752 0.47336051
0.11885694 0.00000000 0.48004273
0.23893668 0.00000000 0.48056211
0.36019661 0.00000000 0.48193931
0.48273792 0.00000000 0.48356485
0.60652978 0.00000000 0.48521800
0.73149886 0.00000000 0.48680314
0.85755465 0.00000000 0.48827528
0.98459851 0.00000000 0.48961336
0.00000000 0.12088048 0.47666339
0.11771639 0.12020124 0.50061156
0.24444695 0.11973330 0.49952002
0.37147114 0.11949356 0.49858844
0.49876176 0.11945976 0.49780580
0.62629161 0.11960965 0.49716111
0.75403350 0.11992098 0.49664333
0.88196022 0.12037150 0.49624146
1.00000000 0.12415590 0.49365527
0.00000000 0.24503336 0.48457117
0.11668369 0.24686423 0.49755571
0.24429388 0.24707546 0.49695847
0.37210604 0.24743990 0.49648401
0.50009322 0.24793559 0.49612167
0.62822847 0.24854021 0.49586025
0.75648405 0.24923130 0.49568860
0.88483296 0.24998671 0.49559580
1.00000000 0.25485207 0.49428540
0.00000000 0.37266244 0.49041180
0.11824633 0.37551437 0.49601546
0.24642833 0.37615250 0.49578785
0.37470693 0.37684709 0.49564648
0.50298450 0.37754890 0.49559961
0.63146947 0.37841789 0.49559084
0.75998858 0.37926869 0.49562694
0.88845432 0.38007813 0.49571792
1.00000000 0.38573873 0.49719241
0.00000000 0.50258993 0.49399242
0.12136890 0.50530449 0.49557154
0.24981500 0.50611839 0.49558913
0.37825476 0.50687866 0.49568344
0.50568685 0.50651675 0.49655799
0.63228289 0.50632789 0.49771568
0.76291848 0.50886558 0.49637831
0.89177892 0.50979455 0.49619378
1.00000000 0.51556077 0.50294947
0.00000000 0.63357825 0.49571256
0.12501600 0.63538745 0.49580464
0.25341840 0.63612529 0.49594256
0.38174755 0.63678910 0.49609440
0.50978110 0.63706421 0.49652167
0.63527645 0.63510349 0.49937673
0.76301776 0.63608266 0.49918578
0.89354344 0.63817076 0.49678981
1.00000000 0.64307365 0.51201405
0.00000000 0.76437145 0.49615347
0.12815223 0.76491611 0.49629546
0.25620313 0.76532583 0.49642915
0.38409020 0.76558946 0.49653754
0.51178556 0.76568329 0.49661130
0.63921186 0.76552261 0.49672235
0.76620266 0.76502699 0.49699087
0.89332602 0.76465785 0.49664340
1.00000000 0.76705013 0.52468580
0.00212244 0.89301482 0.49656857
0.12974219 0.89304330 0.49662471
0.25713380 0.89287309 0.49662952
0.38427010 0.89248193 0.49657200
0.51112387 0.89184757 0.49644112
0.63766792 0.89094774 0.49622592
0.76387460 0.88975966 0.49591634
0.88971697 0.88826187 0.49550026
1.00000000 0.88628681 0.54108098
0.06073968 1.00000000 0.51823955
0.18372174 1.00000000 0.52194152
0.30533739 1.00000000 0.52592777
0.42548046 1.00000000 0.53019936
0.54404522 1.00000000 0.53475616
0.66092632 1.00000000 0.53959682
0.77601889 1.00000000 0.54471864
0.88921851 1.00000000 0.55011757
1.00000000 0.99959111 0.56107891
0.00000000 0.00088094 0.58997939
0.11874088 0.00000000 0.60013537
0.23908694 0.00000000 0.60137700
0.36061833 0.00000000 0.60335550
0.48340802 0.00000000 0.60554454
0.60742040 0.00000000 0.60773740
0.73258169 0.00000000 0.60983982
0.85880174 0.00000000 0.61180575
0.98598238 0.00000000 0.61361274
0.00000000 0.12119692 0.59667046
0.11746462 0.12001535 0.62759225
0.24429795 0.11962741 0.62655626
0.37141567 0.11946010 0.62567650
0.49879058 0.11949118 0.62494195
0.62639549 0.11969839 0.62434159
0.75420320 0.12005948 0.62386440
0.88218651 0.12055221 0.62349939
1.00000000 0.12464705 0.61902013
0.00000000 0.24551463 0.60675110
0.11674091 0.24691740 0.62470842
0.24442280 0.24718321 0.62415418
0.37229759 0.24759480 0.62371911
0.50033808 0.24812992 0.62339220
0.62851708 0.24876632 0.62316243
0.75680739 0.24948174 0.62301879
0.88518181 0.25025394 0.62295027
1.00000000 0.25552487 0.61880942
0.00000000 0.37321898 0.61445465
0.11850800 0.37572106 0.62329788
0.24673068 0.37638880 0.62310074
0.37505474 0.37712745 0.62298571
0.50345274 0.37791456 0.62294175
0.63189798 0.37872838 0.62295798
0.76036344 0.37954649 0.62302326
0.88882122 0.38034635 0.62312659
1.00000000 0.38651376 0.62046516
0.00000000 0.50313655 0.61954478
0.12173051 0.50557919 0.62294133
0.25018618 0.50639704 0.62297666
0.37865150 0.50721036 0.62305714
0.50707460 0.50796954 0.62318030
0.63534413 0.50861967 0.62336477
0.76375966 0.50936632 0.62348522
0.89206642 0.50998114 0.62361008
1.00000000 0.51635849 0.62456139
0.00000000 0.63403220 0.62239680
0.12537303 0.63564463 0.62321947
0.25375391 0.63636078 0.62336262
0.38205313 0.63699787 0.62351392
0.51020110 0.63746997 0.62370298
0.63690949 0.63661773 0.62485007
0.76276898 0.63591947 0.62614129
0.89322021 0.63798428 0.62437242
1.00000000 0.64380901 0.63155656
0.00025597 0.76457625 0.62356866
0.12840015 0.76507025 0.62371301
0.25639846 0.76543286 0.62383935
0.38422371 0.76564182 0.62393665
0.51184740 0.76567208 0.62399636
0.63901841 0.76521804 0.62430161
0.76343953 0.76259933 0.62704497
0.89024951 0.76268907 0.62648717
1.00000000 0.76750456 0.64168239
0.00223115 0.89304539 0.62396271
0.12977647 0.89300889 0.62400265
0.25708443 0.89276614 0.62398753
0.38412783 0.89229489 0.62390633
0.51087947 0.89157287 0.62374803
0.63731160 0.89057661 0.62350320
0.76335695 0.88923453 0.62323609
0.88888242 0.88749683 0.62304159
1.00000000 0.88662102 0.65513104
0.06281910 1.00000000 0.63675573
0.18561330 1.00000000 0.63977593
0.30701674 1.00000000 0.64304631
0.42692340 1.00000000 0.64656752
0.54522767 1.00000000 0.65033902
0.66182438 1.00000000 0.65435901
0.77660875 1.00000000 0.65862428
0.88947618 1.00000000 0.66312936
1.00000000 0.99968564 0.67193760
0.00000000 0.00102770 0.70722367
0.11868470 0.00000000 0.72057517
0.23927988 0.00000000 0.72255373
0.36106666 0.00000000 0.72514496
0.48409233 0.00000000 0.72789803
0.60831541 0.00000000 0.73062359
0.73366071 0.00000000 0.73323153
0.86003786 0.00000000 0.73567641
0.98734880 0.00000000 0.73793548
0.00000000 0.12151060 0.71714337
0.11724879 0.11985748 0.75459222
0.24418174 0.11954696 0.75361052
0.37138985 0.11944952 0.75278131
0.49884592 0.11954291 0.75209356
0.62652276 0.11980488 0.75153627
0.75439315 0.12021317 0.75109842
0.88242992 0.12074553 0.75076899
1.00000000 0.12516858 0.74423523
0.00000000 0.24598463 0.72936043
0.11682351 0.24698994 0.75187615
0.24457396 0.24730775 0.75136362
0.37250807 0.24776379 0.75096651
0.50059865 0.24833580 0.75067383
0.62881850 0.24900153 0.75047454
0.75714042 0.24973873 0.75035765
0.88553722 0.25052515 0.75031213
1.00000000 0.25622489 0.74309412
0.00000000 0.37375894 0.73885850
0.11878452 0.37593849 0.75059104
0.24704468 0.37663282 0.75042303
0.37539701 0.37739051 0.75033339
0.50381431 0.37818932 0.75031112
0.63226940 0.37900699 0.75034521
0.76073507 0.37982128 0.75042463
0.88918412 0.38060992 0.75053838
1.00000000 0.38731272 0.74341007
0.00000000 0.50366237 0.74537906
0.12209641 0.50585599 0.75031759
0.25055850 0.50667501 0.75036946
0.37902126 0.50748253 0.75046265
0.50745748 0.50825628 0.75058616
0.63583962 0.50897380 0.75072901
0.76414120 0.50961341 0.75088014
0.89233515 0.51015269 0.75102847
1.00000000 0.51717677 0.74575823
0.00000000 0.63446165 0.74927880
0.12572379 0.63589529 0.75063650
0.25408002 0.63658717 0.75078361
0.38234544 0.63719271 0.75093500
0.51049240 0.63768898 0.75107987
0.63846172 0.63802421 0.75122128
0.76613662 0.63814473 0.75138195
0.89387050 0.63826577 0.75139592
1.00000000 0.64457155 0.75059729
0.00053356 0.76475737 0.75098902
0.12863125 0.76520924 0.75112849
0.25657384 0.76552217 0.75124620
0.38433412 0.76567389 0.75133113
0.51188479 0.76564189 0.75137244
0.63915087 0.76534302 0.75140376
0.76481505 0.76372581 0.75236661
0.88965858 0.76225570 0.75330357
1.00000000 0.76786169 0.75825462
0.00231562 0.89305474 0.75135177
0.12978338 0.89295069 0.75137424
0.25700454 0.89263284 0.75133791
0.38395191 0.89207892 0.75123176
0.51059829 0.89126669 0.75104478
0.63691548 0.89017156 0.75076817
0.76270573 0.88855345 0.75064450
0.88624909 0.88531781 0.75242808
1.00000000 0.88572410 0.76736012
0.06492589 1.00000000 0.75478381
0.18752794 1.00000000 0.75709895
0.30871493 1.00000000 0.75963003
0.42838097 1.00000000 0.76237730
0.54642061 1.00000000 0.76533979
0.66272881 1.00000000 0.76851524
0.77719935 1.00000000 0.77189903
0.88968853 1.00000000 0.77542566
1.00000000 0.99979095 0.78164908
0.00000000 0.00116777 0.82508146
0.11867126 0.00000000 0.84140036
0.23950530 0.00000000 0.84411018
0.36153549 0.00000000 0.84731343
0.48478700 0.00000000 0.85062450
0.60921222 0.00000000 0.85387206
0.73473407 0.00000000 0.85697152
0.86126163 0.00000000 0.85987913
0.98869670 0.00000000 0.86257250
0.00000000 0.12182010 0.83808397
0.11706782 0.11972675 0.88161105
0.24409727 0.11949109 0.88068237
0.37139264 0.11946095 0.87990244
0.49892673 0.11961409 0.87926023
0.62667235 0.11992824 0.87874473
0.75460229 0.12038116 0.87834494
0.88268937 0.12095060 0.87804983
1.00000000 0.12572065 0.86928660
0.00000000 0.24644301 0.85239024
0.11693043 0.24708099 0.87905846
0.24474630 0.24744824 0.87858637
0.37273660 0.24794616 0.87822596
0.50087413 0.24855249 0.87796623
0.62913169 0.24924499 0.87779616
0.75748209 0.25000140 0.87770474
0.88589814 0.25079947 0.87768095
1.00000000 0.25695227 0.86712570
0.00000000 0.37428227 0.86361169
0.11907480 0.37616580 0.87789451
0.24736931 0.37688414 0.87775435
0.37574675 0.37765830 0.87768883
0.50417994 0.37846601 0.87768693
0.63264167 0.37928502 0.87773765
0.76110474 0.38009310 0.87782997
0.88954196 0.38086797 0.87795287
1.00000000 0.38813578 0.86601358
0.00000000 0.50416745 0.87148252
0.12246553 0.50613404 0.87769989
0.25093089 0.50695165 0.87776702
0.37938770 0.50775021 0.87787175
0.50780876 0.50850748 0.87800305
0.63616687 0.50920119 0.87814992
0.76443483 0.50980910 0.87830133
0.89258545 0.51030896 0.87844628
1.00000000 0.51801570 0.86652673
0.00000000 0.63486671 0.87634520
0.12606721 0.63613856 0.87805530
0.25439565 0.63680361 0.87820510
0.38262404 0.63737476 0.87835543
0.51072519 0.63782976 0.87849529
0.63867186 0.63814631 0.87861367
0.76643646 0.63830195 0.87869961
0.89399268 0.63827505 0.87874199
1.00000000 0.64534850 0.86912342
0.00079639 0.76492503 0.87840814
0.12884446 0.76533221 0.87854145
0.25672818 0.76559288 0.87864927
0.38442037 0.76568480 0.87872057
0.51189382 0.76558570 0.87874435
0.63912085 0.76527270 0.87870985
0.76604197 0.76469724 0.87862032
0.89254866 0.76381625 0.87849219
1.00000000 0.76885243 0.87413422
0.00237478 0.89304200 0.87873531
0.12976185 0.89286784 0.87873905
0.25689308 0.89247231 0.87868025
0.38374128 0.89183316 0.87854788
0.51027925 0.89092815 0.87833094
0.63647972 0.88973481 0.87801853
0.76228110 0.88818552 0.87763413
0.88673480 0.88560017 0.87783935
1.00000000 0.88587719 0.88162476
0.06705993 1.00000000 0.87231190
0.18946555 1.00000000 0.87389865
0.31043185 1.00000000 0.87566696
0.42985310 1.00000000 0.87761668
0.54762397 1.00000000 0.87974640
0.66363961 1.00000000 0.88205337
0.77779227 1.00000000 0.88453297
0.88978621 1.00000000 0.88706184
1.00000000 0.99992200 0.88925450
0.00000000 0.00130111 0.94354081
0.11868969 0.00000000 0.96263078
0.23975590 0.00000000 0.96605559
0.36202018 0.00000000 0.96986243
0.48548892 0.00000000 0.97372090
0.61010865 0.00000000 0.97747698
0.73580019 0.00000000 0.98105225
0.86247185 0.00000000 0.98440524
0.99002513 0.00000000 0.98751442
0.00000000 0.12212434 0.95949085
0.11763659 0.12028253 1.00000000
0.24373004 0.12033662 1.00000000
0.37020725 0.12056554 1.00000000
0.49700005 0.12095811 1.00000000
0.62403997 0.12150322 1.00000000
0.75125814 0.12218992 1.00000000
0.87858515 0.12300737 1.00000000
1.00000000 0.12630346 0.99416029
0.00000000 0.24688952 0.97583099
0.11842696 0.24741495 1.00000000
0.24542540 0.24804687 1.00000000
0.37263633 0.24879874 1.00000000
0.49999060 0.24965967 1.00000000
0.62741851 0.25061892 1.00000000
0.75484968 0.25166597 1.00000000
0.88221290 0.25279054 1.00000000
1.00000000 0.25770719 0.99089039
0.00000000 0.37478894 0.98870239
0.12143142 0.37631739 1.00000000
0.24895642 0.37728373 1.00000000
0.37652038 0.37831582 1.00000000
0.50405261 0.37940321 1.00000000
0.63148160 0.38053571 1.00000000
0.75873480 0.38170344 1.00000000
0.88573855 0.38289685 1.00000000
1.00000000 0.38898304 0.98826215
0.00000000 0.50465186 0.99784230
0.12605570 0.50596923 1.00000000
0.25372747 0.50702700 1.00000000
0.38126171 0.50809718 1.00000000
0.50858558 0.50916997 1.00000000
0.63562506 0.51023593 1.00000000
0.76230472 0.51128603 1.00000000
0.88854764 0.51231168 1.00000000
1.00000000 0.51887539 0.98685366
0.00404921 0.63440551 1.00000000
0.13173214 0.63534195 1.00000000
0.25917161 0.63624793 1.00000000
0.38629335 0.63711409 1.00000000
0.51302163 0.63793150 1.00000000
0.63927912 0.63869169 1.00000000
0.76498667 0.63938674 1.00000000
0.89006315 0.64000932 1.00000000
1.00000000 0.64614065 0.98712383
0.01068687 0.76279984 1.00000000
0.13794318 0.76339214 1.00000000
0.26477459 0.76390214 1.00000000
0.39110350 0.76432145 1.00000000
0.51685043 0.76464224 1.00000000
0.64193382 0.76485732 1.00000000
0.76626972 0.76496015 1.00000000
0.88977127 0.76494483 1.00000000
1.00000000 0.76955094 0.98937282
0.01778456 0.88905245 1.00000000
0.14424975 0.88905307 1.00000000
0.27010404 0.88892089 1.00000000
0.39526560 0.88864877 1.00000000
0.51965018 0.88823031 1.00000000
0.64317085 0.88765991 1.00000000
0.76573740 0.88693239 1.00000000
0.88723523 0.88602844 1.00000000
1.00000000 0.88780741 0.99379759
0.06922113 1.00000000 0.98932810
0.19142605 1.00000000 0.99016308
0.31216746 1.00000000 0.99114512
0.43133974 1.00000000 0.99227362
0.54883774 1.00000000 0.99354673
0.66455675 1.00000000 0.99496125
0.77839222 1.00000000 0.99651268
0.89019711 1.00000000 0.99820622
1.00000000 1.00000000 1.00000000
