assets/luts/DB_Peach_Linen_Rec709_50.cube
TITLE "Peach Linen Rec709 50"
# Red changes fastest. Full-range normalized input.
LUT_3D_SIZE 5
DOMAIN_MIN 0 0 0
DOMAIN_MAX 1 1 1
0.00600000 0.00600000 0.00600000
0.24886309 0.01116509 0.01198381
0.48982657 0.01580528 0.01718362
0.73057475 0.01954157 0.02113422
0.97064830 0.02262844 0.02417817
0.02362513 0.25688610 0.02233805
0.26337184 0.25977814 0.02458496
0.50275347 0.26211489 0.02711620
0.74153385 0.26404974 0.02858254
0.97989968 0.26565759 0.02960879
0.03393482 0.50081778 0.02899895
0.27216778 0.50233080 0.02990227
0.51008801 0.50364892 0.03056387
0.74777204 0.50486825 0.03112436
0.98529641 0.50608493 0.03172439
0.03983685 0.74145645 0.03133083
0.27732211 0.74269602 0.03198017
0.51475213 0.74406407 0.03286086
0.75220345 0.74565670 0.03411355
0.98975262 0.74757006 0.03587884
0.04424748 0.98246110 0.03468948
0.28185128 0.98451508 0.03667632
0.51965734 0.98702091 0.03936761
0.75774221 0.99007470 0.04290396
0.99618243 0.99377259 0.04742601
0.00819535 0.00790822 0.24439271
0.25023319 0.01293492 0.25015960
0.49146853 0.01715293 0.25478566
0.73197903 0.02065789 0.25841258
0.97184087 0.02354609 0.26118063
0.02495100 0.25792580 0.25951238
0.26383163 0.26051964 0.26167499
0.50399982 0.26261999 0.26357963
0.74232932 0.26462751 0.26512263
0.98057088 0.26614651 0.26603363
0.03468202 0.50135943 0.26549156
0.27279744 0.50279594 0.26629526
0.51040636 0.50405716 0.26645516
0.74825432 0.50527564 0.26746080
0.98574042 0.50651456 0.26811210
0.04030126 0.74186897 0.26768414
0.27775917 0.74314140 0.26839627
0.51518784 0.74457493 0.26938753
0.75266381 0.74626571 0.27079852
0.99026362 0.74830985 0.27276990
0.04472327 0.98311394 0.27144396
0.28238717 0.98531059 0.27365426
0.52027934 0.98799173 0.27661676
0.75847630 0.99125349 0.28047210
0.99705461 0.99519198 0.28536089
0.01028943 0.00971206 0.48263759
0.25204602 0.01445339 0.48800119
0.49302686 0.01841836 0.49227242
0.73330849 0.02170309 0.49559190
0.97296745 0.02440370 0.49810025
0.02620403 0.25889884 0.49659159
0.26565528 0.26141066 0.49883962
0.50458852 0.26346930 0.50046858
0.74307964 0.26517146 0.50161824
0.98120579 0.26661269 0.50243020
0.03538733 0.50187129 0.50194557
0.27339898 0.50324150 0.50266946
0.50977804 0.50423237 0.50320540
0.74886944 0.50545037 0.50367482
0.98617785 0.50695874 0.50452609
0.04075346 0.74228899 0.50405341
0.27819286 0.74360535 0.50484457
0.51562609 0.74511584 0.50596117
0.75291525 0.74689440 0.50715749
0.99079965 0.74910020 0.50973649
0.04521655 0.98381157 0.50826897
0.28294939 0.98616198 0.51071895
0.52093648 0.98902952 0.51396889
0.75925437 0.99251032 0.51815942
0.99797960 0.99670049 0.52343117
0.01228520 0.01141526 0.72074032
0.25376976 0.01588216 0.72571718
0.49450456 0.01960534 0.72964942
0.73456614 0.02268092 0.73267766
0.97403106 0.02520503 0.73494254
0.02738803 0.25980863 0.73358318
0.26665472 0.26215584 0.73560507
0.50542915 0.26408270 0.73705541
0.74378787 0.26568534 0.73807485
0.98180742 0.26705988 0.73880401
0.03605374 0.50235710 0.73836651
0.27396881 0.50367247 0.73902490
0.51164908 0.50489085 0.73958491
0.74917131 0.50610818 0.74018740
0.98661167 0.50742124 0.74097189
0.04119646 0.74272027 0.74044416
0.27862617 0.74409166 0.74133056
0.51607805 0.74568948 0.74259172
0.75233542 0.74732892 0.74463311
0.99159683 0.74971586 0.74672630
0.04573033 0.98455776 0.74517002
0.28354093 0.98707301 0.74787590
0.52163178 0.99013803 0.75142950
0.76007732 0.99384949 0.75596999
0.99896654 0.99832944 0.76121238
0.01418567 0.01302161 0.95870635
0.25540702 0.01722516 0.96331268
0.49590461 0.02071763 0.96692215
0.73575498 0.02359514 0.96967538
0.97503467 0.02595384 0.97171301
0.02850642 0.26065886 0.97049264
0.26759735 0.26285253 0.97230466
0.50622203 0.26465851 0.97359290
0.74445698 0.26617290 0.97449798
0.98237875 0.26749185 0.97516055
0.03668424 0.50282065 0.97475987
0.27451101 0.50409230 0.97536906
0.51212901 0.50529963 0.97592756
0.74961480 0.50653876 0.97657599
0.98704491 0.50790580 0.97745498
0.04163326 0.74316658 0.97686191
0.27906211 0.74460407 0.97785976
0.51653970 0.74630061 0.97928000
0.75414254 0.74835230 0.98126334
0.99194745 0.75085510 0.98395066
0.04626760 0.98535627 0.98215261
0.28416480 0.98804744 0.98513062
0.52236823 0.99132104 0.98900410
0.76095404 0.99527326 0.99391380
1.00000000 1.00000000 1.00000000
