assets/luts/DB_Peach_Linen_Rec709_100.cube
TITLE "Peach Linen Rec709 100"
# Red changes fastest. Full-range normalized input.
LUT_3D_SIZE 5
DOMAIN_MIN 0 0 0
DOMAIN_MAX 1 1 1
0.01200000 0.01200000 0.01200000
0.24772618 0.02233017 0.02396761
0.47965314 0.03161056 0.03436723
0.71114950 0.03908313 0.04226843
0.94129659 0.04525689 0.04835634
0.04725026 0.26377220 0.04467610
0.27674369 0.26955628 0.04916993
0.50550694 0.27422978 0.05423241
0.73306770 0.27809948 0.05716509
0.95979936 0.28131518 0.05921758
0.06786963 0.50163556 0.05799790
0.29433557 0.50466161 0.05980454
0.52017602 0.50729784 0.06112773
0.74554407 0.50973650 0.06224873
0.97059282 0.51216985 0.06344878
0.07967370 0.73291289 0.06266167
0.30464422 0.73539205 0.06396034
0.52950425 0.73812813 0.06572173
0.75440689 0.74131340 0.06822709
0.97950524 0.74514011 0.07175768
0.08849496 0.96492220 0.06937897
0.31370256 0.96903017 0.07335265
0.53931469 0.97404182 0.07873521
0.76548442 0.98014941 0.08580792
0.99236486 0.98754518 0.09485203
0.01639071 0.01581644 0.23878543
0.25046638 0.02586983 0.25031920
0.48293705 0.03430586 0.25957132
0.71395805 0.04131579 0.26682517
0.94368173 0.04709219 0.27236125
0.04990199 0.26585160 0.26902477
0.27766327 0.27103928 0.27334997
0.50799963 0.27523999 0.27715926
0.73465863 0.27925503 0.28024526
0.96114176 0.28229303 0.28206727
0.06936404 0.50271887 0.28098311
0.29559487 0.50559187 0.28259053
0.52081273 0.50811433 0.28291031
0.74650863 0.51055128 0.28492161
0.97148084 0.51302913 0.28622420
0.08060251 0.73373794 0.28536827
0.30551834 0.73628280 0.28679255
0.53037568 0.73914987 0.28877505
0.75532761 0.74253142 0.29159705
0.98052724 0.74661969 0.29553979
0.08944653 0.96622788 0.29288792
0.31477435 0.97062119 0.29730852
0.54055867 0.97598347 0.30323353
0.76695260 0.98250697 0.31094419
0.99410922 0.99038395 0.32072178
0.02057886 0.01942411 0.46527517
0.25409205 0.02890679 0.47600239
0.48605373 0.03683672 0.48454484
0.71661698 0.04340618 0.49118379
0.94593491 0.04880740 0.49620049
0.05240806 0.26779769 0.49318318
0.28131056 0.27282132 0.49767923
0.50917703 0.27693860 0.50093717
0.73615929 0.28034293 0.50323647
0.96241158 0.28322538 0.50486041
0.07077466 0.50374257 0.50389115
0.29679797 0.50648301 0.50533892
0.51955608 0.50846474 0.50641079
0.74773888 0.51090074 0.50734965
0.97235570 0.51391748 0.50905219
0.08150692 0.73457799 0.50810682
0.30638572 0.73721071 0.50968913
0.53125218 0.74023169 0.51192235
0.75583050 0.74378879 0.51431497
0.98159931 0.74820040 0.51947298
0.09043310 0.96762315 0.51653793
0.31589878 0.97232396 0.52143790
0.54187297 0.97805904 0.52793779
0.76850874 0.98502063 0.53631885
0.99595920 0.99340099 0.54686234
0.02457039 0.02283052 0.69148064
0.25753952 0.03176432 0.70143436
0.48900912 0.03921068 0.70929883
0.71913229 0.04536184 0.71535532
0.94806211 0.05041005 0.71988507
0.05477605 0.26961727 0.71716637
0.28330943 0.27431168 0.72121014
0.51085830 0.27816540 0.72411083
0.73757574 0.28137067 0.72614970
0.96361483 0.28411975 0.72760801
0.07210747 0.50471420 0.72673302
0.29793762 0.50734494 0.72804981
0.52329817 0.50978170 0.72916982
0.74834262 0.51221636 0.73037480
0.97322334 0.51484247 0.73194378
0.08239292 0.73544055 0.73088833
0.30725235 0.73818331 0.73266112
0.53215611 0.74137896 0.73518343
0.75467084 0.74465783 0.73926621
0.98319367 0.74943173 0.74345259
0.09146066 0.96911552 0.74034003
0.31708187 0.97414602 0.74575180
0.54326356 0.98027607 0.75285900
0.77015465 0.98769898 0.76193998
0.99793307 0.99665888 0.77242475
0.02837133 0.02604322 0.91741270
0.26081404 0.03445031 0.92662537
0.49180922 0.04143525 0.93384430
0.72150996 0.04719029 0.93935076
0.95006934 0.05190767 0.94342601
0.05701284 0.27131772 0.94098529
0.28519471 0.27570507 0.94460932
0.51244405 0.27931701 0.94718580
0.73891395 0.28234580 0.94899597
0.96475750 0.28498369 0.95032110
0.07336848 0.50564130 0.94951974
0.29902201 0.50818461 0.95073812
0.52425802 0.51059926 0.95185512
0.74922960 0.51307751 0.95315198
0.97408983 0.51581161 0.95490996
0.08326652 0.73633316 0.95372381
0.30812422 0.73920814 0.95571952
0.53307940 0.74260121 0.95856000
0.75828508 0.74670460 0.96252667
0.98389490 0.75171019 0.96790132
0.09253521 0.97071253 0.96430523
0.31832959 0.97609488 0.97026124
0.54473646 0.98264208 0.97800819
0.77190809 0.99054651 0.98782759
1.00000000 1.00000000 1.00000000
