assets/luts/DB_Quiet_Wedding_Rec709_50.cube
TITLE "Quiet Wedding Rec709 50"
# Red changes fastest. Full-range normalized input.
LUT_3D_SIZE 33
DOMAIN_MIN 0 0 0
DOMAIN_MAX 1 1 1
0.00750000 0.00750000 0.00750000
0.03692556 0.00781764 0.00787463
0.06668201 0.00804436 0.00814473
0.09647706 0.00826694 0.00840650
0.12590791 0.00860538 0.00879119
0.15472594 0.00913408 0.00937865
0.18299919 0.00983300 0.01014530
0.21103064 0.01061180 0.01099180
0.23913335 0.01137680 0.01181651
0.26746895 0.01207941 0.01256752
0.29603981 0.01271862 0.01324456
0.32477150 0.01331648 0.01387195
0.35358829 0.01389547 0.01447421
0.38244263 0.01446968 0.01506664
0.41131238 0.01504563 0.01565631
0.44018935 0.01562561 0.01624578
0.46907105 0.01621025 0.01683581
0.49795679 0.01679963 0.01742655
0.52684635 0.01739366 0.01801804
0.55573961 0.01799225 0.01861026
0.58463646 0.01859530 0.01920319
0.61353680 0.01920271 0.01979682
0.64244051 0.01981437 0.02039112
0.67134751 0.02043017 0.02098610
0.70025767 0.02105002 0.02158171
0.72917091 0.02167381 0.02217795
0.75808711 0.02230143 0.02277481
0.78700617 0.02293278 0.02337225
0.81592799 0.02356776 0.02397027
0.84485247 0.02420626 0.02456885
0.87377949 0.02484818 0.02516797
0.90270896 0.02549342 0.02576762
0.93164077 0.02614187 0.02636777
0.00898586 0.03758322 0.00900176
0.03819356 0.03798995 0.00908935
0.06792413 0.03824726 0.00899996
0.09803663 0.03839742 0.00890606
0.12808013 0.03857580 0.00905981
0.15754282 0.03893613 0.00964431
0.18619854 0.03954633 0.01064948
0.21423732 0.04034912 0.01188489
0.24208084 0.04121746 0.01311299
0.27008847 0.04204295 0.01418049
0.29840331 0.04278228 0.01505614
0.32698938 0.04344612 0.01578619
0.35574532 0.04406488 0.01643338
0.38458486 0.04466444 0.01704338
0.41345904 0.04525944 0.01764008
0.44234672 0.04585612 0.01823322
0.47124061 0.04645656 0.01882598
0.50013862 0.04706124 0.01941922
0.52904018 0.04767022 0.02001310
0.55794509 0.04828340 0.02060766
0.58685326 0.04890069 0.02120286
0.61576455 0.04952198 0.02179871
0.64467888 0.05014717 0.02239518
0.67359613 0.05077617 0.02299225
0.70251621 0.05140885 0.02358990
0.73143901 0.05204512 0.02418813
0.76036443 0.05268488 0.02478691
0.78929235 0.05332802 0.02538622
0.81822268 0.05397444 0.02598605
0.84715532 0.05462403 0.02658638
0.87609016 0.05527669 0.02718719
0.90502709 0.05593232 0.02778847
0.93396601 0.05659080 0.02839020
0.01074116 0.06767171 0.01073250
0.03959941 0.06820435 0.01060086
0.06894683 0.06859552 0.01015199
0.09889137 0.06881384 0.00958088
0.12918311 0.06893622 0.00925852
0.15926543 0.06913169 0.00954993
0.18861779 0.06955720 0.01058095
0.21710864 0.07025114 0.01215302
0.24503897 0.07112082 0.01388300
0.27287392 0.07202438 0.01543740
0.30094319 0.07286164 0.01667191
0.32933750 0.07360526 0.01761376
0.35798789 0.07427640 0.01836396
0.38678634 0.07490796 0.01901641
0.41565306 0.07552415 0.01962883
0.44454669 0.07613746 0.02022806
0.47345063 0.07675281 0.02082401
0.50235951 0.07737170 0.02141967
0.53127184 0.07799445 0.02201578
0.56018724 0.07862104 0.02261248
0.58910553 0.07925139 0.02320976
0.61802661 0.07988540 0.02380763
0.64695038 0.08052295 0.02440606
0.67587672 0.08116395 0.02500504
0.70480553 0.08180830 0.02560454
0.73373672 0.08245588 0.02620455
0.76267017 0.08310661 0.02680506
0.79160578 0.08376036 0.02740604
0.82054345 0.08441704 0.02800749
0.84948307 0.08507654 0.02860937
0.87842454 0.08573876 0.02921168
0.90736776 0.08640360 0.02981440
0.93631262 0.08707095 0.03041750
0.01284804 0.09773826 0.01277086
0.04147426 0.09836156 0.01264769
0.07037029 0.09890660 0.01210330
0.09978761 0.09929884 0.01125189
0.12976613 0.09952949 0.01046060
0.15998299 0.09969986 0.01022642
0.18988484 0.09997921 0.01089407
0.21905112 0.10049354 0.01242674
0.24746956 0.10124290 0.01443333
0.27548252 0.10211981 0.01642569
0.30350049 0.10299769 0.01808019
0.33176413 0.10380325 0.01932198
0.36030592 0.10452740 0.02024227
0.38904613 0.10519517 0.02097398
0.41789301 0.10583498 0.02161780
0.44678635 0.10646534 0.02222841
0.47569746 0.10709496 0.02282892
0.50461557 0.10772702 0.02342720
0.53353741 0.10836240 0.02402541
0.56246209 0.10900124 0.02462406
0.59138934 0.10964347 0.02522323
0.62031903 0.11028901 0.02582292
0.64925105 0.11093774 0.02642312
0.67818530 0.11158958 0.02702380
0.70712167 0.11224441 0.02762496
0.73606006 0.11290213 0.02822656
0.76500037 0.11356263 0.02882860
0.79394249 0.11422582 0.02943106
0.82288632 0.11489158 0.03003392
0.85183175 0.11555982 0.03063716
0.88077869 0.11623042 0.03124077
0.90972701 0.11690330 0.03184473
0.93867664 0.11757833 0.03244902
0.01515999 0.12782188 0.01496881
0.04376839 0.12847288 0.01504934
0.07243057 0.12910914 0.01473508
0.10136361 0.12966526 0.01401869
0.13075757 0.13008671 0.01312529
0.16058382 0.13038728 0.01250477
0.19052000 0.13066929 0.01262717
0.22012173 0.13106859 0.01369333
0.24912356 0.13166247 0.01549871
0.27759690 0.13242375 0.01757354
0.30584039 0.13325715 0.01947137
0.33414530 0.13407224 0.02096976
0.36264991 0.13482734 0.02207594
0.39134830 0.13552552 0.02291171
0.42017329 0.13618838 0.02360297
0.44906204 0.13683568 0.02423214
0.47797739 0.13747896 0.02483960
0.50690295 0.13812321 0.02544101
0.53583295 0.13877010 0.02604129
0.56476569 0.13942001 0.02664174
0.59370071 0.14007295 0.02724261
0.62263783 0.14072884 0.02784393
0.65157693 0.14138759 0.02844569
0.68051791 0.14204908 0.02904789
0.70946067 0.14271322 0.02965050
0.73840509 0.14337989 0.03025350
0.76735108 0.14404901 0.03085687
0.79629853 0.14472045 0.03146061
0.82524735 0.14539412 0.03206469
0.85419741 0.14606992 0.03266910
0.88314863 0.14674773 0.03327381
0.91210089 0.14742746 0.03387881
0.94105409 0.14810900 0.03448409
0.01749775 0.15796951 0.01715150
0.04621146 0.15861139 0.01747234
0.07488223 0.15926805 0.01752694
0.10361579 0.15990652 0.01724027
0.13257505 0.16047863 0.01667413
0.16187182 0.16095443 0.01609392
0.19143988 0.16135934 0.01589928
0.22102428 0.16177446 0.01641170
0.25033671 0.16228681 0.01766648
0.27925096 0.16293031 0.01938884
0.30786129 0.16367075 0.02117593
0.33637308 0.16444187 0.02272358
0.36495290 0.16519199 0.02392944
0.39366187 0.16590335 0.02484773
0.42248144 0.16658293 0.02558710
0.45136787 0.16724508 0.02623858
0.48028623 0.16790091 0.02685510
0.50921769 0.16855631 0.02746033
0.53815450 0.16921358 0.02806275
0.56709409 0.16987340 0.02866485
0.59603569 0.17053588 0.02926722
0.62497906 0.17120095 0.02986998
0.65392407 0.17186853 0.03047312
0.68287060 0.17253850 0.03107663
0.71181856 0.17321077 0.03168050
0.74076784 0.17388522 0.03228470
0.76971834 0.17456177 0.03288922
0.79866995 0.17524029 0.03349404
0.82762257 0.17592069 0.03409914
0.85657609 0.17660287 0.03470451
0.88553041 0.17728672 0.03531013
0.91448543 0.17797213 0.03591598
0.94344104 0.17865900 0.03652205
0.01979014 0.18819607 0.01925402
0.04861173 0.18882633 0.01973909
0.07738789 0.18947332 0.02009228
0.10614468 0.19012793 0.02024245
0.13495809 0.19076684 0.02016623
0.16392730 0.19136160 0.01995504
0.19310082 0.19190110 0.01983146
0.22241191 0.19240958 0.02006184
0.25169885 0.19293797 0.02080049
0.28081095 0.19353042 0.02198665
0.30970733 0.19419530 0.02338612
0.33846195 0.19490603 0.02473951
0.36718772 0.19562606 0.02589175
0.39596140 0.19633180 0.02682033
0.42480265 0.19701816 0.02758259
0.45369605 0.19769078 0.02825039
0.48261900 0.19835718 0.02887535
0.51155564 0.19902241 0.02948454
0.54049810 0.19968889 0.03008910
0.56944333 0.20035746 0.03069272
0.59839033 0.20102830 0.03129643
0.62733877 0.20170138 0.03190042
0.65628850 0.20237661 0.03250474
0.68523942 0.20305388 0.03310937
0.71419140 0.20373310 0.03371430
0.74314436 0.20441416 0.03431950
0.77209819 0.20509696 0.03492497
0.80105277 0.20578139 0.03553067
0.83000802 0.20646734 0.03613661
0.85896382 0.20715472 0.03674275
0.88792007 0.20784342 0.03734908
0.91687667 0.20853334 0.03795558
0.94583351 0.20922437 0.03856225
0.02205337 0.21849140 0.02129713
0.05093892 0.21912072 0.02185979
0.07980284 0.21976045 0.02237386
0.10864354 0.22041023 0.02280009
0.13748040 0.22106351 0.02310469
0.16635780 0.22170696 0.02329445
0.19532433 0.22232726 0.02344805
0.22439302 0.22292286 0.02370561
0.25351745 0.22350991 0.02420133
0.28261486 0.22411392 0.02497972
0.31162217 0.22475234 0.02596544
0.34053416 0.22542403 0.02701389
0.36939300 0.22611393 0.02799727
0.39824873 0.22680588 0.02885781
0.42712974 0.22749136 0.02960353
0.45603984 0.22816977 0.03027244
0.48497056 0.22884417 0.03090129
0.51391249 0.22951767 0.03151334
0.54285970 0.23019210 0.03211974
0.57180943 0.23086822 0.03272471
0.60076065 0.23154625 0.03332955
0.62971299 0.23222616 0.03393460
0.65866627 0.23290786 0.03453990
0.68762039 0.23359126 0.03514546
0.71657523 0.23427626 0.03575125
0.74553069 0.23496275 0.03635726
0.77448666 0.23565062 0.03696347
0.80344305 0.23633977 0.03756987
0.83239975 0.23703011 0.03817643
0.86135665 0.23772151 0.03878314
0.89031366 0.23841389 0.03938999
0.91927066 0.23910714 0.03999695
0.94822755 0.23980114 0.04060401
0.02432034 0.24884084 0.02331678
0.05323538 0.24947732 0.02390691
0.08214483 0.25011954 0.02448379
0.11104470 0.25076829 0.02503260
0.13993589 0.25142282 0.02553489
0.16882966 0.25207940 0.02597984
0.19774699 0.25273188 0.02638139
0.22670674 0.25337539 0.02678762
0.25570886 0.25401109 0.02726618
0.28472886 0.25464712 0.02786742
0.31373246 0.25529362 0.02859160
0.34269878 0.25595577 0.02938873
0.37163099 0.25663121 0.03019113
0.40054765 0.25731331 0.03095042
0.42946667 0.25799633 0.03165226
0.45839641 0.25867782 0.03230724
0.48733671 0.25935805 0.03293373
0.51628406 0.26003820 0.03354655
0.54523526 0.26071927 0.03415413
0.57418843 0.26140174 0.03476016
0.60314271 0.26208577 0.03536594
0.63209777 0.26277133 0.03597184
0.66105342 0.26345833 0.03657793
0.69000956 0.26414668 0.03718422
0.71896607 0.26483628 0.03779068
0.74792286 0.26552702 0.03839730
0.77687981 0.26621879 0.03900406
0.80583682 0.26691150 0.03961095
0.83479380 0.26760503 0.04021795
0.86375062 0.26829929 0.04082504
0.89270720 0.26899417 0.04143221
0.92166343 0.26968956 0.04203943
0.95061920 0.27038537 0.04264670
0.02660856 0.27923427 0.02533326
0.05553745 0.27988075 0.02593163
0.08446667 0.28053095 0.02652753
0.11339447 0.28118517 0.02711693
0.14231950 0.28184356 0.02769342
0.17124284 0.28250553 0.02825033
0.20016964 0.28316938 0.02878616
0.22910787 0.28383278 0.02931077
0.25806315 0.28449436 0.02984629
0.28703327 0.28515513 0.03041791
0.31600806 0.28581826 0.03103895
0.34497601 0.28648690 0.03170196
0.37393174 0.28716208 0.03238377
0.40287786 0.28784240 0.03305988
0.43182079 0.28852554 0.03371638
0.46076569 0.28920978 0.03435184
0.48971443 0.28989456 0.03497201
0.51866654 0.29058001 0.03558371
0.54762082 0.29126644 0.03619170
0.57657634 0.29195406 0.03679845
0.60553253 0.29264291 0.03740495
0.63448914 0.29333294 0.03801150
0.66344599 0.29402406 0.03861818
0.69240298 0.29471619 0.03922499
0.72135999 0.29540921 0.03983193
0.75031692 0.29610302 0.04043896
0.77927367 0.29679751 0.04104608
0.80823013 0.29749259 0.04165327
0.83718620 0.29818815 0.04226051
0.86614178 0.29888408 0.04286779
0.89509676 0.29958028 0.04347508
0.92405103 0.30027665 0.04408236
0.95300450 0.30097309 0.04468963
0.02892180 0.30966556 0.02735338
0.05785911 0.31032204 0.02795459
0.08679803 0.31098144 0.02855575
0.11573805 0.31164378 0.02915603
0.14467850 0.31230908 0.02975386
0.17361903 0.31297726 0.03034704
0.20256019 0.31364800 0.03093376
0.23150382 0.31432062 0.03151464
0.26045231 0.31499437 0.03209428
0.28940683 0.31566892 0.03268050
0.31836597 0.31634470 0.03328051
0.34732634 0.31702263 0.03389631
0.37628476 0.31770342 0.03452338
0.40524018 0.31838710 0.03515364
0.43419364 0.31907308 0.03578021
0.46314686 0.31976066 0.03640013
0.49210099 0.32044936 0.03701398
0.52105630 0.32113903 0.03762387
0.55001250 0.32182965 0.03823178
0.57896922 0.32252122 0.03883893
0.60792616 0.32321370 0.03944591
0.63688314 0.32390702 0.04005291
0.66584002 0.32460110 0.04065998
0.69479667 0.32529582 0.04126713
0.72375301 0.32599108 0.04187434
0.75270891 0.32668679 0.04248160
0.78166428 0.32738283 0.04308888
0.81061901 0.32807911 0.04369617
0.83957301 0.32877551 0.04430345
0.86852615 0.32947194 0.04491071
0.89747835 0.33016829 0.04551793
0.92642950 0.33086446 0.04612509
0.95537949 0.33156034 0.04673217
0.03125802 0.34013019 0.02937833
0.06020168 0.34079574 0.02998113
0.08914691 0.34146379 0.03058426
0.11809352 0.34213424 0.03118757
0.14704130 0.34280703 0.03179076
0.17598999 0.34348209 0.03239334
0.20493947 0.34415931 0.03299469
0.23388989 0.34483850 0.03359448
0.26284173 0.34551939 0.03419322
0.29179549 0.34620173 0.03479246
0.32075124 0.34688542 0.03539436
0.34970841 0.34757051 0.03600046
0.37866601 0.34825716 0.03661064
0.40762329 0.34894543 0.03722323
0.43658003 0.34963520 0.03783605
0.46553650 0.35032623 0.03844759
0.49449299 0.35101830 0.03905742
0.52344964 0.35171122 0.03966589
0.55240641 0.35240490 0.04027358
0.58136313 0.35309925 0.04088092
0.61031965 0.35379419 0.04148817
0.63927583 0.35448963 0.04209541
0.66823155 0.35518547 0.04270268
0.69718670 0.35588161 0.04330997
0.72614117 0.35657795 0.04391726
0.75509487 0.35727437 0.04452454
0.78404768 0.35797078 0.04513178
0.81299951 0.35866708 0.04573898
0.84195025 0.35936315 0.04634611
0.87089979 0.36005890 0.04695316
0.89984804 0.36075422 0.04756011
0.92879488 0.36144901 0.04816694
0.95774022 0.36214316 0.04877363
0.03361361 0.37062412 0.03140778
0.06256231 0.37129760 0.03201183
0.09151226 0.37197321 0.03261619
0.12046336 0.37265086 0.03322085
0.14941548 0.37333044 0.03382574
0.17836848 0.37401186 0.03443077
0.20732224 0.37469502 0.03503581
0.23627666 0.37537981 0.03564070
0.26523172 0.37606610 0.03624542
0.29418743 0.37675375 0.03685014
0.32314383 0.37744264 0.03745526
0.35210081 0.37813266 0.03806125
0.38105812 0.37882376 0.03866830
0.41001549 0.37951588 0.03927625
0.43897269 0.38020895 0.03988465
0.46792964 0.38090284 0.04049301
0.49688630 0.38159744 0.04110109
0.52584265 0.38229260 0.04170883
0.55479863 0.38298822 0.04231634
0.58375412 0.38368419 0.04292372
0.61270903 0.38438041 0.04353105
0.64166323 0.38507680 0.04413835
0.67061662 0.38577323 0.04474562
0.69956908 0.38646961 0.04535285
0.72852053 0.38716584 0.04596002
0.75747084 0.38786181 0.04656713
0.78641993 0.38855741 0.04717414
0.81536767 0.38925255 0.04778105
0.84431398 0.38994712 0.04838783
0.87325874 0.39064101 0.04899447
0.90220185 0.39133412 0.04960095
0.93114321 0.39202635 0.05020726
0.96008272 0.39271760 0.05081337
0.03598468 0.40114335 0.03344111
0.06493721 0.40182359 0.03404619
0.09389066 0.40250562 0.03465154
0.12284491 0.40318932 0.03525713
0.15179987 0.40387460 0.03586296
0.18075541 0.40456136 0.03646898
0.20971145 0.40524948 0.03707518
0.23866786 0.40593887 0.03768149
0.26762454 0.40662943 0.03828790
0.29658142 0.40732103 0.03889439
0.32553840 0.40801358 0.03950099
0.35449542 0.40870696 0.04010778
0.38345234 0.40940108 0.04071481
0.41240905 0.41009583 0.04132209
0.44136541 0.41079113 0.04192954
0.47032130 0.41148686 0.04253707
0.49927662 0.41218294 0.04314458
0.52823128 0.41287923 0.04375202
0.55718519 0.41357565 0.04435938
0.58613825 0.41427208 0.04496667
0.61509035 0.41496842 0.04557390
0.64404139 0.41566456 0.04618105
0.67299127 0.41636041 0.04678813
0.70193988 0.41705586 0.04739511
0.73088711 0.41775080 0.04800197
0.75983287 0.41844513 0.04860870
0.78877704 0.41913876 0.04921529
0.81771953 0.41983156 0.04982171
0.84666023 0.42052344 0.05042794
0.87559903 0.42121430 0.05103398
0.90453583 0.42190403 0.05163980
0.93347054 0.42259253 0.05224539
0.96240303 0.42327969 0.05285072
0.03836726 0.43168394 0.03547767
0.06732245 0.43236977 0.03608359
0.09627820 0.43305703 0.03668971
0.12523442 0.43374562 0.03729602
0.15419099 0.43443543 0.03790251
0.18314781 0.43512637 0.03850916
0.21210478 0.43581832 0.03911595
0.24106179 0.43651119 0.03972285
0.27001874 0.43720487 0.04032984
0.29897552 0.43789925 0.04093692
0.32793203 0.43859423 0.04154406
0.35688818 0.43928971 0.04215125
0.38584386 0.43998558 0.04275849
0.41479896 0.44068174 0.04336578
0.44375338 0.44137809 0.04397310
0.47270701 0.44207451 0.04458042
0.50165974 0.44277092 0.04518770
0.53061147 0.44346720 0.04579492
0.55956210 0.44416325 0.04640206
0.58851153 0.44485896 0.04700911
0.61745965 0.44555424 0.04761605
0.64640636 0.44624897 0.04822287
0.67535155 0.44694306 0.04882956
0.70429512 0.44763639 0.04943608
0.73323697 0.44832887 0.05004244
0.76217699 0.44902040 0.05064861
0.79111508 0.44971086 0.05125457
0.82005113 0.45040015 0.05186030
0.84898504 0.45108817 0.05246580
0.87791671 0.45177482 0.05307104
0.90684603 0.45245999 0.05367600
0.93577289 0.45314358 0.05428067
0.96469720 0.45382548 0.05488503
0.04075739 0.46224193 0.03751681
0.06971406 0.46293217 0.03812336
0.09867095 0.46362348 0.03873006
0.12762795 0.46431578 0.03933689
0.15658496 0.46500895 0.03994385
0.18554186 0.46570290 0.04055090
0.21449857 0.46639751 0.04115803
0.24345496 0.46709268 0.04176523
0.27241095 0.46778832 0.04237248
0.30136642 0.46848431 0.04297975
0.33032128 0.46918055 0.04358704
0.35927541 0.46987694 0.04419432
0.38822872 0.47057337 0.04480158
0.41718110 0.47126974 0.04540880
0.44613244 0.47196595 0.04601597
0.47508265 0.47266189 0.04662307
0.50403162 0.47335746 0.04723008
0.53297923 0.47405255 0.04783698
0.56192540 0.47474705 0.04844376
0.59087002 0.47544088 0.04905039
0.61981297 0.47613392 0.04965686
0.64875417 0.47682606 0.05026314
0.67769349 0.47751721 0.05086924
0.70663085 0.47820726 0.05147512
0.73556614 0.47889610 0.05208077
0.76449924 0.47958364 0.05268618
0.79343007 0.48026976 0.05329132
0.82235851 0.48095437 0.05389618
0.85128446 0.48163735 0.05450074
0.88020781 0.48231861 0.05510498
0.90912847 0.48299805 0.05570889
0.93804632 0.48367555 0.05631245
0.96696127 0.48435101 0.05691564
0.04315112 0.49281336 0.03955785
0.07210810 0.49350682 0.04016484
0.10106495 0.49420102 0.04077193
0.13002155 0.49489585 0.04137909
0.15897781 0.49559120 0.04198631
0.18793363 0.49628698 0.04259357
0.21688889 0.49698307 0.04320085
0.24584349 0.49767938 0.04380814
0.27479734 0.49837580 0.04441542
0.30375032 0.49907222 0.04502268
0.33270233 0.49976854 0.04562988
0.36165327 0.50046467 0.04623703
0.39060304 0.50116048 0.04684409
0.41955152 0.50185589 0.04745106
0.44849863 0.50255078 0.04805791
0.47744424 0.50324505 0.04866463
0.50638826 0.50393860 0.04927120
0.53533059 0.50463132 0.04987760
0.56427112 0.50532312 0.05048382
0.59320974 0.50601388 0.05108984
0.62214635 0.50670350 0.05169564
0.65108086 0.50739188 0.05230121
0.68001315 0.50807891 0.05290652
0.70894311 0.50876449 0.05351156
0.73787066 0.50944852 0.05411631
0.76679568 0.51013089 0.05472076
0.79571806 0.51081150 0.05532488
0.82463771 0.51149024 0.05592866
0.85355452 0.51216702 0.05653209
0.88246839 0.51284171 0.05713514
0.91137920 0.51351423 0.05773780
0.94028687 0.51418447 0.05834005
0.96919128 0.51485232 0.05894188
0.04554449 0.52339426 0.04160015
0.07450060 0.52408978 0.04220739
0.10345622 0.52478568 0.04281466
0.13241126 0.52548187 0.04342195
0.16136560 0.52617823 0.04402923
0.19031914 0.52687466 0.04463651
0.21927178 0.52757106 0.04524374
0.24822342 0.52826732 0.04585093
0.27717394 0.52896334 0.04645805
0.30612325 0.52965902 0.04706508
0.33507125 0.53035425 0.04767201
0.36401782 0.53104893 0.04827881
0.39296287 0.53174295 0.04888548
0.42190628 0.53243621 0.04949199
0.45084797 0.53312861 0.05009833
0.47978781 0.53382004 0.05070448
0.50872572 0.53451039 0.05131042
0.53766158 0.53519957 0.05191614
0.56659529 0.53588748 0.05252161
0.59552674 0.53657399 0.05312682
0.62445584 0.53725902 0.05373176
0.65338247 0.53794246 0.05433640
0.68230655 0.53862420 0.05494073
0.71122795 0.53930414 0.05554474
0.74014657 0.53998218 0.05614839
0.76906232 0.54065821 0.05675168
0.79797509 0.54133212 0.05735460
0.82688478 0.54200383 0.05795711
0.85579127 0.54267321 0.05855921
0.88469447 0.54334016 0.05916087
0.91359427 0.54400459 0.05976208
0.94249057 0.54466639 0.06036283
0.97138327 0.54532545 0.06096309
0.04793354 0.55398068 0.04364304
0.07688760 0.55467708 0.04425032
0.10584083 0.55537351 0.04485758
0.13479311 0.55606987 0.04546481
0.16374436 0.55676606 0.04607197
0.19269445 0.55746197 0.04667906
0.22164330 0.55815750 0.04728605
0.25059078 0.55885254 0.04789294
0.27953681 0.55954699 0.04849969
0.30848128 0.56024074 0.04910631
0.33742408 0.56093370 0.04971276
0.36636510 0.56162576 0.05031903
0.39530425 0.56231681 0.05092511
0.42424143 0.56300675 0.05153097
0.45317651 0.56369548 0.05213660
0.48210941 0.56438289 0.05274198
0.51104002 0.56506888 0.05334709
0.53996824 0.56575334 0.05395192
0.56889395 0.56643617 0.05455646
0.59781706 0.56711727 0.05516067
0.62673747 0.56779653 0.05576455
0.65565506 0.56847385 0.05636807
0.68456973 0.56914912 0.05697123
0.71348139 0.56982224 0.05757400
0.74238993 0.57049311 0.05817636
0.77129523 0.57116162 0.05877830
0.80019721 0.57182767 0.05937980
0.82909575 0.57249115 0.05998085
0.85799075 0.57315197 0.06058142
0.88688211 0.57381001 0.06118150
0.91576972 0.57446517 0.06178107
0.94465348 0.57511735 0.06238012
0.97353328 0.57576644 0.06297862
0.05031431 0.58456867 0.04568586
0.07926514 0.58526477 0.04629300
0.10821480 0.58596055 0.04690005
0.13716316 0.58665591 0.04750701
0.16611013 0.58735075 0.04811385
0.19505560 0.58804496 0.04872056
0.22399947 0.58873844 0.04932711
0.25294163 0.58943108 0.04993350
0.28188199 0.59012278 0.05053970
0.31082043 0.59081344 0.05114570
0.33975686 0.59150295 0.05175148
0.36869116 0.59219121 0.05235702
0.39762324 0.59287812 0.05296231
0.42655299 0.59356356 0.05356732
0.45548030 0.59424744 0.05417205
0.48440508 0.59492965 0.05477647
0.51332722 0.59561009 0.05538056
0.54224661 0.59628866 0.05598431
0.57116315 0.59696524 0.05658770
0.60007674 0.59763974 0.05719072
0.62898728 0.59831206 0.05779334
0.65789465 0.59898208 0.05839556
0.68679875 0.59964971 0.05899734
0.71569949 0.60031483 0.05959868
0.74459675 0.60097736 0.06019955
0.77349044 0.60163717 0.06079995
0.80238045 0.60229418 0.06139984
0.83126667 0.60294827 0.06199923
0.86014900 0.60359934 0.06259808
0.88902734 0.60424728 0.06319638
0.91790158 0.60489200 0.06379411
0.94677162 0.60553339 0.06439126
0.97563735 0.60617134 0.06498781
0.05268284 0.61515425 0.04772795
0.08162927 0.61584888 0.04833475
0.11057417 0.61654283 0.04894140
0.13951743 0.61723602 0.04954790
0.16845895 0.61792833 0.05015422
0.19739862 0.61861966 0.05076035
0.22633634 0.61930992 0.05136627
0.25527201 0.61999899 0.05197197
0.28420551 0.62068676 0.05257742
0.31313676 0.62137315 0.05318261
0.34206563 0.62205803 0.05378752
0.37099203 0.62274132 0.05439213
0.39991586 0.62342290 0.05499643
0.42883701 0.62410267 0.05560040
0.45775538 0.62478053 0.05620403
0.48667086 0.62545636 0.05680728
0.51558335 0.62613008 0.05741016
0.54449274 0.62680157 0.05801264
0.57339894 0.62747074 0.05861469
0.60230183 0.62813746 0.05921632
0.63120131 0.62880166 0.05981749
0.66009729 0.62946321 0.06041819
0.68898964 0.63012201 0.06101841
0.71787828 0.63077796 0.06161812
0.74676310 0.63143097 0.06221731
0.77564399 0.63208091 0.06281596
0.80452085 0.63272769 0.06341406
0.83339357 0.63337121 0.06401158
0.86226206 0.63401136 0.06460851
0.89112620 0.63464803 0.06520484
0.91998589 0.63528113 0.06580054
0.94884104 0.63591055 0.06639559
0.97769153 0.63653618 0.06698999
0.05503517 0.64573348 0.04976866
0.08397602 0.64642545 0.05037491
0.11291500 0.64711640 0.05098097
0.14185198 0.64780624 0.05158681
0.17078687 0.64849485 0.05219242
0.19971957 0.64918213 0.05279778
0.22864996 0.64986798 0.05340287
0.25757795 0.65055230 0.05400767
0.28650342 0.65123497 0.05461217
0.31542629 0.65191591 0.05521636
0.34434644 0.65259499 0.05582020
0.37326377 0.65327213 0.05642369
0.40217817 0.65394720 0.05702682
0.43108954 0.65462012 0.05762955
0.45999778 0.65529078 0.05823187
0.48890279 0.65595907 0.05883377
0.51780445 0.65662488 0.05943523
0.54670267 0.65728813 0.06003624
0.57559734 0.65794869 0.06063676
0.60448835 0.65860647 0.06123680
0.63337561 0.65926136 0.06183632
0.66225901 0.65991326 0.06243532
0.69113845 0.66056206 0.06303377
0.72001381 0.66120767 0.06363166
0.74888500 0.66184997 0.06422897
0.77775192 0.66248887 0.06482568
0.80661445 0.66312425 0.06542178
0.83547250 0.66375602 0.06601725
0.86432597 0.66438407 0.06661207
0.89317473 0.66500830 0.06720622
