assets/luts/DB_Quiet_Wedding_Rec709_50.cube
TITLE "Quiet Wedding Rec709 50"
# Red changes fastest. Full-range normalized input.
LUT_3D_SIZE 9
DOMAIN_MIN 0 0 0
DOMAIN_MAX 1 1 1
0.00750000 0.00750000 0.00750000
0.12590791 0.00860538 0.00879119
0.23913335 0.01137680 0.01181651
0.35358829 0.01389547 0.01447421
0.46907105 0.01621025 0.01683581
0.58463646 0.01859530 0.01920319
0.70025767 0.02105002 0.02158171
0.81592799 0.02356776 0.02397027
0.93164077 0.02614187 0.02636777
0.01515999 0.12782188 0.01496881
0.13075757 0.13008671 0.01312529
0.24912356 0.13166247 0.01549871
0.36264991 0.13482734 0.02207594
0.47797739 0.13747896 0.02483960
0.59370071 0.14007295 0.02724261
0.70946067 0.14271322 0.02965050
0.82524735 0.14539412 0.03206469
0.94105409 0.14810900 0.03448409
0.02432034 0.24884084 0.02331678
0.13993589 0.25142282 0.02553489
0.25570886 0.25401109 0.02726618
0.37163099 0.25663121 0.03019113
0.48733671 0.25935805 0.03293373
0.60314271 0.26208577 0.03536594
0.71896607 0.26483628 0.03779068
0.83479380 0.26760503 0.04021795
0.95061920 0.27038537 0.04264670
0.03361361 0.37062412 0.03140778
0.14941548 0.37333044 0.03382574
0.26523172 0.37606610 0.03624542
0.38105812 0.37882376 0.03866830
0.49688630 0.38159744 0.04110109
0.61270903 0.38438041 0.04353105
0.72852053 0.38716584 0.04596002
0.84431398 0.38994712 0.04838783
0.96008272 0.39271760 0.05081337
0.04315112 0.49281336 0.03955785
0.15897781 0.49559120 0.04198631
0.27479734 0.49837580 0.04441542
0.39060304 0.50116048 0.04684409
0.50638826 0.50393860 0.04927120
0.62214635 0.50670350 0.05169564
0.73787066 0.50944852 0.05411631
0.85355452 0.51216702 0.05653209
0.96919128 0.51485232 0.05894188
0.05268284 0.61515425 0.04772795
0.16845895 0.61792833 0.05015422
0.28420551 0.62068676 0.05257742
0.39991586 0.62342290 0.05499643
0.51558335 0.62613008 0.05741016
0.63120131 0.62880166 0.05981749
0.74676310 0.63143097 0.06221731
0.86226206 0.63401136 0.06460851
0.97769153 0.63653618 0.06698999
0.06195539 0.73739344 0.05587585
0.17760561 0.74008843 0.05828738
0.29320390 0.74274539 0.06069210
0.40874358 0.74535766 0.06308892
0.52421801 0.74791859 0.06547671
0.63962053 0.75042152 0.06785437
0.75494448 0.75285980 0.07022079
0.87018322 0.75522678 0.07257487
0.98533008 0.75751579 0.07491548
0.07071541 0.85927754 0.06395933
0.18616443 0.86181813 0.06634356
0.30153912 0.86429830 0.06871726
0.41683282 0.86671139 0.07107931
0.53203887 0.86905075 0.07342862
0.64715063 0.87130973 0.07576406
0.76216144 0.87348166 0.07808453
0.87706464 0.87555990 0.08038892
0.99185358 0.87753779 0.08267612
0.07870954 0.98055320 0.07193614
0.19388203 0.98286407 0.07428053
0.30895781 0.98509213 0.07661065
0.42393021 0.98723072 0.07892540
0.53879258 0.98927320 0.08122366
0.65353826 0.99121290 0.08350433
0.76816061 0.99304318 0.08576630
0.88265295 0.99475737 0.08800845
0.99700865 0.99634882 0.09022969
0.00826513 0.00817740 0.12131371
0.12372971 0.01018479 0.12373702
0.23907957 0.01237722 0.12595044
0.35442271 0.01467465 0.12826083
0.46994198 0.01701200 0.13061972
0.58552708 0.01942146 0.13299100
0.70116572 0.02189832 0.13537306
0.81685120 0.02443595 0.13776478
0.93257689 0.02702769 0.14016505
0.01630158 0.12851499 0.12912901
0.13160385 0.13070798 0.13122311
0.25004700 0.13205302 0.13243571
0.36410090 0.13544571 0.13586916
0.47892126 0.13834802 0.13863068
0.59464099 0.14096462 0.14104080
0.71041074 0.14361944 0.14345097
0.82620498 0.14631263 0.14586705
0.94201703 0.14903754 0.14828796
0.02523609 0.24970444 0.13711107
0.14051637 0.25235082 0.13911990
0.25576743 0.25457060 0.13718732
0.37445436 0.25646703 0.13968559
0.48861806 0.26014729 0.14637199
0.60411006 0.26301626 0.14916778
0.71993260 0.26577485 0.15159601
0.83576028 0.26854828 0.15402391
0.95158338 0.27133104 0.15645290
0.03456941 0.37153951 0.14520966
0.15037367 0.37425722 0.14762618
0.26609539 0.37701511 0.14987393
0.38191674 0.37972924 0.15163686
0.49792986 0.38249447 0.15457544
0.61367773 0.38532391 0.15732622
0.72947795 0.38811116 0.15976592
0.84526373 0.39088953 0.16219311
0.96102256 0.39365483 0.16461763
0.04411784 0.49375556 0.15336367
0.15994284 0.49653644 0.15579248
0.27575833 0.49932183 0.15822144
0.39155679 0.50210518 0.16064695
0.50733415 0.50487924 0.16307045
0.62308219 0.50763819 0.16549849
0.73879335 0.51037504 0.16791856
0.85446196 0.51308301 0.17033244
0.97008121 0.51575554 0.17273994
0.05363489 0.61609768 0.16153345
0.16940171 0.61886719 0.16395880
0.28513672 0.62161880 0.16638070
0.40083326 0.62434585 0.16879804
0.51648468 0.62704169 0.17120972
0.63208431 0.62969965 0.17361463
0.74762550 0.63231310 0.17601165
0.86310161 0.63487536 0.17839967
0.97850597 0.63737979 0.18077759
0.06286720 0.73831252 0.16967676
0.17850053 0.74099534 0.17208610
0.29407966 0.74363787 0.17448827
0.40959793 0.74623345 0.17688214
0.52504868 0.74877543 0.17926661
0.64042527 0.75125716 0.18164058
0.75572103 0.75367197 0.18400294
0.87092931 0.75601321 0.18635257
0.98604345 0.75827423 0.18868836
0.07156140 0.86014670 0.17775139
0.18698592 0.86266751 0.18013217
0.30233385 0.86512565 0.18250203
0.41759853 0.86751445 0.18485988
0.53277331 0.86982726 0.18720460
0.64785154 0.87205742 0.18953509
0.76282654 0.87419828 0.19185022
0.87769168 0.87624319 0.19414890
0.99244030 0.87818549 0.19643001
0.07946413 0.98134685 0.18571509
0.19460452 0.98363035 0.18805476
0.30964594 0.98582877 0.19037978
0.42458172 0.98793547 0.19268905
0.53940521 0.98994379 0.19498146
0.65410975 0.99184708 0.19725591
0.76868869 0.99363868 0.19951127
0.88313538 0.99531193 0.20174645
0.99744315 0.99686019 0.20396033
0.00904920 0.00887461 0.23503098
0.12438209 0.01098029 0.23735425
0.23979280 0.01317789 0.23969119
0.35527377 0.01546099 0.24204147
0.47081983 0.01782229 0.24440499
0.58642388 0.02025538 0.24678006
0.70207917 0.02275363 0.24916552
0.81777905 0.02531038 0.25156027
0.93351687 0.02791898 0.25396320
0.01725555 0.12929328 0.24290161
0.13281195 0.13167343 0.24531169
0.24856853 0.13405142 0.24778198
0.36422839 0.13660776 0.25006688
0.47984017 0.13923347 0.25243458
0.59558482 0.14186149 0.25483983
0.71136364 0.14453009 0.25725212
0.82716467 0.14723480 0.25966997
0.94298125 0.14996896 0.26209226
0.02616646 0.25057248 0.25090845
0.14179030 0.25317509 0.25331565
0.25700327 0.25546749 0.25539070
0.37536594 0.25689083 0.25664456
0.49006179 0.26080022 0.26017640
0.60509010 0.26394405 0.26296810
0.72089939 0.26671525 0.26540158
0.83672623 0.26949261 0.26782999
0.95254626 0.27227702 0.27025910
0.03552747 0.37245877 0.25901214
0.15133306 0.37518678 0.26143077
0.26666432 0.37796845 0.26347305
0.38152021 0.38000188 0.26166809
0.50037497 0.38208442 0.26419761
0.61493463 0.38611758 0.27077851
0.73043590 0.38905451 0.27356925
0.84621037 0.39183044 0.27599809
0.96195853 0.39458979 0.27842147
0.04508423 0.49469904 0.26716966
0.16090677 0.49748220 0.26959868
0.27671383 0.50026819 0.27202452
0.39239815 0.50305611 0.27428159
0.50813430 0.50575489 0.27606316
0.62408057 0.50851381 0.27897979
0.73971676 0.51129550 0.28170950
0.85536373 0.51399491 0.28413203
0.97096468 0.51665390 0.28653714
0.05458404 0.61703982 0.27533868
0.17034080 0.61980399 0.27776298
0.28606350 0.62254801 0.28018346
0.40174536 0.62526522 0.28259888
0.51737886 0.62794904 0.28500570
0.63295999 0.63059230 0.28740529
0.74848056 0.63318923 0.28980401
0.86393289 0.63573270 0.29218965
0.97931136 0.63821598 0.29456390
0.06377352 0.73922773 0.28347697
0.17938919 0.74189761 0.28588400
0.29494840 0.74452494 0.28828347
0.41044449 0.74710306 0.29067428
0.52587080 0.74962533 0.29305531
0.64122068 0.75208507 0.29542546
0.75648748 0.75447565 0.29778361
0.87166454 0.75679040 0.30012867
0.98674520 0.75902266 0.30245951
0.07239932 0.86100940 0.29154232
0.18779858 0.86350967 0.29391951
0.30311898 0.86594500 0.29628542
0.41835388 0.86830874 0.29863894
0.53349662 0.87059423 0.30097895
0.64854053 0.87279481 0.30330434
0.76347898 0.87490384 0.30561401
0.87830529 0.87691464 0.30790685
0.99301282 0.87882058 0.31018175
0.08020807 0.98213146 0.29949247
0.19531560 0.98438681 0.30182729
0.31032189 0.98655483 0.30414709
0.42522028 0.98862887 0.30645076
0.54000412 0.99060227 0.30873720
0.65466675 0.99246837 0.31100528
0.76920153 0.99422053 0.31325392
0.88360178 0.99585208 0.31548199
0.99786086 0.99735637 0.31768838
0.00983856 0.00957909 0.34879908
0.12519826 0.01171691 0.35112663
0.24063357 0.01394425 0.35346864
0.35613783 0.01625445 0.35582400
0.47170439 0.01864086 0.35819159
0.58732658 0.02109683 0.36057031
0.70299776 0.02361569 0.36295905
0.81871128 0.02619079 0.36535670
0.93446046 0.02881549 0.36776215
0.01812844 0.13009604 0.35668459
0.13371600 0.13250853 0.35905648
0.24935709 0.13498789 0.36143981
0.36504481 0.13752792 0.36383165
0.48077152 0.14012218 0.36623164
0.59653197 0.14276330 0.36863961
0.71231909 0.14544491 0.37105392
0.82812615 0.14816036 0.37347340
0.94394650 0.15090302 0.37589695
0.02709589 0.25144801 0.36470403
0.14283483 0.25405988 0.36710852
0.25858670 0.25670394 0.36955983
0.37449058 0.25930366 0.37206626
0.49031157 0.26207850 0.37438604
0.60604336 0.26488580 0.37678049
0.72186612 0.26765725 0.37920739
0.83769140 0.27043775 0.38163615
0.95350759 0.27322305 0.38406525
0.03648755 0.37338164 0.37281516
0.15230420 0.37611764 0.37523783
0.26801331 0.37887495 0.37767187
0.38304457 0.38112484 0.37982902
0.50124524 0.38249935 0.38119262
0.61633511 0.38675942 0.38460529
0.73140239 0.38999113 0.38737080
0.84715366 0.39276957 0.38980272
0.96289035 0.39552222 0.39222482
0.04605005 0.49564355 0.38097576
0.16186937 0.49842821 0.38340487
0.27766693 0.50121373 0.38583116
0.39291926 0.50399021 0.38790082
0.50740082 0.50576549 0.38633591
0.62625640 0.50788565 0.38882394
0.74091147 0.51205004 0.39517345
0.85626237 0.51490117 0.39792855
0.97184144 0.51754714 0.40033344
0.05553002 0.61798039 0.38914359
0.17127597 0.62073847 0.39156672
0.28698556 0.62347412 0.39398564
0.40264827 0.62618121 0.39639631
0.51815338 0.62885501 0.39863978
0.63367647 0.63140297 0.40041841
0.74939322 0.63399933 0.40328473
0.86476131 0.63658030 0.40596802
0.98010748 0.63904445 0.40834885
0.06467410 0.74013879 0.39727644
0.18027134 0.74279497 0.39968103
0.29580986 0.74540633 0.40207768
0.41128300 0.74796623 0.40446529
0.52668401 0.75046803 0.40684263
0.64200538 0.75290514 0.40920621
0.75724310 0.75527040 0.41155733
0.87238883 0.75755797 0.41390222
0.98743507 0.75976080 0.41622889
0.07322892 0.86186537 0.40533207
0.18860214 0.86434434 0.40770556
0.30389426 0.86675610 0.41006739
0.41909860 0.86909401 0.41241644
0.53420852 0.87135141 0.41475161
0.64921737 0.87352165 0.41707179
0.76411848 0.87559806 0.41937587
0.87890520 0.87757400 0.42166273
0.99357088 0.87944281 0.42393129
0.08094110 0.98290677 0.41326826
0.19601500 0.98513321 0.41559810
0.31098539 0.98727006 0.41791254
0.42584563 0.98931066 0.42021048
0.54058905 0.99124837 0.42249081
0.65520901 0.99307652 0.42475242
0.76969884 0.99478847 0.42699419
0.88405190 0.99637755 0.42921502
0.99826153 0.99783711 0.43141381
0.01063740 0.01029466 0.46256909
0.12602353 0.01246362 0.46490167
0.24148300 0.01471985 0.46724834
0.35700916 0.01705668 0.46960798
0.47259536 0.01946746 0.47197947
0.58823494 0.02194553 0.47436172
0.70392124 0.02448423 0.47675361
0.81964761 0.02707693 0.47915404
0.93540740 0.02971695 0.48156189
0.01900718 0.13090740 0.47047004
0.13461358 0.13334344 0.47284558
0.25027094 0.13584436 0.47523146
0.36597260 0.13840349 0.47762659
0.48171191 0.14101418 0.48002985
0.59748221 0.14366978 0.48244012
0.71327685 0.14636363 0.48485631
0.82908917 0.14908907 0.48727730
0.94491251 0.15183945 0.48970198
0.02802895 0.25232958 0.47850065
0.14378032 0.25495739 0.48090659
0.25956022 0.25762767 0.48331925
0.37536228 0.26033346 0.48573815
0.49117975 0.26306869 0.48816035
0.60700497 0.26582686 0.49058546
0.72283256 0.26860057 0.49301335
0.83865551 0.27138345 0.49544235
0.95446710 0.27416887 0.49787132
0.03744936 0.37430785 0.48661869
0.15327036 0.37705211 0.48904248
0.26909622 0.37981637 0.49147022
0.38489774 0.38257729 0.49394126
0.50080738 0.38525302 0.49646832
0.61663804 0.38809835 0.49879026
0.73233978 0.39093909 0.50118307
0.84809329 0.39370668 0.50360697
0.96381778 0.39645185 0.50602766
0.04701503 0.49658883 0.49478193
0.16283036 0.49937422 0.49721102
0.27862871 0.50215737 0.49963938
0.39427979 0.50492375 0.50207961
0.50907406 0.50702634 0.50436431
0.62706544 0.50825910 0.50585482
0.74223994 0.51264239 0.50902291
0.85716572 0.51579683 0.51172311
0.97271123 0.51843499 0.51412878
0.05647259 0.61891915 0.50294815
0.17220694 0.62167036 0.50536998
0.28790268 0.62439688 0.50778722
0.40354518 0.62709278 0.51019670
0.51859664 0.62973153 0.51227575
0.63279418 0.63124633 0.51095911
0.75146967 0.63324174 0.51335377
0.86586044 0.63725654 0.51943472
0.98089690 0.63986367 0.52213021
0.06556868 0.74104545 0.51107512
0.18114672 0.74368716 0.51347714
0.29666378 0.74628179 0.51587084
0.41211319 0.74882270 0.51825513
0.52748445 0.75130373 0.52062607
0.64267027 0.75372102 0.52283040
0.75785817 0.75598838 0.52457593
0.87317793 0.75826113 0.52737079
0.98811888 0.76048583 0.52998624
0.07404993 0.86271436 0.51912061
0.18939635 0.86517125 0.52149026
0.30465941 0.86755868 0.52384787
0.41983243 0.86987000 0.52619234
0.53490877 0.87209854 0.52852254
0.64988169 0.87423768 0.53083726
0.76474378 0.87628090 0.53313303
0.87949094 0.87822099 0.53541109
0.99411443 0.88005186 0.53767767
0.08166297 0.98367251 0.52704239
0.19670246 0.98586927 0.52936713
0.31163619 0.98797418 0.53167609
0.42645750 0.98998059 0.53396818
0.54115974 0.99188184 0.53624227
0.65573626 0.99367127 0.53849726
0.77018039 0.99534224 0.54073205
0.88448548 0.99688808 0.54294552
0.99864489 0.99830214 0.54513656
0.01144547 0.01102105 0.57634085
0.12685725 0.01322040 0.57867834
0.24234012 0.01550474 0.58102954
0.35788742 0.01786743 0.58339332
0.47349249 0.02030181 0.58576860
0.58914868 0.02280122 0.58815424
0.70484934 0.02535901 0.59054916
0.82058780 0.02796852 0.59295223
0.93635743 0.03062309 0.59536234
0.01989257 0.13172700 0.58425680
0.13551702 0.13418582 0.58663598
0.25119017 0.13670726 0.58902513
0.36690536 0.13928465 0.59142314
0.48265594 0.14191133 0.59382891
0.59843526 0.14458067 0.59624131
0.71423664 0.14728599 0.59865926
0.83005345 0.15002065 0.60108162
0.94587903 0.15277798 0.60350731
0.02896608 0.25321682 0.59229816
0.14472789 0.25585981 0.59470647
0.26051601 0.25854301 0.59712102
0.37632378 0.26125978 0.59954070
0.49214456 0.26400347 0.60196440
0.60797167 0.26676741 0.60439102
0.72379848 0.26954495 0.60681944
0.83961831 0.27232944 0.60924855
0.95542453 0.27511421 0.61167725
0.03841265 0.37523715 0.60042268
0.15423650 0.37798897 0.60284757
0.27006427 0.38075864 0.60527497
0.38588927 0.38353945 0.60770388
0.50170508 0.38632445 0.61013383
0.61750507 0.38910763 0.61256183
0.73328153 0.39188248 0.61498751
0.84902901 0.39464152 0.61741078
0.96474055 0.39737842 0.61982993
0.04797890 0.49753460 0.60858814
0.16378948 0.50031996 0.61101706
0.27958158 0.50310076 0.61344476
0.39534715 0.50587019 0.61587126
0.51105345 0.50860186 0.61833915
0.62683043 0.51121100 0.62086660
0.74251671 0.51397623 0.62316188
0.85803687 0.51670081 0.62552682
0.97357375 0.51931723 0.62792314
0.05741147 0.61985583 0.61675231
0.17313346 0.62259940 0.61917271
0.28881459 0.62531603 0.62158815
0.40444741 0.62799909 0.62399768
0.51989891 0.63063066 0.62642081
0.63443803 0.63251830 0.62882282
0.75220707 0.63355061 0.63040607
0.86709537 0.63776822 0.63329633
0.98168765 0.64066875 0.63590936
0.06645699 0.74194745 0.62487297
0.18201507 0.74457392 0.62727229
0.29750990 0.74715106 0.62966292
0.41293483 0.74967221 0.63204376
0.52827531 0.75213142 0.63441185
0.64301189 0.75450785 0.63647038
0.75708521 0.75582932 0.63530602
0.87538579 0.75752370 0.63757627
0.98909339 0.76104892 0.64344026
0.07486209 0.86355611 0.63290789
0.19018095 0.86599016 0.63527357
0.30541417 0.86835249 0.63762684
0.42055511 0.87063644 0.63996659
0.53559709 0.87283536 0.64229169
0.65052983 0.87494322 0.64459831
0.76525802 0.87696333 0.64673536
0.87999432 0.87882606 0.64840904
0.99474480 0.88060933 0.65111851
0.08237340 0.98442843 0.64081483
0.19737772 0.98659474 0.64313434
0.31227402 0.98866695 0.64543769
0.42705564 0.99063839 0.64772379
0.54171593 0.99250241 0.64999152
0.65624824 0.99425236 0.65223978
0.77064582 0.99588160 0.65446734
0.88490150 0.99738377 0.65667068
0.99901096 0.99875154 0.65885108
0.01226251 0.01175801 0.69011432
0.12769918 0.01398697 0.69245659
0.24320467 0.01629867 0.69481218
0.35877233 0.01868645 0.69718000
0.47439551 0.02114366 0.69955892
0.59006755 0.02366364 0.70194783
0.70578179 0.02623974 0.70434564
0.82153159 0.02886530 0.70675123
0.93731028 0.03153367 0.70916349
0.02078434 0.13255460 0.69804485
0.13642608 0.13503543 0.70042754
0.25211425 0.13757661 0.70281982
0.36784221 0.14017149 0.70522059
0.48360329 0.14281340 0.70762873
0.59939085 0.14549571 0.71004314
0.71519822 0.14821174 0.71246271
0.83101875 0.15095484 0.71488633
0.94684579 0.15371837 0.71731289
0.02990701 0.25410947 0.70609651
0.14567850 0.25676686 0.70850707
0.26147404 0.25946221 0.71092348
0.37728698 0.26218887 0.71334466
0.49311065 0.26494018 0.71576947
0.60893840 0.26770948 0.71819682
0.72476359 0.27049013 0.72062560
0.84057955 0.27327546 0.72305470
0.95637962 0.27605882 0.72548300
0.03937716 0.37616927 0.71422708
0.15520309 0.37892790 0.71665295
0.27103068 0.38170210 0.71908095
0.38685327 0.38448523 0.72150997
0.50266422 0.38727061 0.72393891
0.61845686 0.39005160 0.72636665
0.73422454 0.39282155 0.72879208
0.84996060 0.39557379 0.73121410
0.96565840 0.39830168 0.73363160
0.04894141 0.49848062 0.72239433
0.16474646 0.50126518 0.72482296
0.28053079 0.50404292 0.72724999
0.39628773 0.50680719 0.72967431
0.51201059 0.50955131 0.73209492
0.62769293 0.51226828 0.73451140
0.74332819 0.51495217 0.73692067
0.85890862 0.51759643 0.73932236
0.97442876 0.52019356 0.74171646
0.05834640 0.62079017 0.73055603
0.17405526 0.62352533 0.73297486
0.28972100 0.62623130 0.73538837
0.40533697 0.62890140 0.73779544
0.52089507 0.63152880 0.74019616
0.63636220 0.63408601 0.74263663
0.75187123 0.63648910 0.74513954
0.86725649 0.63902103 0.74738322
0.98244211 0.64147843 0.74969624
0.06733877 0.74284453 0.73866994
0.18287612 0.74545499 0.74106644
0.29834796 0.74801386 0.74345387
0.41374765 0.75051448 0.74583113
0.52906773 0.75295024 0.74819728
0.64417985 0.75530486 0.75057741
0.75848281 0.75694702 0.75303077
0.87605065 0.75775441 0.75462127
0.99022049 0.76145600 0.75729262
0.07566514 0.86439035 0.74669386
0.19095566 0.86680079 0.74905545
0.30615829 0.86913725 0.75140426
0.42126638 0.87139307 0.75373915
0.53627325 0.87356160 0.75605904
0.65116480 0.87563716 0.75836109
0.76548045 0.87763461 0.76035728
0.87965884 0.87889939 0.75914497
0.99737579 0.88010256 0.76128063
0.08307215 0.98517426 0.75458554
0.19804053 0.98730936 0.75689968
0.31289863 0.98934809 0.75919730
0.42763979 0.99128380 0.76147729
0.54225736 0.99310983 0.76373853
0.65674468 0.99481952 0.76597992
0.77109186 0.99640713 0.76819755
0.88522582 0.99789115 0.77023656
0.99939984 0.99923093 0.77179106
0.01308825 0.01250529 0.80388945
0.12854904 0.01476309 0.80623637
0.24407639 0.01710137 0.80859624
0.35966365 0.01951348 0.81096795
0.47530417 0.02199275 0.81335039
0.59099129 0.02453254 0.81574245
0.70671835 0.02712618 0.81814302
0.82247871 0.02976703 0.82055100
0.93826569 0.03244842 0.82296527
0.02168223 0.13338992 0.81183412
0.13734049 0.13589199 0.81422020
0.25304292 0.13845216 0.81661549
0.36878287 0.14106375 0.81901888
0.48455369 0.14372013 0.82142928
0.60034872 0.14641463 0.82384557
0.71616131 0.14914061 0.82626664
0.83198480 0.15189139 0.82869138
0.94781253 0.15466034 0.83111868
0.03085148 0.25500726 0.81989567
0.14663188 0.25767829 0.82230834
0.26243408 0.26038502 0.82472650
0.37825141 0.26312080 0.82714903
0.49407721 0.26587896 0.82957483
0.60990484 0.26865287 0.83200280
0.72572764 0.27143585 0.83443181
0.84153895 0.27422126 0.83686076
0.95733211 0.27700244 0.83928854
0.04034262 0.37710395 0.82803186
0.15616986 0.37986862 0.83045858
0.27199650 0.38264660 0.83288705
0.38781589 0.38543124 0.83531617
0.50362137 0.38821588 0.83774482
0.61940628 0.39099386 0.84017190
0.73516397 0.39375854 0.84259630
0.85088778 0.39650326 0.84501691
0.96657106 0.39922136 0.84743262
0.04990230 0.49942662 0.83620046
0.16570106 0.50220961 0.83862867
0.28147683 0.50498353 0.84105491
0.39722296 0.50774171 0.84347806
0.51293279 0.51047751 0.84589701
0.62859966 0.51318426 0.84831066
0.74421693 0.51585532 0.85071790
0.85977793 0.51848403 0.85311761
0.97527602 0.52106374 0.85550869
0.05927714 0.62172191 0.84435925
0.17497210 0.62444790 0.84677640
0.29062168 0.62714243 0.84918785
0.40621924 0.62979884 0.85159247
0.52175810 0.63241048 0.85398918
0.63723159 0.63497066 0.85637696
0.75263325 0.63747239 0.85875541
0.86795653 0.63990974 0.86112140
0.98319367 0.64227615 0.86347458
0.06821377 0.74373643 0.85246600
0.18372962 0.74633012 0.85485954
0.29917770 0.74886995 0.85724364
0.41455136 0.75134928 0.85961719
0.52984395 0.75376144 0.86197909
0.64504742 0.75609961 0.86432949
0.76013235 0.75833812 0.86671686
0.87524127 0.76039882 0.86916561
0.99016629 0.76254169 0.87133661
0.07645882 0.86521683 0.86047848
0.19172024 0.86760289 0.86283586
0.30689151 0.86991271 0.86518006
0.42196597 0.87213964 0.86750999
0.53693696 0.87427701 0.86982452
0.65179710 0.87631825 0.87212275
0.76643178 0.87825553 0.87443134
0.88055470 0.87965882 0.87681442
0.99797671 0.88025103 0.87827533
0.08375894 0.98590974 0.86835447
0.19869062 0.98801286 0.87066313
0.31350975 0.99001735 0.87295488
0.42820969 0.99191656 0.87522863
0.54278377 0.99370382 0.87748325
0.65722534 0.99537250 0.87971765
0.77152116 0.99691747 0.88192887
0.88531776 0.99842724 0.88380897
0.99989997 0.99984145 0.88224427
0.01392244 0.01326261 0.91766620
0.12940658 0.01554849 0.92001765
0.24495502 0.01791259 0.92238166
0.36056112 0.02034825 0.92475714
0.47621821 0.02284882 0.92714297
0.59191964 0.02540765 0.92953805
0.70765875 0.02801807 0.93194126
0.82342889 0.03067343 0.93435150
0.93922341 0.03336708 0.93676766
0.02258599 0.13423271 0.92562459
0.13825999 0.13675526 0.92801392
0.25397591 0.13933363 0.93041209
0.36972709 0.14196118 0.93281799
0.48550688 0.14463126 0.93523051
0.60130862 0.14733719 0.93764855
0.71712566 0.15007234 0.94007099
0.83295134 0.15283004 0.94249672
0.94877900 0.15560363 0.94492464
0.03179923 0.25590994 0.93369559
0.14758778 0.25859384 0.93611025
0.26339586 0.26131118 0.93853002
0.37921681 0.26405530 0.94095379
0.49504398 0.26681956 0.94338045
0.61087072 0.26959730 0.94580889
0.72669036 0.27238185 0.94823800
0.84249626 0.27516657 0.95066668
0.95828175 0.27794480 0.95309381
0.04130879 0.37804094 0.94183697
0.15713657 0.38081088 0.94426441
0.27296150 0.38359186 0.94669322
0.38877690 0.38637725 0.94912231
0.50457614 0.38916037 0.95155055
0.62035255 0.39193459 0.95397685
0.73609949 0.39469324 0.95640008
0.85181028 0.39742966 0.95881915
0.96747829 0.40013721 0.96123295
0.05086130 0.50037234 0.95000650
0.16665300 0.50315300 0.95243416
0.28241945 0.50592232 0.95485947
0.39815400 0.50867364 0.95728132
0.51384999 0.51140032 0.95969860
0.62950076 0.51409570 0.96211019
0.74509967 0.51675313 0.96451500
0.86064005 0.51936594 0.96691191
0.97611525 0.52192749 0.96929981
0.06020340 0.62265078 0.95816195
0.17588370 0.62536684 0.96057729
0.29151636 0.62804917 0.96298654
0.40709473 0.63069112 0.96538860
0.52261215 0.63328604 0.96778236
0.63806197 0.63582727 0.97016670
0.75343754 0.63830816 0.97254052
0.86873219 0.64072204 0.97490272
0.98393927 0.64306228 0.97725217
0.06908171 0.74462289 0.96626110
0.18457530 0.74719903 0.96865156
0.29999885 0.74971906 0.97103220
0.41534573 0.75217632 0.97340192
0.53060927 0.75456417 0.97575960
0.64578282 0.75687593 0.97810414
0.76085969 0.75910493 0.98043455
0.87583349 0.76124421 0.98275043
0.99069755 0.76328777 0.98504860
0.07724288 0.86603529 0.97426172
0.19247443 0.86839620 0.97661474
0.30761356 0.87067862 0.97895422
0.42265363 0.87287587 0.98127905
0.53758798 0.87498132 0.98358810
0.65240994 0.87698830 0.98588029
0.76711164 0.87889009 0.98815577
0.88167228 0.88066655 0.99046298
0.99625207 0.88225166 0.99282325
0.08443352 0.98663462 0.98212158
0.19932772 0.98870499 0.98442462
0.31410712 0.99067447 0.98671038
0.42876507 0.99253641 0.98897776
0.54329490 0.99428415 0.99122564
0.65768996 0.99591103 0.99345291
0.77194295 0.99741053 0.99565864
0.88596389 0.99879185 0.99786454
1.00000000 1.00000000 1.00000000
