assets/luts/DB_Quiet_Wedding_Rec709_50.cube
TITLE "Quiet Wedding Rec709 50"
# Red changes fastest. Full-range normalized input.
LUT_3D_SIZE 5
DOMAIN_MIN 0 0 0
DOMAIN_MAX 1 1 1
0.00750000 0.00750000 0.00750000
0.23913335 0.01137680 0.01181651
0.46907105 0.01621025 0.01683581
0.70025767 0.02105002 0.02158171
0.93164077 0.02614187 0.02636777
0.02432034 0.24884084 0.02331678
0.25570886 0.25401109 0.02726618
0.48733671 0.25935805 0.03293373
0.71896607 0.26483628 0.03779068
0.95061920 0.27038537 0.04264670
0.04315112 0.49281336 0.03955785
0.27479734 0.49837580 0.04441542
0.50638826 0.50393860 0.04927120
0.73787066 0.50944852 0.05411631
0.96919128 0.51485232 0.05894188
0.06195539 0.73739344 0.05587585
0.29320390 0.74274539 0.06069210
0.52421801 0.74791859 0.06547671
0.75494448 0.75285980 0.07022079
0.98533008 0.75751579 0.07491548
0.07870954 0.98055320 0.07193614
0.30895781 0.98509213 0.07661065
0.53879258 0.98927320 0.08122366
0.76816061 0.99304318 0.08576630
0.99700865 0.99634882 0.09022969
0.00904920 0.00887461 0.23503098
0.23979280 0.01317789 0.23969119
0.47081983 0.01782229 0.24440499
0.70207917 0.02275363 0.24916552
0.93351687 0.02791898 0.25396320
0.02616646 0.25057248 0.25090845
0.25700327 0.25546749 0.25539070
0.49006179 0.26080022 0.26017640
0.72089939 0.26671525 0.26540158
0.95254626 0.27227702 0.27025910
0.04508423 0.49469904 0.26716966
0.27671383 0.50026819 0.27202452
0.50813430 0.50575489 0.27606316
0.73971676 0.51129550 0.28170950
0.97096468 0.51665390 0.28653714
0.06377352 0.73922773 0.28347697
0.29494840 0.74452494 0.28828347
0.52587080 0.74962533 0.29305531
0.75648748 0.75447565 0.29778361
0.98674520 0.75902266 0.30245951
0.08020807 0.98213146 0.29949247
0.31032189 0.98655483 0.30414709
0.54000412 0.99060227 0.30873720
0.76920153 0.99422053 0.31325392
0.99786086 0.99735637 0.31768838
0.01063740 0.01029466 0.46256909
0.24148300 0.01471985 0.46724834
0.47259536 0.01946746 0.47197947
0.70392124 0.02448423 0.47675361
0.93540740 0.02971695 0.48156189
0.02802895 0.25232958 0.47850065
0.25956022 0.25762767 0.48331925
0.49117975 0.26306869 0.48816035
0.72283256 0.26860057 0.49301335
0.95446710 0.27416887 0.49787132
0.04701503 0.49658883 0.49478193
0.27862871 0.50215737 0.49963938
0.50907406 0.50702634 0.50436431
0.74223994 0.51264239 0.50902291
0.97271123 0.51843499 0.51412878
0.06556868 0.74104545 0.51107512
0.29666378 0.74628179 0.51587084
0.52748445 0.75130373 0.52062607
0.75785817 0.75598838 0.52457593
0.98811888 0.76048583 0.52998624
0.08166297 0.98367251 0.52704239
0.31163619 0.98797418 0.53167609
0.54115974 0.99188184 0.53624227
0.77018039 0.99534224 0.54073205
0.99864489 0.99830214 0.54513656
0.01226251 0.01175801 0.69011432
0.24320467 0.01629867 0.69481218
0.47439551 0.02114366 0.69955892
0.70578179 0.02623974 0.70434564
0.93731028 0.03153367 0.70916349
0.02990701 0.25410947 0.70609651
0.26147404 0.25946221 0.71092348
0.49311065 0.26494018 0.71576947
0.72476359 0.27049013 0.72062560
0.95637962 0.27605882 0.72548300
0.04894141 0.49848062 0.72239433
0.28053079 0.50404292 0.72724999
0.51201059 0.50955131 0.73209492
0.74332819 0.51495217 0.73692067
0.97442876 0.52019356 0.74171646
0.06733877 0.74284453 0.73866994
0.29834796 0.74801386 0.74345387
0.52906773 0.75295024 0.74819728
0.75848281 0.75694702 0.75303077
0.99022049 0.76145600 0.75729262
0.08307215 0.98517426 0.75458554
0.31289863 0.98934809 0.75919730
0.54225736 0.99310983 0.76373853
0.77109186 0.99640713 0.76819755
0.99939984 0.99923093 0.77179106
0.01392244 0.01326261 0.91766620
0.24495502 0.01791259 0.92238166
0.47621821 0.02284882 0.92714297
0.70765875 0.02801807 0.93194126
0.93922341 0.03336708 0.93676766
0.03179923 0.25590994 0.93369559
0.26339586 0.26131118 0.93853002
0.49504398 0.26681956 0.94338045
0.72669036 0.27238185 0.94823800
0.95828175 0.27794480 0.95309381
0.05086130 0.50037234 0.95000650
0.28241945 0.50592232 0.95485947
0.51384999 0.51140032 0.95969860
0.74509967 0.51675313 0.96451500
0.97611525 0.52192749 0.96929981
0.06908171 0.74462289 0.96626110
0.29999885 0.74971906 0.97103220
0.53060927 0.75456417 0.97575960
0.76085969 0.75910493 0.98043455
0.99069755 0.76328777 0.98504860
0.08443352 0.98663462 0.98212158
0.31410712 0.99067447 0.98671038
0.54329490 0.99428415 0.99122564
0.77194295 0.99741053 0.99565864
1.00000000 1.00000000 1.00000000
