assets/luts/DB_Quiet_Wedding_Rec709_100.cube
TITLE "Quiet Wedding Rec709 100"
# Red changes fastest. Full-range normalized input.
LUT_3D_SIZE 5
DOMAIN_MIN 0 0 0
DOMAIN_MAX 1 1 1
0.01500000 0.01500000 0.01500000
0.22826670 0.02275360 0.02363302
0.43814210 0.03242051 0.03367161
0.65051534 0.04210004 0.04316342
0.86328154 0.05228373 0.05273553
0.04864068 0.24768167 0.04663355
0.26141772 0.25802218 0.05453237
0.47467341 0.26871609 0.06586746
0.68793215 0.27967256 0.07558135
0.90123840 0.29077074 0.08529339
0.08630224 0.48562671 0.07911570
0.29959467 0.49675159 0.08883085
0.51277653 0.50787720 0.09854240
0.72574132 0.51889704 0.10823262
0.93838256 0.52970465 0.11788376
0.12391077 0.72478688 0.11175171
0.33640779 0.73549077 0.12138421
0.54843602 0.74583717 0.13095342
0.75988897 0.75571960 0.14044158
0.97066016 0.76503158 0.14983097
0.15741907 0.96110640 0.14387229
0.36791562 0.97018425 0.15322130
0.57758516 0.97854640 0.16244732
0.78632121 0.98608636 0.17153259
0.99401729 0.99269765 0.18045938
0.01809839 0.01774923 0.22006197
0.22958561 0.02635579 0.22938238
0.44163967 0.03564459 0.23880998
0.65415834 0.04550726 0.24833104
0.86703374 0.05583796 0.25792639
0.05233291 0.25114496 0.25181691
0.26400655 0.26093498 0.26078140
0.48012358 0.27160044 0.27035280
0.69179878 0.28343050 0.28080316
0.90509252 0.29455405 0.29051819
0.09016847 0.48939809 0.28433931
0.30342765 0.50053638 0.29404905
0.51626860 0.51150978 0.30212632
0.72943352 0.52259099 0.31341900
0.94192937 0.53330779 0.32307429
0.12754704 0.72845545 0.31695395
0.33989680 0.73904988 0.32656694
0.55174160 0.74925066 0.33611062
0.76297496 0.75895130 0.34556723
0.97349040 0.76804532 0.35491903
0.16041614 0.96426293 0.34898495
0.37064377 0.97310966 0.35829418
0.58000824 0.98120453 0.36747439
0.78840305 0.98844105 0.37650783
0.99572173 0.99471274 0.38537676
0.02127481 0.02058931 0.42513818
0.23296600 0.02943970 0.43449668
0.44519072 0.03893491 0.44395895
0.65784248 0.04896847 0.45350722
0.87081480 0.05943389 0.46312377
0.05605791 0.25465916 0.45700129
0.26912044 0.26525533 0.46663850
0.48235951 0.27613738 0.47632070
0.69566512 0.28720114 0.48602670
0.90893419 0.29833774 0.49574263
0.09403005 0.49317766 0.48956386
0.30725742 0.50431474 0.49927876
0.51814811 0.51405269 0.50872863
0.73447988 0.52528478 0.51804582
0.94542246 0.53686999 0.52825756
0.13113736 0.73209090 0.52215024
0.34332757 0.74256359 0.53174168
0.55496889 0.75260746 0.54125214
0.76571635 0.76197677 0.54915185
0.97623776 0.77097167 0.55997248
0.16332594 0.96734503 0.55408478
0.37327238 0.97594837 0.56335218
0.58231948 0.98376367 0.57248454
0.79036078 0.99068447 0.58146410
0.99728977 0.99660428 0.59027312
0.02452502 0.02351603 0.63022863
0.23640934 0.03259734 0.63962437
0.44879102 0.04228732 0.64911783
0.66156359 0.05247948 0.65869128
0.87462055 0.06306734 0.66832698
0.05981402 0.25821894 0.66219302
0.27294808 0.26892442 0.67184697
0.48622130 0.27988036 0.68153894
0.69952718 0.29098026 0.69125121
0.91275924 0.30211765 0.70096601
0.09788282 0.49696125 0.69478866
0.31106157 0.50808584 0.70449997
0.52402118 0.51910262 0.71418985
0.73665637 0.52990433 0.72384134
0.94885751 0.54038713 0.73343291
0.13467754 0.73568907 0.72733989
0.34669593 0.74602772 0.73690774
0.55813547 0.75590049 0.74639457
0.76696562 0.76389405 0.75606154
0.98044099 0.77291199 0.76458525
0.16614430 0.97034852 0.75917108
0.37579726 0.97869618 0.76839461
0.58451473 0.98621965 0.77747707
0.79218372 0.99281426 0.78639510
0.99879968 0.99846186 0.79358213
0.02784487 0.02652523 0.83533241
0.23991004 0.03582518 0.84476332
0.45243641 0.04569765 0.85428594
0.66531750 0.05603613 0.86388252
0.87844683 0.06673415 0.87353531
0.06359846 0.26181988 0.86739118
0.27679172 0.27262236 0.87706003
0.49008797 0.28363912 0.88676089
0.70338072 0.29476370 0.89647600
0.91656350 0.30588960 0.90618763
0.10172261 0.50074469 0.90001300
0.31483890 0.51184463 0.90971894
0.52769997 0.52280065 0.91939719
0.74019933 0.53350626 0.92903000
0.95223050 0.54385498 0.93859961
0.13816343 0.73924577 0.93252220
0.34999771 0.74943812 0.94206440
0.56121854 0.75912833 0.95151920
0.77171939 0.76820986 0.96086910
0.98139509 0.77657555 0.97009720
0.16886705 0.97326924 0.96424315
0.37821425 0.98134894 0.97342076
0.58658980 0.98856829 0.98245127
0.79388591 0.99482106 0.99131729
1.00000000 1.00000000 1.00000000
