assets/luts/DB_Quiet_Wedding_Rec709_100.cube
TITLE "Quiet Wedding Rec709 100"
# Red changes fastest. Full-range normalized input.
LUT_3D_SIZE 33
DOMAIN_MIN 0 0 0
DOMAIN_MAX 1 1 1
0.01500000 0.01500000 0.01500000
0.04260112 0.01563527 0.01574926
0.07086401 0.01608873 0.01628947
0.09920412 0.01653387 0.01681300
0.12681581 0.01721077 0.01758238
0.15320187 0.01826816 0.01875731
0.17849838 0.01966601 0.02029061
0.20331128 0.02122360 0.02198360
0.22826670 0.02275360 0.02363302
0.25368791 0.02415882 0.02513504
0.27957962 0.02543725 0.02648911
0.30579300 0.02663296 0.02774390
0.33217658 0.02779094 0.02894843
0.35863527 0.02893937 0.03013329
0.38512476 0.03009125 0.03131262
0.41162870 0.03125122 0.03249156
0.43814210 0.03242051 0.03367161
0.46466358 0.03359925 0.03485310
0.49119271 0.03478731 0.03603608
0.51772922 0.03598450 0.03722051
0.54427292 0.03719060 0.03840638
0.57082359 0.03840542 0.03959363
0.59738102 0.03962873 0.04078225
0.62394501 0.04086034 0.04197219
0.65051534 0.04210004 0.04316342
0.67709182 0.04334761 0.04435591
0.70367422 0.04460285 0.04554961
0.73026234 0.04586556 0.04674450
0.75685599 0.04713552 0.04794055
0.78345493 0.04841252 0.04913770
0.81005898 0.04969636 0.05033594
0.83666792 0.05098684 0.05153523
0.86328154 0.05228373 0.05273553
0.01797171 0.04391644 0.01800352
0.04513712 0.04472989 0.01817871
0.07334827 0.04524452 0.01799991
0.10232326 0.04554484 0.01781211
0.13116025 0.04590161 0.01811962
0.15883564 0.04662226 0.01928863
0.18489708 0.04784265 0.02129895
0.20972464 0.04944824 0.02376978
0.23416169 0.05118491 0.02622598
0.25892693 0.05283589 0.02836098
0.28430662 0.05431455 0.03011228
0.31022876 0.05564224 0.03157238
0.33649063 0.05687976 0.03286676
0.36291973 0.05807888 0.03408675
0.38941808 0.05926888 0.03528015
0.41594343 0.06046224 0.03646643
0.44248122 0.06166312 0.03765196
0.46902723 0.06287249 0.03883844
0.49558035 0.06409043 0.04002621
0.52214019 0.06531679 0.04121531
0.54870651 0.06655137 0.04240573
0.57527910 0.06779396 0.04359742
0.60185776 0.06904435 0.04479035
0.62844227 0.07030233 0.04598449
0.65503243 0.07156770 0.04717981
0.68162802 0.07284025 0.04837626
0.70822885 0.07411977 0.04957382
0.73483470 0.07540605 0.05077244
0.76144537 0.07669888 0.05197210
0.78806064 0.07799806 0.05317276
0.81468032 0.07930338 0.05437439
0.84130418 0.08061464 0.05557694
0.86793203 0.08193161 0.05678039
0.02148232 0.07284342 0.02146500
0.04794882 0.07390869 0.02120173
0.07539367 0.07469104 0.02030399
0.10403274 0.07512767 0.01916175
0.13336621 0.07537244 0.01851704
0.16228087 0.07576337 0.01909987
0.18973559 0.07661441 0.02116190
0.21546728 0.07800229 0.02430604
0.24007793 0.07974165 0.02776600
0.26449783 0.08154876 0.03087481
0.28938638 0.08322327 0.03334382
0.31492500 0.08471053 0.03522751
0.34097577 0.08605281 0.03672791
0.36732267 0.08731592 0.03803283
0.39380613 0.08854830 0.03925767
0.42034338 0.08977493 0.04045611
0.44690126 0.09100563 0.04164802
0.47346901 0.09224341 0.04283935
0.50004369 0.09348890 0.04403157
0.52662448 0.09474209 0.04522496
0.55321107 0.09600279 0.04641953
0.57980323 0.09727079 0.04761526
0.60640075 0.09854590 0.04881212
0.63300344 0.09982791 0.05001007
0.65961106 0.10111660 0.05120908
0.68622343 0.10241177 0.05240911
0.71284033 0.10371321 0.05361012
0.73946155 0.10502071 0.05481209
0.76608689 0.10633407 0.05601497
0.79271614 0.10765308 0.05721874
0.81934909 0.10897752 0.05842336
0.84598552 0.11030719 0.05962879
0.87262525 0.11164189 0.06083500
0.02569608 0.10172652 0.02554171
0.05169852 0.10297311 0.02529538
0.07824059 0.10406320 0.02420661
0.10582522 0.10484768 0.02250377
0.13453226 0.10530897 0.02092119
0.16371599 0.10564971 0.02045283
0.19226968 0.10620843 0.02178815
0.21935224 0.10723708 0.02485348
0.24493911 0.10873581 0.02886666
0.26971503 0.11048962 0.03285137
0.29450098 0.11224537 0.03616038
0.31977826 0.11385651 0.03864396
0.34561183 0.11530479 0.04048454
0.37184227 0.11664033 0.04194795
0.39828602 0.11791997 0.04323559
0.42482271 0.11918068 0.04445682
0.45139491 0.12043992 0.04565785
0.47798115 0.12170405 0.04685439
0.50457483 0.12297480 0.04805082
0.53117418 0.12425247 0.04924812
0.55777868 0.12553694 0.05044647
0.58438805 0.12682801 0.05164585
0.61100210 0.12812549 0.05284624
0.63762059 0.12942916 0.05404761
0.66424334 0.13073882 0.05524991
0.69087012 0.13205426 0.05645312
0.71750074 0.13337526 0.05765720
0.74413498 0.13470164 0.05886212
0.77077264 0.13603316 0.06006784
0.79741351 0.13736964 0.06127433
0.82405737 0.13871085 0.06248154
0.85070403 0.14005659 0.06368946
0.87735327 0.14140666 0.06489803
0.03031998 0.13064375 0.02993761
0.05628677 0.13194576 0.03009869
0.08236113 0.13321827 0.02947016
0.10897721 0.13433052 0.02803737
0.13651515 0.13517341 0.02625058
0.16491764 0.13577455 0.02500955
0.19354000 0.13633858 0.02525433
0.22149346 0.13713718 0.02738666
0.24824713 0.13832493 0.03099741
0.27394381 0.13984749 0.03514708
0.29918078 0.14151430 0.03894274
0.32454060 0.14314449 0.04193952
0.35029982 0.14465468 0.04415188
0.37644660 0.14605104 0.04582341
0.40284659 0.14737676 0.04720594
0.42937408 0.14867136 0.04846429
0.45595479 0.14995792 0.04967920
0.48255590 0.15124643 0.05088201
0.50916589 0.15254020 0.05208259
0.53578138 0.15384002 0.05328348
0.56240142 0.15514590 0.05448521
0.58902566 0.15645769 0.05568785
0.61565386 0.15777518 0.05689139
0.64228582 0.15909816 0.05809578
0.66892133 0.16042644 0.05930099
0.69556018 0.16175979 0.06050699
0.72220216 0.16309801 0.06171375
0.74884707 0.16444090 0.06292122
0.77549469 0.16578824 0.06412938
0.80214482 0.16713983 0.06533819
0.82879725 0.16849546 0.06654762
0.85545178 0.16985492 0.06775762
0.88210819 0.17121800 0.06896817
0.03499550 0.15968902 0.03430300
0.06117292 0.16097279 0.03494468
0.08726446 0.16228609 0.03505389
0.11348159 0.16356304 0.03448055
0.14015010 0.16470726 0.03334826
0.16749363 0.16565885 0.03218785
0.19537976 0.16646869 0.03179855
0.22329856 0.16729892 0.03282340
0.25067343 0.16832362 0.03533296
0.27725191 0.16961063 0.03877768
0.30322258 0.17109149 0.04235186
0.32899616 0.17263375 0.04544716
0.35490580 0.17413398 0.04785887
0.38107374 0.17555669 0.04969546
0.40746288 0.17691587 0.05117420
0.43398575 0.17824016 0.05247717
0.46057246 0.17955183 0.05371020
0.48718537 0.18086262 0.05492065
0.51380900 0.18217716 0.05612549
0.54043818 0.18349680 0.05732970
0.56707139 0.18482176 0.05853445
0.59370813 0.18615191 0.05973996
0.62034814 0.18748706 0.06094624
0.64699121 0.18882700 0.06215326
0.67363713 0.19017154 0.06336099
0.70028569 0.19152045 0.06456939
0.72693668 0.19287353 0.06577843
0.75358990 0.19423058 0.06698807
0.78024513 0.19559139 0.06819828
0.80690217 0.19695574 0.06940902
0.83356082 0.19832343 0.07062026
0.86022085 0.19969425 0.07183196
0.88688207 0.20106800 0.07304410
0.03958028 0.18889215 0.03850804
0.06597345 0.19015266 0.03947817
0.09227577 0.19144663 0.04018456
0.11853936 0.19275585 0.04048491
0.14491618 0.19403367 0.04033247
0.17160461 0.19522319 0.03991009
0.19870164 0.19630221 0.03966292
0.22607382 0.19731916 0.04012367
0.25339771 0.19837593 0.04160099
0.28037190 0.19956084 0.04397331
0.30691467 0.20089059 0.04677223
0.33317391 0.20231207 0.04947902
0.35937545 0.20375212 0.05178350
0.38567280 0.20516361 0.05364066
0.41210531 0.20653631 0.05516517
0.43864210 0.20788157 0.05650079
0.46523799 0.20921436 0.05775071
0.49186127 0.21054482 0.05896908
0.51849619 0.21187778 0.06017819
0.54513666 0.21321492 0.06138544
0.57178066 0.21455660 0.06259285
0.59842754 0.21590276 0.06380085
0.62507701 0.21725321 0.06500949
0.65172883 0.21860776 0.06621875
0.67838281 0.21996620 0.06742860
0.70503872 0.22132832 0.06863901
0.73169637 0.22269392 0.06984993
0.75835555 0.22406277 0.07106135
0.78501604 0.22543468 0.07227321
0.81167764 0.22680944 0.07348549
0.83834014 0.22818684 0.07469816
0.86500334 0.22956668 0.07591117
0.89166702 0.23094873 0.07712449
0.04410675 0.21823280 0.04259427
0.07062784 0.21949145 0.04371958
0.09710569 0.22077090 0.04474771
0.12353707 0.22207046 0.04560018
0.14996081 0.22337702 0.04620939
0.17646561 0.22466392 0.04658890
0.20314865 0.22590453 0.04689609
0.23003604 0.22709571 0.04741123
0.25703489 0.22826983 0.04840266
0.28397971 0.22947785 0.04995944
0.31074434 0.23075468 0.05193088
0.33731831 0.23209806 0.05402778
0.36378600 0.23347787 0.05599453
0.39024746 0.23486176 0.05771562
0.41675948 0.23623272 0.05920707
0.44332968 0.23758954 0.06054488
0.46994112 0.23893835 0.06180258
0.49657498 0.24028534 0.06302668
0.52321939 0.24163419 0.06423947
0.54986887 0.24298644 0.06544941
0.57652131 0.24434250 0.06665910
0.60317598 0.24570231 0.06786920
0.62983255 0.24706572 0.06907980
0.65649078 0.24843252 0.07029091
0.68315045 0.24980252 0.07150249
0.70981137 0.25117549 0.07271451
0.73647333 0.25255124 0.07392694
0.76313610 0.25392955 0.07513973
0.78979950 0.25531021 0.07635286
0.81646330 0.25669303 0.07756629
0.84312731 0.25807778 0.07877998
0.86979131 0.25946427 0.07999391
0.89645510 0.26085229 0.08120803
0.04864068 0.24768167 0.04663355
0.07522075 0.24895464 0.04781382
0.10178967 0.25023908 0.04896758
0.12833940 0.25153658 0.05006520
0.15487178 0.25284563 0.05106979
0.18140932 0.25415880 0.05195968
0.20799398 0.25546377 0.05276279
0.23466348 0.25675079 0.05357525
0.26141772 0.25802218 0.05453237
0.28820772 0.25929424 0.05573484
0.31496492 0.26058724 0.05718321
0.34164756 0.26191155 0.05877745
0.36826199 0.26326241 0.06038226
0.39484531 0.26462663 0.06190083
0.42143335 0.26599266 0.06330452
0.44804281 0.26735565 0.06461448
0.47467341 0.26871609 0.06586746
0.50131813 0.27007640 0.06709310
0.52797052 0.27143853 0.06830826
0.55462685 0.27280348 0.06952032
0.58128542 0.27417154 0.07073189
0.60794553 0.27554266 0.07194369
0.63460684 0.27691666 0.07315587
0.66126912 0.27829337 0.07436843
0.68793215 0.27967256 0.07558135
0.71459572 0.28105403 0.07679459
0.74125962 0.28243758 0.07800812
0.76792365 0.28382299 0.07922190
0.79458759 0.28521006 0.08043590
0.82125125 0.28659857 0.08165009
0.84791441 0.28798833 0.08286442
0.87457686 0.28937912 0.08407887
0.90123840 0.29077074 0.08529339
0.05321713 0.27721855 0.05066653
0.07982490 0.27851150 0.05186325
0.10643334 0.27981189 0.05305506
0.13303894 0.28112034 0.05423386
0.15963900 0.28243712 0.05538683
0.18623568 0.28376106 0.05650066
0.21283928 0.28508876 0.05757231
0.23946574 0.28641557 0.05862155
0.26612630 0.28773871 0.05969259
0.29281654 0.28906025 0.06083581
0.31951612 0.29038651 0.06207790
0.34620201 0.29172381 0.06340393
0.37286348 0.29307417 0.06476753
0.39950573 0.29443481 0.06611977
0.42614159 0.29580108 0.06743276
0.45278138 0.29716957 0.06870367
0.47942886 0.29853912 0.06994401
0.50608307 0.29991002 0.07116741
0.53274165 0.30128289 0.07238341
0.55940267 0.30265812 0.07359691
0.58606507 0.30403581 0.07480990
0.61272827 0.30541587 0.07602300
0.63939198 0.30679813 0.07723636
0.66605595 0.30818238 0.07844999
0.69271997 0.30956842 0.07966385
0.71938384 0.31095603 0.08087793
0.74604734 0.31234503 0.08209217
0.77271026 0.31373518 0.08330655
0.79937240 0.31512630 0.08452103
0.82603356 0.31651816 0.08573557
0.85269351 0.31791057 0.08695015
0.87935206 0.31930331 0.08816473
0.90600900 0.32069617 0.08937927
0.05784359 0.30683112 0.05470677
0.08446822 0.30814408 0.05590918
0.11109607 0.30946289 0.05711150
0.13772609 0.31078756 0.05831206
0.16435700 0.31211815 0.05950773
0.19098805 0.31345453 0.06069407
0.21762038 0.31479600 0.06186753
0.24425765 0.31614124 0.06302928
0.27090462 0.31748874 0.06418855
0.29756365 0.31883784 0.06536100
0.32423194 0.32018940 0.06656101
0.35090267 0.32154526 0.06779262
0.37756952 0.32290684 0.06904676
0.40423036 0.32427420 0.07030729
0.43088727 0.32564616 0.07156043
0.45754372 0.32702131 0.07280027
0.48420199 0.32839872 0.07402796
0.51086259 0.32977806 0.07524773
0.53752499 0.33115930 0.07646355
0.56418844 0.33254243 0.07767787
0.59085233 0.33392740 0.07889182
0.61751629 0.33531405 0.08010582
0.64418003 0.33670219 0.08131997
0.67084335 0.33809163 0.08253427
0.69750601 0.33948216 0.08374868
0.72416782 0.34087358 0.08496319
0.75082856 0.34226566 0.08617776
0.77748803 0.34365821 0.08739234
0.80414601 0.34505102 0.08860691
0.83080231 0.34644388 0.08982142
0.85745671 0.34783658 0.09103586
0.88410900 0.34922891 0.09225017
0.91075898 0.35062067 0.09346433
0.06251603 0.33651039 0.05875666
0.08915336 0.33784148 0.05996227
0.11579382 0.33917757 0.06116852
0.14243705 0.34051848 0.06237514
0.16908260 0.34186407 0.06358152
0.19572998 0.34321419 0.06478667
0.22237893 0.34456862 0.06598937
0.24902978 0.34592700 0.06718897
0.27568345 0.34728878 0.06838643
0.30234097 0.34865347 0.06958492
0.32900249 0.35002083 0.07078873
0.35566682 0.35139101 0.07200092
0.38233202 0.35276432 0.07322128
0.40899657 0.35414086 0.07444645
0.43566007 0.35552040 0.07567210
0.46232300 0.35690247 0.07689517
0.48898598 0.35828659 0.07811484
0.51564929 0.35967244 0.07933179
0.54231281 0.36105979 0.08054715
0.56897626 0.36244850 0.08176184
0.59563930 0.36383838 0.08297633
0.62230165 0.36522926 0.08419082
0.64896309 0.36662094 0.08540537
0.67562339 0.36801322 0.08661994
0.70228234 0.36940589 0.08783452
0.72893974 0.37079874 0.08904908
0.75559537 0.37219157 0.09026357
0.78224903 0.37358416 0.09147796
0.80890050 0.37497631 0.09269222
0.83554959 0.37636780 0.09390632
0.86219608 0.37775844 0.09512021
0.88883976 0.37914802 0.09633387
0.91548043 0.38053632 0.09754726
0.06722722 0.36624823 0.06281555
0.09387461 0.36759519 0.06402365
0.12052452 0.36894642 0.06523239
0.14717672 0.37030172 0.06644171
0.17383096 0.37166088 0.06765149
0.20048697 0.37302372 0.06886155
0.22714449 0.37439004 0.07007161
0.25380333 0.37575961 0.07128140
0.28046343 0.37713220 0.07249083
0.30712487 0.37850751 0.07370027
0.33378766 0.37988528 0.07491053
0.36045161 0.38126532 0.07612249
0.38711624 0.38264752 0.07733660
0.41378098 0.38403177 0.07855250
0.44044539 0.38541790 0.07976929
0.46710928 0.38680569 0.08098602
0.49377261 0.38819487 0.08220217
0.52043531 0.38958519 0.08341766
0.54709726 0.39097643 0.08463268
0.57375825 0.39236838 0.08584745
0.60041806 0.39376083 0.08706210
0.62707646 0.39515359 0.08827670
0.65373323 0.39654646 0.08949124
0.68038817 0.39793922 0.09070570
0.70704105 0.39933167 0.09192005
0.73369168 0.40072361 0.09313425
0.76033985 0.40211482 0.09434828
0.78698534 0.40350510 0.09556209
0.81362795 0.40489423 0.09677566
0.84026748 0.40628202 0.09798894
0.86690370 0.40766825 0.09920190
0.89353643 0.40905271 0.10041452
0.92016543 0.41043520 0.10162674
0.07196935 0.39603670 0.06688222
0.09862442 0.39739719 0.06809238
0.12528131 0.39876124 0.06930307
0.15193982 0.40012865 0.07051427
0.17859973 0.40149921 0.07172592
0.20526083 0.40287271 0.07293797
0.23192290 0.40424896 0.07415035
0.25858571 0.40562775 0.07536299
0.28524908 0.40700885 0.07657580
0.31191283 0.40839206 0.07778878
0.33857681 0.40977716 0.07900198
0.36524083 0.41116392 0.08021556
0.39190469 0.41255215 0.08142962
0.41856811 0.41394166 0.08264418
0.44523083 0.41533225 0.08385909
0.47189260 0.41672373 0.08507414
0.49855324 0.41811587 0.08628916
0.52521256 0.41950847 0.08750404
0.55187038 0.42090130 0.08871876
0.57852649 0.42229416 0.08993335
0.60518070 0.42368683 0.09114780
0.63183279 0.42507912 0.09236211
0.65848254 0.42647082 0.09357626
0.68512976 0.42786171 0.09479021
0.71177423 0.42925160 0.09600394
0.73841574 0.43064027 0.09721740
0.76505408 0.43202751 0.09843057
0.79168906 0.43341312 0.09964341
0.81832045 0.43479689 0.10085589
0.84494806 0.43617861 0.10206797
0.87157167 0.43755807 0.10327961
0.89819107 0.43893506 0.10449078
0.92480607 0.44030939 0.10570145
0.07673451 0.42586789 0.07095534
0.10339490 0.42723954 0.07216717
0.13005641 0.42861406 0.07337942
0.15671884 0.42999124 0.07459205
0.18338198 0.43137087 0.07580503
0.21004562 0.43275274 0.07701832
0.23670956 0.43413664 0.07823189
0.26337358 0.43552238 0.07944569
0.29003747 0.43690973 0.08065969
0.31670103 0.43829850 0.08187384
0.34336406 0.43968847 0.08308811
0.37002635 0.44107942 0.08430250
0.39668771 0.44247116 0.08551699
0.42334792 0.44386348 0.08673157
0.45000676 0.44525617 0.08794620
0.47666402 0.44664902 0.08916083
0.50331948 0.44804183 0.09037539
0.52997295 0.44943439 0.09158984
0.55662421 0.45082649 0.09280413
0.58327306 0.45221792 0.09401823
0.60991930 0.45360847 0.09523211
0.63656272 0.45499794 0.09644575
0.66320310 0.45638611 0.09765911
0.68984024 0.45777279 0.09887217
0.71647394 0.45915775 0.10008488
0.74310398 0.46054079 0.10129721
0.76973015 0.46192172 0.10250913
0.79635225 0.46330030 0.10372061
0.82297008 0.46467635 0.10493160
0.84958341 0.46604965 0.10614208
0.87619205 0.46741999 0.10735201
0.90279579 0.46878717 0.10856135
0.92939441 0.47015097 0.10977007
0.08151478 0.45573386 0.07503361
0.10817813 0.45711433 0.07624671
0.13484191 0.45849697 0.07746012
0.16150590 0.45988156 0.07867379
0.18816991 0.46126791 0.07988770
0.21483373 0.46265580 0.08110180
0.24149713 0.46404502 0.08231607
0.26815993 0.46543537 0.08353047
0.29482190 0.46682664 0.08474496
0.32148285 0.46821862 0.08595951
0.34814256 0.46961110 0.08717408
0.37480083 0.47100388 0.08838864
0.40145744 0.47239674 0.08960316
0.42811220 0.47378949 0.09081761
0.45476489 0.47518190 0.09203195
0.48141530 0.47657378 0.09324615
0.50806323 0.47796491 0.09446017
0.53470847 0.47935509 0.09567397
0.56135080 0.48074411 0.09688752
0.58799003 0.48213176 0.09810077
0.61462594 0.48351783 0.09931371
0.64125833 0.48490212 0.10052629
0.66788699 0.48628442 0.10173848
0.69451171 0.48766452 0.10295024
0.72113227 0.48904220 0.10416154
0.74774849 0.49041727 0.10537235
0.77436014 0.49178952 0.10658264
0.80096701 0.49315873 0.10779235
0.82756891 0.49452470 0.10900147
0.85416562 0.49588723 0.11020996
0.88075694 0.49724610 0.11141778
0.90734265 0.49860110 0.11262490
0.93392255 0.49995203 0.11383128
0.08630224 0.48562671 0.07911570
0.11296620 0.48701364 0.08032969
0.13962989 0.48840204 0.08154386
0.16629310 0.48979170 0.08275818
0.19295562 0.49118241 0.08397261
0.21961725 0.49257396 0.08518714
0.24627777 0.49396615 0.08640170
0.27293698 0.49535876 0.08761629
0.29959467 0.49675159 0.08883085
0.32625064 0.49814444 0.09004535
0.35290466 0.49953709 0.09125976
0.37955654 0.50092933 0.09247405
0.40620608 0.50232096 0.09368818
0.43285305 0.50371177 0.09490211
0.45949725 0.50510155 0.09611582
0.48613848 0.50649010 0.09732926
0.51277653 0.50787720 0.09854240
0.53941118 0.50926265 0.09975521
0.56604223 0.51064623 0.10096765
0.59266948 0.51202775 0.10217969
0.61929271 0.51340700 0.10339129
0.64591172 0.51478375 0.10460242
0.67252629 0.51615782 0.10581304
0.69913623 0.51752899 0.10702312
0.72574132 0.51889704 0.10823262
0.75234135 0.52026178 0.10944151
0.77893612 0.52162300 0.11064976
0.80552542 0.52298049 0.11185733
0.83210904 0.52433403 0.11306418
0.85868677 0.52568343 0.11427029
0.88525841 0.52702847 0.11547561
0.91182374 0.52836894 0.11668011
0.93838256 0.52970465 0.11788376
0.09108898 0.51553852 0.08320030
0.11775120 0.51692956 0.08441477
0.14441245 0.51832137 0.08562931
0.17107252 0.51971373 0.08684389
0.19773120 0.52110645 0.08805847
0.22438828 0.52249931 0.08927301
0.25104356 0.52389211 0.09048749
0.27769683 0.52528464 0.09170186
0.30434789 0.52667668 0.09291610
0.33099651 0.52806804 0.09413016
0.35764250 0.52945850 0.09534401
0.38428564 0.53084785 0.09655762
0.41092574 0.53223589 0.09777096
0.43756257 0.53362242 0.09898398
0.46419594 0.53500721 0.10019666
0.49082563 0.53639007 0.10140896
0.51745144 0.53777079 0.10262084
0.54407315 0.53914915 0.10383227
0.57069057 0.54052495 0.10504322
0.59730348 0.54189798 0.10625365
0.62391168 0.54326804 0.10746352
0.65051495 0.54463492 0.10867281
0.67711309 0.54599840 0.10988147
0.70370589 0.54735828 0.11108947
0.73029315 0.54871436 0.11229679
0.75687465 0.55006641 0.11350337
0.78345019 0.55141425 0.11470919
0.81001955 0.55275765 0.11591422
0.83658254 0.55409641 0.11711841
0.86313894 0.55543033 0.11832174
0.88968855 0.55675919 0.11952417
0.91623115 0.55808278 0.12072566
0.94276654 0.55940091 0.12192618
0.09586708 0.54546137 0.08728608
0.12252520 0.54685416 0.08850065
0.14918165 0.54824702 0.08971517
0.17583623 0.54963975 0.09092961
0.20248871 0.55103212 0.09214394
0.22913890 0.55242394 0.09335811
0.25578659 0.55381499 0.09457210
0.28243157 0.55520507 0.09578587
0.30907363 0.55659398 0.09699939
0.33571256 0.55798149 0.09821261
0.36234815 0.55936741 0.09942552
0.38898021 0.56075152 0.10063806
0.41560851 0.56213362 0.10185021
0.44223285 0.56351351 0.10306193
0.46885303 0.56489096 0.10427319
0.49546883 0.56626578 0.10548395
0.52208005 0.56763775 0.10669419
0.54868647 0.56900668 0.10790385
0.57528790 0.57037234 0.10911291
0.60188412 0.57173454 0.11032134
0.62847493 0.57309306 0.11152909
0.65506012 0.57444769 0.11273615
0.68163947 0.57579824 0.11394246
0.70821278 0.57714448 0.11514799
0.73477985 0.57848622 0.11635272
0.76134046 0.57982324 0.11755660
0.78789442 0.58115534 0.11875961
0.81444150 0.58248231 0.11996170
0.84098150 0.58380393 0.12116284
0.86751421 0.58512001 0.12236300
0.89403943 0.58643034 0.12356215
0.92055695 0.58773470 0.12476024
0.94706656 0.58903289 0.12595725
0.10062861 0.57538734 0.09137172
0.12728029 0.57677953 0.09258599
0.15392959 0.57817110 0.09380011
0.18057632 0.57956182 0.09501402
0.20722025 0.58095150 0.09622770
0.23386120 0.58233992 0.09744112
0.26049894 0.58372687 0.09865423
0.28713327 0.58511216 0.09986700
0.31376398 0.58649556 0.10107941
0.34039086 0.58787688 0.10229141
0.36701371 0.58925590 0.10350296
0.39363232 0.59063242 0.10471405
0.42024648 0.59200623 0.10592462
0.44685598 0.59337712 0.10713465
0.47346061 0.59474488 0.10834410
0.50006017 0.59610930 0.10955293
0.52665444 0.59747019 0.11076112
0.55324322 0.59882732 0.11196862
0.57982631 0.60018049 0.11317541
0.60640349 0.60152949 0.11438144
0.63297455 0.60287412 0.11558669
0.65953929 0.60421416 0.11679111
0.68609751 0.60554942 0.11799468
0.71264898 0.60687967 0.11919735
0.73919351 0.60820472 0.12039910
0.76573088 0.60952435 0.12159989
0.79226089 0.61083836 0.12279969
0.81878333 0.61214654 0.12399845
0.84529799 0.61344867 0.12519615
0.87180467 0.61474456 0.12639276
0.89830315 0.61603400 0.12758822
0.92479323 0.61731677 0.12878252
0.95127470 0.61859268 0.12997562
0.10536567 0.60530851 0.09545591
0.13200854 0.60669775 0.09666949
0.15864834 0.60808566 0.09788280
0.18528487 0.60947203 0.09909580
0.21191790 0.61085666 0.10030844
0.23854725 0.61223933 0.10152070
0.26517269 0.61361984 0.10273254
0.29179402 0.61499797 0.10394393
0.31841103 0.61637353 0.10515483
0.34502351 0.61774630 0.10636521
0.37163126 0.61911607 0.10757503
0.39823407 0.62048264 0.10878426
0.42483173 0.62184580 0.10999287
0.45142403 0.62320534 0.11120081
0.47801076 0.62456105 0.11240805
0.50459172 0.62591273 0.11361457
0.53116670 0.62726016 0.11482032
0.55773548 0.62860315 0.11602527
0.58429787 0.62994147 0.11722939
0.61085366 0.63127493 0.11843263
0.63740262 0.63260331 0.11963498
0.66394457 0.63392641 0.12083638
0.69047929 0.63524402 0.12203681
0.71700657 0.63655593 0.12323624
0.74352620 0.63786193 0.12443462
0.77003798 0.63916182 0.12563192
0.79654170 0.64045539 0.12682812
0.82303714 0.64174242 0.12802316
0.84952411 0.64302272 0.12921703
0.87600239 0.64429606 0.13040968
0.90247178 0.64556226 0.13160107
0.92893207 0.64682109 0.13279119
0.95538305 0.64807235 0.13397998
0.11007033 0.63521697 0.09953732
0.13670205 0.63660090 0.10074983
0.16332999 0.63798281 0.10196194
0.18995396 0.63936248 0.10317362
0.21657374 0.64073970 0.10438484
0.24318913 0.64211426 0.10559555
0.26979992 0.64348596 0.10680573
0.29640589 0.64485459 0.10801534
0.32300685 0.64621995 0.10922435
0.34960258 0.64758181 0.11043271
0.37619288 0.64893998 0.11164041
0.40277753 0.65029425 0.11284739
0.42935634 0.65164441 0.11405363
0.45592909 0.65299025 0.11525909
0.48249557 0.65433156 0.11646374
0.50905557 0.65566813 0.11766755
0.53560890 0.65699977 0.11887047
0.56215534 0.65832625 0.12007248
0.58869468 0.65964738 0.12127353
0.61522671 0.66096293 0.12247360
0.64175123 0.66227272 0.12367265
0.66826803 0.66357652 0.12487064
0.69477689 0.66487413 0.12606754
0.72127762 0.66616534 0.12726332
0.74777001 0.66744995 0.12845794
0.77425384 0.66872774 0.12965137
0.80072891 0.66999850 0.13084357
0.82719501 0.67126204 0.13203450
0.85365193 0.67251814 0.13322414
0.88009947 0.67376660 0.13441244
