assets/luts/DB_Quiet_Wedding_Rec709_100.cube
TITLE "Quiet Wedding Rec709 100"
# Red changes fastest. Full-range normalized input.
LUT_3D_SIZE 9
DOMAIN_MIN 0 0 0
DOMAIN_MAX 1 1 1
0.01500000 0.01500000 0.01500000
0.12681581 0.01721077 0.01758238
0.22826670 0.02275360 0.02363302
0.33217658 0.02779094 0.02894843
0.43814210 0.03242051 0.03367161
0.54427292 0.03719060 0.03840638
0.65051534 0.04210004 0.04316342
0.75685599 0.04713552 0.04794055
0.86328154 0.05228373 0.05273553
0.03031998 0.13064375 0.02993761
0.13651515 0.13517341 0.02625058
0.24824713 0.13832493 0.03099741
0.35029982 0.14465468 0.04415188
0.45595479 0.14995792 0.04967920
0.56240142 0.15514590 0.05448521
0.66892133 0.16042644 0.05930099
0.77549469 0.16578824 0.06412938
0.88210819 0.17121800 0.06896817
0.04864068 0.24768167 0.04663355
0.15487178 0.25284563 0.05106979
0.26141772 0.25802218 0.05453237
0.36826199 0.26326241 0.06038226
0.47467341 0.26871609 0.06586746
0.58128542 0.27417154 0.07073189
0.68793215 0.27967256 0.07558135
0.79458759 0.28521006 0.08043590
0.90123840 0.29077074 0.08529339
0.06722722 0.36624823 0.06281555
0.17383096 0.37166088 0.06765149
0.28046343 0.37713220 0.07249083
0.38711624 0.38264752 0.07733660
0.49377261 0.38819487 0.08220217
0.60041806 0.39376083 0.08706210
0.70704105 0.39933167 0.09192005
0.81362795 0.40489423 0.09677566
0.92016543 0.41043520 0.10162674
0.08630224 0.48562671 0.07911570
0.19295562 0.49118241 0.08397261
0.29959467 0.49675159 0.08883085
0.40620608 0.50232096 0.09368818
0.51277653 0.50787720 0.09854240
0.61929271 0.51340700 0.10339129
0.72574132 0.51889704 0.10823262
0.83210904 0.52433403 0.11306418
0.93838256 0.52970465 0.11788376
0.10536567 0.60530851 0.09545591
0.21191790 0.61085666 0.10030844
0.31841103 0.61637353 0.10515483
0.42483173 0.62184580 0.10999287
0.53116670 0.62726016 0.11482032
0.63740262 0.63260331 0.11963498
0.74352620 0.63786193 0.12443462
0.84952411 0.64302272 0.12921703
0.95538305 0.64807235 0.13397998
0.12391077 0.72478688 0.11175171
0.23021123 0.73017685 0.11657476
0.33640779 0.73549077 0.12138421
0.44248716 0.74071531 0.12617783
0.54843602 0.74583717 0.13095342
0.65424106 0.75084304 0.13570874
0.75988897 0.75571960 0.14044158
0.86536644 0.76045355 0.14514973
0.97066016 0.76503158 0.14983097
0.14143082 0.84355509 0.12791866
0.24732886 0.84863626 0.13268712
0.35307824 0.85359659 0.13743452
0.45866564 0.85842277 0.14215863
0.56407775 0.86310150 0.14685723
0.66930127 0.86761945 0.15152812
0.77432288 0.87196332 0.15616906
0.87912928 0.87611981 0.16077784
0.98370715 0.88007559 0.16535225
0.15741907 0.96110640 0.14387229
0.26276407 0.96572813 0.14856106
0.36791562 0.97018425 0.15322130
0.47286042 0.97446144 0.15785079
0.57758516 0.97854640 0.16244732
0.68207653 0.98242581 0.16700866
0.78632121 0.98608636 0.17153259
0.89030590 0.98951474 0.17601691
0.99401729 0.99269765 0.18045938
0.01653027 0.01635480 0.11762742
0.12245942 0.02036959 0.12247404
0.22815915 0.02475443 0.12690089
0.33384543 0.02934929 0.13152166
0.43988395 0.03402400 0.13623943
0.54605417 0.03884291 0.14098200
0.65233144 0.04379664 0.14574611
0.75870241 0.04887190 0.15052955
0.86515377 0.05405538 0.15533010
0.03260316 0.13202998 0.13325803
0.13820771 0.13641596 0.13744621
0.25009401 0.13910604 0.13987143
0.35320180 0.14589142 0.14673833
0.45784252 0.15169605 0.15226137
0.56428198 0.15692924 0.15708160
0.67082148 0.16223888 0.16190193
0.77740996 0.16762526 0.16673410
0.88403406 0.17307508 0.17157592
0.05047218 0.24940889 0.14922214
0.15603275 0.25470164 0.15323979
0.26153487 0.25914119 0.14937464
0.37390873 0.26293406 0.15437117
0.47723611 0.27029459 0.16774397
0.58322012 0.27603252 0.17333556
0.68986520 0.28154969 0.17819201
0.79652056 0.28709656 0.18304781
0.90316676 0.29266208 0.18790580
0.06913881 0.36807902 0.16541931
0.17574734 0.37351443 0.17025237
0.28219078 0.37903021 0.17474787
0.38883348 0.38445848 0.17827372
0.49585972 0.38998895 0.18415088
0.60235545 0.39564783 0.18965243
0.70895589 0.40122232 0.19453184
0.81552745 0.40677906 0.19938623
0.92204512 0.41230966 0.20423527
0.08823567 0.48751112 0.18172735
0.19488568 0.49307289 0.18658496
0.30151665 0.49864366 0.19144289
0.40811358 0.50421035 0.19629390
0.51466829 0.50975848 0.20114091
0.62116438 0.51527638 0.20599698
0.72758670 0.52075008 0.21083712
0.83392392 0.52616603 0.21566489
0.94016243 0.53151108 0.22047988
0.10726977 0.60719537 0.19806690
0.21380343 0.61273439 0.20291760
0.32027345 0.61823760 0.20776140
0.42666652 0.62369170 0.21259609
0.53296935 0.62908337 0.21741944
0.63916862 0.63439931 0.22222925
0.74525101 0.63962620 0.22702329
0.85120322 0.64475073 0.23179934
0.95701193 0.64975959 0.23655519
0.12573439 0.72662504 0.21435353
0.23200106 0.73199068 0.21917221
0.33815931 0.73727574 0.22397653
0.44419585 0.74246690 0.22876428
0.55009736 0.74755086 0.23353323
0.65585053 0.75251431 0.23828117
0.76144205 0.75734393 0.24300587
0.86685861 0.76202642 0.24770513
0.97208690 0.76654847 0.25237672
0.14312280 0.84529340 0.23050277
0.24897184 0.85033503 0.23526433
0.35466770 0.85525130 0.24000407
0.46019707 0.86002889 0.24471977
0.56554663 0.86465451 0.24940921
0.67070307 0.86911484 0.25407017
0.77565309 0.87339657 0.25870044
0.88038337 0.87748638 0.26329780
0.98488060 0.88137098 0.26786003
0.15892825 0.96269371 0.24643018
0.26420905 0.96726069 0.25110951
0.36929188 0.97165754 0.25575956
0.47416344 0.97587094 0.26037810
0.57881042 0.97988758 0.26496293
0.68321950 0.98369415 0.26951181
0.78737738 0.98727735 0.27402254
0.89127075 0.99062386 0.27849289
0.99488630 0.99372038 0.28292065
0.01809839 0.01774923 0.22006197
0.12376418 0.02196058 0.22470851
0.22958561 0.02635579 0.22938238
0.33554753 0.03092198 0.23408294
0.44163967 0.03564459 0.23880998
0.54784776 0.04051077 0.24356011
0.65415834 0.04550726 0.24833104
0.76055811 0.05062077 0.25312054
0.86703374 0.05583796 0.25792639
0.03451110 0.13358656 0.23580322
0.14062391 0.13834686 0.24062339
0.24713705 0.14310284 0.24556396
0.35345677 0.14821552 0.25013376
0.45968033 0.15346695 0.25486915
0.56616965 0.15872299 0.25967965
0.67272727 0.16406018 0.26450424
0.77932934 0.16946960 0.26933994
0.88596250 0.17493793 0.27418453
0.05233291 0.25114496 0.25181691
0.15858061 0.25635018 0.25663130
0.26400655 0.26093498 0.26078140
0.37573188 0.26378167 0.26328911
0.48012358 0.27160044 0.27035280
0.58518021 0.27788810 0.27593620
0.69179878 0.28343050 0.28080316
0.79845246 0.28898521 0.28565997
0.90509252 0.29455405 0.29051819
0.07105495 0.36991754 0.26802427
0.17766613 0.37537356 0.27286154
0.28332863 0.38093691 0.27694610
0.38804042 0.38500377 0.27333617
0.50074994 0.38916883 0.27839521
0.60486926 0.39723515 0.29155703
0.71087180 0.40310903 0.29713851
0.81742074 0.40866087 0.30199619
0.92391705 0.41417958 0.30684293
0.09016847 0.48939809 0.28433931
0.19681355 0.49496440 0.28919736
0.30342765 0.50053638 0.29404905
0.40979630 0.50611221 0.29856319
0.51626860 0.51150978 0.30212632
0.62316113 0.51702762 0.30795958
0.72943352 0.52259099 0.31341900
0.83572746 0.52798983 0.31826406
0.94192937 0.53330779 0.32307429
0.10916807 0.60907964 0.30067736
0.21568161 0.61460799 0.30552596
0.32212699 0.62009602 0.31036692
0.42849073 0.62553044 0.31519777
0.53475773 0.63089809 0.32001140
0.64091997 0.63618461 0.32481058
0.74696112 0.64137846 0.32960803
0.85286578 0.64646539 0.33437930
0.95862273 0.65143195 0.33912781
0.12754704 0.72845545 0.31695395
0.23377838 0.73379522 0.32176800
0.33989680 0.73904988 0.32656694
0.44588897 0.74420613 0.33134856
0.55174160 0.74925066 0.33611062
0.65744136 0.75417015 0.34085091
0.76297496 0.75895130 0.34556723
0.86832907 0.76358079 0.35025734
0.97349040 0.76804532 0.35491903
0.14479864 0.84701879 0.33308463
0.25059716 0.85201934 0.33783903
0.35623797 0.85689001 0.34257085
0.46170776 0.86161748 0.34727788
0.56699323 0.86618846 0.35195790
0.67208107 0.87058963 0.35660869
0.77695795 0.87480767 0.36122803
0.88161058 0.87882929 0.36581371
0.98602564 0.88264116 0.37036350
0.16041614 0.96426293 0.34898495
0.26563120 0.96877363 0.35365458
0.37064377 0.97310966 0.35829418
0.47544056 0.97725774 0.36290152
0.58000824 0.98120453 0.36747439
0.68433351 0.98493674 0.37201057
0.78840305 0.98844105 0.37650783
0.89220356 0.99170415 0.38096397
0.99572173 0.99471274 0.38537676
0.01967712 0.01915819 0.32259816
0.12539653 0.02343383 0.32725327
0.23126715 0.02788850 0.33193728
0.33727567 0.03250891 0.33664799
0.44340878 0.03728173 0.34138318
0.54965317 0.04219366 0.34614062
0.65599553 0.04723138 0.35091810
0.76242255 0.05238159 0.35571341
0.86892092 0.05763098 0.36052431
0.03625687 0.13519208 0.33836919
0.14243200 0.14001705 0.34311295
0.24871419 0.14497578 0.34787962
0.35508962 0.15005584 0.35266331
0.46154305 0.15524435 0.35746327
0.56806395 0.16052661 0.36227923
0.67463819 0.16588981 0.36710783
0.78125231 0.17132073 0.37194680
0.88789300 0.17680604 0.37679390
0.05419177 0.25289602 0.35440806
0.16066966 0.25811975 0.35921704
0.26717340 0.26340787 0.36411966
0.37398116 0.26860733 0.36913253
0.48062314 0.27415701 0.37377208
0.58708673 0.27977159 0.37856098
0.69373224 0.28531449 0.38341478
0.80038279 0.29087550 0.38827230
0.90701517 0.29644611 0.39313050
0.07297510 0.37176327 0.37063032
0.17960840 0.37723528 0.37547565
0.28602663 0.38274990 0.38034374
0.39108915 0.38724968 0.38465804
0.50249049 0.38999870 0.38738524
0.60767022 0.39851884 0.39421058
0.71280479 0.40498225 0.39974159
0.81930732 0.41053913 0.40460544
0.92578071 0.41604443 0.40944965
0.09210010 0.49128711 0.38695152
0.19873874 0.49685642 0.39180975
0.30533386 0.50242745 0.39666232
0.41083852 0.50798043 0.40080164
0.51480164 0.51153097 0.39767182
0.62751280 0.51577130 0.40264788
0.73182295 0.52410008 0.41534690
0.83752473 0.52980234 0.42085711
0.94368287 0.53509428 0.42566688
0.11106005 0.61096079 0.40328719
0.21755193 0.61647694 0.40813344
0.32397112 0.62194825 0.41297129
0.43029653 0.62736241 0.41779263
0.53630676 0.63271002 0.42227956
0.64235295 0.63780593 0.42583681
0.74878644 0.64299866 0.43156945
0.85452262 0.64816061 0.43693605
0.96021497 0.65308890 0.44169769
0.12934821 0.73027758 0.41955288
0.23554269 0.73558994 0.42436205
0.34161972 0.74081267 0.42915536
0.44756600 0.74593247 0.43393058
0.55336802 0.75093606 0.43868527
0.65901076 0.75581027 0.44341242
0.76448620 0.76054080 0.44811466
0.86977766 0.76511595 0.45280444
0.97487014 0.76952161 0.45745777
0.14645784 0.84873074 0.43566414
0.25220429 0.85368867 0.44041112
0.35778851 0.85851220 0.44513477
0.46319720 0.86318803 0.44983288
0.56841705 0.86770283 0.45450322
0.67343473 0.87204330 0.45914358
0.77823695 0.87619613 0.46375173
0.88281040 0.88014800 0.46832547
0.98714175 0.88388562 0.47286257
0.16188221 0.96581354 0.45153651
0.26703000 0.97026642 0.45619619
0.37197078 0.97454012 0.46082509
0.47669125 0.97862133 0.46542097
0.58117810 0.98249674 0.46998162
0.68541802 0.98615304 0.47450484
0.78939769 0.98957693 0.47898838
0.89310381 0.99275509 0.48343005
0.99652306 0.99567421 0.48782761
0.02127481 0.02058931 0.42513818
0.12704706 0.02492725 0.42980335
0.23296600 0.02943970 0.43449668
0.33901832 0.03411336 0.43921595
0.44519072 0.03893491 0.44395895
0.55146987 0.04389105 0.44872344
0.65784248 0.04896847 0.45350722
0.76429523 0.05415385 0.45830807
0.87081480 0.05943389 0.46312377
0.03801436 0.13681479 0.44094008
0.14422716 0.14168688 0.44569115
0.25054188 0.14668872 0.45046293
0.35694520 0.15180698 0.45525318
0.46342382 0.15702837 0.46005969
0.56996442 0.16233956 0.46488025
0.67655370 0.16772725 0.46971262
0.78317834 0.17317814 0.47455460
0.88982503 0.17867890 0.47940396
0.05605791 0.25465916 0.45700129
0.16256063 0.25991479 0.46181318
0.26912044 0.26525533 0.46663850
0.37572456 0.27066693 0.47147630
0.48235951 0.27613738 0.47632070
0.58900994 0.28165373 0.48117092
0.69566512 0.28720114 0.48602670
0.80231102 0.29276689 0.49088470
0.90893419 0.29833774 0.49574263
0.07489872 0.37361570 0.47323738
0.18154072 0.37910422 0.47808496
0.28819244 0.38463274 0.48294045
0.39479549 0.39015458 0.48788252
0.50161477 0.39550605 0.49293664
0.60827608 0.40119671 0.49758053
0.71467955 0.40687817 0.50236614
0.82118657 0.41241337 0.50721394
0.92763557 0.41790369 0.51205532
0.09403005 0.49317766 0.48956386
0.20066072 0.49874844 0.49442203
0.30725742 0.50431474 0.49927876
0.41355958 0.50984750 0.50415923
0.51814811 0.51405269 0.50872863
0.62913089 0.51651820 0.51170964
0.73447988 0.52528478 0.51804582
0.83933143 0.53159367 0.52344621
0.94542246 0.53686999 0.52825756
0.11294518 0.61283830 0.50589630
0.21941387 0.61834072 0.51073996
0.32580536 0.62379377 0.51557445
0.43209036 0.62918555 0.52039340
0.53719328 0.63446307 0.52455149
0.64058836 0.63749265 0.52191823
0.75293933 0.64148348 0.52670754
0.85672089 0.64951308 0.53886945
0.96179380 0.65472734 0.54426042
0.13113736 0.73209090 0.52215024
0.23729345 0.73737432 0.52695427
0.34332757 0.74256359 0.53174168
0.44922639 0.74764541 0.53651025
0.55496889 0.75260746 0.54125214
0.66034053 0.75744204 0.54566080
0.76571635 0.76197677 0.54915185
0.87135586 0.76652227 0.55474157
0.97623776 0.77097167 0.55997248
0.14809986 0.85042872 0.53824122
0.25379271 0.85534251 0.54298052
0.35931881 0.86011737 0.54769575
0.46466486 0.86474000 0.55238467
0.56981754 0.86919709 0.55704508
0.67476337 0.87347536 0.56167452
0.77948755 0.87756180 0.56626605
0.88398188 0.88144199 0.57082218
0.98822886 0.88510371 0.57535534
0.16332594 0.96734503 0.55408478
0.26840492 0.97173854 0.55873425
0.37327238 0.97594837 0.56335218
0.47791500 0.97996118 0.56793635
0.58231948 0.98376367 0.57248454
0.68647251 0.98734254 0.57699453
0.79036078 0.99068447 0.58146410
0.89397097 0.99377615 0.58589103
0.99728977 0.99660428 0.59027312
0.02289095 0.02204210 0.52768170
0.12871451 0.02644079 0.53235668
0.23468024 0.03100948 0.53705907
0.34077483 0.03573486 0.54178665
0.44698498 0.04060362 0.54653719
0.55329736 0.04560243 0.55130849
0.65969867 0.05071801 0.55609831
0.76617561 0.05593703 0.56090445
0.87271485 0.06124619 0.56572469
0.03978513 0.13845400 0.54351361
0.14603404 0.14337165 0.54827196
0.25238034 0.14841452 0.55305026
0.35881073 0.15356929 0.55784628
0.46531189 0.15882267 0.56265781
0.57187051 0.16416134 0.56748263
0.67847329 0.16957198 0.57231851
0.78510691 0.17504129 0.57716325
0.89175806 0.18055597 0.58201462
0.05793216 0.25643364 0.55959631
0.16445578 0.26171961 0.56441293
0.27103202 0.26708602 0.56924204
0.37764757 0.27251957 0.57408140
0.48428911 0.27800694 0.57892881
0.59094334 0.28353482 0.58378204
0.69759695 0.28908990 0.58863887
0.80423663 0.29465887 0.59349710
0.91084906 0.30022843 0.59835449
0.07682530 0.37547429 0.57584535
0.18347300 0.38097795 0.58069513
0.29012854 0.38651727 0.58554994
0.39677855 0.39207890 0.59040776
0.50341016 0.39764890 0.59526765
0.61001014 0.40321525 0.60012367
0.71656306 0.40876495 0.60497503
0.82305803 0.41428303 0.60982155
0.92948110 0.41975684 0.61465987
0.09595780 0.49506921 0.59217627
0.20257895 0.50063992 0.59703411
0.30916316 0.50620153 0.60188951
0.41569430 0.51174039 0.60674251
0.52210691 0.51720372 0.61167829
0.62866086 0.52242200 0.61673319
0.73503341 0.52795245 0.62132375
0.84107374 0.53340161 0.62605364
0.94714750 0.53863445 0.63084628
0.11482294 0.61471166 0.60850462
0.22126691 0.62019880 0.61334541
0.32762917 0.62563205 0.61817629
0.43389482 0.63099819 0.62299536
0.53979782 0.63626132 0.62784163
0.64387607 0.64003660 0.63264563
0.75441414 0.64210122 0.63581213
0.85919075 0.65053644 0.64159266
0.96337529 0.65633751 0.64681873
0.13291398 0.73389491 0.62474594
0.23903014 0.73914784 0.62954458
0.34501981 0.74430211 0.63432584
0.45086966 0.74934441 0.63908751
0.55655061 0.75426285 0.64382371
0.66102378 0.75901571 0.64794077
0.76417043 0.76165864 0.64561205
0.87577158 0.76504741 0.65015255
0.97818678 0.77209784 0.66188052
0.14972418 0.85211222 0.64081577
0.25536189 0.85698032 0.64554715
0.36082834 0.86170497 0.65025369
0.46611022 0.86627288 0.65493318
0.57119418 0.87067072 0.65958339
0.67605965 0.87488644 0.66419662
0.78051603 0.87892667 0.66847072
0.88498865 0.88265213 0.67181807
0.98948960 0.88621867 0.67723703
0.16474681 0.96885686 0.65662966
0.26975545 0.97318949 0.66126867
0.37454804 0.97733389 0.66587539
0.47911129 0.98127678 0.67044758
0.58343187 0.98500482 0.67498305
0.68749647 0.98850471 0.67947956
0.79129164 0.99176320 0.68393467
0.89480299 0.99476754 0.68834136
0.99802193 0.99750307 0.69270217
0.02452502 0.02351603 0.63022863
0.13039835 0.02797395 0.63491317
0.23640934 0.03259734 0.63962437
0.34254467 0.03737290 0.64435999
0.44879102 0.04228732 0.64911783
0.55513510 0.04732728 0.65389567
0.66156359 0.05247948 0.65869128
0.76806318 0.05773061 0.66350246
0.87462055 0.06306734 0.66832698
0.04156868 0.14010919 0.64608969
0.14785215 0.14507086 0.65085507
0.25422850 0.15015322 0.65563964
0.36068441 0.15534298 0.66044118
0.46720658 0.16062681 0.66525746
0.57378169 0.16599141 0.67008629
0.68039644 0.17142347 0.67492543
0.78703750 0.17690968 0.67977266
0.89369158 0.18243673 0.68462578
0.05981402 0.25821894 0.66219302
0.16635700 0.26353372 0.66701413
0.27294808 0.26892442 0.67184697
0.37957395 0.27437774 0.67668931
0.48622130 0.27988036 0.68153894
0.59287681 0.28541897 0.68639365
0.69952718 0.29098026 0.69125121
0.80615909 0.29655092 0.69610940
0.91275924 0.30211765 0.70096601
0.07875431 0.37733854 0.67845416
0.18540617 0.38285580 0.68330590
0.29206135 0.38840421 0.68816190
0.39870654 0.39397045 0.69301994
0.50532843 0.39954122 0.69787782
0.61191372 0.40510321 0.70273330
0.71844908 0.41064310 0.70758417
0.82492121 0.41614759 0.71242821
0.93131680 0.42160336 0.71726320
0.09788282 0.49696125 0.69478866
0.20449293 0.50253036 0.69964591
0.31106157 0.50808584 0.70449997
0.41757545 0.51361439 0.70934862
0.52402118 0.51910262 0.71418985
0.63038586 0.52453657 0.71902279
0.73665637 0.52990433 0.72384134
0.84281724 0.53519286 0.72864473
0.94885751 0.54038713 0.73343291
0.11669281 0.61658034 0.71111205
0.22311053 0.62205067 0.71594973
0.32944201 0.62746259 0.72077674
0.43567394 0.63280280 0.72559087
0.54179015 0.63805759 0.73039233
0.64772440 0.64317203 0.73527325
0.75374245 0.64797819 0.74027908
0.85951297 0.65304207 0.74476643
0.96488423 0.65795686 0.74939248
0.13467754 0.73568907 0.72733989
0.24075224 0.74090999 0.73213288
0.34669593 0.74602772 0.73690774
0.45249529 0.75102897 0.74166225
0.55813547 0.75590049 0.74639457
0.66335969 0.76060972 0.75115482
0.76696562 0.76389405 0.75606154
0.87710130 0.76550882 0.75924253
0.98044099 0.77291199 0.76458525
0.15133028 0.85378071 0.74338772
0.25691133 0.85860158 0.74811091
0.36231659 0.86327450 0.75280851
0.46753275 0.86778614 0.75747831
0.57254649 0.87212321 0.76211808
0.67732961 0.87627431 0.76672218
0.78096091 0.88026922 0.77071455
0.88431767 0.88279877 0.76828993
0.99475157 0.88520512 0.77256125
0.16614430 0.97034852 0.75917108
0.27108106 0.97461872 0.76379937
0.37579726 0.97869618 0.76839461
0.48027958 0.98256760 0.77295458
0.58451473 0.98621965 0.77747707
0.68848936 0.98963904 0.78195984
0.79218372 0.99281426 0.78639510
0.89545164 0.99578230 0.79047312
0.99879968 0.99846186 0.79358213
0.02617650 0.02501058 0.73277890
0.13209808 0.02952619 0.73747274
0.23815278 0.03420275 0.74219248
0.34432731 0.03902696 0.74693590
0.45060834 0.04398550 0.75170078
0.55698258 0.04906508 0.75648490
0.66343671 0.05425236 0.76128605
0.76995741 0.05953405 0.76610200
0.87653139 0.06489684 0.77093055
0.04336446 0.14177984 0.74866825
0.14968097 0.14678398 0.75344039
0.25608584 0.15190431 0.75823097
0.36256574 0.15712751 0.76303777
0.46910738 0.16244026 0.76785856
0.57569744 0.16782927 0.77269114
0.68232262 0.17328121 0.77753328
0.78896960 0.17878278 0.78238276
0.89562507 0.18432067 0.78723736
0.06170296 0.26001452 0.76479134
0.16826377 0.26535658 0.76961668
0.27486816 0.27077004 0.77445300
0.38150281 0.27624159 0.77929806
0.48815442 0.28175793 0.78414967
0.59480968 0.28730573 0.78900559
0.70145527 0.29287170 0.79386361
0.80807789 0.29844252 0.79872152
0.91466423 0.30400488 0.80357708
0.08068525 0.37920791 0.78106372
0.18733973 0.38473724 0.78591715
0.29399301 0.39029320 0.79077410
0.40063178 0.39586247 0.79563233
0.50724273 0.40143175 0.80048964
0.61381255 0.40698773 0.80534380
0.72032793 0.41251709 0.81019260
0.82677556 0.41800652 0.81503382
0.93314213 0.42344272 0.81986524
0.09980460 0.49885325 0.79740093
0.20640212 0.50441922 0.80225735
0.31295366 0.50996705 0.80710981
0.41944591 0.51548342 0.81195611
0.52586557 0.52095501 0.81679402
0.63219932 0.52636852 0.82162132
0.73843386 0.53171065 0.82643579
0.84455586 0.53696807 0.83123522
0.95055203 0.54212747 0.83601739
0.11855427 0.61844381 0.81371851
0.22494420 0.62389580 0.81855281
0.33124337 0.62928486 0.82337570
0.43743847 0.63459769 0.82818495
0.54351621 0.63982097 0.83297835
0.64946318 0.64494133 0.83775392
0.75526651 0.64994478 0.84251083
0.86091307 0.65481948 0.84724281
0.96638733 0.65955231 0.85194916
0.13642753 0.73747286 0.82993201
0.24245923 0.74266023 0.83471908
0.34835540 0.74773990 0.83948729
0.45410273 0.75269855 0.84423439
0.55968790 0.75752288 0.84895818
0.66509485 0.76219923 0.85365897
0.77026471 0.76667624 0.85843371
0.87548255 0.77079763 0.86333122
0.98033258 0.77508338 0.86767323
0.15291765 0.85543367 0.84595697
0.25844049 0.86020579 0.85067172
0.36378302 0.86482543 0.85536013
0.46893194 0.86927927 0.86001998
0.57387393 0.87355402 0.86464905
0.67859421 0.87763649 0.86924550
0.78286356 0.88151106 0.87386268
0.88610939 0.88431764 0.87862884
0.99595342 0.88550207 0.88155066
0.16751788 0.97181949 0.86170893
0.27238123 0.97602573 0.86632625
0.37701950 0.98003470 0.87090976
0.48141937 0.98383312 0.87545725
0.58556754 0.98740765 0.87996650
0.68945069 0.99074500 0.88443529
0.79304232 0.99383494 0.88885775
0.89563552 0.99685447 0.89261795
0.99979994 0.99968289 0.88948853
0.02784487 0.02652523 0.83533241
0.13381315 0.03109699 0.84003529
0.23991004 0.03582518 0.84476332
0.34612223 0.04069651 0.84951428
0.45243641 0.04569765 0.85428594
0.55883927 0.05081529 0.85907610
0.66531750 0.05603613 0.86388252
0.77185779 0.06134685 0.86870300
0.87844683 0.06673415 0.87353531
0.04517198 0.14346542 0.85124919
0.15151998 0.14851051 0.85602784
0.25795182 0.15366727 0.86082418
0.36445419 0.15892237 0.86563597
0.47101377 0.16426251 0.87046102
0.57761725 0.16967438 0.87529709
0.68425132 0.17514467 0.88014197
0.79090267 0.18066007 0.88499344
0.89755800 0.18620727 0.88984929
0.06359846 0.26181988 0.86739118
0.17017556 0.26718768 0.87222050
0.27679172 0.27262236 0.87706003
0.38343363 0.27811061 0.88190757
0.49008797 0.28363912 0.88676089
0.59674144 0.28919459 0.89161777
0.70338072 0.29476370 0.89647600
0.80999251 0.30033314 0.90133336
0.91656350 0.30588960 0.90618763
0.08261758 0.38108188 0.88367394
0.18927315 0.38662175 0.88852881
0.29592299 0.39218372 0.89338644
0.40255381 0.39775449 0.89824461
0.50915228 0.40332075 0.90310110
0.61570511 0.40886918 0.90795369
0.72219897 0.41438647 0.91280017
0.82862056 0.41985932 0.91763831
0.93495658 0.42527441 0.92246589
0.10172261 0.50074469 0.90001300
0.20830600 0.50630600 0.90486832
0.31483890 0.51184463 0.90971894
0.42130800 0.51734728 0.91456264
0.52769997 0.52280065 0.91939719
0.63400152 0.52819141 0.92422039
0.74019933 0.53350626 0.92903000
0.84628010 0.53873188 0.93382381
0.95223050 0.54385498 0.93859961
0.12040680 0.62030156 0.91632390
0.22676740 0.62573368 0.92115458
0.33303272 0.63109834 0.92597308
0.43918946 0.63638225 0.93077720
0.54522431 0.64157209 0.93556471
0.65112395 0.64665455 0.94033340
0.75687508 0.65161632 0.94508105
0.86246438 0.65644409 0.94980544
0.96787855 0.66112455 0.95450434
0.13816343 0.73924577 0.93252220
0.24415059 0.74439806 0.93730312
0.34999771 0.74943812 0.94206440
0.45569146 0.75435265 0.94680384
0.56121854 0.75912833 0.95151920
0.66656565 0.76375186 0.95620829
0.77171939 0.76820986 0.96086910
0.87666698 0.77248842 0.96550086
0.98139509 0.77657555 0.97009720
0.15448576 0.85707058 0.94852344
0.25994886 0.86179240 0.95322949
0.36522713 0.86635723 0.95790845
0.47030727 0.87075175 0.96255809
0.57517595 0.87496264 0.96717621
0.67981988 0.87897661 0.97176058
0.78422328 0.88278017 0.97631154
0.88834456 0.88633311 0.98092597
0.99250415 0.88950333 0.98564649
0.16886705 0.97326924 0.96424315
0.27365545 0.97740998 0.96884924
0.37821425 0.98134894 0.97342076
0.48253014 0.98507282 0.97795552
0.58658980 0.98856829 0.98245127
0.69037992 0.99182206 0.98690582
0.79388591 0.99482106 0.99131729
0.89692778 0.99758369 0.99572908
1.00000000 1.00000000 1.00000000
