assets/luts/DB_Silver_Street_Rec709_100.cube
TITLE "Silver Street Rec709 100"
# Red changes fastest. Full-range normalized input.
LUT_3D_SIZE 33
DOMAIN_MIN 0 0 0
DOMAIN_MAX 1 1 1
0.00700000 0.00700000 0.00700000
0.02025990 0.00857317 0.00867049
0.03697013 0.00933660 0.00951086
0.05412713 0.01010878 0.01035534
0.06759163 0.01201864 0.01235291
0.07480871 0.01576250 0.01621093
0.07647719 0.02114788 0.02173197
0.07570969 0.02732276 0.02804840
0.07572261 0.03340660 0.03426477
0.07817629 0.03894389 0.03991858
0.08309453 0.04392623 0.04500203
0.08971222 0.04856080 0.04972620
0.09725085 0.05305846 0.05430561
0.10522152 0.05755097 0.05887427
0.11339622 0.06209884 0.06349371
0.12169057 0.06672329 0.06818557
0.13007855 0.07142961 0.07295532
0.13855273 0.07621804 0.07780325
0.14711044 0.08108747 0.08272835
0.15575001 0.08603655 0.08772933
0.16446996 0.09106386 0.09280482
0.17326884 0.09616800 0.09795349
0.18214519 0.10134753 0.10317396
0.19109756 0.10660105 0.10846489
0.20012449 0.11192712 0.11382493
0.20922453 0.11732435 0.11925270
0.21839623 0.12279129 0.12474687
0.22763813 0.12832655 0.13030606
0.23694878 0.13392869 0.13592894
0.24632673 0.13959630 0.14161413
0.25577052 0.14532796 0.14736029
0.26527869 0.15112225 0.15316606
0.27484981 0.15697775 0.15903009
0.01449971 0.02368023 0.01505841
0.02616396 0.02639837 0.01448701
0.04326527 0.02776645 0.01242677
0.06419282 0.02813064 0.01038632
0.08417556 0.02871460 0.01059082
0.09792889 0.03094603 0.01467314
0.10323265 0.03548889 0.02256672
0.10220396 0.04185652 0.03260178
0.09930680 0.04890206 0.04267436
0.09828295 0.05562971 0.05141499
0.10058477 0.06163074 0.05853416
0.10579776 0.06699156 0.06443431
0.11284109 0.07198351 0.06966946
0.12080474 0.07684012 0.07464458
0.12917420 0.08169400 0.07957185
0.13772809 0.08660156 0.08453720
0.14638996 0.09158118 0.08956805
0.15513755 0.09663697 0.09467079
0.16396460 0.10176877 0.09984582
0.17286877 0.10697541 0.10509211
0.18184845 0.11225550 0.11040836
0.19090217 0.11760765 0.11579321
0.20002847 0.12303042 0.12124532
0.20922589 0.12852240 0.12676331
0.21849299 0.13408216 0.13234585
0.22782831 0.13970830 0.13799157
0.23723039 0.14539940 0.14369912
0.24669779 0.15115402 0.14946714
0.25622905 0.15697076 0.15529427
0.26582271 0.16284820 0.16117916
0.27547733 0.16878492 0.16712046
0.28519144 0.17477949 0.17311681
0.29496359 0.18083050 0.17916685
0.02496845 0.04079921 0.02606475
0.03365145 0.04500379 0.02380483
0.04762170 0.04800562 0.01879089
0.06769180 0.04941298 0.01273445
0.09091608 0.04981475 0.00892693
0.11133023 0.05069954 0.01063350
0.12363436 0.05354100 0.01901042
0.12678634 0.05879737 0.03232046
0.12425098 0.06573148 0.04715663
0.12104906 0.07310734 0.06053026
0.12062049 0.08001369 0.07113121
0.12382486 0.08617334 0.07918658
0.12985069 0.09174805 0.08559215
0.13751012 0.09701640 0.09118673
0.14594073 0.10218807 0.09648735
0.15469895 0.10737215 0.10173466
0.16360784 0.11261160 0.10701711
0.17261006 0.11791928 0.11236053
0.18168959 0.12329750 0.11777036
0.19084184 0.12874566 0.12324666
0.20006479 0.13426248 0.12878831
0.20935689 0.13984658 0.13439401
0.21871668 0.14549653 0.14006240
0.22814271 0.15121092 0.14579212
0.23763353 0.15698832 0.15158181
0.24718767 0.16282733 0.15743013
0.25680370 0.16872651 0.16333572
0.26648014 0.17468445 0.16929722
0.27621555 0.18069974 0.17531327
0.28600848 0.18677094 0.18138252
0.29585747 0.19289666 0.18750361
0.30576107 0.19907546 0.19367519
0.31571782 0.20530593 0.19989591
0.03908887 0.05801946 0.04071386
0.04564879 0.06326079 0.03875637
0.05546943 0.06797732 0.03309446
0.07088225 0.07138782 0.02472429
0.09180196 0.07323281 0.01691567
0.11439455 0.07426426 0.01412983
0.13275036 0.07596649 0.01949498
0.14276771 0.07958146 0.03272674
0.14483503 0.08529314 0.05034032
0.14296672 0.09228591 0.06794489
0.14163451 0.09948230 0.08260579
0.14331012 0.10620601 0.09362402
0.14819439 0.11232562 0.10180628
0.15532704 0.11802146 0.10834559
0.16367069 0.12352136 0.11415034
0.17255975 0.12897847 0.11971492
0.18168032 0.13446606 0.12524810
0.19091573 0.14001076 0.13082029
0.20023021 0.14561961 0.13645025
0.20961390 0.15129328 0.14214132
0.21906363 0.15703079 0.14789306
0.22857766 0.16283079 0.15370426
0.23815450 0.16869186 0.15957359
0.24779269 0.17461260 0.16549969
0.25749077 0.18059159 0.17148120
0.26724729 0.18662740 0.17751678
0.27706080 0.19271861 0.18360506
0.28692983 0.19886382 0.18974469
0.29685295 0.20506159 0.19593432
0.30682869 0.21131052 0.20217258
0.31685561 0.21760917 0.20845812
0.32693224 0.22395615 0.21478960
0.33705713 0.23035001 0.22116564
0.05558564 0.07575917 0.05769198
0.06187229 0.08131473 0.05777681
0.06925536 0.08696364 0.05437227
0.07988529 0.09207230 0.04739006
0.09534112 0.09599583 0.03883702
0.11474956 0.09864140 0.03276619
0.13431367 0.10076673 0.03344471
0.14938611 0.10359050 0.04273204
0.15761652 0.10796586 0.05881814
0.16032538 0.11386479 0.07746441
0.16104388 0.12058667 0.09461188
0.16293650 0.12736556 0.10821761
0.16735701 0.13379333 0.11832574
0.17408666 0.13983834 0.12603172
0.18229713 0.14564609 0.13247731
0.19125991 0.15136632 0.13841242
0.20055522 0.15709001 0.14420497
0.21000029 0.16285719 0.14999734
0.21953138 0.16868104 0.15583365
0.22912965 0.17456426 0.16172446
0.23878964 0.18050641 0.16767098
0.24850915 0.18650625 0.17367235
0.25828658 0.19256240 0.17972727
0.26812047 0.19867343 0.18583440
0.27800937 0.20483794 0.19199239
0.28795181 0.21105450 0.19819988
0.29794635 0.21732170 0.20445552
0.30799153 0.22363811 0.21075794
0.31808590 0.23000232 0.21710579
0.32822801 0.23641290 0.22349773
0.33841640 0.24286845 0.22993238
0.34864961 0.24936754 0.23640840
0.35892620 0.25590875 0.24292442
0.07290160 0.09454407 0.07540631
0.08007276 0.10001807 0.07787444
0.08721733 0.10581381 0.07799619
0.09547638 0.11165022 0.07507680
0.10637450 0.11702533 0.06965805
0.12066448 0.12150615 0.06413720
0.13716674 0.12512669 0.06215242
0.15294330 0.12850285 0.06665659
0.16510459 0.13246050 0.07800747
0.17276746 0.13747457 0.09372492
0.17739176 0.14342693 0.11013450
0.18140233 0.14983661 0.12444172
0.18657571 0.15625641 0.13569039
0.19344248 0.16248501 0.14436244
0.20167615 0.16853202 0.15144635
0.21072520 0.17448736 0.15777491
0.22017508 0.18043028 0.16383342
0.22980864 0.18640458 0.16983891
0.23953795 0.19242774 0.17586863
0.24933381 0.19850457 0.18194438
0.25918750 0.20463533 0.18807045
0.26909600 0.21081897 0.19424665
0.27905758 0.21705413 0.20047183
0.28907072 0.22333940 0.20674466
0.29913398 0.22967338 0.21306378
0.30924590 0.23605464 0.21942784
0.31940502 0.24248176 0.22583548
0.32960989 0.24895332 0.23228535
0.33985907 0.25546790 0.23877609
0.35015108 0.26202410 0.24530634
0.36048449 0.26862048 0.25187476
0.37085784 0.27525562 0.25847998
0.38126967 0.28192812 0.26512065
0.09040463 0.11454229 0.09321791
0.09857841 0.11993598 0.09739202
0.10652305 0.12560050 0.10042812
0.11458876 0.13148660 0.10166978
0.12355489 0.13738017 0.10089195
0.13427827 0.14295336 0.09891835
0.14694312 0.14797367 0.09778117
0.16054009 0.15252719 0.09992958
0.17327152 0.15702189 0.10679979
0.18373188 0.16191978 0.11785586
0.19182681 0.16743214 0.13095651
0.19862657 0.17344571 0.14371207
0.20544774 0.17969195 0.15468205
0.21307572 0.18595459 0.16364643
0.22162823 0.19215165 0.17112610
0.23085791 0.19829754 0.17778114
0.24047378 0.20443562 0.18408713
0.25028348 0.21059946 0.19029380
0.26019437 0.21680577 0.19650346
0.27017104 0.22306020 0.20274941
0.28020187 0.22936353 0.20903983
0.29028289 0.23571491 0.21537556
0.30041215 0.24211304 0.22175565
0.31058809 0.24855650 0.22817882
0.32080926 0.25504389 0.23464373
0.33107420 0.26157379 0.24114901
0.34138146 0.26814477 0.24769332
0.35172957 0.27475543 0.25427529
0.36211710 0.28140434 0.26089358
0.37254258 0.28809008 0.26754681
0.38300456 0.29481124 0.27423365
0.39350158 0.30156639 0.28095273
0.40403220 0.30835412 0.28770270
0.10821150 0.13563312 0.11125433
0.11706317 0.14108882 0.11634707
0.12580911 0.14670689 0.12105524
0.13448471 0.15250632 0.12501523
0.14332519 0.15844265 0.12791084
0.15275824 0.16438203 0.12979736
0.16315847 0.17014898 0.13139356
0.17446953 0.17564645 0.13399107
0.18605691 0.18095315 0.13883554
0.19704645 0.18629014 0.14635018
0.20691574 0.19187015 0.15584770
0.21580321 0.19776576 0.16599166
0.22429206 0.20390473 0.17559279
0.23295040 0.21016338 0.18410764
0.24204677 0.21645413 0.19160405
0.25156818 0.22274864 0.19843128
0.26138233 0.22905480 0.20492928
0.27136558 0.23538871 0.21131360
0.28144446 0.24176132 0.21768702
0.29158587 0.24817716 0.22408798
0.30177739 0.25463701 0.23052751
0.31201447 0.26114009 0.23700744
0.32229495 0.26768511 0.24352711
0.33261725 0.27427071 0.25008529
0.34297988 0.28089545 0.25668064
0.35338139 0.28755794 0.26331181
0.36382033 0.29425674 0.26997743
0.37429523 0.30099043 0.27667616
0.38480466 0.30775761 0.28340665
0.39534715 0.31455684 0.29016752
0.40592125 0.32138672 0.29695743
0.41652550 0.32824582 0.30377503
0.42715846 0.33513273 0.31061895
0.12658264 0.15764065 0.12978794
0.13583311 0.16325935 0.13533317
0.14508795 0.16897344 0.14081334
0.15432662 0.17479904 0.14608991
0.16358184 0.18073948 0.15098973
0.17297827 0.18676476 0.15540906
0.18270365 0.19280625 0.15947337
0.19288016 0.19878729 0.16362613
0.20341814 0.20467802 0.16849605
0.21401001 0.21052697 0.17455485
0.22431769 0.21643195 0.18180953
0.23420079 0.22247282 0.18979685
0.24377887 0.22866688 0.19788491
0.25329747 0.23497870 0.20561853
0.26295111 0.24136050 0.21285978
0.27280759 0.24778189 0.21970444
0.28284097 0.25423387 0.22632243
0.29299680 0.26071873 0.23285127
0.30323196 0.26724056 0.23936883
0.31352274 0.27380151 0.24590869
0.32385868 0.28040177 0.25248189
0.33423539 0.28704047 0.25909069
0.34465065 0.29371635 0.26573460
0.35510284 0.30042802 0.27241244
0.36559048 0.30717407 0.27912289
0.37611211 0.31395308 0.28586459
0.38666628 0.32076363 0.29263619
0.39725153 0.32760432 0.29943634
0.40786640 0.33447370 0.30626368
0.41850945 0.34137038 0.31311685
0.42917922 0.34829292 0.31999449
0.43987425 0.35523991 0.32689526
0.45059310 0.36220994 0.33381779
0.14564688 0.18043983 0.14895546
0.15516226 0.18625541 0.15476430
0.16472456 0.19213883 0.16060357
0.17432128 0.19809522 0.16643434
0.18394715 0.20412946 0.17219553
0.19362095 0.21023957 0.17782326
0.20339487 0.21640948 0.18330131
0.21333398 0.22261009 0.18871981
0.22346435 0.22881386 0.19428401
0.23373083 0.23501477 0.20022939
0.24401567 0.24123490 0.20668160
0.25421494 0.24750914 0.21357158
0.26430562 0.25386124 0.22068151
0.27434468 0.26029240 0.22778017
0.28441295 0.26678822 0.23473437
0.29456248 0.27333263 0.24152859
0.30480379 0.27991599 0.24821525
0.31512284 0.28653505 0.25485717
0.32550130 0.29318947 0.26149814
0.33592616 0.29987925 0.26816016
0.34639035 0.30660380 0.27485142
0.35689029 0.31336206 0.28157369
0.36742389 0.32015273 0.28832649
0.37798953 0.32697442 0.29510865
0.38858573 0.33382571 0.30191885
0.39921103 0.34070520 0.30875575
0.40986398 0.34761146 0.31561799
0.42054311 0.35454307 0.32250421
0.43124699 0.36149861 0.32941305
0.44197414 0.36847667 0.33634317
0.45272313 0.37547582 0.34329321
0.46349249 0.38249465 0.35026180
0.47428078 0.38953174 0.35724760
0.16541515 0.20395111 0.16877288
0.17514395 0.20996205 0.17478235
0.18492756 0.21603027 0.18084060
0.19476144 0.22215593 0.18693864
0.20464085 0.22833987 0.19306047
0.21456457 0.23458239 0.19918412
0.22453997 0.24088092 0.20529139
0.23458386 0.24722813 0.21138638
0.24471324 0.25361338 0.21751100
0.25492907 0.26002810 0.22373783
0.26520786 0.26647148 0.23013381
0.27551313 0.27295075 0.23671742
0.28581915 0.27947538 0.24344522
0.29612549 0.28605023 0.25023996
0.30645081 0.29267358 0.25703513
0.31681546 0.29933999 0.26380124
0.32722947 0.30604417 0.27054233
0.33769217 0.31278272 0.27727712
0.34819789 0.31955383 0.28402314
0.35874088 0.32635633 0.29079085
0.36931707 0.33318908 0.29758450
0.37992385 0.34005084 0.30440484
0.39055934 0.34694024 0.31125117
0.40122198 0.35385590 0.31812230
0.41191029 0.36079638 0.32501692
0.42262281 0.36776029 0.33193367
0.43335808 0.37474619 0.33887120
0.44411465 0.38175267 0.34582814
0.45489107 0.38877831 0.35280316
0.46568589 0.39582170 0.35979488
0.47649764 0.40288141 0.36680196
0.48732488 0.40995602 0.37382304
0.49816615 0.41704412 0.38085676
0.18584871 0.22811409 0.18920547
0.19576698 0.23430739 0.19539057
0.20573762 0.24055213 0.20162385
0.21575861 0.24684716 0.20790279
0.22582760 0.25319156 0.21422338
0.23594240 0.25958452 0.22057969
0.24610209 0.26602496 0.22696477
0.25630817 0.27251085 0.23337425
0.26656420 0.27903886 0.23981146
0.27687266 0.28560511 0.24629011
0.28723109 0.29220667 0.25282942
0.29763129 0.29884285 0.25944281
0.30806343 0.30551477 0.26612827
0.31852170 0.31222366 0.27286878
0.32900647 0.31896935 0.27964249
0.33952156 0.32575010 0.28643374
0.35007014 0.33256347 0.29323719
0.36065266 0.33940719 0.30005492
0.37126737 0.34627943 0.30689114
0.38191177 0.35317869 0.31374896
0.39258353 0.36010360 0.32062950
0.40328070 0.36705280 0.32753252
0.41400165 0.37402488 0.33445703
0.42474484 0.38101844 0.34140179
0.43550880 0.38803206 0.34836547
0.44629209 0.39506433 0.35534673
0.45709324 0.40211382 0.36234420
0.46791080 0.40917912 0.36935653
0.47874331 0.41625881 0.37638237
0.48958934 0.42335147 0.38342036
0.50044741 0.43045568 0.39046914
0.51131607 0.43757002 0.39752736
0.52219388 0.44469307 0.40459366
0.20689524 0.25287357 0.21020471
0.21698535 0.25923366 0.21654863
0.22712329 0.26564027 0.22293669
0.23730751 0.27209201 0.22936739
0.24753643 0.27858755 0.23583902
0.25780838 0.28512558 0.24234950
0.26812179 0.29170482 0.24889631
0.27847545 0.29832389 0.25547694
0.28886869 0.30498116 0.26208981
0.29930115 0.31167471 0.26873544
0.30977199 0.31840260 0.27541646
0.32027920 0.32516318 0.28213598
0.33081972 0.33195532 0.28889491
0.34139050 0.33877819 0.29569042
0.35198956 0.34563090 0.30251699
0.36261607 0.35251222 0.30936893
0.37326966 0.35942063 0.31624250
0.38394966 0.36635448 0.32313615
0.39465486 0.37331219 0.33004957
0.40538366 0.38029229 0.33698261
0.41613442 0.38729334 0.34393477
0.42690553 0.39431392 0.35090510
0.43769548 0.40135262 0.35789245
0.44850277 0.40840804 0.36489549
0.45932594 0.41547874 0.37191290
0.47016354 0.42256331 0.37894332
0.48101412 0.42966034 0.38598539
0.49187621 0.43676840 0.39303776
0.50274837 0.44388608 0.40009908
0.51362915 0.45101195 0.40716799
0.52451708 0.45814461 0.41424313
0.53541073 0.46528262 0.42132314
0.54630862 0.47242457 0.42840668
0.22849983 0.27817540 0.23171941
0.23874519 0.28468627 0.23820662
0.24903351 0.29123888 0.24473347
0.25936334 0.29783181 0.25129858
0.26973321 0.30446364 0.25790056
0.28014163 0.31113298 0.26453797
0.29058710 0.31783842 0.27120928
0.30106818 0.32457858 0.27791290
0.31158347 0.33135203 0.28464731
0.32213168 0.33815730 0.29141122
0.33271155 0.34499287 0.29820378
0.34332169 0.35185722 0.30502445
0.35396049 0.35874893 0.31187263
0.36462619 0.36566664 0.31874715
0.37531709 0.37260906 0.32564616
0.38603173 0.37957483 0.33256747
0.39676877 0.38656258 0.33950900
0.40752695 0.39357084 0.34646911
0.41830492 0.40059818 0.35344651
0.42910124 0.40764313 0.36044006
0.43991443 0.41470428 0.36744862
0.45074300 0.42178020 0.37447097
0.46158549 0.42886947 0.38150580
0.47244042 0.43597068 0.38855178
0.48330635 0.44308240 0.39560757
0.49418182 0.45020323 0.40267181
0.50506537 0.45733174 0.40974314
0.51595555 0.46446651 0.41682021
0.52685091 0.47160612 0.42390167
0.53774999 0.47874915 0.43098615
0.54865134 0.48589419 0.43807230
0.55955350 0.49303982 0.44515877
0.57045503 0.50018462 0.45224420
0.25060718 0.30396553 0.25369798
0.26099131 0.31061115 0.26031314
0.27141353 0.31729372 0.26696337
0.28187237 0.32401184 0.27364732
0.29236639 0.33076407 0.28036363
0.30289412 0.33754901 0.28711093
0.31345410 0.34436524 0.29388785
0.32404488 0.35121134 0.30069301
0.33466501 0.35808590 0.30752501
0.34531304 0.36498749 0.31438247
0.35598755 0.37191469 0.32126408
0.36668712 0.37886607 0.32816859
0.37741028 0.38584018 0.33509476
0.38815556 0.39283561 0.34204133
0.39892145 0.39985097 0.34900695
0.40970647 0.40688484 0.35599015
0.42050918 0.41393582 0.36298944
0.43132815 0.42100249 0.37000337
0.44216193 0.42808342 0.37703057
0.45300910 0.43517721 0.38406971
0.46386820 0.44228241 0.39111946
0.47473776 0.44939761 0.39817849
0.48561634 0.45652140 0.40524547
0.49650247 0.46365235 0.41231905
0.50739470 0.47078904 0.41939788
0.51829158 0.47793007 0.42648059
0.52919166 0.48507400 0.43356584
0.54009347 0.49221942 0.44065226
0.55099557 0.49936490 0.44773851
0.56189650 0.50650905 0.45482322
0.57279482 0.51365042 0.46190505
0.58368905 0.52078761 0.46898262
0.59457776 0.52791919 0.47605460
0.27316194 0.33018996 0.27608882
0.28366840 0.33695426 0.28281657
0.29420805 0.34375075 0.28957484
0.30477945 0.35057800 0.29636227
0.31538112 0.35743460 0.30317750
0.32601163 0.36431913 0.31001917
0.33666951 0.37123017 0.31688593
0.34735331 0.37816630 0.32377641
0.35806158 0.38512610 0.33068927
0.36879287 0.39210816 0.33762313
0.37954571 0.39911106 0.34457664
0.39031867 0.40613337 0.35154845
0.40111029 0.41317367 0.35853723
0.41191912 0.42023055 0.36554163
0.42274370 0.42730259 0.37256031
0.43358257 0.43438836 0.37959190
0.44443427 0.44148646 0.38663503
0.45529735 0.44859547 0.39368834
0.46617036 0.45571396 0.40075045
0.47705186 0.46284052 0.40782000
0.48794038 0.46997372 0.41489566
0.49883447 0.47711216 0.42197606
0.50973268 0.48425440 0.42905985
0.52063355 0.49139904 0.43614569
0.53153564 0.49854465 0.44323220
0.54243749 0.50568981 0.45031805
0.55333763 0.51283311 0.45740187
0.56423463 0.51997312 0.46448230
0.57512702 0.52710843 0.47155800
0.58601336 0.53423763 0.47862760
0.59689218 0.54135928 0.48568975
0.60776204 0.54847197 0.49274309
0.61862148 0.55557429 0.49978627
0.29610877 0.35679467 0.29884030
0.30672111 0.36366160 0.30566531
0.31736175 0.37055595 0.31251628
0.32802924 0.37747628 0.31939184
0.33872213 0.38442119 0.32629063
0.34943895 0.39138926 0.33321131
0.36017826 0.39837907 0.34015252
0.37093860 0.40538919 0.34711290
0.38171852 0.41241821 0.35409110
0.39251657 0.41946471 0.36108576
0.40333128 0.42652728 0.36809551
0.41416122 0.43360449 0.37511902
0.42500492 0.44069492 0.38215492
0.43586093 0.44779716 0.38920186
0.44672780 0.45490978 0.39625848
0.45760408 0.46203137 0.40332343
0.46848830 0.46916052 0.41039535
0.47937902 0.47629579 0.41747289
0.49027478 0.48343577 0.42455469
0.50117413 0.49057905 0.43163938
0.51207562 0.49772421 0.43872562
0.52297778 0.50486982 0.44581205
0.53387918 0.51201447 0.45289732
0.54477834 0.51915673 0.45998006
0.55567383 0.52629520 0.46705893
0.56656419 0.53342845 0.47413256
0.57744796 0.54055506 0.48119960
0.58832369 0.54767361 0.48825870
0.59918992 0.55478269 0.49530850
0.61004521 0.56188088 0.50234765
0.62088809 0.56896675 0.50937478
0.63171712 0.57603889 0.51638855
0.64253085 0.58309589 0.52338759
0.31939234 0.38372566 0.32190082
0.33009411 0.39067916 0.32880774
0.34081928 0.39765531 0.33573605
0.35156642 0.40465267 0.34268440
0.36233406 0.41166984 0.34965142
0.37312075 0.41870539 0.35663577
0.38392503 0.42575790 0.36363609
0.39474546 0.43282596 0.37065101
0.40558057 0.43990815 0.37767919
0.41642893 0.44700304 0.38471927
0.42728906 0.45410923 0.39176989
0.43815952 0.46122528 0.39882970
0.44903885 0.46834979 0.40589735
0.45992561 0.47548133 0.41297146
0.47081833 0.48261848 0.42005070
0.48171557 0.48975983 0.42713371
0.49261586 0.49690396 0.43421912
0.50351777 0.50404944 0.44130558
0.51441982 0.51119487 0.44839175
0.52532057 0.51833881 0.45547625
0.53621857 0.52547986 0.46255774
0.54711236 0.53261659 0.46963486
0.55800048 0.53974758 0.47670625
0.56888149 0.54687143 0.48377056
0.57975393 0.55398670 0.49082643
0.59061635 0.56109197 0.49787251
0.60146729 0.56818584 0.50490744
0.61230530 0.57526688 0.51192986
0.62312893 0.58233367 0.51893842
0.63393671 0.58938479 0.52593177
0.64472721 0.59641883 0.53290854
0.65549896 0.60343437 0.53986738
0.66625051 0.61042998 0.54680694
0.34295730 0.41092890 0.34521875
0.35373204 0.41795292 0.35219224
0.36452530 0.42499481 0.35918256
0.37533563 0.43205315 0.36618835
0.38616158 0.43912652 0.37320825
0.39700168 0.44621350 0.38024092
0.40785449 0.45331267 0.38728500
0.41871855 0.46042261 0.39433912
0.42959241 0.46754190 0.40140194
0.44047461 0.47466913 0.40847210
0.45136371 0.48180288 0.41554824
0.46225824 0.48894173 0.42262901
0.47315676 0.49608425 0.42971304
0.48405781 0.50322904 0.43679900
0.49495994 0.51037466 0.44388551
0.50586168 0.51751971 0.45097122
0.51676160 0.52466277 0.45805479
0.52765824 0.53180241 0.46513484
0.53855013 0.53893722 0.47221003
0.54943583 0.54606577 0.47927900
0.56031389 0.55318666 0.48634040
0.57118285 0.56029845 0.49339286
0.58204126 0.56739974 0.50043503
0.59288766 0.57448910 0.50746557
0.60372060 0.58156512 0.51448310
0.61453863 0.58862637 0.52148628
0.62534029 0.59567144 0.52847375
0.63612413 0.60269890 0.53544415
0.64688869 0.60970735 0.54239613
0.65763253 0.61669536 0.54932833
0.66835418 0.62366151 0.55623940
0.67905220 0.63060438 0.56312797
0.68972513 0.63752256 0.56999271
0.36674830 0.43835040 0.36874248
0.37757957 0.44542888 0.37576719
0.38842447 0.45252046 0.38280417
0.39928154 0.45962372 0.38985206
0.41014934 0.46673723 0.39690951
0.42102641 0.47385958 0.40397515
0.43191129 0.48098934 0.41104765
0.44280253 0.48812511 0.41812563
0.45369868 0.49526546 0.42520774
0.46459829 0.50240897 0.43229263
0.47549990 0.50955423 0.43937895
0.48640206 0.51669981 0.44646533
0.49730331 0.52384430 0.45355041
0.50820220 0.53098627 0.46063286
0.51909727 0.53812432 0.46771130
0.52998708 0.54525701 0.47478438
0.54087017 0.55238294 0.48185075
0.55174509 0.55950068 0.48890905
0.56261037 0.56660882 0.49595792
0.57346458 0.57370593 0.50299602
0.58430625 0.58079059 0.51002197
0.59513393 0.58786140 0.51703444
0.60594616 0.59491692 0.52403205
0.61674150 0.60195575 0.53101347
0.62751849 0.60897645 0.53797732
0.63827568 0.61597762 0.54492225
0.64901161 0.62295784 0.55184692
0.65972483 0.62991568 0.55874995
0.67041388 0.63684973 0.56563001
0.68107731 0.64375856 0.57248572
0.69171368 0.65064077 0.57931574
0.70232151 0.65749492 0.58611871
0.71289937 0.66431961 0.59289327
0.39071002 0.46593613 0.39242039
0.40158136 0.47305302 0.39948098
0.41246144 0.48017823 0.40654927
0.42334880 0.48731035 0.41362392
0.43424200 0.49444795 0.42070356
0.44513958 0.50158962 0.42778685
0.45604009 0.50873393 0.43487241
0.46694206 0.51587946 0.44195891
0.47784406 0.52302481 0.44904497
0.48874462 0.53016855 0.45612925
0.49964229 0.53730926 0.46321040
0.51053561 0.54444552 0.47028704
0.52142315 0.55157592 0.47735784
0.53230343 0.55869903 0.48442143
0.54317500 0.56581343 0.49147645
0.55403642 0.57291772 0.49852156
0.56488623 0.58001046 0.50555539
0.57572298 0.58709025 0.51257659
0.58654520 0.59415565 0.51958381
0.59735146 0.60120526 0.52657568
0.60814028 0.60823765 0.53355086
0.61891023 0.61525141 0.54050798
0.62965985 0.62224512 0.54744569
0.64038768 0.62921735 0.55436264
0.65109227 0.63616669 0.56125747
0.66177216 0.64309173 0.56812882
0.67242591 0.64999103 0.57497533
0.68305205 0.65686319 0.58179566
0.69364914 0.66370678 0.58858844
0.70421573 0.67052039 0.59535233
0.71475035 0.67730259 0.60208595
0.72525155 0.68405198 0.60878797
0.73571788 0.69076712 0.61545702
0.41478709 0.49363208 0.41620086
0.42568206 0.50077133 0.42328198
0.43658087 0.50791412 0.43036625
0.44748208 0.51505904 0.43745231
0.45838423 0.52220468 0.44453881
0.46928587 0.52934960 0.45162438
0.48018554 0.53649240 0.45870768
0.49108180 0.54363165 0.46578734
0.50197319 0.55076594 0.47286201
0.51285825 0.55789385 0.47993034
0.52373553 0.56501396 0.48699097
0.53460357 0.57212484 0.49404254
0.54546094 0.57922509 0.50108370
0.55630616 0.58631328 0.50811309
0.56713778 0.59338800 0.51512936
0.57795436 0.60044781 0.52213115
0.58875444 0.60749132 0.52911710
0.59953656 0.61451709 0.53608586
0.61029928 0.62152372 0.54303607
0.62104113 0.62850977 0.54996638
0.63176067 0.63547383 0.55687543
0.64245643 0.64241449 0.56376187
0.65312698 0.64933032 0.57062433
0.66377084 0.65621990 0.57746147
0.67438658 0.66308183 0.58427193
0.68497273 0.66991467 0.59105435
0.69552785 0.67671701 0.59780737
0.70605047 0.68348743 0.60452965
0.71653915 0.69022451 0.61121982
0.72699242 0.69692683 0.61787652
