assets/luts/DB_Sports_Field_Day_Rec709_50.cube
TITLE "Sports Field Day Rec709 50"
# Red changes fastest. Full-range normalized input.
LUT_3D_SIZE 9
DOMAIN_MIN 0 0 0
DOMAIN_MAX 1 1 1
0.00000000 0.00000000 0.00000000
0.11348478 0.00000219 0.00000000
0.22887697 0.00001178 0.00000000
0.34606473 0.00002746 0.00000000
0.46493744 0.00004822 0.00000000
0.58538882 0.00007425 0.00000000
0.70731113 0.00010516 0.00000000
0.83059675 0.00014054 0.00000000
0.95513817 0.00017988 0.00000000
0.00004440 0.11569835 0.00000000
0.11657386 0.11656084 0.00000000
0.23478152 0.11741178 0.00000000
0.35458927 0.11826058 0.00000000
0.47580857 0.11905508 0.00000000
0.59836047 0.11981516 0.00000000
0.72214164 0.12054283 0.00000000
0.84704479 0.12123759 0.00000000
0.97296269 0.12189886 0.00000000
0.00017399 0.23697973 0.00000000
0.11939000 0.23850061 0.00000000
0.24001695 0.23994879 0.00000000
0.36196798 0.24134009 0.00000000
0.48512054 0.24266127 0.00000000
0.60936402 0.24391003 0.00000000
0.73459539 0.24508888 0.00000000
0.86070774 0.24619734 0.00000000
0.98759406 0.24723479 0.00000000
0.00036359 0.36261059 0.00000000
0.12182937 0.36452560 0.00000000
0.24447080 0.36633565 0.00000000
0.36818061 0.36804021 0.00000000
0.49285177 0.36963883 0.00000000
0.61837701 0.37113075 0.00000000
0.74464938 0.37251537 0.00000000
0.87156199 0.37379206 0.00000000
0.99900799 0.37496014 0.00000000
0.00058642 0.49136615 0.00000000
0.12388880 0.49342893 0.00000000
0.24812542 0.49534944 0.00000000
0.37318922 0.49712707 0.00000000
0.49897323 0.49876119 0.00000000
0.62537056 0.50025113 0.00000000
0.75227437 0.50159622 0.00000000
0.87957786 0.50279578 0.00000000
1.00000000 0.50501944 0.00953224
0.00080909 0.62202160 0.00000000
0.12553686 0.62398733 0.00000000
0.25095784 0.62577333 0.00000000
0.37696513 0.62737895 0.00000000
0.50345193 0.62880350 0.00000000
0.63031145 0.63004628 0.00000000
0.75743695 0.63110660 0.00000000
0.88472170 0.63198374 0.00000000
1.00000000 0.63390068 0.02338735
0.00099494 0.75335305 0.00000000
0.12673728 0.75497681 0.00000000
0.25293211 0.75638329 0.00000000
0.37947267 0.75757179 0.00000000
0.50625225 0.75854159 0.00000000
0.63316411 0.75929200 0.00000000
0.76010156 0.75982230 0.00000000
0.88695786 0.76013177 0.00000000
1.00000000 0.76016543 0.04066172
0.00110614 0.88413698 0.00000000
0.12745274 0.88517369 0.00000000
0.25401140 0.88595548 0.00000000
0.38067541 0.88648164 0.00000000
0.50733807 0.88675144 0.00000000
0.63389268 0.88676419 0.00000000
0.76023250 0.88651916 0.00000000
0.88625075 0.88601567 0.00000000
1.00000000 0.88257819 0.06136245
0.03410223 1.00000000 0.03309618
0.15951561 1.00000000 0.03844175
0.28381465 1.00000000 0.04408705
0.40689018 1.00000000 0.05003227
0.52863303 1.00000000 0.05627754
0.64893410 1.00000000 0.06282289
0.76768426 1.00000000 0.06966832
0.88477446 1.00000000 0.07681374
1.00000000 0.99990467 0.08548487
0.00000012 0.00000000 0.11284272
0.11383043 0.00000000 0.11382312
0.22956229 0.00000000 0.11476161
0.34708682 0.00000000 0.11565791
0.46629361 0.00000000 0.11651214
0.58707391 0.00000000 0.11732483
0.70931853 0.00000000 0.11809638
0.83291819 0.00000000 0.11882724
0.95776362 0.00000000 0.11951792
0.00000000 0.11601849 0.11597722
0.11688783 0.11686509 0.11679687
0.24360864 0.11545325 0.11537334
0.37317736 0.11372497 0.11357637
0.50245302 0.11239853 0.11219868
0.63152200 0.11143977 0.11119302
0.76081245 0.11071375 0.11041764
0.89031064 0.11019485 0.10984747
1.00000000 0.11525610 0.11487768
0.00000000 0.23756748 0.11861648
0.11222872 0.24195385 0.11194985
0.24097658 0.24091802 0.11272595
0.36909217 0.24064396 0.11204380
0.49997887 0.24008581 0.10983981
0.62991707 0.23977937 0.10936089
0.75981496 0.23965752 0.10918521
0.88984011 0.23966508 0.10914001
1.00000000 0.24478589 0.11840568
0.00000000 0.36340860 0.12078215
0.11006379 0.36993347 0.10954983
0.23988931 0.36969878 0.10935458
0.36976141 0.36960287 0.10951110
0.49980421 0.36969371 0.10929346
0.63003613 0.36984195 0.10925108
0.76027686 0.37006205 0.10941755
0.89056392 0.37033355 0.10964243
1.00000000 0.37532757 0.12487029
0.00000000 0.49230452 0.12250276
0.10992616 0.49973853 0.10917564
0.24011898 0.49991445 0.10930107
0.37037701 0.50015594 0.10949564
0.50067596 0.50044022 0.10973573
0.63099383 0.50074423 0.10999542
0.76130649 0.50104417 0.11025721
0.89159035 0.50131709 0.11049731
1.00000000 0.50564335 0.13430152
0.00000000 0.62301717 0.12381189
0.11079108 0.63055008 0.10982705
0.24110960 0.63085510 0.11009160
0.37141438 0.63114788 0.11034836
0.50168201 0.63140521 0.11057483
0.63188905 0.63160391 0.11074848
0.76201208 0.63172076 0.11084679
0.89202769 0.63173258 0.11084724
1.00000000 0.63449597 0.14672383
0.00000000 0.75430805 0.12474636
0.11176563 0.76148556 0.11064535
0.24194480 0.76165714 0.11079418
0.37203144 0.76173844 0.11085947
0.50200212 0.76170626 0.11081869
0.63183343 0.76153740 0.11064934
0.76150193 0.76120867 0.11032887
0.89098422 0.76069686 0.10983479
1.00000000 0.76064899 0.16215394
0.00000000 0.88493857 0.12534406
0.11195807 0.89166183 0.11077311
0.24173282 0.89143745 0.11055135
0.37133624 0.89104475 0.11017028
0.50074492 0.89046054 0.10960739
0.62993542 0.88966160 0.10884015
0.75888433 0.88862476 0.10784604
0.88756822 0.88732680 0.10660254
1.00000000 0.88286692 0.18059883
0.03587307 1.00000000 0.15542493
0.16115023 1.00000000 0.16019509
0.28528832 1.00000000 0.16522869
0.40817818 1.00000000 0.17052589
0.52971065 1.00000000 0.17608679
0.64977663 1.00000000 0.18191141
0.76826702 1.00000000 0.18799971
0.88507275 1.00000000 0.19435158
1.00000000 0.99991549 0.20205364
0.00000048 0.00000000 0.22636260
0.11415853 0.00000000 0.22830250
0.23019303 0.00000000 0.23016368
0.34799479 0.00000000 0.23194640
0.46745459 0.00000000 0.23365097
0.58846320 0.00000000 0.23527776
0.71091137 0.00000000 0.23682719
0.83468982 0.00000000 0.23829972
0.95968928 0.00000000 0.23969588
0.00000000 0.11631532 0.23259778
0.11626950 0.11623852 0.24612132
0.24452070 0.11458261 0.24435056
0.37316331 0.11318308 0.24297514
0.50211313 0.11204485 0.24182817
0.63125628 0.11116854 0.24090528
0.76061991 0.11051546 0.24020213
0.89018332 0.11006162 0.23969651
1.00000000 0.11549675 0.24144031
0.00000000 0.23807743 0.23792095
0.11180865 0.24168677 0.24145595
0.24093683 0.24085888 0.24062500
0.36882546 0.24062108 0.24039420
0.49957334 0.24004886 0.23968403
0.62985765 0.23972413 0.23928720
0.75981020 0.23964678 0.23915648
0.88987383 0.23969290 0.23915010
1.00000000 0.24524311 0.24468638
0.00000000 0.36404895 0.24235918
0.10998028 0.36984223 0.23944067
0.23995681 0.36960475 0.23936917
0.36944933 0.36933650 0.24098164
0.49831694 0.36980907 0.24102992
0.62991100 0.36993756 0.23945043
0.76036818 0.37014999 0.23949007
0.89066866 0.37043325 0.23972701
1.00000000 0.37591825 0.25045762
0.00000000 0.49299225 0.24594073
0.10998289 0.49978946 0.23920920
0.24020158 0.49998973 0.23936150
0.37049731 0.50022769 0.23964624
0.50072434 0.50049149 0.24017683
0.63102599 0.50084351 0.24022731
0.76140331 0.50114135 0.24034712
0.89167607 0.50139953 0.24056984
1.00000000 0.50628436 0.25878416
0.00000000 0.62366919 0.24869914
0.11089934 0.63065360 0.23991637
0.24121582 0.63095706 0.24018079
0.37151064 0.63124039 0.24042985
0.50176047 0.63148015 0.24064211
0.63194105 0.63165360 0.24079395
0.76203044 0.63173769 0.24085947
0.89200440 0.63170859 0.24082114
1.00000000 0.63510419 0.26969043
0.00000000 0.75484127 0.25067108
0.11183540 0.76155251 0.24070386
0.24198577 0.76169604 0.24082685
0.37203566 0.76174140 0.24085864
0.50196163 0.76166541 0.24077673
0.63174028 0.76144485 0.24055858
0.76134817 0.76105655 0.24018168
0.89076189 0.76047729 0.23962350
1.00000000 0.76114128 0.28319313
0.00000000 0.88526993 0.25189427
0.11189933 0.89160307 0.24071426
0.24161853 0.89132413 0.24044093
0.37115844 0.89086899 0.24000064
0.50049565 0.89021445 0.23937087
0.62960673 0.88933732 0.23852911
0.75846826 0.88821440 0.23745283
0.88705682 0.88682250 0.23611951
1.00000000 0.88316019 0.29929912
0.03767714 1.00000000 0.27733645
0.16281387 1.00000000 0.28150653
0.28678681 1.00000000 0.28590374
0.40948680 1.00000000 0.29052822
0.53080470 1.00000000 0.29538005
0.65063141 1.00000000 0.30045923
0.76885783 1.00000000 0.30576569
0.88537491 1.00000000 0.31129929
1.00000000 0.99992663 0.31800338
0.00000108 0.00000000 0.34054697
0.11448218 0.00000000 0.34342137
0.23081500 0.00000000 0.34618075
0.34889035 0.00000000 0.34882540
0.46859899 0.00000000 0.35135564
0.58983169 0.00000000 0.35377188
0.71247920 0.00000000 0.35607454
0.83643223 0.00000000 0.35826410
0.96158151 0.00000000 0.36034110
0.00000000 0.11660722 0.34980244
0.11566683 0.11563176 0.37552648
0.24409913 0.11405163 0.37390772
0.37281700 0.11275559 0.37256947
0.50179745 0.11172035 0.37148888
0.63101631 0.11092297 0.37064294
0.76045041 0.11034016 0.37000939
0.89007635 0.10994870 0.36956575
1.00000000 0.11576701 0.36795374
0.00000000 0.23857873 0.35772643
0.11148707 0.24140366 0.37115436
0.24078672 0.24068770 0.37036639
0.37021032 0.24020028 0.36975238
0.49992239 0.23986555 0.36942779
0.62983025 0.23968208 0.36922571
0.75981941 0.23965001 0.36914178
0.88991881 0.23973202 0.36917164
1.00000000 0.24572578 0.37083446
0.00000000 0.36467656 0.36435380
0.10991154 0.36977071 0.36934923
0.23984411 0.36964218 0.36917118
0.36972531 0.36957914 0.36914062
0.49826057 0.36999994 0.36960428
0.62968175 0.37007982 0.36948263
0.76045764 0.37024442 0.36956839
0.89077555 0.37053525 0.36981431
1.00000000 0.37653021 0.37582899
0.00000000 0.49366308 0.36971284
0.11004890 0.49984975 0.36925231
0.24029087 0.50007181 0.36942723
0.37069176 0.50026360 0.36979975
0.50041879 0.50025576 0.37175030
0.62952423 0.50096474 0.37203073
0.76129642 0.50125838 0.37057745
0.89175314 0.50147554 0.37063737
1.00000000 0.50694247 0.38296753
0.00000000 0.62430014 0.37383701
0.11100780 0.63075747 0.37000650
0.24131954 0.63105671 0.37026822
0.37160277 0.63132729 0.37050816
0.50185120 0.63152521 0.37077462
0.63191786 0.63163767 0.37118098
0.76195807 0.63173607 0.37100131
0.89196109 0.63166917 0.37078503
1.00000000 0.63572532 0.39227455
0.00000000 0.75534928 0.37676288
0.11189628 0.76161082 0.37075446
0.24201515 0.76172361 0.37084900
0.37202558 0.76173036 0.37084470
0.50190418 0.76160786 0.37071910
0.63162762 0.76133267 0.37045077
0.76117164 0.76088208 0.37001608
0.89051429 0.76023300 0.36938913
1.00000000 0.76164231 0.40376671
0.00000000 0.88557194 0.37852798
0.11182262 0.89152666 0.37063876
0.24148355 0.89119048 0.37031125
0.37095725 0.89067023 0.36980914
0.50022030 0.88994270 0.36910991
0.62924926 0.88898470 0.36819103
0.75802071 0.88777303 0.36702998
0.88651125 0.88628450 0.36560425
1.00000000 0.88345798 0.41745077
0.03951443 1.00000000 0.39881815
0.16450654 1.00000000 0.40236348
0.28831012 1.00000000 0.40609962
0.41081605 1.00000000 0.41002669
0.53191518 1.00000000 0.41414475
0.65149841 1.00000000 0.41845378
0.76945668 1.00000000 0.42295368
0.88568092 1.00000000 0.42764427
1.00000000 0.99993809 0.43332153
0.00000191 0.00000000 0.45538330
0.11480186 0.00000000 0.45916751
0.23142880 0.00000000 0.46280042
0.34977352 0.00000000 0.46628233
0.46972680 0.00000000 0.46961360
0.59117938 0.00000000 0.47279463
0.71402202 0.00000000 0.47582587
0.83814541 0.00000000 0.47870782
0.96344029 0.00000000 0.48144103
0.00000000 0.11689470 0.46757879
0.11510102 0.11506180 0.50494414
0.24363311 0.11358068 0.50342339
0.37244278 0.11237583 0.50217499
0.50150660 0.11142405 0.50117639
0.63080116 0.11070215 0.50040509
0.76030304 0.11018692 0.49983856
0.88998880 0.10985517 0.49945428
1.00000000 0.11606689 0.49440531
0.00000000 0.23907144 0.47802026
0.11122430 0.24113584 0.50087046
0.24059705 0.24049187 0.50017627
0.37016838 0.24004621 0.49967828
0.49991512 0.23977553 0.49935489
0.62981428 0.23965656 0.49918321
0.75984167 0.23966631 0.49914025
0.88997412 0.23978153 0.49920375
1.00000000 0.24623391 0.49683727
0.00000000 0.36529141 0.48675337
0.10986229 0.36971578 0.49927625
0.23981099 0.36964632 0.49915329
0.36987772 0.36969679 0.49912973
0.49995510 0.36986432 0.49917421
0.63021896 0.37008157 0.49940216
0.76056675 0.37033970 0.49964668
0.89088370 0.37063865 0.49990343
1.00000000 0.37716346 0.50097174
0.00000000 0.49431699 0.49380642
0.11012328 0.49991848 0.49930410
0.24038238 0.50016114 0.49949846
0.37071038 0.50043120 0.49972845
0.50083156 0.50062367 0.50000000
0.62950619 0.50119803 0.50065982
0.76106982 0.50140732 0.50062842
0.89181555 0.50154538 0.50069848
1.00000000 0.50761770 0.50683901
0.00000000 0.62491003 0.49921283
0.11111554 0.63086080 0.50009657
0.24141984 0.63115312 0.50035297
0.37168890 0.63140842 0.50057956
0.50199932 0.63151879 0.50089782
0.63147892 0.63128533 0.50268817
0.76030235 0.63171626 0.50270247
0.89169944 0.63163556 0.50087713
1.00000000 0.63635926 0.51446349
0.00000000 0.75583208 0.50300908
0.11194736 0.76165958 0.50079625
0.24203203 0.76173896 0.50085975
0.37200031 0.76170442 0.50081677
0.50182989 0.76153211 0.50064608
0.63151420 0.76117780 0.50039597
0.76090751 0.76062963 0.50017983
0.89016403 0.75995814 0.49927172
1.00000000 0.76215173 0.52386157
0.00000000 0.88584459 0.50523251
0.11172701 0.89143169 0.50054572
0.24132699 0.89103560 0.50016144
0.37073177 0.89044756 0.49959491
0.49991795 0.88964436 0.49882361
0.62886211 0.88860280 0.49782507
0.75754097 0.88729946 0.49657786
0.88593024 0.88571160 0.49505837
1.00000000 0.88376029 0.53504116
0.04138494 1.00000000 0.51985748
0.16622821 1.00000000 0.52275336
0.28985825 1.00000000 0.52580374
0.41216591 1.00000000 0.52900871
0.53304208 1.00000000 0.53236830
0.65237765 1.00000000 0.53588246
0.77006357 1.00000000 0.53955107
0.88599080 1.00000000 0.54337394
1.00000000 0.99994986 0.54799557
0.00000298 0.00000000 0.57085901
0.11511757 0.00000000 0.57552834
0.23203442 0.00000000 0.58001011
0.35064432 0.00000000 0.58430463
0.47083801 0.00000000 0.58841226
0.59250627 0.00000000 0.59233343
0.71553981 0.00000000 0.59606861
0.83982936 0.00000000 0.59961831
0.96526561 0.00000000 0.60298308
0.00000000 0.11717776 0.58591421
0.11456993 0.11452638 0.63439575
0.24319891 0.11314169 0.63297002
0.37209752 0.11202538 0.63180897
0.50124233 0.11115427 0.63089009
0.63060992 0.11050516 0.63019086
0.76017687 0.11005484 0.62968875
0.88991976 0.10978013 0.62936124
1.00000000 0.11639640 0.62078239
0.00000000 0.23955557 0.59878981
0.11098754 0.24089348 0.63061129
0.24043042 0.24031942 0.62998643
0.37006414 0.23993572 0.62955049
0.49986526 0.23971918 0.62928095
0.62981037 0.23964660 0.62915530
0.75987604 0.23969478 0.62915100
0.89003885 0.23984052 0.62924554
1.00000000 0.24676751 0.62268219
0.00000000 0.36589353 0.60954523
0.10982984 0.36967731 0.62921974
0.23982155 0.36965138 0.62914087
0.36992530 0.36973777 0.62917511
0.50011744 0.36991334 0.62929963
0.63037484 0.37015480 0.62949281
0.76067449 0.37043886 0.62973177
0.89099220 0.37074252 0.62999350
1.00000000 0.37781800 0.62587326
0.00000000 0.49495402 0.61820881
0.11020511 0.49999475 0.62936368
0.24048058 0.50025442 0.62957593
0.37078963 0.50054824 0.62982504
0.50110540 0.50085201 0.63006761
0.63131921 0.50116192 0.63027228
0.76161613 0.50141753 0.63055449
0.89188515 0.50160366 0.63074735
1.00000000 0.50831004 0.63038600
0.00000000 0.62549888 0.62481395
0.11122164 0.63096265 0.63018569
0.24151580 0.63124539 0.63043419
0.37176464 0.63148428 0.63064424
0.50197066 0.63164029 0.63078400
0.63183386 0.63159024 0.63085938
0.76015449 0.63182357 0.63121709
0.89130480 0.63162086 0.63077765
1.00000000 0.63700557 0.63624462
0.00000000 0.75628968 0.62939702
0.11198771 0.76169787 0.63082836
0.24203548 0.76174116 0.63085822
0.37195890 0.76166266 0.63077395
0.50173690 0.76143800 0.63055393
0.63144525 0.76095870 0.63031964
0.76022371 0.76003475 0.63145152
0.88823963 0.75966895 0.63070140
1.00000000 0.76265161 0.64344766
0.00000000 0.88608790 0.63199519
0.11161160 0.89131726 0.63043425
0.24114791 0.89085859 0.62999061
0.37048108 0.89020008 0.62935706
0.49958769 0.88931854 0.62851110
0.62844545 0.88819013 0.62743150
0.75704954 0.88677195 0.62616654
0.88525886 0.88505558 0.62482961
1.00000000 0.88406023 0.65203865
0.04328866 1.00000000 0.64044185
0.16797891 1.00000000 0.64266361
0.29143120 1.00000000 0.64500353
0.41353640 1.00000000 0.64746170
0.53418541 1.00000000 0.65003811
0.65326913 1.00000000 0.65273269
0.77067852 1.00000000 0.65554529
0.88630448 1.00000000 0.65847554
1.00000000 0.99996195 0.66201259
0.00000427 0.00000000 0.68696151
0.11542931 0.00000000 0.69249131
0.23263186 0.00000000 0.69779727
0.35150272 0.00000000 0.70287973
0.47193263 0.00000000 0.70773907
0.59381234 0.00000000 0.71237574
0.71703258 0.00000000 0.71679021
0.84148406 0.00000000 0.72098302
0.96705748 0.00000000 0.72495472
0.00000000 0.11745643 0.70479608
0.11407263 0.11402460 0.76388049
0.24279581 0.11273365 0.76254717
0.37178066 0.11170322 0.76147089
0.50100375 0.11091010 0.76062913
0.63044168 0.11033110 0.75999936
0.76007100 0.10994302 0.75955907
0.88986831 0.10972267 0.75928574
1.00000000 0.11675554 0.74707232
0.00000000 0.24003113 0.72002242
0.11077549 0.24067574 0.76037650
0.24028580 0.24016893 0.75981832
0.36997900 0.23984460 0.75944142
0.49983164 0.23967955 0.75922327
0.62982032 0.23965058 0.75914136
0.75992161 0.23973449 0.75917315
0.89011208 0.23990810 0.75929614
1.00000000 0.24732657 0.74835657
0.00000000 0.36648292 0.73271672
0.10981301 0.36965447 0.75917887
0.23984539 0.36966928 0.75914096
0.36998186 0.36978854 0.75920856
0.50019899 0.36998903 0.75935915
0.63047335 0.37024756 0.75957020
0.76078153 0.37054095 0.75981921
0.89110010 0.37084598 0.76008363
1.00000000 0.37849384 0.75052092
0.00000000 0.49557415 0.74290735
0.11029348 0.50007765 0.75943017
0.24058287 0.50035156 0.75965765
0.37089754 0.50065187 0.75991487
0.50121407 0.50095539 0.76017927
0.63150882 0.50123897 0.76042801
0.76175866 0.50147934 0.76063947
0.89194060 0.50165319 0.76079078
1.00000000 0.50901949 0.75359588
0.00000000 0.62606669 0.75062769
0.11132519 0.63106214 0.76027299
0.24160650 0.63133262 0.76051098
0.37183431 0.63155147 0.76070295
0.50198550 0.63169534 0.76082584
0.63203262 0.63173959 0.76083626
0.76186680 0.63168026 0.76070285
0.89167698 0.63145981 0.76054105
1.00000000 0.63766605 0.75760603
0.00000000 0.75672210 0.75591401
0.11201642 0.76172479 0.76084990
0.24202459 0.76172932 0.76084353
0.37190045 0.76160418 0.76071537
0.50162083 0.76132607 0.76044284
0.63118816 0.76085594 0.75999408
0.76031050 0.76007663 0.75937500
0.88779765 0.75948476 0.75893233
1.00000000 0.76314631 0.76254538
0.00000000 0.88630188 0.75880333
0.11147545 0.89118246 0.76030349
0.24094541 0.89065852 0.75979787
0.37020426 0.88992687 0.75909472
0.49922859 0.88896432 0.75817149
0.62799738 0.88774653 0.75700658
0.75659530 0.88617169 0.75572146
0.88424711 0.88411357 0.75569658
1.00000000 0.88420841 0.76821649
0.04522560 1.00000000 0.76055868
0.16975861 1.00000000 0.76208164
0.29302896 1.00000000 0.76368641
0.41492751 1.00000000 0.76537307
0.53534517 1.00000000 0.76714159
0.65417285 1.00000000 0.76899187
0.77130131 1.00000000 0.77092358
0.88661646 1.00000000 0.77292768
1.00000000 0.99997508 0.77530685
0.00000580 0.00000000 0.80367823
0.11573707 0.00000000 0.81004383
0.23322112 0.00000000 0.81614932
0.35234872 0.00000000 0.82199506
0.47301063 0.00000000 0.82758146
0.59509759 0.00000000 0.83290898
0.71850031 0.00000000 0.83797810
0.84310951 0.00000000 0.84278937
0.96881587 0.00000000 0.84734338
0.00000000 0.11773069 0.82421177
0.11360822 0.11355553 0.89339746
0.24242289 0.11235566 0.89215396
0.37149127 0.11140842 0.89115985
0.50078995 0.11069062 0.89039261
0.63029550 0.11017906 0.88982972
0.75998450 0.10985054 0.88944865
0.88983353 0.10968187 0.88922689
1.00000000 0.11714433 0.87326244
0.00000000 0.24049813 0.84170547
0.11058723 0.24048172 0.89016521
0.24016227 0.24003949 0.88967113
0.36991225 0.23977185 0.88935066
0.49981372 0.23965561 0.88918131
0.62984326 0.23966758 0.88914053
0.75997747 0.23978455 0.88920582
0.89019290 0.23998334 0.88935465
1.00000000 0.24791110 0.87384777
0.00000000 0.36705958 0.85625520
0.10981088 0.36964635 0.88915276
0.23988124 0.36969923 0.88915321
0.37004773 0.36984868 0.88925152
0.50028692 0.37007148 0.88942517
0.63057539 0.37034445 0.88965164
0.76088972 0.37064439 0.88990840
0.89120649 0.37094811 0.89017295
1.00000000 0.37919097 0.87490209
0.00000000 0.49617741 0.86788938
0.11038747 0.50016627 0.88950269
0.24068807 0.50045175 0.88974280
0.37100600 0.50075575 0.89000500
0.50131784 0.50105507 0.89026678
0.63160017 0.50132653 0.89050562
0.76182956 0.50154691 0.89069898
0.89198259 0.50169303 0.89082436
1.00000000 0.50974607 0.87645604
0.00000000 0.62661347 0.87664138
0.11142527 0.63115835 0.89035757
0.24169104 0.63141390 0.89058246
0.37189534 0.63160993 0.89075369
0.50201476 0.63172325 0.89084872
0.63202587 0.63173067 0.89084499
0.76190501 0.63160903 0.89071967
0.89162909 0.63133508 0.89045114
1.00000000 0.63833913 0.87853427
0.00000000 0.75712935 0.88254738
0.11203258 0.76173943 0.89085999
0.24199844 0.76170253 0.89081479
0.37182405 0.76152807 0.89064016
0.50148597 0.76119287 0.89031357
0.63096111 0.76067359 0.88981196
0.76022228 0.75994576 0.88909195
0.88916203 0.75900651 0.88812218
1.00000000 0.76372694 0.88115414
0.00000000 0.88648654 0.88564426
0.11131767 0.89102638 0.89015253
0.24071855 0.89043451 0.88958236
0.36990039 0.88962704 0.88880699
0.49883975 0.88858079 0.88780390
0.62751345 0.88727246 0.88655050
0.75592609 0.88566461 0.88501494
0.88383979 0.88368062 0.88320313
1.00000000 0.88449152 0.88422703
0.04719575 1.00000000 0.88019541
0.17156733 1.00000000 0.88099486
0.29465153 1.00000000 0.88183980
0.41633924 1.00000000 0.88273025
0.53652136 1.00000000 0.88366616
0.65508882 1.00000000 0.88464742
0.77193216 1.00000000 0.88567368
0.88691789 1.00000000 0.88672552
1.00000000 0.99999106 0.88774075
0.00000754 0.00000000 0.92099661
0.11604084 0.00000000 0.92817333
0.23380218 0.00000000 0.93505369
0.35318233 0.00000000 0.94163806
0.47407202 0.00000000 0.94792687
0.59636201 0.00000000 0.95392058
0.71994300 0.00000000 0.95961972
0.84470570 0.00000000 0.96502482
0.97054079 0.00000000 0.97013649
0.00000000 0.11800057 0.94414864
0.11495906 0.11490458 1.00000000
0.24109686 0.11449849 1.00000000
0.36754347 0.11434282 1.00000000
0.49419190 0.11443695 1.00000000
0.62093506 0.11478026 1.00000000
0.74766583 0.11537218 1.00000000
0.87427699 0.11621213 1.00000000
1.00000000 0.11756276 0.99934011
0.00000000 0.24095657 0.96382629
0.11463874 0.24107365 1.00000000
0.24157464 0.24145260 1.00000000
0.36857830 0.24204450 1.00000000
0.49554258 0.24284879 1.00000000
0.62236024 0.24386490 1.00000000
0.74892393 0.24509232 1.00000000
0.87512624 0.24653054 1.00000000
1.00000000 0.24852112 0.99914315
0.00000000 0.36762353 0.98014799
0.11714040 0.36940899 1.00000000
0.24446417 0.37032786 1.00000000
0.37161437 0.37142232 1.00000000
0.49848367 0.37269185 1.00000000
0.62496458 0.37413596 1.00000000
0.75094951 0.37575421 1.00000000
0.87633074 0.37754618 1.00000000
1.00000000 0.37990941 0.99900415
0.00000000 0.49676380 0.99314223
0.12243411 0.49868471 1.00000000
0.24973557 0.49989839 1.00000000
0.37662180 0.50125038 1.00000000
0.50298518 0.50274026 1.00000000
0.62871794 0.50436762 1.00000000
0.75371217 0.50613210 1.00000000
0.87785980 0.50803340 1.00000000
1.00000000 0.51048977 0.99895387
0.00307571 0.62651189 1.00000000
0.13049447 0.62767360 1.00000000
0.25736370 0.62893689 1.00000000
0.38357559 0.63030136 1.00000000
0.50902221 0.63176666 1.00000000
0.63359544 0.63333250 1.00000000
0.75718698 0.63499864 1.00000000
0.87968833 0.63676490 1.00000000
1.00000000 0.63902491 0.99901705
0.01448343 0.75414336 1.00000000
0.14130270 0.75514647 1.00000000
0.26733018 0.75621405 1.00000000
0.39245773 0.75734582 1.00000000
0.51657702 0.75854155 1.00000000
0.63957953 0.75980106 1.00000000
0.76135649 0.76112424 1.00000000
0.88179890 0.76251103 1.00000000
1.00000000 0.76427836 0.99921030
0.02903731 0.87927269 1.00000000
0.15484870 0.87987154 1.00000000
0.27962554 0.88049791 1.00000000
0.40325929 0.88115166 1.00000000
0.52564116 0.88183266 1.00000000
0.64666213 0.88254091 1.00000000
0.76621287 0.88327639 1.00000000
0.88418129 0.88403709 1.00000000
1.00000000 0.88500311 0.99954720
0.04919911 1.00000000 0.99933945
0.17340506 1.00000000 0.99939071
0.29629892 1.00000000 0.99945110
0.41777159 1.00000000 0.99952063
0.53771398 1.00000000 0.99959923
0.65601703 1.00000000 0.99968673
0.77257167 1.00000000 0.99978293
0.88726337 1.00000000 0.99988825
1.00000000 1.00000000 1.00000000
