assets/luts/DB_Soft_Interior_Rec709_100.cube
TITLE "Soft Interior Rec709 100"
# Red changes fastest. Full-range normalized input.
LUT_3D_SIZE 5
DOMAIN_MIN 0 0 0
DOMAIN_MAX 1 1 1
0.00600000 0.00600000 0.00600000
0.24802653 0.01565245 0.01476125
0.48677888 0.02403052 0.02199766
0.72472714 0.03053938 0.02730324
0.96129157 0.03563996 0.03113806
0.03354743 0.26365444 0.02885465
0.26954142 0.26822027 0.03163982
0.50463164 0.27178544 0.03443035
0.73864684 0.27434272 0.03576437
0.97189678 0.27615188 0.03643938
0.04619218 0.50618231 0.03607270
0.27920739 0.50776896 0.03657104
0.51170245 0.50887878 0.03675024
0.74386003 0.50970879 0.03685386
0.97586281 0.51045597 0.03712547
0.05088018 0.74108503 0.03692047
0.28287196 0.74185098 0.03731372
0.51495810 0.74280284 0.03820719
0.74732130 0.74413760 0.03984446
0.98014422 0.74605227 0.04246908
0.05456890 0.97586216 0.04067287
0.28760454 0.97803688 0.04371744
0.52134909 0.98106022 0.04808160
0.75598522 0.98512919 0.05400893
0.99169559 0.99044080 0.06174300
0.00965754 0.00958198 0.24038866
0.25030759 0.01886395 0.24867472
0.48926939 0.02641111 0.25508451
0.72672723 0.03241962 0.25986330
0.96286324 0.03708676 0.26325405
0.03538664 0.26536870 0.26124576
0.27017697 0.26893712 0.26444265
0.50620477 0.27229653 0.26596369
0.73945241 0.27503085 0.26715945
0.97248262 0.27663164 0.26766865
0.04691056 0.50678684 0.26739785
0.27972503 0.50818944 0.26775873
0.51183574 0.50902370 0.26739151
0.74417595 0.50995860 0.26801327
0.97616489 0.51072583 0.26840413
0.05118209 0.74133653 0.26811805
0.28318543 0.74214352 0.26865386
0.51534518 0.74320333 0.26977261
0.74784401 0.74471294 0.27171788
0.98086461 0.74686936 0.27473322
0.05515640 0.97651777 0.27267896
0.28841231 0.97895859 0.27614436
0.52243915 0.98231494 0.28101207
0.75741961 0.98678383 0.28752566
0.99353636 0.99256226 0.29592870
0.01309944 0.01294111 0.47453277
0.25315549 0.02161193 0.48215420
0.49158641 0.02861427 0.48798318
0.72857486 0.03414515 0.49226327
0.96430352 0.03840157 0.49523803
0.03707939 0.26693693 0.49348456
0.27239473 0.27077824 0.49604468
0.50669985 0.27361344 0.49763221
0.74017638 0.27564073 0.49848896
0.97300795 0.27705585 0.49886043
0.04755504 0.50732137 0.49866763
0.28019633 0.50856264 0.49892290
0.51085241 0.50837270 0.49969372
0.74479793 0.50965650 0.49921409
0.97647735 0.51101656 0.49973979
0.05148097 0.74159447 0.49935476
0.28351694 0.74246523 0.50006123
0.51576760 0.74365561 0.50143181
0.74818151 0.74521700 0.50324356
0.98166963 0.74778087 0.50714206
0.05581175 0.97725625 0.50481869
0.28930898 0.97998589 0.50873301
0.52363920 0.98369798 0.51413236
0.75898506 0.98858950 0.52126030
0.99552925 0.99485747 0.53036041
0.01633284 0.01608508 0.70844216
0.25581650 0.02416719 0.71542755
0.49373706 0.03064773 0.72070321
0.73027720 0.03572370 0.72451269
0.96561959 0.03959211 0.72709957
0.03863392 0.26836647 0.72558319
0.27358560 0.27184417 0.72778544
0.50758872 0.27438303 0.72909732
0.74082594 0.27618004 0.72976241
0.97347994 0.27743223 0.73002426
0.04813277 0.50779362 0.72989160
0.28061980 0.50889636 0.73006712
0.51277272 0.50972295 0.73017177
0.74477458 0.51047001 0.73044953
0.97680731 0.51133592 0.73114200
0.05178397 0.74186656 0.73064015
0.28387365 0.74282380 0.73154537
0.51624306 0.74416760 0.73319923
0.74760165 0.74512194 0.73659794
0.98298577 0.74832779 0.73970879
0.05654209 0.97808531 0.73710161
0.29030173 0.98112651 0.74149293
0.52495638 0.98521704 0.74745201
0.76068589 0.99055447 0.75522042
0.99769795 0.99736196 0.76444612
0.01936489 0.01902163 0.94212628
0.25829723 0.02653774 0.94850372
0.49572851 0.03251919 0.95325414
0.73184140 0.03716298 0.95662111
0.96681858 0.04066611 0.95884819
0.04005798 0.26966502 0.95755104
0.27466704 0.27280179 0.95942361
0.50838957 0.27506662 0.96048852
0.74140824 0.27665652 0.96098936
0.97390572 0.27776849 0.96116967
0.04865091 0.50821131 0.96107928
0.28100401 0.50919819 0.96120339
0.51308510 0.50997586 0.96133921
0.74507686 0.51074132 0.96173033
0.97716196 0.51169158 0.96262029
0.05209826 0.74216051 0.96198376
0.28426270 0.74322696 0.96311582
0.51676967 0.74474692 0.96507897
0.74980178 0.74691737 0.96811689
0.98354216 0.74993498 0.97247356
0.05735459 0.97901267 0.96953724
0.29139769 0.98238814 0.97443367
0.52639785 0.98687985 0.98098056
0.76253717 0.99268488 0.98942165
1.00000000 1.00000000 1.00000000
