assets/luts/DB_Sports_Arena_Clean_Rec709_100.cube
TITLE "Sports Arena Clean Rec709 100"
# Red changes fastest. Full-range normalized input.
LUT_3D_SIZE 33
DOMAIN_MIN 0 0 0
DOMAIN_MAX 1 1 1
0.00300000 0.00300000 0.00300000
0.03339455 0.00263910 0.00267839
0.06387583 0.00227582 0.00234657
0.09438138 0.00192843 0.00202908
0.12482472 0.00162216 0.00175941
0.15515201 0.00137253 0.00155771
0.18537712 0.00117497 0.00141760
0.21556451 0.00101005 0.00131331
0.24578121 0.00085768 0.00121854
0.27606191 0.00070740 0.00111983
0.30640710 0.00055878 0.00101691
0.33680068 0.00041628 0.00091583
0.36722618 0.00028446 0.00082263
0.39767315 0.00016608 0.00074101
0.42813660 0.00006227 0.00067253
0.45851577 0.00000000 0.00064415
0.48873282 0.00000000 0.00067652
0.51901709 0.00000000 0.00070781
0.54936747 0.00000000 0.00073804
0.57978280 0.00000000 0.00076720
0.61026194 0.00000000 0.00079532
0.64080377 0.00000000 0.00082239
0.67140713 0.00000000 0.00084843
0.70207089 0.00000000 0.00087344
0.73279391 0.00000000 0.00089744
0.76357505 0.00000000 0.00092043
0.79441317 0.00000000 0.00094242
0.82530713 0.00000000 0.00096343
0.85598398 0.00007343 0.00105648
0.88663149 0.00016925 0.00117086
0.91728935 0.00027643 0.00129560
0.94795734 0.00039473 0.00143046
0.97863522 0.00052389 0.00157522
0.00204593 0.03255610 0.00204593
0.03243461 0.03227452 0.00170578
0.06295094 0.03197769 0.00133627
0.09356876 0.03167290 0.00098147
0.12419409 0.03138731 0.00070571
0.15471640 0.03115285 0.00055543
0.18508330 0.03098448 0.00052756
0.21533104 0.03087132 0.00057298
0.24554728 0.03078751 0.00063070
0.27580865 0.03071047 0.00066145
0.30614670 0.03063073 0.00065713
0.33655472 0.03054995 0.00062942
0.36701155 0.03047396 0.00059412
0.39749884 0.03040778 0.00056267
0.42800599 0.03035416 0.00054092
0.45852828 0.03031415 0.00053114
0.48906395 0.03028796 0.00053390
0.51961233 0.03027546 0.00054919
0.55017309 0.03027643 0.00057683
0.58074598 0.03029064 0.00061660
0.61133076 0.03031784 0.00066826
0.64192721 0.03035779 0.00073159
0.67253510 0.03041023 0.00080635
0.70315418 0.03047493 0.00089231
0.73378424 0.03055164 0.00098924
0.76442503 0.03064011 0.00109691
0.79507634 0.03074009 0.00121509
0.82573791 0.03085135 0.00134354
0.85640953 0.03097363 0.00148203
0.88709096 0.03110670 0.00163034
0.91778198 0.03125029 0.00178823
0.94848234 0.03140418 0.00195546
0.97919182 0.03156811 0.00213182
0.00133269 0.06229563 0.00133269
0.03168693 0.06209860 0.00098913
0.06215726 0.06188928 0.00057983
0.09277401 0.06165809 0.00015456
0.12334567 0.06144129 0.00000000
0.15382166 0.06127340 0.00000000
0.18434719 0.06112881 0.00000000
0.21493931 0.06099714 0.00000000
0.24545830 0.06090359 0.00007093
0.27573577 0.06088463 0.00027155
0.30606964 0.06086840 0.00040374
0.33648146 0.06084832 0.00047442
0.36695833 0.06082763 0.00050913
0.39747815 0.06081227 0.00053157
0.42802413 0.06080667 0.00055619
0.45858737 0.06081305 0.00058956
0.48916416 0.06083215 0.00063398
0.51975312 0.06086404 0.00068997
0.55035375 0.06090857 0.00075749
0.58096573 0.06096551 0.00083636
0.61158884 0.06103460 0.00092634
0.64222283 0.06111562 0.00102721
0.67286748 0.06120831 0.00113873
0.70352255 0.06131243 0.00126067
0.73418781 0.06142773 0.00139281
0.76486303 0.06155397 0.00153490
0.79554797 0.06169089 0.00168672
0.82624242 0.06183826 0.00184804
0.85694612 0.06199584 0.00201862
0.88765887 0.06216336 0.00219824
0.91838041 0.06234060 0.00238666
0.94911052 0.06252729 0.00258365
0.97984897 0.06272321 0.00278897
0.00087125 0.09220256 0.00087125
0.03122225 0.09207690 0.00058009
0.06163732 0.09195394 0.00019613
0.09215635 0.09179606 0.00000000
0.12263259 0.09165405 0.00000000
0.15310033 0.09154795 0.00000000
0.18363189 0.09146288 0.00000000
0.21426106 0.09138696 0.00000000
0.24497166 0.09131574 0.00000000
0.27571917 0.09125166 0.00000000
0.30613351 0.09127298 0.00024559
0.33656139 0.09130562 0.00043412
0.36705615 0.09133681 0.00055312
0.39760282 0.09137013 0.00063613
0.42818272 0.09141034 0.00070847
0.45878324 0.09146059 0.00078376
0.48939816 0.09152230 0.00086761
0.52002500 0.09159584 0.00096177
0.55066285 0.09168115 0.00106658
0.58131131 0.09177803 0.00118193
0.61197011 0.09188625 0.00130761
0.64263902 0.09200556 0.00144340
0.67331781 0.09213572 0.00158906
0.70400624 0.09227647 0.00174437
0.73470408 0.09242759 0.00190908
0.76541111 0.09258881 0.00208298
0.79612708 0.09275990 0.00226583
0.82685177 0.09294061 0.00245739
0.85758494 0.09313069 0.00265744
0.88832637 0.09332990 0.00286575
0.91907582 0.09353799 0.00308207
0.94983307 0.09375472 0.00330619
0.98059787 0.09397984 0.00353787
0.00061463 0.12227866 0.00061463
0.03101287 0.12220502 0.00042293
0.06142729 0.12214740 0.00014461
0.09193819 0.12205953 0.00000000
0.12245083 0.12197321 0.00000000
0.15295275 0.12191595 0.00000000
0.18350126 0.12187982 0.00000000
0.21413993 0.12185502 0.00000000
0.24487521 0.12183444 0.00000000
0.27567793 0.12181652 0.00000000
0.30628253 0.12184846 0.00022259
0.33676063 0.12191991 0.00051503
0.36728652 0.12199511 0.00071948
0.39786144 0.12207286 0.00086664
0.42847259 0.12215596 0.00098814
0.45910713 0.12224744 0.00110456
0.48975720 0.12234907 0.00122586
0.52041916 0.12246150 0.00135576
0.55109157 0.12258482 0.00149528
0.58177388 0.12271887 0.00164449
0.61246576 0.12286343 0.00180326
0.64316697 0.12301825 0.00197134
0.67387728 0.12318310 0.00214853
0.70459645 0.12335771 0.00233457
0.73532425 0.12354186 0.00252925
0.76606046 0.12373530 0.00273234
0.79680484 0.12393777 0.00294359
0.82755715 0.12414903 0.00316278
0.85831718 0.12436884 0.00338968
0.88908467 0.12459695 0.00362405
0.91985941 0.12483312 0.00386566
0.95064117 0.12507710 0.00411429
0.98142970 0.12532864 0.00436970
0.00050946 0.15252820 0.00050946
0.03098008 0.15249503 0.00042366
0.06144781 0.15248211 0.00028325
0.09193523 0.15248296 0.00006917
0.12249965 0.15245968 0.00000000
0.15307718 0.15244410 0.00000000
0.18368158 0.15244664 0.00000000
0.21434948 0.15246203 0.00000000
0.24510053 0.15248420 0.00000000
0.27591530 0.15251098 0.00001811
0.30649122 0.15258826 0.00040934
0.33704993 0.15268689 0.00075053
0.36762771 0.15279668 0.00101590
0.39823956 0.15291271 0.00121907
0.42888311 0.15303473 0.00138725
0.45954981 0.15316437 0.00154315
0.49023241 0.15330311 0.00169986
0.52092679 0.15345167 0.00186310
0.55163111 0.15361023 0.00203476
0.58234463 0.15377867 0.00221524
0.61306696 0.15395679 0.00240446
0.64379785 0.15414435 0.00260223
0.67453706 0.15434110 0.00280831
0.70528436 0.15454680 0.00302248
0.73603950 0.15476120 0.00324450
0.76680227 0.15498407 0.00347415
0.79757243 0.15521514 0.00371118
0.82834975 0.15545418 0.00395538
0.85913400 0.15570094 0.00420650
0.88992495 0.15595518 0.00446432
0.92072236 0.15621664 0.00472861
0.95152600 0.15648510 0.00499912
0.98233564 0.15676029 0.00527564
0.00053070 0.18294704 0.00053070
0.03106930 0.18295215 0.00052865
0.06160671 0.18297530 0.00050532
0.09214756 0.18301533 0.00044259
0.12270876 0.18306719 0.00033448
0.15331441 0.18312298 0.00020396
0.18397913 0.18317666 0.00010696
0.21469165 0.18322938 0.00011022
0.24541696 0.18328988 0.00025207
0.27611907 0.18336863 0.00051669
0.30678450 0.18347078 0.00084476
0.33742591 0.18359412 0.00117088
0.36806668 0.18373266 0.00145599
0.39872402 0.18388131 0.00169436
0.42940322 0.18403786 0.00190027
0.46010166 0.18420225 0.00209156
0.49081475 0.18437513 0.00228094
0.52153903 0.18455701 0.00247497
0.55227265 0.18474803 0.00267620
0.58301475 0.18494809 0.00288534
0.61376492 0.18515699 0.00310241
0.64452286 0.18537450 0.00332724
0.67528835 0.18560038 0.00355960
0.70606115 0.18583438 0.00379927
0.73684101 0.18607626 0.00404601
0.76762773 0.18632577 0.00429960
0.79842105 0.18658267 0.00455980
0.82922076 0.18684671 0.00482638
0.86002661 0.18711764 0.00509911
0.89083838 0.18739522 0.00537776
0.92165584 0.18767921 0.00566209
0.95247875 0.18796935 0.00595187
0.98330688 0.18826541 0.00624688
0.00067514 0.21352427 0.00067514
0.03126723 0.21356867 0.00073220
0.06186439 0.21362775 0.00078826
0.09246552 0.21370180 0.00083324
0.12307445 0.21378967 0.00085849
0.15370127 0.21388809 0.00086555
0.18435805 0.21399265 0.00087405
0.21504945 0.21410061 0.00091892
0.24576631 0.21421323 0.00103353
0.27648987 0.21433526 0.00122862
0.30720434 0.21447151 0.00148492
0.33790637 0.21462375 0.00176593
0.36860384 0.21479041 0.00203945
0.39930738 0.21496858 0.00229087
0.43002347 0.21515604 0.00252207
0.46075330 0.21535184 0.00274234
0.49149516 0.21555586 0.00296067
0.52224699 0.21576820 0.00318264
0.55300734 0.21598887 0.00341081
0.58377542 0.21621776 0.00364599
0.61455080 0.21645467 0.00388829
0.64533318 0.21669935 0.00413756
0.67612233 0.21695158 0.00439358
0.70691800 0.21721111 0.00465613
0.73771997 0.21747768 0.00492497
0.76852801 0.21775107 0.00519988
0.79934187 0.21803101 0.00548062
0.83016134 0.21831726 0.00576697
0.86098618 0.21860959 0.00605868
0.89181616 0.21890774 0.00635553
0.92265104 0.21921146 0.00665729
0.95349060 0.21952052 0.00696373
0.98433460 0.21983466 0.00727460
0.00094333 0.24424766 0.00094333
0.03157771 0.24433138 0.00104421
0.06222067 0.24442743 0.00115223
0.09287090 0.24453602 0.00126346
0.12352823 0.24465703 0.00137306
0.15419493 0.24478961 0.00147812
0.18487579 0.24493193 0.00158195
0.21557547 0.24508193 0.00169638
0.24629444 0.24523855 0.00183808
0.27702735 0.24540258 0.00201935
0.30776605 0.24557604 0.00223994
0.33850498 0.24576064 0.00248709
0.36924397 0.24595673 0.00274365
0.39998661 0.24616339 0.00299738
0.43073672 0.24637936 0.00324450
0.46149612 0.24660369 0.00348746
0.49226478 0.24683593 0.00373061
0.52304182 0.24707589 0.00397744
0.55382637 0.24732342 0.00422979
0.58461782 0.24757835 0.00448838
0.61541579 0.24784048 0.00475328
0.64621999 0.24810956 0.00502437
0.67703018 0.24838536 0.00530143
0.70784611 0.24866763 0.00558424
0.73866756 0.24895612 0.00587256
0.76949430 0.24925060 0.00616617
0.80032609 0.24955080 0.00646484
0.83116270 0.24985650 0.00676833
0.86200390 0.25016744 0.00707640
0.89284947 0.25048337 0.00738884
0.92369916 0.25080405 0.00770541
0.95455274 0.25112925 0.00802587
0.98540999 0.25145870 0.00834999
0.00133177 0.27510621 0.00133177
0.03200222 0.27522764 0.00146904
0.06268203 0.27536004 0.00161540
0.09337054 0.27550332 0.00176961
0.12406720 0.27565739 0.00192985
0.15477199 0.27582201 0.00209424
0.18548588 0.27599661 0.00226219
0.21621059 0.27618028 0.00243594
0.24694739 0.27637213 0.00262079
0.27769573 0.27657176 0.00282277
0.30845317 0.27677942 0.00304494
0.33921676 0.27699572 0.00328520
0.36998487 0.27722104 0.00353753
0.40075772 0.27745524 0.00379562
0.43153649 0.27769782 0.00405580
0.46232215 0.27794820 0.00431751
0.49311498 0.27820593 0.00458194
0.52391472 0.27847071 0.00485057
0.55472090 0.27874231 0.00512436
0.58553314 0.27902051 0.00540369
0.61635108 0.27930508 0.00568857
0.64717448 0.27959578 0.00597885
0.67800308 0.27989237 0.00627433
0.70883666 0.28019460 0.00657478
0.73967497 0.28050223 0.00687997
0.77051778 0.28081501 0.00718966
0.80136488 0.28113271 0.00750363
0.83221601 0.28145506 0.00782164
0.86307096 0.28178183 0.00814346
0.89392949 0.28211277 0.00846886
0.92479136 0.28244764 0.00879761
0.95565636 0.28278618 0.00912948
0.98652424 0.28312816 0.00946424
0.00183354 0.30608997 0.00183354
0.03253640 0.30624667 0.00200327
0.06324824 0.30641338 0.00218193
0.09396871 0.30658988 0.00236910
0.12469745 0.30677599 0.00256413
0.15543416 0.30697151 0.00276628
0.18617875 0.30717617 0.00297485
0.21693145 0.30738957 0.00318979
0.24769261 0.30761127 0.00341201
0.27846235 0.30784083 0.00364323
0.30924017 0.30807801 0.00388500
0.34002509 0.30832274 0.00413758
0.37081613 0.30857505 0.00439961
0.40161280 0.30883485 0.00466887
0.43241510 0.30910191 0.00494342
0.46322322 0.30937589 0.00522232
0.49403721 0.30965645 0.00550546
0.52485694 0.30994331 0.00579317
0.55568215 0.31023620 0.00608570
0.58651255 0.31053488 0.00638312
0.61734786 0.31083911 0.00668534
0.64818783 0.31114865 0.00699220
0.67903223 0.31146325 0.00730348
0.70988082 0.31178266 0.00761895
0.74073337 0.31210665 0.00793837
0.77158965 0.31243497 0.00826152
0.80244942 0.31276737 0.00858817
0.83331246 0.31310360 0.00891809
0.86417853 0.31344343 0.00925103
0.89504740 0.31378660 0.00958678
0.92591885 0.31413286 0.00992510
0.95679263 0.31448198 0.01026575
0.98766851 0.31483371 0.01060851
0.00244029 0.33718942 0.00244029
0.03317273 0.33737869 0.00263960
0.06391343 0.33757712 0.00284717
0.09466214 0.33778446 0.00306274
0.12541861 0.33800048 0.00328600
0.15618257 0.33822495 0.00351661
0.18695377 0.33845763 0.00375418
0.21773205 0.33869827 0.00399842
0.24851731 0.33894657 0.00424920
0.27930947 0.33920223 0.00450671
0.31010834 0.33946496 0.00477124
0.34091358 0.33973454 0.00504293
0.37172475 0.34001077 0.00532154
0.40254148 0.34029347 0.00560643
0.43336349 0.34058243 0.00589682
0.46419063 0.34087741 0.00619211
0.49502277 0.34117812 0.00649198
0.52585974 0.34148431 0.00679629
0.55670131 0.34179573 0.00710495
0.58754724 0.34211211 0.00741783
0.61839729 0.34243322 0.00773479
0.64925123 0.34275882 0.00805560
0.68010880 0.34308865 0.00838005
0.71096979 0.34342247 0.00870792
0.74183396 0.34376004 0.00903896
0.77270108 0.34410111 0.00937295
0.80357091 0.34444544 0.00970966
0.83444323 0.34479277 0.01004886
0.86531781 0.34514287 0.01039031
0.89619440 0.34549549 0.01073378
0.92707279 0.34585038 0.01107904
0.95795274 0.34620729 0.01142586
0.98883401 0.34656599 0.01177401
0.00314329 0.36839520 0.00314329
0.03390265 0.36861428 0.00336952
0.06466950 0.36884167 0.00360325
0.09544361 0.36907715 0.00384423
0.12622474 0.36932046 0.00409223
0.15701267 0.36957136 0.00434700
0.18780713 0.36982961 0.00460828
0.21860792 0.37009497 0.00487580
0.24941481 0.37036718 0.00514932
0.28022761 0.37064599 0.00542868
0.31104611 0.37093115 0.00571373
0.34187007 0.37122238 0.00600436
0.37269924 0.37151947 0.00630040
0.40353335 0.37182217 0.00660157
0.43437213 0.37213026 0.00690754
0.46521536 0.37244349 0.00721796
0.49606282 0.37276161 0.00753254
0.52691430 0.37308438 0.00785105
0.55776957 0.37341154 0.00817327
0.58862841 0.37374286 0.00849902
0.61949058 0.37407807 0.00882808
0.65035585 0.37441695 0.00916023
0.68122399 0.37475923 0.00949524
0.71209475 0.37510468 0.00983288
0.74296792 0.37545305 0.01017292
0.77384326 0.37580409 0.01051513
0.80472053 0.37615757 0.01085928
0.83559951 0.37651322 0.01120514
0.86647997 0.37687082 0.01155247
0.89736167 0.37723010 0.01190104
0.92824438 0.37759083 0.01225063
0.95912787 0.37795277 0.01260100
0.99001191 0.37831566 0.01295191
0.00393374 0.39969795 0.00393374
0.03471739 0.39994405 0.00418426
0.06550775 0.40019764 0.00444150
0.09630461 0.40045849 0.00470523
0.12710771 0.40072634 0.00497521
0.15791683 0.40100095 0.00525121
0.18873175 0.40128208 0.00553299
0.21955221 0.40156947 0.00582031
0.25037800 0.40186290 0.00611294
0.28120889 0.40216210 0.00641065
0.31204465 0.40246683 0.00671323
0.34288505 0.40277684 0.00702045
0.37372986 0.40309189 0.00733211
0.40457885 0.40341174 0.00764798
0.43543176 0.40373613 0.00796782
0.46628838 0.40406483 0.00829137
0.49714846 0.40439759 0.00861839
0.52801179 0.40473416 0.00894862
0.55887812 0.40507430 0.00928186
0.58974724 0.40541777 0.00961786
0.62061891 0.40576431 0.00995641
0.65149289 0.40611368 0.01029727
0.68236896 0.40646564 0.01064021
0.71324689 0.40681993 0.01098501
0.74412643 0.40717632 0.01133143
0.77500737 0.40753456 0.01167924
0.80588946 0.40789440 0.01202821
0.83677248 0.40825560 0.01237811
0.86765620 0.40861791 0.01272870
0.89854039 0.40898108 0.01307976
0.92942480 0.40934488 0.01343105
0.96030922 0.40970905 0.01378234
0.99119341 0.41007335 0.01413341
0.00480281 0.43108833 0.00480281
0.03560813 0.43135867 0.00507501
0.06641940 0.43163568 0.00535315
0.09723637 0.43191911 0.00563699
0.12805881 0.43220873 0.00592631
0.15888649 0.43250428 0.00622087
0.18971919 0.43280551 0.00652044
0.22055666 0.43311219 0.00682479
0.25139869 0.43342407 0.00713368
0.28224503 0.43374090 0.00744689
0.31309545 0.43406244 0.00776418
0.34394973 0.43438843 0.00808533
0.37480763 0.43471864 0.00841010
0.40566893 0.43505282 0.00873826
0.43653338 0.43539072 0.00906960
0.46740076 0.43573210 0.00940386
0.49827084 0.43607671 0.00974082
0.52914337 0.43642431 0.01008024
0.56001814 0.43677465 0.01042189
0.59089491 0.43712749 0.01076554
0.62177345 0.43748258 0.01111095
0.65265353 0.43783967 0.01145791
0.68353492 0.43819852 0.01180617
0.71441738 0.43855888 0.01215550
0.74530068 0.43892051 0.01250568
0.77618459 0.43928317 0.01285647
0.80706889 0.43964660 0.01320764
0.83795333 0.44001056 0.01355896
0.86883769 0.44037480 0.01391019
0.89972174 0.44073909 0.01426111
0.93060524 0.44110317 0.01461149
0.96148796 0.44146680 0.01496108
0.99236967 0.44182973 0.01530967
0.00574170 0.46255697 0.00574170
0.03656608 0.46284878 0.00603295
0.06739561 0.46314643 0.00632936
0.09823008 0.46344967 0.00663070
0.12906924 0.46375827 0.00693674
0.15991286 0.46407198 0.00724723
0.19076071 0.46439055 0.00756196
0.22161257 0.46471374 0.00788070
0.25246820 0.46504130 0.00820320
0.28332736 0.46537298 0.00852923
0.31418983 0.46570854 0.00885857
0.34505537 0.46604774 0.00919099
0.37592376 0.46639032 0.00952625
0.40679475 0.46673605 0.00986412
0.43766813 0.46708468 0.01020438
0.46854366 0.46743596 0.01054678
0.49942110 0.46778964 0.01089110
0.53030023 0.46814549 0.01123710
0.56118081 0.46850325 0.01158456
0.59206261 0.46886268 0.01193323
0.62294540 0.46922353 0.01228290
0.65382896 0.46958556 0.01263333
0.68471304 0.46994853 0.01298429
0.71559741 0.47031218 0.01333554
0.74648185 0.47067627 0.01368685
0.77736612 0.47104056 0.01403800
0.80825000 0.47140480 0.01438875
0.83913324 0.47176874 0.01473886
0.87001562 0.47213215 0.01508812
0.90089691 0.47249476 0.01543628
0.93177687 0.47285635 0.01578312
0.96265528 0.47321665 0.01612840
0.99353189 0.47357544 0.01647189
0.00674159 0.49409454 0.00674159
0.03758240 0.49440503 0.00704927
0.06842759 0.49472054 0.00736134
0.09927693 0.49504081 0.00767755
0.13013018 0.49536562 0.00799768
0.16098712 0.49569471 0.00832150
0.19184752 0.49602783 0.00864877
0.22271113 0.49636475 0.00897925
0.25357773 0.49670521 0.00931273
0.28444710 0.49704897 0.00964897
0.31531899 0.49739578 0.00998774
0.34619318 0.49774540 0.01032880
0.37706943 0.49809758 0.01067192
0.40794751 0.49845208 0.01101688
0.43882719 0.49880865 0.01136344
0.46970824 0.49916705 0.01171137
0.50059043 0.49952702 0.01206043
0.53147353 0.49988833 0.01241041
0.56235730 0.50025073 0.01276105
0.59324152 0.50061398 0.01311214
0.62412594 0.50097782 0.01346344
0.65501035 0.50134201 0.01381472
0.68589450 0.50170631 0.01416575
0.71677817 0.50207047 0.01451630
0.74766113 0.50243424 0.01486613
0.77854314 0.50279739 0.01521501
0.80942397 0.50315966 0.01556272
0.84030339 0.50352081 0.01590902
0.87118117 0.50388059 0.01625367
0.90205708 0.50423876 0.01659646
0.93293089 0.50459507 0.01693714
0.96380236 0.50494927 0.01727548
0.99467126 0.50530113 0.01761126
0.00779366 0.52569168 0.00779366
0.03864828 0.52601807 0.00811516
0.06950651 0.52634866 0.00844026
0.10036810 0.52668319 0.00876872
0.13123283 0.52702142 0.00910033
0.16210047 0.52736311 0.00943484
0.19297078 0.52770801 0.00977203
0.22384353 0.52805587 0.01011165
0.25471849 0.52840646 0.01045349
0.28559544 0.52875951 0.01079731
0.31647413 0.52911479 0.01114288
0.34735434 0.52947206 0.01148996
0.37823583 0.52983106 0.01183833
0.40911838 0.53019155 0.01218775
0.44000175 0.53055328 0.01253800
0.47088571 0.53091602 0.01288883
0.50177002 0.53127951 0.01324002
0.53265447 0.53164350 0.01359134
0.56353881 0.53200776 0.01394256
0.59442281 0.53237204 0.01429344
0.62530625 0.53273609 0.01464375
0.65618889 0.53309966 0.01499327
0.68707050 0.53346252 0.01534175
0.71795084 0.53382441 0.01568897
0.74882970 0.53418509 0.01603470
0.77970682 0.53454431 0.01637870
0.81058199 0.53490183 0.01672074
0.84145497 0.53525740 0.01706060
0.87232553 0.53561078 0.01739803
0.90319344 0.53596172 0.01773282
0.93405847 0.53630998 0.01806472
0.96492038 0.53665530 0.01839351
0.99577895 0.53699745 0.01871895
0.00888910 0.55733904 0.00888910
0.03975491 0.55767856 0.00922179
0.07062355 0.55802144 0.00955730
0.10149478 0.55836745 0.00989540
0.13236836 0.55871633 0.01023586
0.16324407 0.55906784 0.01057845
0.19412168 0.55942174 0.01092293
0.22500095 0.55977777 0.01126908
0.25588165 0.56013569 0.01161665
0.28676356 0.56049526 0.01196543
0.31764643 0.56085624 0.01231518
0.34853004 0.56121836 0.01266567
0.37941416 0.56158140 0.01301666
0.41029855 0.56194510 0.01336792
0.44118298 0.56230923 0.01371923
0.47206723 0.56267352 0.01407035
0.50295105 0.56303774 0.01442105
0.53383423 0.56340165 0.01477110
0.56471652 0.56376499 0.01512027
0.59559769 0.56412752 0.01546832
0.62647752 0.56448900 0.01581502
0.65735577 0.56484917 0.01616015
0.68823221 0.56520780 0.01650346
0.71910661 0.56556464 0.01684474
0.74997874 0.56591945 0.01718374
0.78084836 0.56627197 0.01752024
0.81171525 0.56662196 0.01785400
0.84257917 0.56696918 0.01818479
0.87343989 0.56731337 0.01851239
0.90429718 0.56765431 0.01883655
0.93515081 0.56799173 0.01915706
0.96600054 0.56832540 0.01947367
0.99684615 0.56865506 0.01978615
0.01001909 0.58902727 0.01001909
0.04089348 0.58937714 0.01036035
0.07176990 0.58972954 0.01070365
0.10264814 0.59008424 0.01104877
0.13352796 0.59044099 0.01139546
0.16440913 0.59079955 0.01174351
0.19529141 0.59115966 0.01209266
0.22617458 0.59152108 0.01244271
0.25705840 0.59188357 0.01279340
0.28794265 0.59224687 0.01314452
0.31882708 0.59261076 0.01349583
0.34971147 0.59297497 0.01384710
0.38059559 0.59333927 0.01419809
0.41147921 0.59370340 0.01454858
0.44236208 0.59406713 0.01489833
0.47324400 0.59443020 0.01524712
0.50412471 0.59479238 0.01559471
0.53500399 0.59515341 0.01594086
0.56588161 0.59551305 0.01628536
0.59675733 0.59587106 0.01662796
0.62763093 0.59622719 0.01696843
0.65850217 0.59658119 0.01730655
0.68937083 0.59693282 0.01764208
0.72023666 0.59728183 0.01797478
0.75109944 0.59762797 0.01830444
0.78195894 0.59797101 0.01863081
0.81281492 0.59831069 0.01895367
0.84366716 0.59864678 0.01927279
0.87451542 0.59897902 0.01958792
0.90535947 0.59930716 0.01989884
0.93619908 0.59963097 0.02020533
0.96703401 0.59995020 0.02050714
0.99786405 0.60026460 0.02080405
0.01117482 0.62074703 0.01117482
0.04205515 0.62110446 0.01152203
0.07293675 0.62146361 0.01187050
0.10381939 0.62182422 0.01222001
0.13470282 0.62218606 0.01257032
0.16558682 0.62254888 0.01292120
0.19647116 0.62291242 0.01327241
0.22735561 0.62327645 0.01362373
0.25823993 0.62364073 0.01397493
0.28912389 0.62400499 0.01432576
0.32000726 0.62436901 0.01467601
0.35088981 0.62473253 0.01502544
0.38177132 0.62509530 0.01537382
0.41265153 0.62545709 0.01572091
0.44353024 0.62581764 0.01606649
0.47440719 0.62617672 0.01641032
0.50528217 0.62653407 0.01675217
0.53615494 0.62688945 0.01709181
0.56702526 0.62724262 0.01742901
0.59789292 0.62759332 0.01776354
0.62875767 0.62794132 0.01809517
0.65961928 0.62828636 0.01842365
0.69047752 0.62862820 0.01874877
0.72133217 0.62896661 0.01907030
0.75218299 0.62930132 0.01938799
0.78302974 0.62963209 0.01970162
0.81387220 0.62995869 0.02001095
0.84471014 0.63028086 0.02031576
0.87554331 0.63059836 0.02061581
0.90637150 0.63091094 0.02091088
0.93719447 0.63121836 0.02120072
0.96801199 0.63152037 0.02148511
0.99882382 0.63181672 0.02176382
0.01234747 0.65248895 0.01234747
0.04323113 0.65285117 0.01269801
0.07411528 0.65321428 0.01304903
0.10499969 0.65357803 0.01340031
0.13588412 0.65394218 0.01375162
0.16676833 0.65430648 0.01410271
0.19765211 0.65467068 0.01445336
0.22853521 0.65503455 0.01480333
0.25941740 0.65539782 0.01515240
0.29029846 0.65576027 0.01550034
0.32117816 0.65612163 0.01584691
0.35205625 0.65648168 0.01619188
0.38293251 0.65684016 0.01653501
0.41380671 0.65719682 0.01687609
0.44467862 0.65755142 0.01721487
0.47554800 0.65790372 0.01755112
0.50641462 0.65825346 0.01788462
0.53727826 0.65860041 0.01821513
0.56813867 0.65894432 0.01854242
0.59899563 0.65928494 0.01886626
0.62984891 0.65962203 0.01918641
0.66069828 0.65995533 0.01950265
0.69154349 0.66028462 0.01981474
0.72238433 0.66060963 0.02012246
0.75322056 0.66093013 0.02042556
0.78405195 0.66124587 0.02072382
0.81487827 0.66155660 0.02101702
0.84569928 0.66186207 0.02130490
0.87651475 0.66216205 0.02158725
0.90732446 0.66245629 0.02186384
