assets/luts/DB_Sodium_Cinema_Rec709_50.cube
TITLE "Sodium Cinema Rec709 50"
# Red changes fastest. Full-range normalized input.
LUT_3D_SIZE 33
DOMAIN_MIN 0 0 0
DOMAIN_MAX 1 1 1
0.00400000 0.00400000 0.00400000
0.03271130 0.00341039 0.00351529
0.06176911 0.00276847 0.00295257
0.09090591 0.00215683 0.00241188
0.11975741 0.00168886 0.00202711
0.14810211 0.00143381 0.00187720
0.17600501 0.00137118 0.00193485
0.20374057 0.00141440 0.00209701
0.23158926 0.00147448 0.00226031
0.25969373 0.00150548 0.00237300
0.28805373 0.00150643 0.00243559
0.31660106 0.00149784 0.00247282
0.34526706 0.00150049 0.00250915
0.37400864 0.00152719 0.00255954
0.40280544 0.00158355 0.00263067
0.43164955 0.00167129 0.00272469
0.46053810 0.00179050 0.00284197
0.48946983 0.00194078 0.00298232
0.51844387 0.00212161 0.00314538
0.54745945 0.00233243 0.00333078
0.57651581 0.00257269 0.00353813
0.60561219 0.00284181 0.00376705
0.63474783 0.00313923 0.00401715
0.66392198 0.00346440 0.00428806
0.69313388 0.00381675 0.00457939
0.72238276 0.00419572 0.00489074
0.75166788 0.00460075 0.00522175
0.78098848 0.00503127 0.00557202
0.81034379 0.00548673 0.00594118
0.83973306 0.00596656 0.00632883
0.86915554 0.00647019 0.00673459
0.89861046 0.00699708 0.00715809
0.92809706 0.00754665 0.00759893
0.00133349 0.03174910 0.00273511
0.03013776 0.03130152 0.00205545
0.05945611 0.03074466 0.00122771
0.08911372 0.03013740 0.00042839
0.11853140 0.02965451 0.00000000
0.14740102 0.02940920 0.00000000
0.17594061 0.02935421 0.00023936
0.20370620 0.02957668 0.00087409
0.23137385 0.02987764 0.00151959
0.25927154 0.03015035 0.00202540
0.28751695 0.03035674 0.00236310
0.31606372 0.03051181 0.00258001
0.34481071 0.03064802 0.00273850
0.37367514 0.03079161 0.00288329
0.40261058 0.03095691 0.00303742
0.43159690 0.03114968 0.00320998
0.46062680 0.03137148 0.00340369
0.48969771 0.03162234 0.00361899
0.51880845 0.03190184 0.00385567
0.54795820 0.03220943 0.00411339
0.57714618 0.03254456 0.00439178
0.60637163 0.03290667 0.00469044
0.63563379 0.03329519 0.00500900
0.66493192 0.03370957 0.00534706
0.69426524 0.03414923 0.00570425
0.72363300 0.03461363 0.00608019
0.75303445 0.03510219 0.00647448
0.78246882 0.03561435 0.00688674
0.81193537 0.03614956 0.00731659
0.84143332 0.03670725 0.00776365
0.87096193 0.03728686 0.00822753
0.90052044 0.03788782 0.00870785
0.93010809 0.03850958 0.00920422
0.00000000 0.05965953 0.00260456
0.02808366 0.05964721 0.00121911
0.05736079 0.05925386 0.00013282
0.08674455 0.05876482 0.00000000
0.11580304 0.05844699 0.00000000
0.14476957 0.05830011 0.00000000
0.17385268 0.05828183 0.00000000
0.20315354 0.05833180 0.00000000
0.23178320 0.05859807 0.00056292
0.25954934 0.05909281 0.00161433
0.28764175 0.05951763 0.00237209
0.31611712 0.05985556 0.00286647
0.34488801 0.06013712 0.00319723
0.37384084 0.06040055 0.00345550
0.40289581 0.06067214 0.00369656
0.43201235 0.06096478 0.00394575
0.46117411 0.06128312 0.00421212
0.49037542 0.06162827 0.00449814
0.51961426 0.06200008 0.00480413
0.54888959 0.06239809 0.00512984
0.57820061 0.06282173 0.00547491
0.60754656 0.06327047 0.00583897
0.63692668 0.06374372 0.00622163
0.66634020 0.06424094 0.00662251
0.69578637 0.06476157 0.00704122
0.72526444 0.06530502 0.00747738
0.75477365 0.06587076 0.00793061
0.78431323 0.06645821 0.00840052
0.81388243 0.06706681 0.00888672
0.84348050 0.06769600 0.00938884
0.87310667 0.06834522 0.00990649
0.90276019 0.06901390 0.01043929
0.93244031 0.06970149 0.01098685
0.00000000 0.08770994 0.00364370
0.02672657 0.08838127 0.00121268
0.05580695 0.08820127 0.00013192
0.08538278 0.08777898 0.00000000
0.11473053 0.08746748 0.00000000
0.14390540 0.08734018 0.00000000
0.17307769 0.08740022 0.00000000
0.20239815 0.08759756 0.00000000
0.23192945 0.08785268 0.00000000
0.26018652 0.08840636 0.00122567
0.28826793 0.08900431 0.00244705
0.31669720 0.08951533 0.00329193
0.34546870 0.08994505 0.00385094
0.37448124 0.09033051 0.00425176
0.40363503 0.09070674 0.00458981
0.43286810 0.09109478 0.00491626
0.46215148 0.09150391 0.00525238
0.49147419 0.09193714 0.00560512
0.52083245 0.09239494 0.00597612
0.55022479 0.09287700 0.00636548
0.57965028 0.09338280 0.00677290
0.60910815 0.09391180 0.00719801
0.63859764 0.09446344 0.00764043
0.66811799 0.09503714 0.00809977
0.69766845 0.09563236 0.00857566
0.72724825 0.09624852 0.00906771
0.75685664 0.09688507 0.00957552
0.78649285 0.09754144 0.01009873
0.81615614 0.09821707 0.01063695
0.84584575 0.09891140 0.01118979
0.87556091 0.09962387 0.01175686
0.90530088 0.10035391 0.01233779
0.93506488 0.10110097 0.01293219
0.00000000 0.11637226 0.00458576
0.02608998 0.11746240 0.00182094
0.05504041 0.11748577 0.00105712
0.08435862 0.11741244 0.00000000
0.11404498 0.11713983 0.00000000
0.14356928 0.11700183 0.00000000
0.17300141 0.11705120 0.00000000
0.20246700 0.11728242 0.00000000
0.23207176 0.11763205 0.00000000
0.26078715 0.11820449 0.00125688
0.28912719 0.11887747 0.00276024
0.31765953 0.11950710 0.00390245
0.34648278 0.12006276 0.00469530
0.37555750 0.12056266 0.00525512
0.40479840 0.12103932 0.00569983
0.43413572 0.12151804 0.00610565
0.46353035 0.12201234 0.00650945
0.49296527 0.12252752 0.00692519
0.52243423 0.12306501 0.00735702
0.55193495 0.12362477 0.00780571
0.58146633 0.12420638 0.00827113
0.61102756 0.12480928 0.00875295
0.64061785 0.12543293 0.00925078
0.67023646 0.12607676 0.00976424
0.69988262 0.12674021 0.01029296
0.72955558 0.12742271 0.01083654
0.75925458 0.12812371 0.01139461
0.78897886 0.12884265 0.01196677
0.81872766 0.12957895 0.01255265
0.84850023 0.13033206 0.01315186
0.87829581 0.13110142 0.01376401
0.90811365 0.13188646 0.01438873
0.93795297 0.13268663 0.01502563
0.00000000 0.14559845 0.00533329
0.02604985 0.14688078 0.00269518
0.05502551 0.14706267 0.00236831
0.08417124 0.14721355 0.00174529
0.11359185 0.14730450 0.00088857
0.14330299 0.14734635 0.00004986
0.17307717 0.14739151 0.00000000
0.20282092 0.14759307 0.00000000
0.23225052 0.14796801 0.00077196
0.26124832 0.14852385 0.00215200
0.29004100 0.14918291 0.00359987
0.31885455 0.14985651 0.00483802
0.34783560 0.15049265 0.00577674
0.37701431 0.15108463 0.00646900
0.40634912 0.15165104 0.00701553
0.43578469 0.15221367 0.00749945
0.46528168 0.15278703 0.00796849
0.49481984 0.15337799 0.00844365
0.52439075 0.15398888 0.00893217
0.55399125 0.15462001 0.00943589
0.58361994 0.15527106 0.00995498
0.61327594 0.15594151 0.01048916
0.64295847 0.15663081 0.01103806
0.67266676 0.15733841 0.01160130
0.70240005 0.15806373 0.01217850
0.73215760 0.15880621 0.01276928
0.76193863 0.15956531 0.01337324
0.79174240 0.16034044 0.01399002
0.82156815 0.16113105 0.01461921
0.85141511 0.16193658 0.01526045
0.88128254 0.16275647 0.01591333
0.91116967 0.16359015 0.01657749
0.94107574 0.16443706 0.01725254
0.00000000 0.17534948 0.00585839
0.02647529 0.17663397 0.00365459
0.05557626 0.17693340 0.00368401
0.08474401 0.17723844 0.00354702
0.11403917 0.17752827 0.00322436
0.14351380 0.17779223 0.00280281
0.17315323 0.17804857 0.00248764
0.20284843 0.17834724 0.00252007
0.23244583 0.17874444 0.00303507
0.26184816 0.17926513 0.00397076
0.29107716 0.17988655 0.00511057
0.32024390 0.18055698 0.00621947
0.34946435 0.18123002 0.00715970
0.37879852 0.18188503 0.00791355
0.40824717 0.18252475 0.00853408
0.43778239 0.18316161 0.00908608
0.46737568 0.18380692 0.00961546
0.49700888 0.18446722 0.01014592
0.52667317 0.18514516 0.01068694
0.55636484 0.18584131 0.01124141
0.58608226 0.18655544 0.01180984
0.61582447 0.18728708 0.01239203
0.64559065 0.18803568 0.01298765
0.67538005 0.18880068 0.01359633
0.70519191 0.18958151 0.01421767
0.73502547 0.19037762 0.01485129
0.76487997 0.19118844 0.01549681
0.79475465 0.19201342 0.01615384
0.82464877 0.19285198 0.01682201
0.85456155 0.19370357 0.01750092
0.88449225 0.19456763 0.01819020
0.91444010 0.19544359 0.01888945
0.94440435 0.19633089 0.01959830
0.00000000 0.20559535 0.00617582
0.02730359 0.20670964 0.00470258
0.05655094 0.20710382 0.00494916
0.08583216 0.20751826 0.00513504
0.11516747 0.20794368 0.00523022
0.14458738 0.20837045 0.00524208
0.17411132 0.20879727 0.00524262
0.20372061 0.20923868 0.00535764
0.23335436 0.20972169 0.00570520
0.26294291 0.21026982 0.00632150
0.29245453 0.21088678 0.00713600
0.32191315 0.21155454 0.00801846
0.35137369 0.21224674 0.00885578
0.38088296 0.21294433 0.00959806
0.41045919 0.21364152 0.01025341
0.44009697 0.21434176 0.01085570
0.46978232 0.21505108 0.01143711
0.49950323 0.21577393 0.01201769
0.52925258 0.21651248 0.01260678
0.55902688 0.21726728 0.01320765
0.58882446 0.21803814 0.01382107
0.61864429 0.21882461 0.01444694
0.64848556 0.21962614 0.01508494
0.67834749 0.22044218 0.01573470
0.70822934 0.22127216 0.01639583
0.73813034 0.22211554 0.01706795
0.76804973 0.22297173 0.01775068
0.79798676 0.22384018 0.01844364
0.82794067 0.22472034 0.01914643
0.85791070 0.22561163 0.01985868
0.88789610 0.22651349 0.02057999
0.91789610 0.22742537 0.02131000
0.94790995 0.22834669 0.02204830
0.00000000 0.23630833 0.00630404
0.02851700 0.23708675 0.00589812
0.05789616 0.23756510 0.00626464
0.08730457 0.23806649 0.00662374
0.11674536 0.23858784 0.00695890
0.14622794 0.23912474 0.00726068
0.17576452 0.23967367 0.00754180
0.20535991 0.24023582 0.00784488
0.23500183 0.24081898 0.00822894
0.26466323 0.24143418 0.00873677
0.29431857 0.24208842 0.00936675
0.32396060 0.24277955 0.01007369
0.35360250 0.24349791 0.01079799
0.38326518 0.24423289 0.01149767
0.41296330 0.24497822 0.01216062
0.44270035 0.24573279 0.01279616
0.47247243 0.24649833 0.01342005
0.50227380 0.24727684 0.01404476
0.53210005 0.24806948 0.01467715
0.56194851 0.24887653 0.01532001
0.59181768 0.24969775 0.01597407
0.62170657 0.25053268 0.01663927
0.65161435 0.25138079 0.01731530
0.68154025 0.25224151 0.01800180
0.71148352 0.25311429 0.01869838
0.74144338 0.25399856 0.01940466
0.77141910 0.25489377 0.02012025
0.80140990 0.25579934 0.02084478
0.83141503 0.25671472 0.02157785
0.86143374 0.25763935 0.02231908
0.89146526 0.25857266 0.02306810
0.92150884 0.25951410 0.02382451
0.95156372 0.26046309 0.02458793
0.00064027 0.26720868 0.00684951
0.03010333 0.26774200 0.00727657
0.05959686 0.26829794 0.00771825
0.08911948 0.26887583 0.00817062
0.11867048 0.26947462 0.00862777
0.14825093 0.27009270 0.00908363
0.17786411 0.27072818 0.00953676
0.20751366 0.27137989 0.00999563
0.23719973 0.27204862 0.01047913
0.26691634 0.27273726 0.01100847
0.29665350 0.27344903 0.01159431
0.32640333 0.27418498 0.01222933
0.35616468 0.27494295 0.01289299
0.38594230 0.27571890 0.01356399
0.41574216 0.27650922 0.01423031
0.44556747 0.27731202 0.01489061
0.47541805 0.27812702 0.01554956
0.50529188 0.27895452 0.01621264
0.53518673 0.27979477 0.01688351
0.56510087 0.28064767 0.01756389
0.59503310 0.28151288 0.01825422
0.62498247 0.28238992 0.01895440
0.65494819 0.28327824 0.01966412
0.68492949 0.28417728 0.02038301
0.71492559 0.28508649 0.02111069
0.74493575 0.28600531 0.02184678
0.77495921 0.28693316 0.02259089
0.80499521 0.28786949 0.02334264
0.83504300 0.28881375 0.02410165
0.86510180 0.28976535 0.02486753
0.89517088 0.29072375 0.02563989
0.92524947 0.29168838 0.02641836
0.95533680 0.29265868 0.02720255
0.00247585 0.29804597 0.00835869
0.03204239 0.29865276 0.00884331
0.06163765 0.29928021 0.00934346
0.09126070 0.29992776 0.00985804
0.12091055 0.30059479 0.01038532
0.15058655 0.30128056 0.01092308
0.18028863 0.30198414 0.01146946
0.21001736 0.30270463 0.01202468
0.23977320 0.30344145 0.01259237
0.26955535 0.30419463 0.01317882
0.29936123 0.30496471 0.01378967
0.32918746 0.30575207 0.01442609
0.35903163 0.30655631 0.01508375
0.38889331 0.30737616 0.01575543
0.41877339 0.30821005 0.01643500
0.44867278 0.30905667 0.01711970
0.47859156 0.30991528 0.01780971
0.50852896 0.31078546 0.01850645
0.53848385 0.31166692 0.01921123
0.56845514 0.31255930 0.01992468
0.59844186 0.31346214 0.02064691
0.62844316 0.31437492 0.02137772
0.65845824 0.31529709 0.02211677
0.68848636 0.31622809 0.02286371
0.71852673 0.31716738 0.02361815
0.74857862 0.31811437 0.02437970
0.77864125 0.31906851 0.02514798
0.80871388 0.32002925 0.02592262
0.83879574 0.32099600 0.02670321
0.86888607 0.32196823 0.02748938
0.89898413 0.32294535 0.02828075
0.92908915 0.32392682 0.02907694
0.95920037 0.32491207 0.02987754
0.00464716 0.32912324 0.01005235
0.03430810 0.32979721 0.01058925
0.06399539 0.33048993 0.01114075
0.09370824 0.33120085 0.01170636
0.12344582 0.33192939 0.01228547
0.15320733 0.33267498 0.01287728
0.18299205 0.33343700 0.01348091
0.21279945 0.33421479 0.01409574
0.24262913 0.33500771 0.01472183
0.27248060 0.33581526 0.01536014
0.30235303 0.33663705 0.01601208
0.33224514 0.33747280 0.01667854
0.36215558 0.33832212 0.01735901
0.39208326 0.33918441 0.01805171
0.42202760 0.34005890 0.01875445
0.45198823 0.34094480 0.01946564
0.48196472 0.34184141 0.02018458
0.51195646 0.34274815 0.02091119
0.54196267 0.34366452 0.02164557
0.57198250 0.34459002 0.02238774
0.60201513 0.34552412 0.02313751
0.63205978 0.34646628 0.02389459
0.66211566 0.34741594 0.02465865
0.69218202 0.34837255 0.02542928
0.72225810 0.34933554 0.02620613
0.75234313 0.35030435 0.02698880
0.78243637 0.35127843 0.02777691
0.81253704 0.35225720 0.02857008
0.84264441 0.35324010 0.02936792
0.87275770 0.35422659 0.03017004
0.90287617 0.35521608 0.03097607
0.93299904 0.35620802 0.03178562
0.96312558 0.35720185 0.03259831
0.00712556 0.36041905 0.01191616
0.03687225 0.36115385 0.01250085
0.06664277 0.36190552 0.01309891
0.09643636 0.36267348 0.01370992
0.12625224 0.36345717 0.01433348
0.15608965 0.36425604 0.01496914
0.18594781 0.36506951 0.01561641
0.21582599 0.36589701 0.01627482
0.24572349 0.36673796 0.01694396
0.27563963 0.36759178 0.01762362
0.30557370 0.36845793 0.01831376
0.33552490 0.36933590 0.01901438
0.36549238 0.37022517 0.01972528
0.39547525 0.37112521 0.02044593
0.42547271 0.37203544 0.02117559
0.45548404 0.37295523 0.02191351
0.48550857 0.37388400 0.02265910
0.51554559 0.37482116 0.02341198
0.54559436 0.37576615 0.02417185
0.57565411 0.37671842 0.02493843
0.60572408 0.37767743 0.02571140
0.63580351 0.37864261 0.02649042
0.66589161 0.37961340 0.02727511
0.69598764 0.38058925 0.02806511
0.72609084 0.38156959 0.02886002
0.75620045 0.38255386 0.02965947
0.78631572 0.38354150 0.03046306
0.81643588 0.38453195 0.03127041
0.84656017 0.38552465 0.03208115
0.87668785 0.38651903 0.03289488
0.90681815 0.38751452 0.03371122
0.93695031 0.38851058 0.03452979
0.96708359 0.38950664 0.03535021
0.00988226 0.39191200 0.01393556
0.03970611 0.39270128 0.01456368
0.06955125 0.39350553 0.01520387
0.09941691 0.39432418 0.01585575
0.12930235 0.39515668 0.01651894
0.15920678 0.39600246 0.01719302
0.18912947 0.39686095 0.01787762
0.21906964 0.39773161 0.01857233
0.24902655 0.39861385 0.01927674
0.27899945 0.39950712 0.01999048
0.30898760 0.40041085 0.02071322
0.33899024 0.40132449 0.02144463
0.36900661 0.40224748 0.02218439
0.39903594 0.40317927 0.02293214
0.42907744 0.40411929 0.02368744
0.45913035 0.40506699 0.02444985
0.48919392 0.40602178 0.02521891
0.51926741 0.40698311 0.02599423
0.54935007 0.40795041 0.02677542
0.57944115 0.40892311 0.02756212
0.60953987 0.40990066 0.02835396
0.63964549 0.41088250 0.02915056
0.66975725 0.41186807 0.02995156
0.69987438 0.41285680 0.03075657
0.72999614 0.41384813 0.03156520
0.76012175 0.41484150 0.03237707
0.79025047 0.41583635 0.03319180
0.82038154 0.41683212 0.03400900
0.85051419 0.41782824 0.03482828
0.88064768 0.41882415 0.03564927
0.91078124 0.41981930 0.03647159
0.94091412 0.42081311 0.03729483
0.97104556 0.42180503 0.03811863
0.01288840 0.42358069 0.01609591
0.04278085 0.42441809 0.01676312
0.07269203 0.42526856 0.01744111
0.10262119 0.42613155 0.01812949
0.13256757 0.42700649 0.01882789
0.16253042 0.42789282 0.01953591
0.19250897 0.42878998 0.02025318
0.22250246 0.42969740 0.02097930
0.25251015 0.43061453 0.02171388
0.28253127 0.43154080 0.02245656
0.31256507 0.43247565 0.02320693
0.34261079 0.43341852 0.02396463
0.37266768 0.43436884 0.02472928
0.40273497 0.43532606 0.02550051
0.43281191 0.43628961 0.02627793
0.46289774 0.43725893 0.02706115
0.49299169 0.43823347 0.02784978
0.52309302 0.43921265 0.02864342
0.55320096 0.44019591 0.02944168
0.58331476 0.44118269 0.03024419
0.61343366 0.44217243 0.03105056
0.64355691 0.44316457 0.03186042
0.67368374 0.44415855 0.03267337
0.70381340 0.44515380 0.03348904
0.73394513 0.44614976 0.03430705
0.76407818 0.44714587 0.03512700
0.79421178 0.44814157 0.03594852
0.82434518 0.44913629 0.03677121
0.85447762 0.45012948 0.03759470
0.88460835 0.45112057 0.03841861
0.91473660 0.45210900 0.03924254
0.94486162 0.45309420 0.04006612
0.97498265 0.45407563 0.04088896
0.01611516 0.45540373 0.01838261
0.04606763 0.45628288 0.01908456
0.07603628 0.45717322 0.01979599
0.10602036 0.45807418 0.02051653
0.13601911 0.45898520 0.02124579
0.16603178 0.45990572 0.02198339
0.19605761 0.46083519 0.02272894
0.22609584 0.46177302 0.02348205
0.25614571 0.46271867 0.02424236
0.28620647 0.46367157 0.02500946
0.31627736 0.46463116 0.02578297
0.34635761 0.46559688 0.02656252
0.37644648 0.46656816 0.02734771
0.40654321 0.46754445 0.02813818
0.43664703 0.46852517 0.02893352
0.46675720 0.46950978 0.02973337
0.49687294 0.47049771 0.03053733
0.52699351 0.47148839 0.03134501
0.55711815 0.47248126 0.03215604
0.58724610 0.47347576 0.03297003
0.61737661 0.47447134 0.03378660
0.64750891 0.47546742 0.03460536
0.67764224 0.47646344 0.03542592
0.70777586 0.47745885 0.03624791
0.73790900 0.47845308 0.03707094
0.76804090 0.47944557 0.03789463
0.79817081 0.48043576 0.03871859
0.82829798 0.48142308 0.03954244
0.85842163 0.48240697 0.04036579
0.88854102 0.48338688 0.04118827
0.91865539 0.48436223 0.04200948
0.94876398 0.48533247 0.04282904
0.97886603 0.48629704 0.04364658
0.01953369 0.48735971 0.02078104
0.04953760 0.48827426 0.02151338
0.07955515 0.48919810 0.02225392
0.10958558 0.49013068 0.02300227
0.13962814 0.49107142 0.02375804
0.16968206 0.49201978 0.02452087
0.19974659 0.49297518 0.02529035
0.22982098 0.49393706 0.02606611
0.25990446 0.49490487 0.02684776
0.28999628 0.49587804 0.02763492
0.32009567 0.49685601 0.02842721
0.35020189 0.49783822 0.02922423
0.38031418 0.49882410 0.03002562
0.41043177 0.49981309 0.03083097
0.44055391 0.50080463 0.03163992
0.47067984 0.50179816 0.03245207
0.50080881 0.50279312 0.03326704
0.53094005 0.50378895 0.03408444
0.56107282 0.50478507 0.03490391
0.59120634 0.50578094 0.03572503
0.62133987 0.50677598 0.03654745
0.65147265 0.50776964 0.03737076
0.68160392 0.50876136 0.03819459
0.71173291 0.50975057 0.03901856
0.74185889 0.51073670 0.03984227
0.77198108 0.51171921 0.04066535
0.80209873 0.51269752 0.04148741
0.83221108 0.51367108 0.04230806
0.86231738 0.51463932 0.04312693
0.89241686 0.51560168 0.04394363
0.92250877 0.51655760 0.04475777
0.95259235 0.51750651 0.04556897
0.98266685 0.51844786 0.04637685
0.02311516 0.51942725 0.02327658
0.05316194 0.52037083 0.02403496
0.08321981 0.52132182 0.02480026
0.11328802 0.52227965 0.02557207
0.14336581 0.52324375 0.02635002
0.17345241 0.52421358 0.02713372
0.20354707 0.52518856 0.02792279
0.23364904 0.52616814 0.02871685
0.26375756 0.52715174 0.02951550
0.29387186 0.52813882 0.03031838
0.32399119 0.52912881 0.03112509
0.35411480 0.53012114 0.03193524
0.38424193 0.53111526 0.03274846
0.41437181 0.53211060 0.03356436
0.44450370 0.53310659 0.03438256
0.47463683 0.53410269 0.03520268
0.50477044 0.53509832 0.03602432
0.53490378 0.53609293 0.03684710
0.56503610 0.53708595 0.03767065
0.59516663 0.53807681 0.03849458
0.62529461 0.53906497 0.03931849
0.65541930 0.54004985 0.04014202
0.68553992 0.54103089 0.04096477
0.71565573 0.54200754 0.04178636
0.74576597 0.54297923 0.04260641
0.77586987 0.54394539 0.04342453
0.80596668 0.54490547 0.04424035
0.83605565 0.54585890 0.04505346
0.86613602 0.54680513 0.04586350
0.89620702 0.54774358 0.04667007
0.92626790 0.54867370 0.04747280
0.95631791 0.54959493 0.04827130
0.98635628 0.55050670 0.04906518
0.02683072 0.55158494 0.02585460
0.05691180 0.55255120 0.02663469
0.08700143 0.55352297 0.02742039
0.11709884 0.55449969 0.02821132
0.14720328 0.55548079 0.02900710
0.17731399 0.55646573 0.02980733
0.20743021 0.55745393 0.03061165
0.23755119 0.55844484 0.03141966
0.26767616 0.55943789 0.03223097
0.29780438 0.56043251 0.03304521
0.32793508 0.56142816 0.03386200
0.35806751 0.56242425 0.03468094
0.38820090 0.56342025 0.03550165
0.41833450 0.56441557 0.03632375
0.44846756 0.56540966 0.03714686
0.47859931 0.56640196 0.03797059
0.50872900 0.56739191 0.03879455
0.53885588 0.56837894 0.03961837
0.56897917 0.56936249 0.04044166
0.59909813 0.57034199 0.04126404
0.62921200 0.57131690 0.04208511
0.65932001 0.57228664 0.04290450
0.68942142 0.57325066 0.04372183
0.71951547 0.57420838 0.04453670
0.74960139 0.57515925 0.04534874
0.77967844 0.57610271 0.04615757
0.80974584 0.57703820 0.04696278
0.83980285 0.57796515 0.04776402
0.86984871 0.57888300 0.04856088
0.89988266 0.57979119 0.04935298
0.92990394 0.58068915 0.05013995
0.95991180 0.58157633 0.05092140
0.98990548 0.58245216 0.05169693
0.03065153 0.58381139 0.02850049
0.06075834 0.58479396 0.02929794
0.09087115 0.58578015 0.03009970
0.12098919 0.58676940 0.03090541
0.15111171 0.58776115 0.03171466
0.18123795 0.58875484 0.03252709
0.21136716 0.58974990 0.03334230
0.24149858 0.59074578 0.03415991
0.27163145 0.59174190 0.03497954
0.30176500 0.59273772 0.03580081
0.33189850 0.59373266 0.03662332
0.36203117 0.59472616 0.03744670
0.39216226 0.59571767 0.03827056
0.42229101 0.59670662 0.03909451
0.45241666 0.59769244 0.03991819
0.48253847 0.59867459 0.04074119
0.51265566 0.59965249 0.04156313
0.54276748 0.60062558 0.04238364
0.57287318 0.60159330 0.04320232
0.60297200 0.60255509 0.04401880
0.63306318 0.60351038 0.04483269
0.66314596 0.60445862 0.04564360
0.69321958 0.60539924 0.04645115
0.72328329 0.60633169 0.04725497
0.75333633 0.60725539 0.04805465
0.78337794 0.60816978 0.04884983
0.81340736 0.60907432 0.04964011
0.84342385 0.60996842 0.05042511
0.87342663 0.61085153 0.05120445
0.90341495 0.61172309 0.05197774
0.93338806 0.61258254 0.05274460
0.96334519 0.61342931 0.05350465
0.99328560 0.61426285 0.05425750
0.03454876 0.61608520 0.03119964
0.06467273 0.61707772 0.03201009
0.09480014 0.61807198 0.03282358
0.12493024 0.61906740 0.03363971
0.15506227 0.62006343 0.03445810
0.18519548 0.62105951 0.03527837
0.21532910 0.62205507 0.03610013
0.24546238 0.62304955 0.03692300
0.27559456 0.62404239 0.03774660
0.30572489 0.62503303 0.03857054
0.33585260 0.62602091 0.03939444
0.36597694 0.62700546 0.04021791
0.39609715 0.62798613 0.04104057
0.42621248 0.62896234 0.04186203
0.45632216 0.62993354 0.04268192
0.48642544 0.63089917 0.04349985
0.51652157 0.63185866 0.04431543
0.54660977 0.63281145 0.04512828
0.57668930 0.63375698 0.04593801
0.60675941 0.63469469 0.04674425
0.63681932 0.63562401 0.04754660
0.66686829 0.63654439 0.04834469
0.69690555 0.63745526 0.04913812
0.72693035 0.63835606 0.04992653
0.75694193 0.63924623 0.05070951
0.78693954 0.64012520 0.05148669
0.81692241 0.64099242 0.05225769
0.84688979 0.64184732 0.05302212
0.87684092 0.64268934 0.05377959
0.90677504 0.64351791 0.05452972
0.93669141 0.64433248 0.05527213
0.96658924 0.64513248 0.05600644
0.99646781 0.64591736 0.05673225
0.03849357 0.64838498 0.03393741
0.06862612 0.64938109 0.03475653
0.09875956 0.65037704 0.03557739
0.12889315 0.65137228 0.03639960
0.15902611 0.65236623 0.03722278
0.18915771 0.65335834 0.03804655
0.21928717 0.65434803 0.03887052
0.24941374 0.65533477 0.03969430
0.27953667 0.65631797 0.04051752
0.30965519 0.65729707 0.04133979
0.33976855 0.65827153 0.04216073
0.36987599 0.65924076 0.04297995
0.39997675 0.66020422 0.04379706
0.43007008 0.66116134 0.04461169
0.46015522 0.66211155 0.04542345
0.49023140 0.66305430 0.04623196
0.52029788 0.66398902 0.04703682
0.55035390 0.66491516 0.04783767
0.58039869 0.66583214 0.04863411
0.61043151 0.66673941 0.04942576
0.64045158 0.66763640 0.05021223
0.67045816 0.66852256 0.05099315
0.70045049 0.66939732 0.05176812
0.73042781 0.67026011 0.05253677
0.76038936 0.67111039 0.05329871
0.79033439 0.67194758 0.05405355
0.82026214 0.67277112 0.05480092
0.85017184 0.67358045 0.05554042
0.88006275 0.67437501 0.05627168
0.90993411 0.67515424 0.05699431
