assets/luts/DB_Sports_Arena_Clean_Rec709_100.cube
TITLE "Sports Arena Clean Rec709 100"
# Red changes fastest. Full-range normalized input.
LUT_3D_SIZE 5
DOMAIN_MIN 0 0 0
DOMAIN_MAX 1 1 1
0.00300000 0.00300000 0.00300000
0.24578121 0.00085768 0.00121854
0.48873282 0.00000000 0.00067652
0.73279391 0.00000000 0.00089744
0.97863522 0.00052389 0.00157522
0.00094333 0.24424766 0.00094333
0.24629444 0.24523855 0.00183808
0.49226478 0.24683593 0.00373061
0.73866756 0.24895612 0.00587256
0.98540999 0.25145870 0.00834999
0.00674159 0.49409454 0.00674159
0.25357773 0.49670521 0.00931273
0.50059043 0.49952702 0.01206043
0.74766113 0.50243424 0.01486613
0.99467126 0.50530113 0.01761126
0.01587878 0.74775426 0.01587878
0.26283742 0.75057524 0.01857242
0.50957378 0.75318436 0.02104378
0.75596930 0.75545587 0.02317430
1.00000000 0.75725729 0.03052297
0.02494560 1.00000000 0.02494560
0.27416328 1.00000000 0.03210908
0.52014043 1.00000000 0.04007571
0.76229302 1.00000000 0.04885194
1.00000000 0.99996284 0.05892131
0.00230641 0.00216760 0.24657144
0.24521674 0.00046162 0.24521674
0.48836684 0.00000000 0.24456295
0.73361550 0.00000000 0.24517688
0.97907665 0.00092775 0.24628165
0.00124801 0.24450043 0.24551318
0.24663988 0.24570719 0.24663988
0.49311964 0.24744215 0.24855697
0.73947692 0.24976939 0.25094691
0.98630726 0.25237332 0.25351226
0.00758761 0.49494965 0.25185261
0.25449618 0.49764639 0.25449618
0.50152300 0.50052487 0.25706665
0.74860758 0.50341838 0.26007341
0.99556871 0.50624326 0.26277371
0.01681112 0.74872823 0.26107612
0.26370757 0.75149136 0.26370757
0.51034147 0.75399993 0.26607647
0.75659427 0.75612819 0.26806427
1.00000000 0.75792301 0.27475476
0.02728871 1.00000000 0.27057015
0.27611385 1.00000000 0.27611385
0.52156698 1.00000000 0.28226602
0.76306406 1.00000000 0.28903310
1.00000000 0.99997877 0.29669399
0.00173422 0.00146670 0.49026422
0.24497487 0.00011941 0.48923987
0.48846601 0.00000000 0.48846601
0.73401870 0.00021435 0.48975370
0.97958477 0.00140510 0.49105477
0.00162760 0.24483610 0.49015760
0.24740326 0.24625785 0.49166829
0.49367392 0.24822829 0.49367392
0.74032064 0.25062187 0.49605564
0.98722522 0.25331265 0.49869522
0.00846302 0.49583870 0.49699302
0.25543183 0.49860651 0.49969700
0.50232906 0.50150000 0.50232906
0.74972935 0.50433024 0.50516668
0.99644086 0.50716130 0.50791086
0.01772686 0.74968735 0.50625686
0.26454744 0.75237813 0.50881244
0.51106447 0.75477190 0.51106447
0.75716180 0.75675596 0.51270545
1.00000000 0.75860846 0.51778762
0.02972393 1.00000000 0.51504607
0.27813459 1.00000000 0.51883699
0.52304175 1.00000000 0.52304175
0.76386137 1.00000000 0.52766678
1.00000000 0.99999042 0.53284125
0.00127877 0.00089238 0.73407377
0.24468862 0.00000000 0.73270326
0.48885563 0.00000000 0.73283297
0.73439286 0.00054426 0.73439286
0.98015493 0.00195102 0.73588993
0.00207778 0.24524959 0.73487278
0.24803480 0.24687181 0.73656480
0.49444642 0.24900007 0.73871142
0.74119408 0.25150864 0.74119408
0.98815923 0.25427177 0.74389423
0.00936317 0.49675674 0.74215817
0.25637806 0.49958133 0.74490806
0.50344870 0.50248895 0.74771373
0.75045670 0.50535380 0.75045670
0.99728306 0.50805035 0.75301806
0.01862134 0.75062668 0.75141634
0.26535238 0.75323061 0.75388238
0.51174020 0.75549460 0.75600537
0.75760371 0.75729281 0.75760371
1.00000000 0.75931006 0.75954179
0.03225154 1.00000000 0.75830547
0.28022578 1.00000000 0.76021064
0.52456499 1.00000000 0.76233506
0.76468516 1.00000000 0.76468516
1.00000000 0.99999765 0.76729711
0.00093542 0.00043971 0.97799542
0.24456281 0.00000000 0.97596106
0.48943176 0.00000000 0.97790282
0.73483810 0.00095232 0.97910310
0.98078251 0.00256058 0.98078251
0.00259407 0.24573596 0.97965407
0.24871877 0.24754413 0.98151377
0.49525780 0.24981564 0.98378780
0.74209262 0.25242476 0.98635762
0.98910465 0.25524574 0.98910465
0.01028344 0.49769887 0.98734344
0.25733055 0.50056576 0.99012555
0.50439317 0.50347298 0.99292317
0.75135273 0.50629479 0.99561773
0.99809068 0.50890546 0.99809068
0.01948994 0.75154130 0.99654994
0.26611776 0.75404388 0.99891276
0.51303294 0.75605448 1.00000000
0.75828661 0.75796047 1.00000000
1.00000000 0.76003762 1.00000000
0.03590930 0.99971991 1.00000000
0.28300539 0.99983322 1.00000000
0.52642616 0.99992192 1.00000000
0.76561152 0.99997953 1.00000000
1.00000000 1.00000000 1.00000000
