assets/luts/DB_Silver_Street_Rec709_50.cube
TITLE "Silver Street Rec709 50"
# Red changes fastest. Full-range normalized input.
LUT_3D_SIZE 9
DOMAIN_MIN 0 0 0
DOMAIN_MAX 1 1 1
0.00350000 0.00350000 0.00350000
0.09629581 0.00600932 0.00617645
0.16286131 0.01670330 0.01713238
0.23612542 0.02652923 0.02715280
0.31503928 0.03571481 0.03647766
0.39473498 0.04553193 0.04640241
0.47506225 0.05596356 0.05691246
0.55597439 0.06696434 0.06796447
0.63742490 0.07848888 0.07951504
0.02779282 0.10037958 0.02884599
0.11017056 0.11049792 0.01941851
0.20380826 0.11648293 0.02940907
0.27117851 0.12939667 0.05916287
0.35027761 0.14104500 0.07210249
0.43189482 0.15275321 0.08383549
0.51400468 0.16491897 0.09599620
0.59654295 0.17750116 0.10855290
0.67946310 0.19045437 0.12146221
0.06329132 0.20382032 0.06489397
0.14429092 0.21536974 0.07549487
0.22670907 0.22733901 0.08424803
0.30938944 0.23933344 0.09894246
0.39142048 0.25211694 0.11316121
0.47442934 0.26520089 0.12624094
0.55779524 0.27858703 0.13956144
0.64143320 0.29223685 0.15313184
0.72529655 0.30610497 0.16690889
0.10344762 0.31393679 0.10510236
0.18626821 0.32679377 0.11791951
0.26943435 0.33999058 0.13104491
0.35290986 0.35347766 0.14444745
0.43663483 0.36721031 0.15812125
0.52056721 0.38114667 0.17196738
0.60466297 0.39523937 0.18595645
0.68887419 0.40944304 0.20004954
0.77315431 0.42371229 0.21420334
0.14805439 0.42839733 0.14942015
0.23186106 0.44221060 0.16314532
0.31585926 0.45620910 0.17704555
0.40000246 0.47034746 0.19107746
0.48424415 0.48458026 0.20519768
0.56853781 0.49886210 0.21936281
0.65283692 0.51314760 0.23352946
0.73709496 0.52739135 0.24765425
0.82126542 0.54154794 0.26169379
0.19535501 0.54546806 0.19621019
0.27962100 0.55972398 0.21035178
0.36392203 0.57401241 0.22452249
0.44821157 0.58828796 0.23867892
0.53244312 0.60250523 0.25277770
0.61657014 0.61661883 0.26677543
0.70054613 0.63058335 0.28062873
0.78432457 0.64435339 0.29429422
0.86785894 0.65788356 0.30772851
0.24357854 0.66342059 0.24382073
0.32777742 0.67760537 0.25788775
0.41185484 0.69166995 0.27183792
0.49576430 0.70556893 0.28562787
0.57945926 0.71925690 0.29921421
0.66289323 0.73268846 0.31255355
0.74601967 0.74581823 0.32560251
0.82879207 0.75860079 0.33831770
0.91116392 0.77099076 0.35065573
0.29095403 0.78052654 0.29060002
0.37455936 0.79412642 0.30410146
0.45788675 0.80745336 0.31734010
0.54088969 0.82046198 0.33027257
0.62352164 0.83310687 0.34285547
0.70573611 0.84534263 0.35504542
0.78748657 0.85712387 0.36679904
0.86872651 0.86840518 0.37807293
0.94940940 0.87914116 0.38882370
0.33571053 0.89505753 0.33489630
0.41819588 0.90755872 0.34734117
0.50024681 0.91963426 0.35937728
0.58181679 0.93123875 0.37096127
0.66285931 0.94232678 0.38204974
0.74332785 0.95285296 0.39259930
0.82317589 0.96277188 0.40256657
0.90235693 0.97203816 0.41190816
0.98082443 0.98060638 0.42058068
0.00568123 0.00573350 0.07603287
0.08350385 0.01260455 0.08400630
0.16110411 0.02068448 0.09155988
0.23905223 0.02958141 0.10021650
0.31827612 0.03897702 0.10972735
0.39819153 0.04900792 0.11985571
0.47872264 0.05963793 0.13055468
0.55982283 0.07082167 0.14178086
0.64144559 0.08251375 0.15349089
0.03210099 0.10297788 0.10369742
0.11195172 0.11238072 0.11308066
0.20812943 0.11813358 0.11876811
0.27799186 0.13215671 0.13309447
0.35427678 0.14494041 0.14596067
0.43597445 0.15683520 0.15786569
0.51823486 0.16914752 0.17016578
0.60090803 0.18186080 0.18284709
0.68394729 0.19492969 0.19586629
0.06707486 0.20763336 0.13866855
0.14696728 0.21977815 0.14858123
0.23189312 0.23232630 0.14139497
0.32803432 0.24077543 0.15377873
0.39781266 0.25605962 0.18582538
0.47897051 0.26971018 0.20066976
0.56241644 0.28319528 0.21409164
0.64613615 0.29692433 0.22773709
0.73006546 0.31085625 0.24157446
0.10777755 0.31826233 0.17936411
0.19070748 0.33124445 0.19228108
0.27367012 0.34470211 0.20469719
0.35782115 0.35835714 0.21505754
0.44204506 0.37184896 0.23117065
0.52539486 0.38591023 0.24659831
0.60949653 0.40005280 0.26068038
0.69373622 0.41428387 0.27479910
0.77802916 0.42856506 0.28896365
0.15273667 0.43306480 0.22400646
0.23661360 0.44694606 0.23779594
0.32066592 0.46099730 0.25174517
0.40484493 0.47517479 0.26579857
0.48911452 0.48942902 0.27992506
0.57341490 0.50371535 0.29411870
0.65770382 0.51799180 0.30828061
0.74193730 0.53221104 0.32238138
0.82606744 0.54632772 0.33638210
0.20021082 0.55030298 0.27095429
0.28449393 0.56457502 0.28511063
0.36879627 0.57886417 0.29928135
0.45307134 0.59312502 0.31342307
0.53727260 0.60731218 0.32749239
0.62135355 0.62138024 0.34144594
0.70526767 0.63528380 0.35524033
0.78896844 0.64897747 0.36883217
0.87240934 0.66241585 0.38217807
0.24842911 0.66824847 0.31855587
0.33259196 0.68239753 0.33258807
0.41661756 0.69641096 0.34648869
0.50045939 0.71024336 0.36021436
0.58407093 0.72384935 0.37372168
0.66740567 0.73718351 0.38696728
0.75041710 0.75020046 0.39990775
0.83305869 0.76285478 0.41249972
0.91528392 0.77510109 0.42469980
0.29562058 0.78517291 0.36515945
0.37913673 0.79868519 0.37857651
0.46235915 0.81190912 0.39171604
0.54524132 0.82479931 0.40453466
0.62773671 0.83731035 0.41698898
0.70979882 0.84939684 0.42903561
0.79138112 0.86101339 0.44063117
0.87243709 0.87211459 0.45173227
0.95292023 0.88265505 0.46229553
0.34001428 0.89934791 0.40911328
0.42235731 0.91170964 0.42142420
0.50425012 0.92363030 0.43331164
0.58564619 0.93506448 0.44473221
0.66649900 0.94596680 0.45564252
0.74676203 0.95629184 0.46599920
0.82638877 0.96599421 0.47575885
0.90533270 0.97502852 0.48487809
0.98354731 0.98334936 0.49331353
0.00799849 0.00810091 0.14816682
0.08526592 0.01555043 0.15584094
0.16331890 0.02376596 0.16423863
0.24210623 0.03270311 0.17332029
0.32158929 0.04231358 0.18304781
0.40171907 0.05255302 0.19337482
0.48244866 0.06337616 0.20425770
0.56373154 0.07473763 0.21565306
0.64552118 0.08659201 0.22751753
0.03565277 0.10607452 0.17679532
0.11536128 0.11589611 0.18697935
0.19654478 0.12603427 0.19805743
0.27729504 0.13718566 0.20854546
0.35817363 0.14893678 0.21992377
0.44010682 0.16096874 0.23194494
0.52251262 0.17342232 0.24437934
0.60531533 0.18626146 0.25718026
0.68846833 0.19944079 0.27030433
0.07096218 0.21149384 0.21250747
0.15223050 0.22331266 0.22433485
0.23462555 0.23516744 0.23601899
0.33312252 0.24317446 0.24385622
0.40532677 0.25950053 0.26040543
0.48361487 0.27423263 0.27512411
0.56706731 0.28783212 0.28864895
0.65086326 0.30163520 0.30236448
0.73485318 0.31562570 0.31625716
0.11215121 0.32263029 0.25366624
0.19518373 0.33573088 0.26669607
0.27694776 0.34969615 0.27834398
0.36335251 0.36371072 0.27261851
0.46098722 0.37361551 0.28639127
0.53217036 0.39022770 0.31962423
0.61435891 0.40487294 0.33540317
0.69860439 0.41913047 0.34955396
0.78290477 0.43341837 0.36372426
0.15744458 0.43775708 0.29861626
0.24138637 0.45170112 0.31246504
0.32547361 0.46580491 0.32644477
0.40937011 0.48016778 0.33971997
0.49422601 0.49450918 0.35073904
0.57896402 0.50848998 0.36730078
0.66260258 0.52282219 0.38297246
0.74676786 0.53701888 0.39709683
0.83085216 0.55109042 0.41105388
0.20507422 0.55514510 0.34570505
0.28936908 0.56942804 0.35987114
0.37366737 0.58371267 0.37403687
0.45792225 0.59795374 0.38815828
0.54208498 0.61210749 0.40217982
0.62611951 0.62612446 0.41607037
0.70996609 0.63996000 0.42982391
0.79358237 0.65357211 0.44334169
0.87692440 0.66691347 0.45659426
0.25326922 0.67306595 0.39328083
0.33739067 0.68717404 0.40727322
0.42135907 0.70113108 0.42111929
0.50512791 0.71489168 0.43477567
0.58865067 0.72841045 0.44819897
0.67188083 0.74164198 0.46134580
0.75477187 0.75454087 0.47417279
0.83727728 0.76706172 0.48663654
0.91935054 0.77915914 0.49869366
0.30025861 0.78979126 0.43969188
0.38368023 0.80321071 0.45301955
0.46679231 0.81632639 0.46605496
0.54954835 0.82909291 0.47875473
0.63190181 0.84146486 0.49107546
0.71380618 0.85339685 0.50297377
0.79521496 0.86484347 0.51440628
0.87608161 0.87575934 0.52532959
0.95635962 0.88609904 0.53570033
0.34427146 0.90359265 0.48328642
0.42646681 0.91580969 0.49545839
0.50819614 0.92757023 0.50719214
0.58941293 0.93882888 0.51844429
0.67007067 0.94954024 0.52917146
0.75012283 0.95965891 0.53933024
0.82952290 0.96913950 0.54887727
0.90822437 0.97793659 0.55776916
0.98618070 0.98600481 0.56596251
0.01039272 0.01054258 0.22063391
0.08793021 0.01825816 0.22855614
0.16623779 0.02672364 0.23719306
0.24526892 0.03589361 0.24650127
0.32497709 0.04572267 0.25643739
0.40531579 0.05616543 0.26695804
0.48623849 0.06717648 0.27801982
0.56769869 0.07871043 0.28957936
0.64964986 0.09072188 0.30159327
0.03890400 0.10934561 0.25004825
0.11884706 0.11940330 0.26020277
0.19940578 0.13005711 0.27092986
0.28053126 0.14126342 0.28217652
0.36217231 0.15297784 0.29390310
0.44429027 0.16515200 0.30607143
0.52683615 0.17774159 0.31863516
0.60976303 0.19070135 0.33155070
0.69302441 0.20398588 0.34477464
0.07488565 0.21542051 0.28638986
0.15670341 0.22730726 0.29829029
0.23896498 0.23961217 0.31083763
0.32247686 0.25201428 0.32406969
0.40535109 0.26523179 0.33652435
0.48813234 0.27883202 0.34966031
0.57174569 0.29249587 0.36323178
0.65561273 0.30636769 0.37701231
0.73965788 0.32041153 0.39095529
0.11656674 0.32703890 0.32800698
0.19973879 0.34024038 0.34115209
0.28282143 0.35382255 0.35465666
0.36671198 0.36714742 0.36777640
0.46649316 0.37642957 0.37688152
0.54003456 0.39401378 0.39454317
0.61929895 0.40968141 0.41012797
0.70347699 0.42398105 0.42431240
0.78777932 0.43827046 0.43848347
0.16217630 0.44247241 0.37324786
0.24617762 0.45647397 0.38715097
0.33029306 0.47062365 0.40117427
0.41289987 0.48541150 0.41361436
0.49977035 0.49995009 0.40852720
0.59787739 0.51029789 0.42269318
0.66941431 0.52717776 0.45604169
0.75160195 0.54180877 0.47178764
0.83561779 0.55583428 0.48570741
0.20994338 0.55999265 0.42046077
0.29424462 0.57428126 0.43463160
0.37853346 0.58855614 0.44878733
0.46274889 0.60277721 0.46286998
0.54655144 0.61704277 0.47604708
0.63108884 0.63107291 0.48677292
0.71530763 0.64453281 0.50281617
0.79820285 0.65812834 0.51776857
0.88140245 0.67137460 0.53097524
0.25809703 0.67787125 0.46799393
0.34217173 0.69193313 0.48194149
0.42607758 0.70582855 0.49572801
0.50976806 0.71951212 0.50931010
0.59319633 0.73293857 0.52264379
0.67631363 0.74606419 0.53567358
0.75908396 0.75883949 0.54836831
0.84144753 0.77121978 0.56072183
0.92336199 0.78316310 0.57263557
0.30486631 0.79437982 0.51419560
0.38818803 0.80770120 0.52742889
0.47118441 0.82070339 0.54035518
0.55380894 0.83334100 0.55293109
0.63601511 0.84556863 0.56511323
0.71775639 0.85734088 0.57685821
0.79898627 0.86861235 0.58812265
0.87965824 0.87933763 0.59886317
0.95972577 0.88947134 0.60903639
0.34848026 0.90778999 0.55741403
0.43052257 0.91985709 0.56944204
0.51208305 0.93145227 0.58101711
0.59311520 0.94253015 0.59209583
0.67357250 0.95304532 0.60263484
0.75340842 0.96295239 0.61259074
0.83257646 0.97220595 0.62192014
0.91103009 0.98076061 0.63057966
0.98872280 0.98857096 0.63852592
0.01288108 0.01307592 0.29318900
0.09068531 0.02105126 0.30135881
0.16924382 0.02976108 0.31022856
0.24851010 0.03915997 0.31975488
0.32843762 0.04920254 0.32989438
0.40897986 0.05984338 0.34060366
0.49009032 0.07103711 0.35183936
0.57172247 0.08273831 0.36355806
0.65382979 0.09490159 0.37571641
0.04222687 0.11269148 0.32337761
0.12238357 0.12295712 0.33372957
0.20313806 0.13380450 0.34463552
0.28444383 0.14518823 0.35605209
0.36625436 0.15706292 0.36793587
0.44852313 0.16938316 0.38024349
0.53120362 0.18210355 0.39293156
0.61424931 0.19517869 0.40595670
0.69761370 0.20856319 0.41927551
0.07886425 0.21940444 0.36032674
0.16084699 0.23144659 0.37236986
0.24327099 0.24391771 0.38482157
0.32609181 0.25677138 0.39764177
0.40926063 0.26996404 0.41077749
0.49272623 0.28345129 0.42418906
0.57644992 0.29718472 0.43783830
0.66038273 0.31112003 0.45167887
0.74447774 0.32521197 0.46566716
0.12102228 0.33148640 0.40238464
0.20430461 0.34479129 0.41562792
0.28786720 0.35837306 0.42913900
0.37165221 0.37215744 0.44309207
0.45646251 0.38582130 0.45752556
0.54043258 0.40009881 0.47098059
0.62408754 0.41454262 0.48491105
0.70835188 0.42883391 0.49907281
0.79265098 0.44311954 0.51323958
0.16693001 0.44720900 0.44789956
0.25098553 0.46126285 0.46185198
0.33516636 0.47544101 0.47592126
0.41903434 0.48978358 0.49014676
0.50340148 0.50360791 0.50381435
0.60345945 0.51319651 0.51328475
0.67728378 0.53097548 0.53098558
0.75648827 0.54656231 0.54645712
0.84036262 0.56055748 0.56034098
0.21481648 0.56484385 0.49521975
0.29911874 0.57913289 0.50939033
0.38339281 0.59339278 0.52353108
0.46756205 0.60758719 0.53758806
0.54998919 0.62220212 0.54987246
0.63636828 0.63634335 0.54455911
0.73391523 0.64611731 0.55813094
0.80470720 0.66218661 0.59056004
0.88585878 0.67579317 0.60530811
0.26291075 0.68266258 0.54269345
0.34693331 0.69667302 0.55659119
0.43077124 0.71050159 0.57031315
0.51437797 0.72410289 0.58381593
0.59769245 0.73743684 0.59704165
0.68037466 0.75060312 0.60916240
0.76357480 0.76332607 0.61863962
0.84623716 0.77525376 0.63320014
0.92735484 0.78710418 0.64647155
0.30944185 0.79893680 0.58866892
0.39265830 0.81215487 0.60180282
0.47553362 0.82503834 0.61461498
0.55802129 0.83754181 0.62706203
0.64007479 0.84961988 0.63910057
0.72164728 0.86122730 0.65068665
0.80269004 0.87232039 0.66176480
0.88316703 0.88284962 0.67230382
0.96301835 0.89277016 0.68229739
0.35263886 0.91193814 0.63149440
0.43452275 0.92385006 0.64337346
0.51590903 0.93527466 0.65478483
0.59675117 0.94616653 0.66568513
0.67700266 0.95648028 0.67603097
0.75661698 0.96617050 0.68577897
0.83554762 0.97519180 0.69488574
0.91374806 0.98349878 0.70330790
0.99117178 0.99104604 0.71100206
0.01546179 0.01569921 0.36582982
0.09352740 0.02392907 0.37424220
0.17233149 0.03287799 0.38333980
0.25182754 0.04250057 0.39307922
0.33196904 0.05275140 0.40341708
0.41270947 0.06358510 0.41431000
0.49400231 0.07495626 0.42571459
0.57580105 0.08681948 0.43758747
0.65805916 0.09912936 0.44988524
0.04562404 0.11610969 0.39677587
0.12598897 0.12657798 0.40732083
0.20693590 0.13761260 0.41840506
0.28841830 0.14916816 0.42998516
0.37038967 0.16119924 0.44201774
0.45280347 0.17366047 0.45445943
0.53561320 0.18650642 0.46726684
0.61877234 0.19969172 0.48039658
0.70223437 0.21317095 0.49380526
0.08289910 0.22344308 0.43431569
0.16503693 0.23563602 0.44650224
0.24760026 0.24824257 0.45908210
0.33054259 0.26121732 0.47201187
0.41381738 0.27451488 0.48524819
0.49737813 0.28808986 0.49874765
0.58117832 0.30189684 0.51246687
0.66517144 0.31589043 0.52636247
0.74931095 0.33002524 0.54039105
0.12551604 0.33597101 0.47679754
0.20890032 0.34937482 0.49013467
0.29255363 0.36303951 0.50371917
0.37642939 0.37691963 0.51750819
0.46048315 0.39096875 0.53146161
0.54466614 0.40514333 0.54552649
0.62892712 0.41939897 0.55966315
0.71322738 0.43368723 0.57383339
0.79751794 0.44796384 0.58799089
0.17170388 0.45196508 0.52256966
0.25580820 0.46606599 0.53656638
0.34002504 0.48027506 0.55066452
0.42430328 0.49454743 0.56482639
0.50858286 0.50880771 0.57922707
0.59366413 0.52273207 0.59390753
0.67769984 0.53706267 0.60739825
0.76119837 0.55134411 0.62116091
0.84508450 0.56525834 0.63495300
0.21969170 0.56969693 0.56998030
0.30398961 0.58398116 0.58414561
0.38824357 0.59822081 0.59826638
0.47240404 0.61237123 0.61229993
0.55602975 0.62647176 0.62628902
0.63988454 0.63983616 0.63959424
0.73923947 0.64877287 0.64850662
0.81224295 0.66566465 0.66521055
0.89034208 0.68015085 0.67959641
0.26770853 0.68743817 0.61737771
0.35167361 0.70139194 0.63122062
0.43543825 0.71514841 0.64487301
0.51895589 0.72866220 0.65829151
0.60214987 0.74189700 0.67142235
0.68338130 0.75534591 0.68259840
0.76836792 0.76818943 0.67615233
0.86431117 0.77636848 0.68815105
0.93321173 0.79053109 0.71866154
0.31398342 0.80346042 0.66311014
0.39708923 0.81656996 0.67613964
0.47983812 0.82932947 0.68883267
0.56218356 0.84169356 0.70114586
0.64407901 0.85361685 0.71303579
0.72546345 0.86505932 0.72444469
0.80600035 0.87612485 0.73454981
0.88684907 0.88654644 0.74181955
0.96691392 0.89592913 0.75393604
0.35674543 0.91603531 0.70552584
0.43846555 0.92778683 0.71725093
0.51967225 0.93903560 0.72849360
0.60031902 0.94973623 0.73921047
0.68035934 0.95984332 0.74935815
0.75974670 0.96931146 0.75889325
0.83843423 0.97809542 0.76777181
0.91637333 0.98615158 0.77593842
0.99352788 0.99343034 0.78336181
0.01813304 0.01841066 0.43855468
0.09645466 0.02688981 0.44720462
0.17549896 0.03607260 0.45652505
0.25521942 0.04591362 0.46647257
0.33556954 0.05636749 0.47700380
0.41650279 0.06738880 0.48807535
0.49797265 0.07893216 0.49964384
0.57993261 0.09095216 0.51166588
0.66233615 0.10340340 0.52409808
0.04909370 0.11959845 0.47024133
0.12966150 0.13026416 0.48097429
0.21079549 0.14148078 0.49223178
0.29244916 0.15320292 0.50397041
0.37457600 0.16538517 0.51614680
0.45712948 0.17798215 0.52871755
0.54006309 0.19094844 0.54163929
0.62333031 0.20423864 0.55486862
0.70688462 0.21780737 0.56836216
0.08698840 0.22753467 0.50835501
0.16927594 0.23987316 0.52067999
0.25197320 0.25260984 0.53338355
0.33503365 0.26569931 0.54642229
0.41841077 0.27909618 0.55975283
0.50205806 0.29275503 0.57333179
0.58592898 0.30663048 0.58711578
0.66997703 0.32067712 0.60106140
0.75415568 0.33484955 0.61512528
0.13004618 0.34049094 0.55124396
0.21352704 0.35398843 0.56466997
0.29726113 0.36773140 0.57832859
0.38120192 0.38167443 0.59217645
0.46530291 0.39577212 0.60617015
0.54951756 0.40997908 0.62026631
0.63379936 0.42424991 0.63442155
0.71810181 0.43853920 0.64859247
0.80237837 0.45280157 0.66273570
0.17649610 0.45673887 0.59725645
0.26064385 0.47088160 0.61129248
0.34488834 0.48511707 0.62541517
0.42918304 0.49939988 0.63958114
0.51348139 0.51368457 0.65374757
0.59773892 0.52792470 0.66787433
0.68190691 0.54207678 0.68190847
0.76593411 0.55609637 0.69581029
0.84978175 0.56993504 0.70954164
0.22456721 0.57455010 0.64474071
0.30885541 0.58882428 0.65889576
0.39308387 0.60303848 0.67299152
0.47720604 0.61714729 0.68698462
0.56117078 0.63110586 0.70083741
0.64491683 0.64483876 0.71472701
0.72924414 0.65802330 0.72869808
0.81231321 0.67139930 0.74126136
0.89462401 0.68451197 0.75389482
0.27248855 0.69219624 0.69204500
0.35639078 0.70608810 0.70582807
0.44007677 0.71976724 0.71940590
0.52350000 0.73318828 0.73273510
0.60661093 0.74630654 0.74577304
0.68896820 0.75916313 0.75856735
0.77135166 0.77111942 0.77057753
0.86905130 0.77845627 0.77798789
0.94008061 0.79336031 0.79269599
0.31848919 0.80794892 0.73751756
0.40147900 0.82094467 0.75043766
0.48409609 0.83357499 0.76300656
0.56629394 0.84579447 0.77518088
0.64802600 0.85755772 0.78691722
0.72921570 0.86882860 0.79816204
0.80824181 0.88012080 0.80727227
0.89099089 0.89078726 0.79874493
0.98427561 0.89634614 0.80819999
0.36079815 0.92007974 0.77950664
0.44234913 0.93166562 0.79107277
0.52337089 0.94273333 0.80214174
0.60381692 0.95323748 0.81267017
0.68364071 0.96313267 0.82261468
0.76279570 0.97237351 0.83193186
0.84122105 0.98092014 0.84056405
0.91858905 0.98888400 0.84769319
0.99607682 0.99601178 0.85179313
0.02089301 0.02120850 0.51136186
0.09946527 0.02993170 0.52024437
0.17874441 0.03934312 0.52978263
0.25868393 0.04939736 0.53993325
0.33923729 0.06004903 0.55065284
0.42035799 0.07125272 0.56189802
0.50199951 0.08296303 0.57362540
0.58411533 0.09513458 0.58579159
0.66665893 0.10772195 0.59835322
0.05263403 0.12315598 0.54377228
0.13339932 0.13401387 0.55468824
0.21471502 0.14540726 0.56611400
0.29653460 0.15729075 0.57800616
0.37881154 0.16961894 0.59032134
0.46149933 0.18234642 0.60301615
0.54455145 0.19542781 0.61604722
0.62792138 0.20881769 0.62937114
0.71156261 0.22247068 0.64294454
0.09113031 0.23167741 0.58244299
0.17356221 0.24415622 0.59490140
0.25638802 0.25701780 0.60772365
0.33956123 0.27021676 0.62086636
0.42303532 0.28370768 0.63428613
0.50676377 0.29744519 0.64793958
0.59070006 0.31138386 0.66178333
0.67479768 0.32547831 0.67577398
0.75901011 0.33968314 0.68986815
0.13461089 0.34504441 0.62572222
0.21818297 0.35863036 0.63923209
0.30199247 0.37244636 0.65295984
0.38599288 0.38644700 0.66686209
0.47013768 0.40058689 0.68089546
0.55438036 0.41482063 0.69501655
0.63867439 0.42910282 0.70918198
0.72297326 0.44338807 0.72334836
0.80723045 0.45763096 0.73747231
0.18130484 0.46152860 0.67195824
0.26549066 0.47570791 0.68602857
0.34975742 0.48996455 0.70017082
0.43405859 0.50425310 0.71434162
0.51834768 0.51852818 0.72849757
0.60257815 0.53274438 0.74259530
0.68670349 0.54685631 0.75659142
0.77067718 0.56081857 0.77044253
0.85445270 0.57458575 0.78410525
0.22944120 0.57940159 0.71949929
0.31371432 0.59366049 0.73363907
0.39791190 0.60784399 0.74770483
0.48198742 0.62190668 0.76165317
0.56589435 0.63580317 0.77544073
0.64958613 0.64948800 0.78902466
0.73301827 0.66291474 0.80236489
0.81614209 0.67603987 0.81540837
0.89890631 0.68881897 0.82811546
0.27724901 0.69693502 0.76669362
0.36108302 0.71075973 0.78041186
0.44468499 0.72435631 0.79391012
0.52800841 0.73767936 0.80714501
0.61100674 0.75068348 0.82007317
0.69362885 0.76332385 0.83265700
0.77581400 0.77552636 0.84507626
0.85836497 0.78697172 0.85737971
0.93943300 0.79838465 0.86805398
0.32295733 0.81240050 0.81188948
0.40582578 0.82527724 0.82469517
0.48830571 0.83777312 0.83713494
0.57035061 0.84984276 0.84916538
0.65191394 0.86144073 0.86074312
0.73294619 0.87252241 0.87182555
0.81301025 0.88313371 0.88246564
0.89299332 0.89274495 0.89222564
0.98811303 0.89754430 0.89716928
0.36479521 0.92406965 0.85343511
0.44617167 0.93548464 0.86483726
0.52700313 0.94636606 0.87572753
0.60724307 0.95666849 0.88606253
0.68684496 0.96634655 0.89579887
0.76576225 0.97535484 0.90489316
0.84391872 0.98365751 0.91329205
0.91973628 0.99180470 0.91937418
0.99945883 0.99943576 0.90777499
0.02373986 0.02409095 0.58424968
0.10255740 0.03305296 0.59335975
0.18206603 0.04268778 0.60311083
0.26221922 0.05295000 0.61345954
0.34297047 0.06379423 0.62436249
0.42427326 0.07517506 0.63577629
0.50608107 0.08704710 0.64765756
0.58834738 0.09936495 0.65996291
0.67102568 0.11208321 0.67264896
0.05624320 0.12678051 0.61736704
0.13720063 0.13782535 0.62846099
0.21869266 0.14939027 0.64005000
0.30067278 0.16142987 0.65209069
0.38309446 0.17389875 0.66453966
0.46591120 0.18675151 0.67735353
0.54907646 0.19994276 0.69048892
0.63254375 0.21342708 0.70390243
0.71626653 0.22715909 0.71755068
0.09532301 0.23586954 0.65657793
0.17789390 0.24848343 0.66916477
0.26084291 0.26146467 0.68210072
0.34412352 0.27476788 0.69534238
0.42768920 0.28834763 0.70884638
0.51149345 0.30215854 0.72256932
0.59548975 0.31615521 0.73646782
0.67963157 0.33029224 0.75049849
0.76387241 0.34452423 0.76461795
0.13920836 0.34962965 0.70023061
0.22286628 0.36329882 0.71381934
0.30674583 0.37718261 0.72761122
0.39080049 0.39123564 0.74156286
0.47498375 0.40541249 0.75563088
0.55924908 0.41966778 0.76977190
0.64354997 0.43395609 0.78394251
0.72783990 0.44823204 0.79809935
0.81207236 0.46245023 0.81219902
0.18612828 0.46633247 0.74667333
0.27034680 0.48054314 0.76077295
0.35463046 0.49481570 0.77492976
0.43893275 0.50910477 0.78910039
0.52320714 0.52336495 0.80324143
0.60740713 0.53755083 0.81730952
0.69148618 0.55161702 0.83126125
0.77539779 0.56551812 0.84505325
0.85909544 0.57920872 0.85864213
0.23431183 0.58424962 0.79425434
0.31856452 0.59848801 0.80837385
0.40272586 0.61263557 0.82240459
0.48674934 0.62664691 0.83630320
0.57058844 0.64047663 0.85002627
0.65419664 0.65407933 0.86353043
0.73752743 0.66740961 0.87677228
0.82053429 0.68042207 0.88970845
0.90317069 0.69307132 0.90229554
0.28198807 0.70165272 0.84132188
0.36574849 0.71540505 0.85497027
0.44926108 0.72891383 0.86838396
0.53247932 0.74213366 0.88151955
0.61535669 0.75501915 0.89433365
0.69784668 0.76752489 0.90678288
0.77990271 0.77960543 0.91882443
0.86148033 0.79121435 0.93041821
0.94253080 0.80230812 0.94151115
0.32738603 0.81681339 0.88622420
0.41012775 0.82956588 0.89891049
0.49246516 0.84192210 0.91121611
0.57435173 0.85383665 0.92309768
0.65574094 0.86526412 0.93451181
0.73658627 0.87615913 0.94541513
0.81683662 0.88647689 0.95577011
0.89643426 0.89614629 0.96575920
0.97618902 0.90485406 0.97543488
0.36873477 0.92800325 0.92730955
0.44993136 0.93924213 0.93854273
0.53056716 0.94993201 0.94924929
0.61059562 0.96002750 0.95938584
0.68997025 0.96948318 0.96890900
0.76864451 0.97825368 0.97777539
0.84656893 0.98629436 0.98594240
0.92331642 0.99365951 0.99346777
1.00000000 1.00000000 1.00000000
