assets/luts/DB_Silver_Street_Rec709_50.cube
TITLE "Silver Street Rec709 50"
# Red changes fastest. Full-range normalized input.
LUT_3D_SIZE 33
DOMAIN_MIN 0 0 0
DOMAIN_MAX 1 1 1
0.00350000 0.00350000 0.00350000
0.02575495 0.00428659 0.00433524
0.04973506 0.00466830 0.00475543
0.07393856 0.00505439 0.00517767
0.09629581 0.00600932 0.00617645
0.11552936 0.00788125 0.00810546
0.13198859 0.01057394 0.01086599
0.14722984 0.01366138 0.01402420
0.16286131 0.01670330 0.01713238
0.17971314 0.01947195 0.01995929
0.19779727 0.02196312 0.02250102
0.21673111 0.02428040 0.02486310
0.23612542 0.02652923 0.02715280
0.25573576 0.02877549 0.02943713
0.27544811 0.03104942 0.03174685
0.29522028 0.03336164 0.03409278
0.31503928 0.03571481 0.03647766
0.33490137 0.03810902 0.03890163
0.35480522 0.04054373 0.04136418
0.37475000 0.04301827 0.04386466
0.39473498 0.04553193 0.04640241
0.41475942 0.04808400 0.04897674
0.43482260 0.05067377 0.05158698
0.45492378 0.05330052 0.05423245
0.47506225 0.05596356 0.05691246
0.49523727 0.05866217 0.05962635
0.51544812 0.06139565 0.06237343
0.53569407 0.06416327 0.06515303
0.55597439 0.06696434 0.06796447
0.57628836 0.06979815 0.07080707
0.59663526 0.07266398 0.07368015
0.61701435 0.07556112 0.07658303
0.63742490 0.07848888 0.07951504
0.00724986 0.02746512 0.00752921
0.02870698 0.02882419 0.00724350
0.05288264 0.02950823 0.00621339
0.07897141 0.02969032 0.00519316
0.10458778 0.02998230 0.00529541
0.12708945 0.03109801 0.00733657
0.14536633 0.03336945 0.01128336
0.16047698 0.03655326 0.01630089
0.17465340 0.04007603 0.02133718
0.18976647 0.04343985 0.02570750
0.20654239 0.04644037 0.02926708
0.22477388 0.04912078 0.03221715
0.24392054 0.05161676 0.03483473
0.26352737 0.05404506 0.03732229
0.28333710 0.05647200 0.03978592
0.30323904 0.05892578 0.04226860
0.32319498 0.06141559 0.04478402
0.34319377 0.06394348 0.04733540
0.36323230 0.06650938 0.04992291
0.38330939 0.06911270 0.05254606
0.40342423 0.07175275 0.05520418
0.42357608 0.07442882 0.05789661
0.44376423 0.07714021 0.06062266
0.46398795 0.07988620 0.06338166
0.48424649 0.08266608 0.06617292
0.50453915 0.08547915 0.06899578
0.52486520 0.08832470 0.07184956
0.54522390 0.09120201 0.07473357
0.56561452 0.09411038 0.07764714
0.58603636 0.09704910 0.08058958
0.60648866 0.10001746 0.08356023
0.62697072 0.10301474 0.08655841
0.64748180 0.10604025 0.08958343
0.01248423 0.05164961 0.01303238
0.03245072 0.05375190 0.01190241
0.05506085 0.05525281 0.00939544
0.08072090 0.05595649 0.00636722
0.10795804 0.05615738 0.00446346
0.13379011 0.05659977 0.00531675
0.15556718 0.05802050 0.00950521
0.17276817 0.06064868 0.01616023
0.18712549 0.06411574 0.02357832
0.20114953 0.06780367 0.03026513
0.21656025 0.07125684 0.03556560
0.23378743 0.07433667 0.03959329
0.25242534 0.07712402 0.04279607
0.27188006 0.07975820 0.04559336
0.29172036 0.08234404 0.04824368
0.31172447 0.08493607 0.05086733
0.33180392 0.08755580 0.05350855
0.35193003 0.09020964 0.05618027
0.37209480 0.09289875 0.05888518
0.39229592 0.09562283 0.06162333
0.41253239 0.09838124 0.06439416
0.43280344 0.10117329 0.06719700
0.45310834 0.10399827 0.07003120
0.47344636 0.10685546 0.07289606
0.49381676 0.10974416 0.07579091
0.51421884 0.11266366 0.07871507
0.53465185 0.11561325 0.08166786
0.55511507 0.11859223 0.08464861
0.57560778 0.12159987 0.08765663
0.59612924 0.12463547 0.09069126
0.61667873 0.12769833 0.09375181
0.63725553 0.13078773 0.09683760
0.65785891 0.13390296 0.09994795
0.01954443 0.07588473 0.02035693
0.03844940 0.07850539 0.01937818
0.05898472 0.08086366 0.01654723
0.08231613 0.08256891 0.01236215
0.10840098 0.08349141 0.00845783
0.13532228 0.08400713 0.00706491
0.16012518 0.08485824 0.00974749
0.18075886 0.08666573 0.01636337
0.19741752 0.08952157 0.02517016
0.21210836 0.09301796 0.03397244
0.22706725 0.09661615 0.04130290
0.24353006 0.09997800 0.04681201
0.26159720 0.10303781 0.05090314
0.28078852 0.10588573 0.05417280
0.30058535 0.10863568 0.05707517
0.32065488 0.11136424 0.05985746
0.34084016 0.11410803 0.06262405
0.36108287 0.11688038 0.06541014
0.38136511 0.11968481 0.06822512
0.40168195 0.12252164 0.07107066
0.42203181 0.12539040 0.07394653
0.44241383 0.12829039 0.07685213
0.46282725 0.13122093 0.07978679
0.48327134 0.13418130 0.08274984
0.50374538 0.13717079 0.08574060
0.52424864 0.14018870 0.08875839
0.54478040 0.14323431 0.09180253
0.56533992 0.14630691 0.09487235
0.58592648 0.14940580 0.09796716
0.60653935 0.15253026 0.10108629
0.62717780 0.15567959 0.10422906
0.64784112 0.15885307 0.10739480
0.66852857 0.16205001 0.11058282
0.02779282 0.10037958 0.02884599
0.04656115 0.10315737 0.02888840
0.06587768 0.10598182 0.02718613
0.08681764 0.10853615 0.02369503
0.11017056 0.11049792 0.01941851
0.13549978 0.11182070 0.01638309
0.16090683 0.11288337 0.01672236
0.18406806 0.11429525 0.02136602
0.20380826 0.11648293 0.02940907
0.22078769 0.11943240 0.03873220
0.23677194 0.12279333 0.04730594
0.25334325 0.12618278 0.05410881
0.27117851 0.12939667 0.05916287
0.29016833 0.13241917 0.06301586
0.30989856 0.13532305 0.06623866
0.33000496 0.13818316 0.06920621
0.35027761 0.14104500 0.07210249
0.37062514 0.14392860 0.07499867
0.39101569 0.14684052 0.07791683
0.41143982 0.14978213 0.08086223
0.43189482 0.15275321 0.08383549
0.45237957 0.15575313 0.08683617
0.47289329 0.15878120 0.08986364
0.49343524 0.16183672 0.09291720
0.51400468 0.16491897 0.09599620
0.53460091 0.16802725 0.09909994
0.55522318 0.17116085 0.10222776
0.57587077 0.17431906 0.10537897
0.59654295 0.17750116 0.10855290
0.61723900 0.18070645 0.11174886
0.63795820 0.18393423 0.11496619
0.65869980 0.18718377 0.11820420
0.67946310 0.19045437 0.12146221
0.03645080 0.12539703 0.03770316
0.05566138 0.12813404 0.03893722
0.07485867 0.13103190 0.03899809
0.09461319 0.13395011 0.03753840
0.11568725 0.13663767 0.03482903
0.13845724 0.13887807 0.03206860
0.16233337 0.14068835 0.03107621
0.18584665 0.14237642 0.03332830
0.20755229 0.14435525 0.03900373
0.22700873 0.14686228 0.04686246
0.24494588 0.14983846 0.05506725
0.26257617 0.15304331 0.06222086
0.28078785 0.15625320 0.06784520
0.29984624 0.15936750 0.07218122
0.31958808 0.16239101 0.07572317
0.33973760 0.16536868 0.07888745
0.36008754 0.16834014 0.08191671
0.38052932 0.17132729 0.08491946
0.40101897 0.17433887 0.08793432
0.42154190 0.17737728 0.09097219
0.44209375 0.18044266 0.09403522
0.46267300 0.18353448 0.09712333
0.48327879 0.18665206 0.10023592
0.50391036 0.18979470 0.10337233
0.52456699 0.19296169 0.10653189
0.54524795 0.19615232 0.10971392
0.56595251 0.19936588 0.11291774
0.58667995 0.20260166 0.11614267
0.60742953 0.20585895 0.11938804
0.62820054 0.20913705 0.12265317
0.64899225 0.21243524 0.12593738
0.66980392 0.21575281 0.12923999
0.69063483 0.21908906 0.13256032
0.04520231 0.15102115 0.04660895
0.06491420 0.15371799 0.04869601
0.08451152 0.15655025 0.05021406
0.10416938 0.15949330 0.05083489
0.12427744 0.16244008 0.05044597
0.14526414 0.16522668 0.04945918
0.16722156 0.16773683 0.04889059
0.18964505 0.17001359 0.04996479
0.21163576 0.17226094 0.05339989
0.23249094 0.17470989 0.05892793
0.25216340 0.17746607 0.06547825
0.27118829 0.18047286 0.07185604
0.29022387 0.18359598 0.07734102
0.30966286 0.18672730 0.08182322
0.32956412 0.18982582 0.08556305
0.34980395 0.19289877 0.08889057
0.37023689 0.19596781 0.09204357
0.39076674 0.19904973 0.09514690
0.41134718 0.20215288 0.09825173
0.43196052 0.20528010 0.10137470
0.45260093 0.20843177 0.10451991
0.47326645 0.21160746 0.10768778
0.49395607 0.21480652 0.11087783
0.51466905 0.21802825 0.11408941
0.53540463 0.22127194 0.11732187
0.55616210 0.22453689 0.12057451
0.57694073 0.22782239 0.12384666
0.59773979 0.23112772 0.12713765
0.61855855 0.23445217 0.13044679
0.63939629 0.23779504 0.13377341
0.66025228 0.24115562 0.13711683
0.68112579 0.24453319 0.14047636
0.70201610 0.24792706 0.14385135
0.05410575 0.17719156 0.05562716
0.07415658 0.17991941 0.05817354
0.09415455 0.18272844 0.06052762
0.11411735 0.18562816 0.06250761
0.13416260 0.18859632 0.06395542
0.15450412 0.19156601 0.06489868
0.17532924 0.19444949 0.06569678
0.19660977 0.19719822 0.06699553
0.21802845 0.19985157 0.06941777
0.23914822 0.20252007 0.07317509
0.25970787 0.20531007 0.07792385
0.27977661 0.20825788 0.08299583
0.29964603 0.21132736 0.08779640
0.31960020 0.21445669 0.09205382
0.33977339 0.21760207 0.09580202
0.36015909 0.22074932 0.09921564
0.38069116 0.22390240 0.10246464
0.40130779 0.22706935 0.10565680
0.42197223 0.23025566 0.10884351
0.44266794 0.23346358 0.11204399
0.46338869 0.23669351 0.11526375
0.48413223 0.23994504 0.11850372
0.50489748 0.24321756 0.12176356
0.52568362 0.24651035 0.12504265
0.54648994 0.24982273 0.12834032
0.56731569 0.25315397 0.13165590
0.58816016 0.25650337 0.13498872
0.60902262 0.25987022 0.13833808
0.62990233 0.26325380 0.14170332
0.65079857 0.26665342 0.14508376
0.67171062 0.27006836 0.14847872
0.69263775 0.27349791 0.15188751
0.71357923 0.27694136 0.15530947
0.06329132 0.20382032 0.06489397
0.08354155 0.20662968 0.06766659
0.10379397 0.20948672 0.07040667
0.12403831 0.21239952 0.07304496
0.14429092 0.21536974 0.07549487
0.16461413 0.21838238 0.07770453
0.18510183 0.22140313 0.07973669
0.20581508 0.22439364 0.08181306
0.22670907 0.22733901 0.08424803
0.24763000 0.23026348 0.08727743
0.26840885 0.23321597 0.09090476
0.28897539 0.23623641 0.09489843
0.30938944 0.23933344 0.09894246
0.32977374 0.24248935 0.10280926
0.35022556 0.24568025 0.10642989
0.37077879 0.24889094 0.10985222
0.39142048 0.25211694 0.11316121
0.41212340 0.25535937 0.11642564
0.43286598 0.25862028 0.11968441
0.45363637 0.26190076 0.12295434
0.47442934 0.26520089 0.12624094
0.49524269 0.26852024 0.12954534
0.51607532 0.27185817 0.13286730
0.53692642 0.27521401 0.13620622
0.55779524 0.27858703 0.13956144
0.57868106 0.28197654 0.14293229
0.59958314 0.28538182 0.14631810
0.62050076 0.28880216 0.14971817
0.64143320 0.29223685 0.15313184
0.66237972 0.29568519 0.15655842
0.68333961 0.29914646 0.15999725
0.70431213 0.30261996 0.16344763
0.72529655 0.30610497 0.16690889
0.07282344 0.23084491 0.07447773
0.09320613 0.23375270 0.07738215
0.11361228 0.23669442 0.08030178
0.13403564 0.23967261 0.08321717
0.15447357 0.24268973 0.08609776
0.17493547 0.24574479 0.08891163
0.19544744 0.24882974 0.09165065
0.21604199 0.25193004 0.09435991
0.23673218 0.25503193 0.09714201
0.25749042 0.25813238 0.10011469
0.27825784 0.26124245 0.10334080
0.29898247 0.26437957 0.10678579
0.31965281 0.26755562 0.11034076
0.34029734 0.27077120 0.11389009
0.36095647 0.27401911 0.11736719
0.38165624 0.27729132 0.12076429
0.40240189 0.28058300 0.12410762
0.42318642 0.28389252 0.12742859
0.44400065 0.28721974 0.13074907
0.46483808 0.29056462 0.13408008
0.48569518 0.29392690 0.13742571
0.50657015 0.29730603 0.14078684
0.52746195 0.30070136 0.14416324
0.54836977 0.30411221 0.14755432
0.56929287 0.30753786 0.15095943
0.59023052 0.31097760 0.15437787
0.61118199 0.31443073 0.15780899
0.63214656 0.31789653 0.16125210
0.65312349 0.32137430 0.16470653
0.67411207 0.32486333 0.16817159
0.69511156 0.32836291 0.17164660
0.71612125 0.33187233 0.17513090
0.73714039 0.33539087 0.17862380
0.08270758 0.25822556 0.08438644
0.10319698 0.26123102 0.08739117
0.12371378 0.26426513 0.09042030
0.14425572 0.26732797 0.09346932
0.16482043 0.27041994 0.09653023
0.18540729 0.27354119 0.09959206
0.20601998 0.27669046 0.10264570
0.22666693 0.27986407 0.10569319
0.24735662 0.28305669 0.10875550
0.26808953 0.28626405 0.11186892
0.28885393 0.28948574 0.11506690
0.30963157 0.29272538 0.11835871
0.33040958 0.29598769 0.12172261
0.35118775 0.29927511 0.12511998
0.37197541 0.30258679 0.12851756
0.39278273 0.30592000 0.13190062
0.41361474 0.30927209 0.13527117
0.43447109 0.31264136 0.13863856
0.45534895 0.31602691 0.14201157
0.47624544 0.31942816 0.14539543
0.49715854 0.32284454 0.14879225
0.51808692 0.32627542 0.15220242
0.53902967 0.32972012 0.15562559
0.55998599 0.33317795 0.15906115
0.58095514 0.33664819 0.16250846
0.60193640 0.34013014 0.16596683
0.62292904 0.34362309 0.16943560
0.64393233 0.34712634 0.17291407
0.66494554 0.35063916 0.17640158
0.68596794 0.35416085 0.17989744
0.70699882 0.35769070 0.18340098
0.72803744 0.36122801 0.18691152
0.74908308 0.36477206 0.19042838
0.09292435 0.28593204 0.09460274
0.11350849 0.28902869 0.09769529
0.13411881 0.29215106 0.10081193
0.15475430 0.29529858 0.10395139
0.17541380 0.29847078 0.10711169
0.19609620 0.30166726 0.11028984
0.21680104 0.30488748 0.11348239
0.23752909 0.30813042 0.11668712
0.25828210 0.31139443 0.11990573
0.27906133 0.31467755 0.12314505
0.29986555 0.31797834 0.12641471
0.32069065 0.32129643 0.12972140
0.34153171 0.32463238 0.13306413
0.36238585 0.32798683 0.13643439
0.38325323 0.33135967 0.13982125
0.40413578 0.33475005 0.14321687
0.42503507 0.33815674 0.14661860
0.44595133 0.34157859 0.15002746
0.46688368 0.34501471 0.15344557
0.48783088 0.34846434 0.15687448
0.50879176 0.35192680 0.16031475
0.52976535 0.35540140 0.16376626
0.55075082 0.35888744 0.16722851
0.57174742 0.36238422 0.17070090
0.59275440 0.36589103 0.17418274
0.61377104 0.36940716 0.17767336
0.63479662 0.37293191 0.18117210
0.65583040 0.37646456 0.18467827
0.67687166 0.38000440 0.18819119
0.69791967 0.38355073 0.19171018
0.71897370 0.38710284 0.19523457
0.74003304 0.39066001 0.19876368
0.76109694 0.39422154 0.20229683
0.10344762 0.31393679 0.10510236
0.12411768 0.31711683 0.10827432
0.14481164 0.32032013 0.11146834
0.16552876 0.32354601 0.11468369
0.18626821 0.32679377 0.11791951
0.20702919 0.33006279 0.12117475
0.22781090 0.33335241 0.12444816
0.24861273 0.33666195 0.12773847
0.26943435 0.33999058 0.13104491
0.29027557 0.34333736 0.13436772
0.31113599 0.34670130 0.13770823
0.33201460 0.35008159 0.14106799
0.35290986 0.35347766 0.14444745
0.37382025 0.35688909 0.14784521
0.39474478 0.36031545 0.15125849
0.41568303 0.36375611 0.15468447
0.43663483 0.36721031 0.15812125
0.45759983 0.37067724 0.16156807
0.47857743 0.37415610 0.16502478
0.49956683 0.37764615 0.16849131
0.52056721 0.38114667 0.17196738
0.54157777 0.38465696 0.17545255
0.56259774 0.38817631 0.17894622
0.58362638 0.39170402 0.18244774
0.60466297 0.39523937 0.18595645
0.62570677 0.39878166 0.18947166
0.64675706 0.40233017 0.19299269
0.66781311 0.40588420 0.19651888
0.68887419 0.40944304 0.20004954
0.70993957 0.41300598 0.20358399
0.73100854 0.41657230 0.20712156
0.75208036 0.42014131 0.21066157
0.77315431 0.42371229 0.21420334
0.11424992 0.34221270 0.11585970
0.13499759 0.34546814 0.11910331
0.15576675 0.34874444 0.12236674
0.17655667 0.35204091 0.12564929
0.19736660 0.35535682 0.12895028
0.21819581 0.35869149 0.13226898
0.23904355 0.36204421 0.13560464
0.25990909 0.36541429 0.13895645
0.28079173 0.36880102 0.14232366
0.30169084 0.37220365 0.14570561
0.32260578 0.37562143 0.14910189
0.34353585 0.37905361 0.15251222
0.36448024 0.38249947 0.15593631
0.38543809 0.38595832 0.15937357
0.40640855 0.38942953 0.16282308
0.42739086 0.39291242 0.16628374
0.44838438 0.39640629 0.16975450
0.46938847 0.39991042 0.17323456
0.49040246 0.40342409 0.17672325
0.51142562 0.40694657 0.18022003
0.53245721 0.41047714 0.18372431
0.55349650 0.41401510 0.18723548
0.57454274 0.41755973 0.19075290
0.59559521 0.42111034 0.19427589
0.61665318 0.42466620 0.19780379
0.63771591 0.42822662 0.20133590
0.65878268 0.43179087 0.20487157
0.67985277 0.43535825 0.20841011
0.70092545 0.43892806 0.21195083
0.72199999 0.44249958 0.21549307
0.74307567 0.44607210 0.21903615
0.76415175 0.44964491 0.22257938
0.78522751 0.45321731 0.22612210
0.12530359 0.37073276 0.12684899
0.14612066 0.37405557 0.13015657
0.16695676 0.37739686 0.13348169
0.18781119 0.38075592 0.13682366
0.20868319 0.38413204 0.14018181
0.22957206 0.38752451 0.14355547
0.25047705 0.39093262 0.14694393
0.27139744 0.39435567 0.15034650
0.29233251 0.39779295 0.15376250
0.31328152 0.40124375 0.15719124
0.33424378 0.40470735 0.16063204
0.35521856 0.40818303 0.16408429
0.37620514 0.41167009 0.16754738
0.39720278 0.41516781 0.17102067
0.41821072 0.41867548 0.17450347
0.43922824 0.42219242 0.17799507
0.46025459 0.42571791 0.18149472
0.48128907 0.42925124 0.18500169
0.50233097 0.43279171 0.18851529
0.52337955 0.43633860 0.19203485
0.54443410 0.43989120 0.19555973
0.56549388 0.44344881 0.19908925
0.58655817 0.44701070 0.20262274
0.60762623 0.45057617 0.20615953
0.62869735 0.45414452 0.20969894
0.64977079 0.45771503 0.21324030
0.67084583 0.46128700 0.21678292
0.69192173 0.46485971 0.22032613
0.71299778 0.46843245 0.22386925
0.73407325 0.47200452 0.22741161
0.75514741 0.47557521 0.23095252
0.77621953 0.47914380 0.23449131
0.79728888 0.48270960 0.23802730
0.13658097 0.39946998 0.13804441
0.15745920 0.40285213 0.14140829
0.17835403 0.40625037 0.14478742
0.19926472 0.40966400 0.14818114
0.22019056 0.41309230 0.15158875
0.24113081 0.41653457 0.15500958
0.26208475 0.41999008 0.15844296
0.28305166 0.42345815 0.16188821
0.30403079 0.42693805 0.16534463
0.32502143 0.43042908 0.16881156
0.34602286 0.43393053 0.17228832
0.36703434 0.43744168 0.17577423
0.38805515 0.44096184 0.17926862
0.40908456 0.44449028 0.18277082
0.43012185 0.44802629 0.18628015
0.45116628 0.45156918 0.18979595
0.47221713 0.45511823 0.19331752
0.49327368 0.45867273 0.19684417
0.51433518 0.46223198 0.20037522
0.53540093 0.46579526 0.20391000
0.55647019 0.46936186 0.20744783
0.57754223 0.47293108 0.21098803
0.59861634 0.47650220 0.21452993
0.61969178 0.48007452 0.21807284
0.64076782 0.48364732 0.22161610
0.66184374 0.48721991 0.22515902
0.68291882 0.49079155 0.22870093
0.70399231 0.49436156 0.23224115
0.72506351 0.49792922 0.23577900
0.74613168 0.50149381 0.23931380
0.76719609 0.50505464 0.24284487
0.78825602 0.50861098 0.24637154
0.80931074 0.51216214 0.24989313
0.14805439 0.42839733 0.14942015
0.16898556 0.43183080 0.15283266
0.18993088 0.43527797 0.15625814
0.21088962 0.43873814 0.15969592
0.23186106 0.44221060 0.16314532
0.25284447 0.44569463 0.16660566
0.27383913 0.44918953 0.17007626
0.29484430 0.45269459 0.17355645
0.31585926 0.45620910 0.17704555
0.33688328 0.45973236 0.18054288
0.35791564 0.46326364 0.18404776
0.37895561 0.46680224 0.18755951
0.40000246 0.47034746 0.19107746
0.42105547 0.47389858 0.19460093
0.44211390 0.47745489 0.19812924
0.46317704 0.48101569 0.20166171
0.48424415 0.48458026 0.20519768
0.50531451 0.48814789 0.20873645
0.52638739 0.49171789 0.21227734
0.54746207 0.49528953 0.21581969
0.56853781 0.49886210 0.21936281
0.58961389 0.50243491 0.22290603
0.61068959 0.50600723 0.22644866
0.63176417 0.50957837 0.22999003
0.65283692 0.51314760 0.23352946
0.67390709 0.51671422 0.23706628
0.69497398 0.52027753 0.24059980
0.71603684 0.52383681 0.24412935
0.73709496 0.52739135 0.24765425
0.75814760 0.53094044 0.25117382
0.77919405 0.53448338 0.25468739
0.80023356 0.53801945 0.25819427
0.82126542 0.54154794 0.26169379
0.15969617 0.45748783 0.16095041
0.18067205 0.46096458 0.16440387
0.20165964 0.46445265 0.16786803
0.22265821 0.46795134 0.17134220
0.24366703 0.47145992 0.17482571
0.26468537 0.47497769 0.17831789
0.28571252 0.47850395 0.18181804
0.30674773 0.48203798 0.18532551
0.32779029 0.48557907 0.18883960
0.34883946 0.48912652 0.19235964
0.36989453 0.49267961 0.19588495
0.39095476 0.49623764 0.19941485
0.41201943 0.49979989 0.20294867
0.43308780 0.50336566 0.20648573
0.45415917 0.50693424 0.21002535
0.47523278 0.51050491 0.21356685
0.49630793 0.51407698 0.21710956
0.51738388 0.51764972 0.22065279
0.53845991 0.52122243 0.22419587
0.55953529 0.52479441 0.22773813
0.58060928 0.52836493 0.23127887
0.60168118 0.53193329 0.23481743
0.62275024 0.53549879 0.23835312
0.64381575 0.53906071 0.24188528
0.66487697 0.54261835 0.24541322
0.68593318 0.54617099 0.24893625
0.70698365 0.54971792 0.25245372
0.72802765 0.55325844 0.25596493
0.74906446 0.55679183 0.25946921
0.77009336 0.56031740 0.26296588
0.79111360 0.56383442 0.26645427
0.81212448 0.56734218 0.26993369
0.83312526 0.57083999 0.27340347
0.17147865 0.48671445 0.17260938
0.19249102 0.49022646 0.17609612
0.21351265 0.49374741 0.17959128
0.23454282 0.49727658 0.18309417
0.25558079 0.50081326 0.18660413
0.27662584 0.50435675 0.19012046
0.29767724 0.50790633 0.19364250
0.31873427 0.51146130 0.19716956
0.33979620 0.51502095 0.20070097
0.36086231 0.51858457 0.20423605
0.38193186 0.52215144 0.20777412
0.40300412 0.52572086 0.21131450
0.42407838 0.52929213 0.21485652
0.44515391 0.53286452 0.21839950
0.46622997 0.53643733 0.22194275
0.48730584 0.54000986 0.22548561
0.50838080 0.54358138 0.22902739
0.52945412 0.54715120 0.23256742
0.55052507 0.55071861 0.23610502
0.57159292 0.55428289 0.23963950
0.59265695 0.55784333 0.24317020
0.61371643 0.56139923 0.24669643
0.63477063 0.56494987 0.25021752
0.65581883 0.56849455 0.25373278
0.67686030 0.57203256 0.25724155
0.69789431 0.57556318 0.26074314
0.71892014 0.57908572 0.26423687
0.73993706 0.58259945 0.26772207
0.76094435 0.58610368 0.27119806
0.78194126 0.58959768 0.27466416
0.80292709 0.59308075 0.27811970
0.82390110 0.59655219 0.28156399
0.84486257 0.60001128 0.28499635
0.18337415 0.51605020 0.18437124
0.20441479 0.51958944 0.18788360
0.22546223 0.52313523 0.19140208
0.24651577 0.52668686 0.19492603
0.26757467 0.53024361 0.19845475
0.28863820 0.53380479 0.20198758
0.30970564 0.53736967 0.20552382
0.33077627 0.54093756 0.20906281
0.35184934 0.54450773 0.21260387
0.37292415 0.54807949 0.21614632
0.39399995 0.55165211 0.21968947
0.41507603 0.55522491 0.22323266
0.43615165 0.55879715 0.22677521
0.45722610 0.56236814 0.23031643
0.47829864 0.56593716 0.23385565
0.49936854 0.56950351 0.23739219
0.52043509 0.57306647 0.24092537
0.54149754 0.57662534 0.24445452
0.56255519 0.58017941 0.24797896
0.58360729 0.58372796 0.25149801
0.60465312 0.58727030 0.25501099
0.62569196 0.59080570 0.25851722
0.64672308 0.59433346 0.26201603
0.66774575 0.59785287 0.26550673
0.68875925 0.60136323 0.26898866
0.70976284 0.60486381 0.27246113
0.73075580 0.60835392 0.27592346
0.75173741 0.61183284 0.27937498
0.77270694 0.61529986 0.28281500
0.79366366 0.61875428 0.28624286
0.81460684 0.62219538 0.28965787
0.83553576 0.62562246 0.29305935
0.85644969 0.62903481 0.29644664
0.19535501 0.54546806 0.19621019
0.21641568 0.54902651 0.19974049
0.23748072 0.55258912 0.20327464
0.25854940 0.55615518 0.20681196
0.27962100 0.55972398 0.21035178
0.30069479 0.56329481 0.21389342
0.32177004 0.56686696 0.21743621
0.34284603 0.57043973 0.22097945
0.36392203 0.57401241 0.22452249
0.38499731 0.57758428 0.22806463
0.40607114 0.58115463 0.23160520
0.42714281 0.58472276 0.23514352
0.44821157 0.58828796 0.23867892
0.46927671 0.59184951 0.24221071
0.49033750 0.59540672 0.24573823
0.51139321 0.59895886 0.24926078
0.53244312 0.60250523 0.25277770
0.55348649 0.60604512 0.25628830
0.57452260 0.60957783 0.25979190
0.59555073 0.61310263 0.26328784
0.61657014 0.61661883 0.26677543
0.63758012 0.62012571 0.27025399
0.65857992 0.62362256 0.27372285
0.67956884 0.62710868 0.27718132
0.70054613 0.63058335 0.28062873
0.72151108 0.63404586 0.28406441
0.74246295 0.63749552 0.28748767
0.76340103 0.64093159 0.29089783
0.78432457 0.64435339 0.29429422
0.80523286 0.64776019 0.29767616
0.82612517 0.65115130 0.30104298
0.84700078 0.65452599 0.30439398
0.86785894 0.65788356 0.30772851
0.20739355 0.57494104 0.20810043
0.22846603 0.57851066 0.21164099
0.24954043 0.58208206 0.21518313
0.27061604 0.58565452 0.21872616
0.29169211 0.58922734 0.22226940
0.31276793 0.59279980 0.22581219
0.33384277 0.59637120 0.22935384
0.35491590 0.59994083 0.23289367
0.37598659 0.60350797 0.23643101
0.39705412 0.60707193 0.23996517
0.41811776 0.61063198 0.24349549
0.43917679 0.61418742 0.24702127
0.46023047 0.61773755 0.25054185
0.48127808 0.62128164 0.25405655
0.50231889 0.62481900 0.25756468
0.52335218 0.62834891 0.26106557
0.54437722 0.63187066 0.26455855
0.56539328 0.63538355 0.26804293
0.58639964 0.63888686 0.27151803
0.60739556 0.64237988 0.27498319
0.62838033 0.64586192 0.27843772
0.64935322 0.64933224 0.28188093
0.67031349 0.65279016 0.28531217
0.69126042 0.65623495 0.28873074
0.71219329 0.65966591 0.29213596
0.73311137 0.66308233 0.29552717
0.75401392 0.66648350 0.29890369
0.77490023 0.66986871 0.30226482
0.79576957 0.67323725 0.30560991
0.81662121 0.67658842 0.30893826
