assets/luts/DB_Silver_Street_Rec709_50.cube
TITLE "Silver Street Rec709 50"
# Red changes fastest. Full-range normalized input.
LUT_3D_SIZE 5
DOMAIN_MIN 0 0 0
DOMAIN_MAX 1 1 1
0.00350000 0.00350000 0.00350000
0.16286131 0.01670330 0.01713238
0.31503928 0.03571481 0.03647766
0.47506225 0.05596356 0.05691246
0.63742490 0.07848888 0.07951504
0.06329132 0.20382032 0.06489397
0.22670907 0.22733901 0.08424803
0.39142048 0.25211694 0.11316121
0.55779524 0.27858703 0.13956144
0.72529655 0.30610497 0.16690889
0.14805439 0.42839733 0.14942015
0.31585926 0.45620910 0.17704555
0.48424415 0.48458026 0.20519768
0.65283692 0.51314760 0.23352946
0.82126542 0.54154794 0.26169379
0.24357854 0.66342059 0.24382073
0.41185484 0.69166995 0.27183792
0.57945926 0.71925690 0.29921421
0.74601967 0.74581823 0.32560251
0.91116392 0.77099076 0.35065573
0.33571053 0.89505753 0.33489630
0.50024681 0.91963426 0.35937728
0.66285931 0.94232678 0.38204974
0.82317589 0.96277188 0.40256657
0.98082443 0.98060638 0.42058068
0.00799849 0.00810091 0.14816682
0.16331890 0.02376596 0.16423863
0.32158929 0.04231358 0.18304781
0.48244866 0.06337616 0.20425770
0.64552118 0.08659201 0.22751753
0.07096218 0.21149384 0.21250747
0.23462555 0.23516744 0.23601899
0.40532677 0.25950053 0.26040543
0.56706731 0.28783212 0.28864895
0.73485318 0.31562570 0.31625716
0.15744458 0.43775708 0.29861626
0.32547361 0.46580491 0.32644477
0.49422601 0.49450918 0.35073904
0.66260258 0.52282219 0.38297246
0.83085216 0.55109042 0.41105388
0.25326922 0.67306595 0.39328083
0.42135907 0.70113108 0.42111929
0.58865067 0.72841045 0.44819897
0.75477187 0.75454087 0.47417279
0.91935054 0.77915914 0.49869366
0.34427146 0.90359265 0.48328642
0.50819614 0.92757023 0.50719214
0.67007067 0.94954024 0.52917146
0.82952290 0.96913950 0.54887727
0.98618070 0.98600481 0.56596251
0.01288108 0.01307592 0.29318900
0.16924382 0.02976108 0.31022856
0.32843762 0.04920254 0.32989438
0.49009032 0.07103711 0.35183936
0.65382979 0.09490159 0.37571641
0.07886425 0.21940444 0.36032674
0.24327099 0.24391771 0.38482157
0.40926063 0.26996404 0.41077749
0.57644992 0.29718472 0.43783830
0.74447774 0.32521197 0.46566716
0.16693001 0.44720900 0.44789956
0.33516636 0.47544101 0.47592126
0.50340148 0.50360791 0.50381435
0.67728378 0.53097548 0.53098558
0.84036262 0.56055748 0.56034098
0.26291075 0.68266258 0.54269345
0.43077124 0.71050159 0.57031315
0.59769245 0.73743684 0.59704165
0.76357480 0.76332607 0.61863962
0.92735484 0.78710418 0.64647155
0.35263886 0.91193814 0.63149440
0.51590903 0.93527466 0.65478483
0.67700266 0.95648028 0.67603097
0.83554762 0.97519180 0.69488574
0.99117178 0.99104604 0.71100206
0.01813304 0.01841066 0.43855468
0.17549896 0.03607260 0.45652505
0.33556954 0.05636749 0.47700380
0.49797265 0.07893216 0.49964384
0.66233615 0.10340340 0.52409808
0.08698840 0.22753467 0.50835501
0.25197320 0.25260984 0.53338355
0.41841077 0.27909618 0.55975283
0.58592898 0.30663048 0.58711578
0.75415568 0.33484955 0.61512528
0.17649610 0.45673887 0.59725645
0.34488834 0.48511707 0.62541517
0.51348139 0.51368457 0.65374757
0.68190691 0.54207678 0.68190847
0.84978175 0.56993504 0.70954164
0.27248855 0.69219624 0.69204500
0.44007677 0.71976724 0.71940590
0.60661093 0.74630654 0.74577304
0.77135166 0.77111942 0.77057753
0.94008061 0.79336031 0.79269599
0.36079815 0.92007974 0.77950664
0.52337089 0.94273333 0.80214174
0.68364071 0.96313267 0.82261468
0.84122105 0.98092014 0.84056405
0.99607682 0.99601178 0.85179313
0.02373986 0.02409095 0.58424968
0.18206603 0.04268778 0.60311083
0.34297047 0.06379423 0.62436249
0.50608107 0.08704710 0.64765756
0.67102568 0.11208321 0.67264896
0.09532301 0.23586954 0.65657793
0.26084291 0.26146467 0.68210072
0.42768920 0.28834763 0.70884638
0.59548975 0.31615521 0.73646782
0.76387241 0.34452423 0.76461795
0.18612828 0.46633247 0.74667333
0.35463046 0.49481570 0.77492976
0.52320714 0.52336495 0.80324143
0.69148618 0.55161702 0.83126125
0.85909544 0.57920872 0.85864213
0.28198807 0.70165272 0.84132188
0.44926108 0.72891383 0.86838396
0.61535669 0.75501915 0.89433365
0.77990271 0.77960543 0.91882443
0.94253080 0.80230812 0.94151115
0.36873477 0.92800325 0.92730955
0.53056716 0.94993201 0.94924929
0.68997025 0.96948318 0.96890900
0.84656893 0.98629436 0.98594240
1.00000000 1.00000000 1.00000000
