assets/luts/DB_Sports_Arena_Clean_Rec709_50.cube
TITLE "Sports Arena Clean Rec709 50"
# Red changes fastest. Full-range normalized input.
LUT_3D_SIZE 5
DOMAIN_MIN 0 0 0
DOMAIN_MAX 1 1 1
0.00150000 0.00150000 0.00150000
0.24789061 0.00042884 0.00060927
0.49436641 0.00000000 0.00033826
0.74139696 0.00000000 0.00044872
0.98931761 0.00026195 0.00078761
0.00047166 0.24712383 0.00047166
0.24814722 0.24761928 0.00091904
0.49613239 0.24841796 0.00186531
0.74433378 0.24947806 0.00293628
0.99270500 0.25072935 0.00417500
0.00337079 0.49704727 0.00337079
0.25178887 0.49835260 0.00465637
0.50029522 0.49976351 0.00603022
0.74883056 0.50121712 0.00743306
0.99733563 0.50265056 0.00880563
0.00793939 0.74887713 0.00793939
0.25641871 0.75028762 0.00928621
0.50478689 0.75159218 0.01052189
0.75298465 0.75272794 0.01158715
1.00000000 0.75362865 0.01526148
0.01247280 1.00000000 0.01247280
0.26208164 1.00000000 0.01605454
0.51007022 1.00000000 0.02003786
0.75614651 1.00000000 0.02442597
1.00000000 0.99998142 0.02946066
0.00115321 0.00108380 0.24828572
0.24760837 0.00023081 0.24760837
0.49418342 0.00000000 0.24728147
0.74180775 0.00000000 0.24758844
0.98953832 0.00046388 0.24814082
0.00062400 0.24725021 0.24775659
0.24831994 0.24785359 0.24831994
0.49655982 0.24872108 0.24927848
0.74473846 0.24988470 0.25047346
0.99315363 0.25118666 0.25175613
0.00379380 0.49747483 0.25092630
0.25224809 0.49882319 0.25224809
0.50076150 0.50026243 0.25353332
0.74930379 0.50170919 0.25503671
0.99778435 0.50312163 0.25638685
0.00840556 0.74936412 0.25553806
0.25685379 0.75074568 0.25685379
0.50517074 0.75199996 0.25803824
0.75329713 0.75306410 0.25903213
1.00000000 0.75396151 0.26237738
0.01364435 1.00000000 0.26028507
0.26305692 1.00000000 0.26305692
0.51078349 1.00000000 0.26613301
0.75653203 1.00000000 0.26951655
1.00000000 0.99998938 0.27334699
0.00086711 0.00073335 0.49513211
0.24748743 0.00005970 0.49461993
0.49423300 0.00000000 0.49423300
0.74200935 0.00010717 0.49487685
0.98979238 0.00070255 0.49552738
0.00081380 0.24741805 0.49507880
0.24870163 0.24812893 0.49583415
0.49683696 0.24911415 0.49683696
0.74516032 0.25031094 0.49802782
0.99361261 0.25165633 0.49934761
0.00423151 0.49791935 0.49849651
0.25271591 0.49930326 0.49984850
0.50116453 0.50075000 0.50116453
0.74986467 0.50216512 0.50258334
0.99822043 0.50358065 0.50395543
0.00886343 0.74984367 0.50312843
0.25727372 0.75118906 0.50440622
0.50553224 0.75238595 0.50553224
0.75358090 0.75337798 0.50635272
1.00000000 0.75430423 0.50889381
0.01486197 1.00000000 0.50752303
0.26406730 1.00000000 0.50941849
0.51152087 1.00000000 0.51152087
0.75693068 1.00000000 0.51383339
1.00000000 0.99999521 0.51642063
0.00063939 0.00044619 0.74203689
0.24734431 0.00000000 0.74135163
0.49442782 0.00000000 0.74141648
0.74219643 0.00027213 0.74219643
0.99007747 0.00097551 0.74294497
0.00103889 0.24762480 0.74243639
0.24901740 0.24843590 0.74328240
0.49722321 0.24950004 0.74435571
0.74559704 0.25075432 0.74559704
0.99407961 0.25213588 0.74694711
0.00468159 0.49837837 0.74607909
0.25318903 0.49979066 0.74745403
0.50172435 0.50124447 0.74885686
0.75022835 0.50267690 0.75022835
0.99864153 0.50402517 0.75150903
0.00931067 0.75031334 0.75070817
0.25767619 0.75161530 0.75194119
0.50587010 0.75274730 0.75300269
0.75380186 0.75364641 0.75380186
1.00000000 0.75465503 0.75477089
0.01612577 1.00000000 0.75415273
0.26511289 1.00000000 0.75510532
0.51228250 1.00000000 0.75616753
0.75734258 1.00000000 0.75734258
1.00000000 0.99999882 0.75864855
0.00046771 0.00021985 0.98899771
0.24728141 0.00000000 0.98798053
0.49471588 0.00000000 0.98895141
0.74241905 0.00047616 0.98955155
0.99039126 0.00128029 0.99039126
0.00129703 0.24786798 0.98982703
0.24935938 0.24877206 0.99075688
0.49762890 0.24990782 0.99189390
0.74604631 0.25121238 0.99317881
0.99455233 0.25262287 0.99455233
0.00514172 0.49884944 0.99367172
0.25366528 0.50028288 0.99506278
0.50219659 0.50173649 0.99646159
0.75067637 0.50314740 0.99780887
0.99904534 0.50445273 0.99904534
0.00974497 0.75077065 0.99827497
0.25805888 0.75202194 0.99945638
0.50651647 0.75302724 1.00000000
0.75414330 0.75398024 1.00000000
1.00000000 0.75501881 1.00000000
0.01795465 0.99985995 1.00000000
0.26650269 0.99991661 1.00000000
0.51321308 0.99996096 1.00000000
0.75780576 0.99998976 1.00000000
1.00000000 1.00000000 1.00000000
