assets/luts/DB_Sports_Highlight_Reel_Rec709_100.cube
TITLE "Sports Highlight Reel Rec709 100"
# Red changes fastest. Full-range normalized input.
LUT_3D_SIZE 33
DOMAIN_MIN 0 0 0
DOMAIN_MAX 1 1 1
0.00000000 0.00000000 0.00000000
0.01717547 0.00000000 0.00006910
0.03491914 0.00000000 0.00012622
0.05322542 0.00000000 0.00018111
0.07209218 0.00000000 0.00024718
0.09151767 0.00000000 0.00033185
0.11149623 0.00000000 0.00043150
0.13201702 0.00000000 0.00053552
0.15306670 0.00000000 0.00063410
0.17463332 0.00000000 0.00072269
0.19670790 0.00000000 0.00080154
0.21928350 0.00000000 0.00087296
0.24235377 0.00000000 0.00093912
0.26591197 0.00000000 0.00100133
0.28995088 0.00000000 0.00106009
0.31446296 0.00000000 0.00111556
0.33944051 0.00000000 0.00116769
0.36487578 0.00000000 0.00121642
0.39076103 0.00000000 0.00126169
0.41708848 0.00000000 0.00130341
0.44385036 0.00000000 0.00134152
0.47103891 0.00000000 0.00137598
0.49864636 0.00000000 0.00140671
0.52666492 0.00000000 0.00143368
0.55508682 0.00000000 0.00145685
0.58390429 0.00000000 0.00147619
0.61310953 0.00000000 0.00149166
0.64269478 0.00000000 0.00150325
0.67265225 0.00000000 0.00151094
0.70297414 0.00000000 0.00151471
0.73365268 0.00000000 0.00151457
0.76468007 0.00000000 0.00151051
0.79604851 0.00000000 0.00150253
0.00000000 0.01781488 0.00060014
0.01781868 0.01824684 0.00000000
0.03674489 0.01844570 0.00000000
0.05614749 0.01866122 0.00000000
0.07607353 0.01888423 0.00000000
0.09658847 0.01909949 0.00000000
0.11772320 0.01929702 0.00000000
0.13945063 0.01947813 0.00000000
0.16170994 0.01965146 0.00000000
0.18444640 0.01982549 0.00000000
0.20763198 0.02000442 0.00000000
0.23126137 0.02018847 0.00000000
0.25533810 0.02037614 0.00000000
0.27986442 0.02056598 0.00000000
0.30483822 0.02075714 0.00000000
0.33025404 0.02094931 0.00000000
0.35610474 0.02114240 0.00000000
0.38238256 0.02133645 0.00000000
0.40907956 0.02153151 0.00000000
0.43618779 0.02172763 0.00000000
0.46369929 0.02192486 0.00000000
0.49160615 0.02212324 0.00000000
0.51990045 0.02232280 0.00000000
0.54857431 0.02252357 0.00000000
0.57761986 0.02272558 0.00000000
0.60702925 0.02292884 0.00000000
0.63679466 0.02313336 0.00000000
0.66690826 0.02333915 0.00000000
0.69736227 0.02354622 0.00000000
0.72814891 0.02375456 0.00000000
0.75926042 0.02396415 0.00000000
0.79068906 0.02417498 0.00000000
0.82242710 0.02438705 0.00000000
0.00000000 0.03749612 0.00122349
0.01816246 0.03841773 0.00000000
0.03808436 0.03883605 0.00000000
0.05843961 0.03927134 0.00000000
0.07922948 0.03973270 0.00000000
0.10051161 0.04021430 0.00000000
0.12235920 0.04069910 0.00000000
0.14480217 0.04117153 0.00000000
0.16780893 0.04162606 0.00000000
0.19131786 0.04206602 0.00000000
0.21527787 0.04249762 0.00000000
0.23966494 0.04292556 0.00000000
0.26447522 0.04335193 0.00000000
0.28971128 0.04377713 0.00000000
0.31537361 0.04420098 0.00000000
0.34145880 0.04462330 0.00000000
0.36796074 0.04504401 0.00000000
0.39487207 0.04546313 0.00000000
0.42218499 0.04588069 0.00000000
0.44989161 0.04629673 0.00000000
0.47798404 0.04671128 0.00000000
0.50645437 0.04712438 0.00000000
0.53529474 0.04753604 0.00000000
0.56449731 0.04794629 0.00000000
0.59405424 0.04835513 0.00000000
0.62395771 0.04876257 0.00000000
0.65419994 0.04916862 0.00000000
0.68477314 0.04957328 0.00000000
0.71566954 0.04997652 0.00000000
0.74688142 0.05037835 0.00000000
0.77840104 0.05077873 0.00000000
0.81022069 0.05117766 0.00000000
0.84233267 0.05157509 0.00000000
0.00000000 0.05896121 0.00187252
0.01841049 0.06038337 0.00000000
0.03928207 0.06101534 0.00000000
0.06059758 0.06164594 0.00000000
0.08231269 0.06229863 0.00000000
0.10443373 0.06298887 0.00000000
0.12702109 0.06371247 0.00000000
0.15014310 0.06444879 0.00000000
0.17382223 0.06517541 0.00000000
0.19802603 0.06587990 0.00000000
0.22270019 0.06656134 0.00000000
0.24780278 0.06722509 0.00000000
0.27331491 0.06787726 0.00000000
0.29923270 0.06852200 0.00000000
0.32555603 0.06916139 0.00000000
0.35228276 0.06979623 0.00000000
0.37940788 0.07042679 0.00000000
0.40692457 0.07105316 0.00000000
0.43482527 0.07167538 0.00000000
0.46310218 0.07229349 0.00000000
0.49174744 0.07290751 0.00000000
0.52075320 0.07351745 0.00000000
0.55011163 0.07412334 0.00000000
0.57981491 0.07472517 0.00000000
0.60985525 0.07532295 0.00000000
0.64022487 0.07591668 0.00000000
0.67091601 0.07650635 0.00000000
0.70192091 0.07709195 0.00000000
0.73323186 0.07767345 0.00000000
0.76484113 0.07825084 0.00000000
0.79674103 0.07882408 0.00000000
0.82892388 0.07939315 0.00000000
0.86138200 0.07995801 0.00000000
0.00000000 0.08212560 0.00249963
0.01860738 0.08404290 0.00000000
0.04033777 0.08490191 0.00000000
0.06253901 0.08573924 0.00000000
0.08515761 0.08657641 0.00000000
0.10815890 0.08744025 0.00000000
0.13155529 0.08834672 0.00000000
0.15539989 0.08928968 0.00000000
0.17974357 0.09024556 0.00000000
0.20459634 0.09118908 0.00000000
0.22992804 0.09210581 0.00000000
0.25569662 0.09299404 0.00000000
0.28187170 0.09385941 0.00000000
0.30843926 0.09470884 0.00000000
0.33539452 0.09554726 0.00000000
0.36273444 0.09637731 0.00000000
0.39045444 0.09720007 0.00000000
0.41854816 0.09801595 0.00000000
0.44700831 0.09882507 0.00000000
0.47582719 0.09962746 0.00000000
0.50499700 0.10042314 0.00000000
0.53450994 0.10121213 0.00000000
0.56435820 0.10199442 0.00000000
0.59453401 0.10277002 0.00000000
0.62502960 0.10353891 0.00000000
0.65583723 0.10430108 0.00000000
0.68694916 0.10505652 0.00000000
0.71835768 0.10580520 0.00000000
0.75005509 0.10654709 0.00000000
0.78203370 0.10728217 0.00000000
0.81428585 0.10801040 0.00000000
0.84680389 0.10873174 0.00000000
0.87958016 0.10944614 0.00000000
0.00000000 0.10690078 0.00305642
0.01883495 0.10927418 0.00000000
0.04135183 0.11036373 0.00000000
0.06434685 0.11142367 0.00000000
0.08778329 0.11246423 0.00000000
0.11162074 0.11350671 0.00000000
0.13583876 0.11457425 0.00000000
0.16045176 0.11567760 0.00000000
0.18549662 0.11680777 0.00000000
0.21100109 0.11794243 0.00000000
0.23696341 0.11905994 0.00000000
0.26335856 0.12014911 0.00000000
0.29015763 0.12120975 0.00000000
0.31734057 0.12224742 0.00000000
0.34489691 0.12326820 0.00000000
0.37282084 0.12427626 0.00000000
0.40110704 0.12527372 0.00000000
0.42974924 0.12626145 0.00000000
0.45874031 0.12723974 0.00000000
0.48807266 0.12820868 0.00000000
0.51773856 0.12916829 0.00000000
0.54773023 0.13011857 0.00000000
0.57803992 0.13105951 0.00000000
0.60865988 0.13199109 0.00000000
0.63958236 0.13291331 0.00000000
0.67079967 0.13382614 0.00000000
0.70230409 0.13472956 0.00000000
0.73408795 0.13562353 0.00000000
0.76614356 0.13650801 0.00000000
0.79846328 0.13738298 0.00000000
0.83103946 0.13824837 0.00000000
0.86386447 0.13910416 0.00000000
0.89693070 0.13995028 0.00000000
0.00000000 0.13319733 0.00352236
0.01913958 0.13596696 0.00000000
0.04240861 0.13727062 0.00000000
0.06614077 0.13854749 0.00000000
0.09031738 0.13979895 0.00000000
0.11491121 0.14103470 0.00000000
0.13989692 0.14227120 0.00000000
0.16526477 0.14352357 0.00000000
0.19102487 0.14479610 0.00000000
0.21719540 0.14607932 0.00000000
0.24378491 0.14735651 0.00000000
0.27078510 0.14861350 0.00000000
0.29817731 0.14984424 0.00000000
0.32594308 0.15104994 0.00000000
0.35406929 0.15223497 0.00000000
0.38254740 0.15340348 0.00000000
0.41137073 0.15455808 0.00000000
0.44053262 0.15570006 0.00000000
0.47002589 0.15682987 0.00000000
0.49984304 0.15794769 0.00000000
0.52997638 0.15905353 0.00000000
0.56041818 0.16014740 0.00000000
0.59116071 0.16122927 0.00000000
0.62219625 0.16229913 0.00000000
0.65351711 0.16335696 0.00000000
0.68511559 0.16440271 0.00000000
0.71698402 0.16543637 0.00000000
0.74911475 0.16645788 0.00000000
0.78150013 0.16746720 0.00000000
0.81413253 0.16846429 0.00000000
0.84700434 0.16944909 0.00000000
0.88010795 0.17042155 0.00000000
0.91343576 0.17138161 0.00000000
0.00000000 0.16092704 0.00389663
0.01952590 0.16403003 0.00000000
0.04353092 0.16552152 0.00000000
0.06797565 0.16699105 0.00000000
0.09285023 0.16843717 0.00000000
0.11813974 0.16986196 0.00000000
0.14382629 0.17127250 0.00000000
0.16989528 0.17267870 0.00000000
0.19634117 0.17408800 0.00000000
0.22316684 0.17550060 0.00000000
0.25037622 0.17690932 0.00000000
0.27796691 0.17830433 0.00000000
0.30592897 0.17967853 0.00000000
0.33424915 0.18102971 0.00000000
0.36291531 0.18235933 0.00000000
0.39191787 0.18367005 0.00000000
0.42124904 0.18496407 0.00000000
0.45090159 0.18624266 0.00000000
0.48086818 0.18750638 0.00000000
0.51114129 0.18875544 0.00000000
0.54171326 0.18998987 0.00000000
0.57257641 0.19120967 0.00000000
0.60372304 0.19241482 0.00000000
0.63514545 0.19360529 0.00000000
0.66683598 0.19478104 0.00000000
0.69878696 0.19594204 0.00000000
0.73099076 0.19708824 0.00000000
0.76343974 0.19821959 0.00000000
0.79612629 0.19933605 0.00000000
0.82904279 0.20043755 0.00000000
0.86218166 0.20152404 0.00000000
0.89553532 0.20259546 0.00000000
0.92909619 0.20365174 0.00000000
0.00000000 0.19000257 0.00418221
0.01998415 0.19338023 0.00000000
0.04470746 0.19503428 0.00000000
0.06984813 0.19666844 0.00000000
0.09539844 0.19828153 0.00000000
0.12134899 0.19987328 0.00000000
0.14768842 0.20144539 0.00000000
0.17440495 0.20300184 0.00000000
0.20148911 0.20454731 0.00000000
0.22893534 0.20608445 0.00000000
0.25674063 0.20761221 0.00000000
0.28490123 0.20912652 0.00000000
0.31341038 0.21062287 0.00000000
0.34225875 0.21209854 0.00000000
0.37143642 0.21355309 0.00000000
0.40093422 0.21498751 0.00000000
0.43074396 0.21640303 0.00000000
0.46085802 0.21780057 0.00000000
0.49126888 0.21918060 0.00000000
0.52196895 0.22054331 0.00000000
0.55295061 0.22188873 0.00000000
0.58420619 0.22321686 0.00000000
0.61572801 0.22452767 0.00000000
0.64750842 0.22582112 0.00000000
0.67953978 0.22709717 0.00000000
0.71181446 0.22835577 0.00000000
0.74432483 0.22959687 0.00000000
0.77706328 0.23082041 0.00000000
0.81002224 0.23202634 0.00000000
0.84319410 0.23321459 0.00000000
0.87657132 0.23438511 0.00000000
0.91014632 0.23553781 0.00000000
0.94391157 0.23667263 0.00000000
0.00000000 0.22033651 0.00437985
0.02050729 0.22393353 0.00000000
0.04592469 0.22572899 0.00000000
0.07173974 0.22750386 0.00000000
0.09794474 0.22925769 0.00000000
0.12453168 0.23099011 0.00000000
0.15149193 0.23270122 0.00000000
0.17881632 0.23439200 0.00000000
0.20649590 0.23606420 0.00000000
0.23452277 0.23771951 0.00000000
0.26289029 0.23935857 0.00000000
0.29159231 0.24098052 0.00000000
0.32062204 0.24258359 0.00000000
0.34997168 0.24416615 0.00000000
0.37963278 0.24572742 0.00000000
0.40959693 0.24726745 0.00000000
0.43985607 0.24878666 0.00000000
0.47040243 0.25028551 0.00000000
0.50122837 0.25176427 0.00000000
0.53232629 0.25322307 0.00000000
0.56368854 0.25466192 0.00000000
0.59530748 0.25608082 0.00000000
0.62717547 0.25747971 0.00000000
0.65928488 0.25885856 0.00000000
0.69162809 0.26021731 0.00000000
0.72419749 0.26155591 0.00000000
0.75698550 0.26287430 0.00000000
0.78998452 0.26417243 0.00000000
0.82318698 0.26545022 0.00000000
0.85658534 0.26670760 0.00000000
0.89017204 0.26794450 0.00000000
0.92393954 0.26916086 0.00000000
0.95788033 0.27035658 0.00000000
0.00000000 0.25184112 0.00448889
0.02109269 0.25560357 0.00000000
0.04717598 0.25752188 0.00000000
0.07363859 0.25941760 0.00000000
0.10047270 0.26129063 0.00000000
0.12767045 0.26314084 0.00000000
0.15522391 0.26496814 0.00000000
0.18312495 0.26677267 0.00000000
0.21136538 0.26855482 0.00000000
0.23993719 0.27031521 0.00000000
0.26883273 0.27205430 0.00000000
0.29804463 0.27377214 0.00000000
0.32756554 0.27546830 0.00000000
0.35738787 0.27714219 0.00000000
0.38750378 0.27879334 0.00000000
0.41790534 0.28042156 0.00000000
0.44858468 0.28202691 0.00000000
0.47953406 0.28360952 0.00000000
0.51074582 0.28516948 0.00000000
0.54221233 0.28670685 0.00000000
0.57392596 0.28822161 0.00000000
0.60587908 0.28971373 0.00000000
0.63806408 0.29118317 0.00000000
0.67047335 0.29262987 0.00000000
0.70309930 0.29405378 0.00000000
0.73593435 0.29545482 0.00000000
0.76897092 0.29683294 0.00000000
0.80220146 0.29818807 0.00000000
0.83561842 0.29952014 0.00000000
0.86921426 0.30082907 0.00000000
0.90298146 0.30211478 0.00000000
0.93691249 0.30337719 0.00000000
0.97099985 0.30461622 0.00000000
0.00000000 0.28442836 0.00450893
0.02173917 0.28830284 0.00000000
0.04845866 0.29032645 0.00000000
0.07553961 0.29232505 0.00000000
0.10297418 0.29429863 0.00000000
0.13075454 0.29624719 0.00000000
0.15887285 0.29817069 0.00000000
0.18732126 0.30006911 0.00000000
0.21609191 0.30194253 0.00000000
0.24517694 0.30379105 0.00000000
0.27456858 0.30561484 0.00000000
0.30425915 0.30741398 0.00000000
0.33424102 0.30918841 0.00000000
0.36450655 0.31093799 0.00000000
0.39504805 0.31266253 0.00000000
0.42585777 0.31436190 0.00000000
0.45692799 0.31603605 0.00000000
0.48825102 0.31768497 0.00000000
0.51981923 0.31930866 0.00000000
0.55162497 0.32090712 0.00000000
0.58366065 0.32248030 0.00000000
0.61591865 0.32402815 0.00000000
0.64839139 0.32555063 0.00000000
0.68107127 0.32704767 0.00000000
0.71395074 0.32851921 0.00000000
0.74702224 0.32996517 0.00000000
0.78027820 0.33138549 0.00000000
0.81371110 0.33278009 0.00000000
0.84731341 0.33414889 0.00000000
0.88107761 0.33549181 0.00000000
0.91499619 0.33680877 0.00000000
0.94906166 0.33809969 0.00000000
0.98326653 0.33936446 0.00000000
0.00000000 0.31801004 0.00444061
0.02244508 0.32194374 0.00000000
0.04977067 0.32405535 0.00000000
0.07744001 0.32613944 0.00000000
0.10544528 0.32819601 0.00000000
0.13377867 0.33022507 0.00000000
0.16243238 0.33222660 0.00000000
0.19139864 0.33420061 0.00000000
0.22066967 0.33614706 0.00000000
0.25023771 0.33806599 0.00000000
0.28009502 0.33995739 0.00000000
0.31023389 0.34182128 0.00000000
0.34064665 0.34365764 0.00000000
0.37132561 0.34546643 0.00000000
0.40226313 0.34724759 0.00000000
0.43345153 0.34900103 0.00000000
0.46488315 0.35072670 0.00000000
0.49655036 0.35242456 0.00000000
0.52844553 0.35409455 0.00000000
0.56056106 0.35573665 0.00000000
0.59288936 0.35735079 0.00000000
0.62542284 0.35893691 0.00000000
0.65815394 0.36049495 0.00000000
0.69107509 0.36202485 0.00000000
0.72417875 0.36352653 0.00000000
0.75745738 0.36499992 0.00000000
0.79090345 0.36644493 0.00000000
0.82450945 0.36786149 0.00000000
0.85826786 0.36924952 0.00000000
0.89217119 0.37060892 0.00000000
0.92621195 0.37193961 0.00000000
0.96038265 0.37324150 0.00000000
0.99467583 0.37451449 0.00000000
0.00000000 0.35249782 0.00428574
0.02320778 0.35643891 0.00000000
0.05110924 0.35862130 0.00000000
0.07933681 0.36077362 0.00000000
0.10788269 0.36289588 0.00000000
0.13673910 0.36498807 0.00000000
0.16589829 0.36705017 0.00000000
0.19535252 0.36908219 0.00000000
0.22509404 0.37108408 0.00000000
0.25511515 0.37305584 0.00000000
0.28540814 0.37499745 0.00000000
0.31596533 0.37690887 0.00000000
0.34677906 0.37879007 0.00000000
0.37784165 0.38064103 0.00000000
0.40914548 0.38246168 0.00000000
0.44068292 0.38425198 0.00000000
0.47244634 0.38601187 0.00000000
0.50442813 0.38774129 0.00000000
0.53662070 0.38944019 0.00000000
0.56901647 0.39110851 0.00000000
0.60160787 0.39274617 0.00000000
0.63438734 0.39435313 0.00000000
0.66734734 0.39592929 0.00000000
0.70048031 0.39747459 0.00000000
0.73377874 0.39898895 0.00000000
0.76723511 0.40047230 0.00000000
0.80084191 0.40192453 0.00000000
0.83459164 0.40334558 0.00000000
0.86847682 0.40473534 0.00000000
0.90248995 0.40609374 0.00000000
0.93662357 0.40742066 0.00000000
0.97087021 0.40871603 0.00000000
1.00000000 0.41099580 0.00531290
0.00000000 0.38780322 0.00404731
0.02402357 0.39170129 0.00000000
0.05247061 0.39393726 0.00000000
0.08122615 0.39614060 0.00000000
0.11028244 0.39831131 0.00000000
0.13963174 0.40044936 0.00000000
0.16926632 0.40255476 0.00000000
0.19917847 0.40462746 0.00000000
0.22936049 0.40666744 0.00000000
0.25980470 0.40867467 0.00000000
0.29050342 0.41064912 0.00000000
0.32144900 0.41259074 0.00000000
0.35263380 0.41449950 0.00000000
0.38405019 0.41637534 0.00000000
0.41569056 0.41821821 0.00000000
0.44754729 0.42002807 0.00000000
0.47961279 0.42180484 0.00000000
0.51187949 0.42354847 0.00000000
0.54433982 0.42525889 0.00000000
0.57698620 0.42693602 0.00000000
0.60981111 0.42857981 0.00000000
0.64280699 0.43019018 0.00000000
0.67596633 0.43176704 0.00000000
0.70928160 0.43331032 0.00000000
0.74274530 0.43481993 0.00000000
0.77634993 0.43629578 0.00000000
0.81008799 0.43773779 0.00000000
0.84395202 0.43914587 0.00000000
0.87793452 0.44051992 0.00000000
0.91202805 0.44185984 0.00000000
0.94622513 0.44316553 0.00000000
0.98051833 0.44443690 0.00000000
1.00000000 0.44842940 0.01657907
0.00000000 0.42383770 0.00372938
0.02488776 0.42764412 0.00000000
0.05385001 0.42991648 0.00000000
0.08310322 0.43215365 0.00000000
0.11263967 0.43435559 0.00000000
0.14245165 0.43652229 0.00000000
0.17253145 0.43865373 0.00000000
0.20287141 0.44074986 0.00000000
0.23346385 0.44281065 0.00000000
0.26430112 0.44483606 0.00000000
0.29537557 0.44682605 0.00000000
0.32667959 0.44878057 0.00000000
0.35820554 0.45069956 0.00000000
0.38994584 0.45258297 0.00000000
0.42189289 0.45443075 0.00000000
0.45403910 0.45624283 0.00000000
0.48637691 0.45801914 0.00000000
0.51889877 0.45975962 0.00000000
0.55159712 0.46146419 0.00000000
0.58446443 0.46313277 0.00000000
0.61749317 0.46476530 0.00000000
0.65067583 0.46636168 0.00000000
0.68400489 0.46792184 0.00000000
0.71747286 0.46944568 0.00000000
0.75107225 0.47093312 0.00000000
0.78479558 0.47238407 0.00000000
0.81863538 0.47379843 0.00000000
0.85258417 0.47517611 0.00000000
0.88663451 0.47651700 0.00000000
0.92077894 0.47782101 0.00000000
0.95501002 0.47908803 0.00000000
0.98932031 0.48031796 0.00000000
1.00000000 0.48564370 0.02885313
0.00000000 0.46051257 0.00333704
0.02579472 0.46418091 0.00000000
0.05524179 0.46647250 0.00000000
0.08496232 0.46872630 0.00000000
0.11494862 0.47094229 0.00000000
0.14519301 0.47312042 0.00000000
0.17568784 0.47526067 0.00000000
0.20642543 0.47736299 0.00000000
0.23739817 0.47942734 0.00000000
0.26859841 0.48145366 0.00000000
0.30001855 0.48344192 0.00000000
0.33165098 0.48539204 0.00000000
0.36348812 0.48730398 0.00000000
0.39552239 0.48917766 0.00000000
0.42774621 0.49101302 0.00000000
0.46015204 0.49281000 0.00000000
0.49273232 0.49456852 0.00000000
0.52547952 0.49628850 0.00000000
0.55838612 0.49796987 0.00000000
0.59144460 0.49961254 0.00000000
0.62464744 0.50121643 0.00000000
0.65798717 0.50278146 0.00000000
0.69145628 0.50430753 0.00000000
0.72504729 0.50579455 0.00000000
0.75875274 0.50724243 0.00000000
0.79256515 0.50865107 0.00000000
0.82647708 0.51002037 0.00000000
0.86048107 0.51135023 0.00000000
0.89456967 0.51264055 0.00000000
0.92873545 0.51389123 0.00000000
0.96297099 0.51510214 0.00000000
0.99726885 0.51627320 0.00000000
1.00000000 0.52254996 0.04214084
0.00000000 0.49773907 0.00287632
0.02673801 0.50122542 0.00000000
0.05663946 0.50351908 0.00000000
0.08679692 0.50577234 0.00000000
0.11720273 0.50798518 0.00000000
0.14784925 0.51015755 0.00000000
0.17872884 0.51228940 0.00000000
0.20983386 0.51438068 0.00000000
0.24115672 0.51643135 0.00000000
0.27268982 0.51844134 0.00000000
0.30442555 0.52041059 0.00000000
0.33635635 0.52233905 0.00000000
0.36847466 0.52422664 0.00000000
0.40077291 0.52607330 0.00000000
0.43324356 0.52787895 0.00000000
0.46587908 0.52964352 0.00000000
0.49867195 0.53136692 0.00000000
0.53161464 0.53304907 0.00000000
0.56469965 0.53468990 0.00000000
0.59791950 0.53628931 0.00000000
0.63126668 0.53784722 0.00000000
0.66473372 0.53936353 0.00000000
0.69831314 0.54083814 0.00000000
0.73199749 0.54227096 0.00000000
0.76577930 0.54366190 0.00000000
0.79965113 0.54501084 0.00000000
0.83360554 0.54631769 0.00000000
0.86763508 0.54758235 0.00000000
0.90173233 0.54880469 0.00000000
0.93588986 0.54998463 0.00000000
0.97010025 0.55112203 0.00000000
1.00000000 0.55283580 0.00669529
1.00000000 0.55905953 0.05644707
0.00000000 0.53542833 0.00235413
0.02771042 0.53869164 0.00000000
0.05803578 0.54097021 0.00000000
0.08859976 0.54320578 0.00000000
0.11939472 0.54539829 0.00000000
0.15041303 0.54754769 0.00000000
0.18164710 0.54965394 0.00000000
0.21308932 0.55171697 0.00000000
0.24473211 0.55373672 0.00000000
0.27656789 0.55571314 0.00000000
0.30858910 0.55764614 0.00000000
0.34078819 0.55953567 0.00000000
0.37315761 0.56138165 0.00000000
0.40568983 0.56318399 0.00000000
0.43837733 0.56494263 0.00000000
0.47121259 0.56665748 0.00000000
0.50418812 0.56832846 0.00000000
0.53729641 0.56995547 0.00000000
0.57052998 0.57153843 0.00000000
0.60388134 0.57307725 0.00000000
0.63734304 0.57457182 0.00000000
0.67090760 0.57602206 0.00000000
0.70456757 0.57742786 0.00000000
0.73831550 0.57878913 0.00000000
0.77214395 0.58010575 0.00000000
0.80604548 0.58137762 0.00000000
0.84001267 0.58260464 0.00000000
0.87403809 0.58378670 0.00000000
0.90811432 0.58492369 0.00000000
0.94223394 0.58601549 0.00000000
0.97638956 0.58706199 0.00000000
1.00000000 0.58939818 0.01791022
1.00000000 0.59508385 0.07177577
0.00000000 0.57349144 0.00177815
0.02870404 0.57649375 0.00000000
0.05942284 0.57874009 0.00000000
0.09036291 0.58094079 0.00000000
0.12151662 0.58309580 0.00000000
0.15287640 0.58520506 0.00000000
0.18443466 0.58726850 0.00000000
0.21618381 0.58928607 0.00000000
0.24811631 0.59125769 0.00000000
0.28022461 0.59318329 0.00000000
0.31250115 0.59506280 0.00000000
0.34493841 0.59689614 0.00000000
0.37752887 0.59868324 0.00000000
0.41026503 0.60042400 0.00000000
0.44313936 0.60211834 0.00000000
0.47614439 0.60376618 0.00000000
0.50927263 0.60536743 0.00000000
0.54251659 0.60692199 0.00000000
0.57586881 0.60842976 0.00000000
0.60932183 0.60989065 0.00000000
0.64286820 0.61130456 0.00000000
0.67650046 0.61267139 0.00000000
0.71021117 0.61399103 0.00000000
0.74399291 0.61526338 0.00000000
0.77783823 0.61648833 0.00000000
0.81173972 0.61766578 0.00000000
0.84568996 0.61879560 0.00000000
0.87968154 0.61987769 0.00000000
0.91370705 0.62091194 0.00000000
0.94775909 0.62189823 0.00000000
0.98183025 0.62283644 0.00000000
1.00000000 0.62545097 0.02977513
1.00000000 0.63053447 0.08812987
0.00000000 0.61183937 0.00115679
0.02971037 0.61454612 0.00000000
0.06079213 0.61674309 0.00000000
0.09207785 0.61889177 0.00000000
0.12355994 0.62099211 0.00000000
0.15523083 0.62304403 0.00000000
0.18708296 0.62504748 0.00000000
0.21910878 0.62700237 0.00000000
0.25130076 0.62890863 0.00000000
0.28365137 0.63076619 0.00000000
0.31615309 0.63257497 0.00000000
0.34879841 0.63433487 0.00000000
0.38157983 0.63604582 0.00000000
0.41448986 0.63770772 0.00000000
0.44752101 0.63932049 0.00000000
0.48066581 0.64088403 0.00000000
0.51391679 0.64239825 0.00000000
0.54726649 0.64386304 0.00000000
0.58070746 0.64527831 0.00000000
0.61423224 0.64664396 0.00000000
0.64783341 0.64795988 0.00000000
0.68150353 0.64922596 0.00000000
0.71523516 0.65044210 0.00000000
0.74902089 0.65160819 0.00000000
0.78285331 0.65272412 0.00000000
0.81672499 0.65378977 0.00000000
0.85062853 0.65480504 0.00000000
0.88455654 0.65576980 0.00000000
0.91850160 0.65668393 0.00000000
0.95245634 0.65754733 0.00000000
0.98641335 0.65835988 0.00000000
1.00000000 0.66091316 0.04221908
1.00000000 0.66532305 0.10551118
0.00000000 0.65038306 0.00049908
0.03072037 0.65276328 0.00000000
0.06213462 0.65489373 0.00000000
0.09373556 0.65697323 0.00000000
0.12551562 0.65900172 0.00000000
0.15746728 0.66097913 0.00000000
0.18958298 0.66290538 0.00000000
0.22185520 0.66478039 0.00000000
0.25427644 0.66660408 0.00000000
0.28683917 0.66837636 0.00000000
0.31953591 0.67009716 0.00000000
0.35235916 0.67176637 0.00000000
0.38530145 0.67338391 0.00000000
0.41835529 0.67494969 0.00000000
0.45151322 0.67646360 0.00000000
0.48476779 0.67792556 0.00000000
0.51811154 0.67933545 0.00000000
0.55153703 0.68069318 0.00000000
0.58503682 0.68199863 0.00000000
0.61860347 0.68325172 0.00000000
0.65222957 0.68445232 0.00000000
0.68590769 0.68560033 0.00000000
0.71963041 0.68669563 0.00000000
0.75339032 0.68773812 0.00000000
0.78718003 0.68872767 0.00000000
0.82099212 0.68966418 0.00000000
0.85481920 0.69054753 0.00000000
0.88865388 0.69137759 0.00000000
0.92248876 0.69215426 0.00000000
