assets/luts/DB_Silver_Street_Rec709_100.cube
TITLE "Silver Street Rec709 100"
# Red changes fastest. Full-range normalized input.
LUT_3D_SIZE 5
DOMAIN_MIN 0 0 0
DOMAIN_MAX 1 1 1
0.00700000 0.00700000 0.00700000
0.07572261 0.03340660 0.03426477
0.13007855 0.07142961 0.07295532
0.20012449 0.11192712 0.11382493
0.27484981 0.15697775 0.15903009
0.12658264 0.15764065 0.12978794
0.20341814 0.20467802 0.16849605
0.28284097 0.25423387 0.22632243
0.36559048 0.30717407 0.27912289
0.45059310 0.36220994 0.33381779
0.29610877 0.35679467 0.29884030
0.38171852 0.41241821 0.35409110
0.46848830 0.46916052 0.41039535
0.55567383 0.52629520 0.46705893
0.64253085 0.58309589 0.52338759
0.48715708 0.57684118 0.48764147
0.57370968 0.63333990 0.54367584
0.65891853 0.68851379 0.59842842
0.74203934 0.74163646 0.65120502
0.82232783 0.79198152 0.70131146
0.67142106 0.79011505 0.66979260
0.75049361 0.83926852 0.71875457
0.82571861 0.88465355 0.76409947
0.89635179 0.92554376 0.80513313
0.96164886 0.96121276 0.84116137
0.01599698 0.01620183 0.04633365
0.07663780 0.04753191 0.07847726
0.14317858 0.08462716 0.11609563
0.21489732 0.12675233 0.15851539
0.29104236 0.17318402 0.20503506
0.14192435 0.17298767 0.17501493
0.21925111 0.22033489 0.22203797
0.31065353 0.26900107 0.27081087
0.38413462 0.32566424 0.32729790
0.46970635 0.38125140 0.38251432
0.31488916 0.37551416 0.34723253
0.40094723 0.43160982 0.40288954
0.48845202 0.48901836 0.45147807
0.57520517 0.54564439 0.51594493
0.66170432 0.60218084 0.57210776
0.50653843 0.59613191 0.53656167
0.59271815 0.65226216 0.59223858
0.67730134 0.70682090 0.64639795
0.75954375 0.75908173 0.69834557
0.83870108 0.80831827 0.74738733
0.68854292 0.80718531 0.71657285
0.76639228 0.85514045 0.76438429
0.84014133 0.89908048 0.80834291
0.90904580 0.93827899 0.84775455
0.97236141 0.97200962 0.88192501
0.02576215 0.02615184 0.08637800
0.08848765 0.05952216 0.12045713
0.15687523 0.09840507 0.15978876
0.23018064 0.14207421 0.20367871
0.30765958 0.18980318 0.25143281
0.15772850 0.18880887 0.22065348
0.23654198 0.23783542 0.26964315
0.31852126 0.28992809 0.32155497
0.40289985 0.34436944 0.37567661
0.48895549 0.40042394 0.43133431
0.33386002 0.39441800 0.39579912
0.42033273 0.45088203 0.45184252
0.50680295 0.50721582 0.50762869
0.60456756 0.56195097 0.56197115
0.68072524 0.62111497 0.62068196
0.52582149 0.61532516 0.58538691
0.61154248 0.67100317 0.64062630
0.69538489 0.72487369 0.69408329
0.77714959 0.77665215 0.73727924
0.85470968 0.82420837 0.79294309
0.70527772 0.82387627 0.76298880
0.78181805 0.87054931 0.80956965
0.85400532 0.91296055 0.85206194
0.92109525 0.95038360 0.88977149
0.98234355 0.98209207 0.92200411
0.03626609 0.03682132 0.12710936
0.10099792 0.07214519 0.16305010
0.17113908 0.11273499 0.20400760
0.24594529 0.15786432 0.24928768
0.32467229 0.20680680 0.29819616
0.17397679 0.20506933 0.26671001
0.25394640 0.25521968 0.31676709
0.33682155 0.30819235 0.36950566
0.42185796 0.36326096 0.42423155
0.50831136 0.41969911 0.48025057
0.35299220 0.41347775 0.44451290
0.43977667 0.47023414 0.50083034
0.52696279 0.52736914 0.55749514
0.61381382 0.58415355 0.61381694
0.69956350 0.63987007 0.66908329
0.54497711 0.63439249 0.63409000
0.63015354 0.68953449 0.68881181
0.71322187 0.74261307 0.74154608
0.79270332 0.79223884 0.79115506
0.88016121 0.83672063 0.83539198
0.72159631 0.84015949 0.80901328
0.79674178 0.88546666 0.85428348
0.86728143 0.92626533 0.89522937
0.93244209 0.96184028 0.93112810
0.99215363 0.99202355 0.95358625
0.04747973 0.04818189 0.16849936
0.11413205 0.08537555 0.20622167
0.18594095 0.12758845 0.24872498
0.26216214 0.17409420 0.29531512
0.34205136 0.22416642 0.34529792
0.19064602 0.22173907 0.31315586
0.27168582 0.27292935 0.36420143
0.35537841 0.32669526 0.41769275
0.44097950 0.38231042 0.47293564
0.52774482 0.43904845 0.52923590
0.37225656 0.43266495 0.49334667
0.45926093 0.48963141 0.54985953
0.54641429 0.54672990 0.60648287
0.63297236 0.60323404 0.66252251
0.71819088 0.65841744 0.71728426
0.56397613 0.65330545 0.68264376
0.64852216 0.70782766 0.73676792
0.73071339 0.76003829 0.78866729
0.80980543 0.80921086 0.83764886
0.88506160 0.85461624 0.88302231
0.73746954 0.85600651 0.85461909
0.81113431 0.89986403 0.89849857
0.87994050 0.93896637 0.93781801
0.94313785 0.97258872 0.97188479
1.00000000 1.00000000 1.00000000
