assets/luts/DB_Sodium_Cinema_Rec709_50.cube
TITLE "Sodium Cinema Rec709 50"
# Red changes fastest. Full-range normalized input.
LUT_3D_SIZE 9
DOMAIN_MIN 0 0 0
DOMAIN_MAX 1 1 1
0.00400000 0.00400000 0.00400000
0.11975741 0.00168886 0.00202711
0.23158926 0.00147448 0.00226031
0.34526706 0.00150049 0.00250915
0.46053810 0.00179050 0.00284197
0.57651581 0.00257269 0.00353813
0.69313388 0.00381675 0.00457939
0.81034379 0.00548673 0.00594118
0.92809706 0.00754665 0.00759893
0.00000000 0.11637226 0.00458576
0.11404498 0.11713983 0.00000000
0.23207176 0.11763205 0.00000000
0.34648278 0.12006276 0.00469530
0.46353035 0.12201234 0.00650945
0.58146633 0.12420638 0.00827113
0.69988262 0.12674021 0.01029296
0.81872766 0.12957895 0.01255265
0.93795297 0.13268663 0.01502563
0.00000000 0.23630833 0.00630404
0.11674536 0.23858784 0.00695890
0.23500183 0.24081898 0.00822894
0.35360250 0.24349791 0.01079799
0.47247243 0.24649833 0.01342005
0.59181768 0.24969775 0.01597407
0.71148352 0.25311429 0.01869838
0.83141503 0.25671472 0.02157785
0.95156372 0.26046309 0.02458793
0.00712556 0.36041905 0.01191616
0.12625224 0.36345717 0.01433348
0.24572349 0.36673796 0.01694396
0.36549238 0.37022517 0.01972528
0.48550857 0.37388400 0.02265910
0.60572408 0.37767743 0.02571140
0.72609084 0.38156959 0.02886002
0.84656017 0.38552465 0.03208115
0.96708359 0.38950664 0.03535021
0.01953369 0.48735971 0.02078104
0.13962814 0.49107142 0.02375804
0.25990446 0.49490487 0.02684776
0.38031418 0.49882410 0.03002562
0.50080881 0.50279312 0.03326704
0.62133987 0.50677598 0.03654745
0.74185889 0.51073670 0.03984227
0.86231738 0.51463932 0.04312693
0.98266685 0.51844786 0.04637685
0.03454876 0.61608520 0.03119964
0.15506227 0.62006343 0.03445810
0.27559456 0.62404239 0.03774660
0.39609715 0.62798613 0.04104057
0.51652157 0.63185866 0.04431543
0.63681932 0.63562401 0.04754660
0.75694193 0.63924623 0.05070951
0.87684092 0.64268934 0.05377959
0.99646781 0.64591736 0.05673225
0.05032506 0.74522611 0.04223633
0.17070897 0.74906379 0.04549813
0.29094857 0.75278120 0.04870730
0.41099538 0.75634237 0.05183926
0.53080092 0.75971133 0.05486943
0.65031670 0.76285212 0.05777325
0.76949425 0.76572877 0.06052613
0.88828509 0.76830529 0.06310349
1.00000000 0.77053309 0.08516027
0.06501685 0.87341303 0.05295551
0.18472252 0.87670309 0.05594253
0.30412077 0.87975188 0.05879424
0.42316315 0.88252342 0.06148606
0.54180115 0.88498175 0.06399343
0.65998631 0.88709091 0.06629177
0.77767014 0.88881491 0.06835649
0.89480416 0.89011779 0.07016304
1.00000000 0.88859752 0.12851599
0.07677844 0.99927656 0.06242155
0.19905279 1.00000000 0.06964671
0.32115068 1.00000000 0.07936564
0.44109815 1.00000000 0.08970099
0.55871689 1.00000000 0.10065417
0.67382928 1.00000000 0.11222454
0.78625845 1.00000000 0.12440931
0.89582829 1.00000000 0.13720340
1.00000000 0.99784271 0.17892863
0.00292077 0.00344197 0.11949032
0.11629181 0.00216447 0.11878032
0.23029146 0.00156686 0.11835300
0.34499366 0.00154283 0.11840341
0.46051685 0.00200210 0.11885817
0.57671746 0.00294518 0.11967428
0.69354196 0.00433792 0.12082714
0.81094184 0.00614436 0.12229220
0.92886861 0.00832853 0.12404487
0.00000000 0.11674888 0.11773165
0.11351762 0.11766794 0.11850251
0.23286763 0.11754963 0.11811969
0.34752446 0.12037046 0.12089845
0.46420837 0.12271053 0.12289098
0.58229698 0.12503045 0.12474955
0.70086429 0.12767187 0.12685492
0.81984391 0.13060598 0.12918980
0.93918733 0.13379680 0.13172962
0.00000000 0.23716123 0.12194636
0.11731879 0.23929910 0.12314412
0.23655448 0.24053342 0.12095895
0.35723297 0.24281746 0.12342656
0.47396098 0.24739319 0.12976022
0.59309375 0.25083391 0.13269819
0.71285245 0.25431819 0.13548009
0.83286315 0.25797290 0.13840667
0.95307456 0.26176332 0.14145551
0.00820685 0.36142136 0.12853369
0.12745394 0.36454605 0.13101745
0.24698042 0.36788761 0.13354220
0.36690524 0.37131609 0.13583536
0.48707136 0.37508332 0.13923609
0.60725900 0.37898682 0.14258234
0.72766073 0.38290748 0.14576701
0.84815384 0.38687573 0.14900719
0.96868459 0.39085868 0.15228694
0.02096191 0.48860434 0.13759788
0.14112356 0.49236143 0.14061592
0.26145055 0.49622805 0.14373823
0.38189382 0.50016807 0.14693831
0.50240671 0.50414537 0.15019363
0.62293958 0.50812520 0.15348529
0.74344336 0.51207037 0.15678012
0.86387026 0.51594507 0.16005575
0.98417169 0.51971348 0.16328828
0.03613759 0.61743391 0.14812133
0.15666291 0.62141642 0.15139275
0.27719055 0.62538746 0.15468587
0.39767203 0.62931104 0.15797610
0.51805886 0.63315121 0.16123888
0.63830257 0.63687199 0.16444962
0.75835468 0.64043741 0.16758377
0.87816670 0.64381151 0.17061672
0.99769015 0.64695831 0.17352392
0.05188816 0.74654066 0.15916843
0.17222850 0.75034152 0.16241511
0.29240806 0.75400991 0.16560081
0.41237837 0.75750984 0.16870096
0.53209095 0.76080535 0.17169098
0.65149730 0.76386047 0.17454629
0.77054896 0.76663922 0.17724232
0.88919743 0.76910565 0.17975450
1.00000000 0.77147546 0.20133808
0.06636791 0.87455517 0.16980356
0.18597461 0.87776733 0.17274738
0.30525744 0.88072600 0.17554755
0.42416793 0.88339521 0.17817949
0.54265758 0.88573899 0.18061863
0.66067792 0.88772138 0.18284039
0.77818047 0.88930639 0.18482019
0.89511675 0.89045808 0.18653346
1.00000000 0.88925507 0.24031298
0.07801154 1.00000000 0.17933579
0.20181162 1.00000000 0.18752999
0.32359924 1.00000000 0.19628017
0.44319580 1.00000000 0.20558862
0.56042334 1.00000000 0.21545570
0.67510462 1.00000000 0.22587968
0.78706316 1.00000000 0.23685659
0.89612326 1.00000000 0.24838011
1.00000000 0.99807960 0.28567790
0.00194497 0.00296437 0.23495891
0.11544889 0.00195446 0.23433334
0.22975403 0.00152603 0.23413362
0.34481114 0.00164330 0.23433583
0.46057313 0.00226973 0.23491604
0.57699106 0.00336954 0.23584926
0.69401640 0.00490681 0.23711091
0.81160065 0.00684556 0.23867639
0.92969534 0.00914982 0.24052114
0.00000000 0.11716876 0.23101992
0.11326419 0.11842271 0.23523988
0.23007361 0.11959134 0.23633076
0.34725043 0.12133132 0.23765367
0.46491734 0.12346176 0.23931674
0.58318074 0.12589243 0.24125728
0.70189351 0.12863729 0.24344335
0.82100211 0.13166261 0.24585058
0.94045806 0.13493244 0.24845441
0.00032803 0.23792080 0.23822211
0.11824152 0.24011382 0.23997899
0.23695998 0.24190941 0.24136807
0.35842634 0.24329424 0.24245191
0.47565967 0.24816570 0.24639061
0.59441488 0.25198837 0.24943994
0.71425014 0.25554189 0.25227873
0.83433441 0.25924673 0.25524959
0.95460297 0.26307506 0.25833437
0.00933161 0.36245440 0.24517563
0.12869326 0.36566127 0.24772592
0.24810079 0.36899741 0.25011212
0.36812476 0.37103173 0.24942412
0.49033405 0.37443631 0.25269869
0.60906833 0.38012789 0.25919569
0.72924292 0.38424990 0.26267958
0.84975184 0.38822851 0.26593780
0.97028434 0.39220828 0.26922541
0.02241480 0.48986575 0.25442959
0.14263805 0.49366407 0.25748582
0.26300751 0.49755967 0.26063570
0.38340204 0.50149768 0.26373121
0.50390332 0.50534629 0.26653176
0.62458359 0.50939045 0.27019242
0.74502300 0.51339272 0.27370823
0.86540869 0.51723855 0.27697957
0.98565646 0.52096269 0.28019191
0.03773227 0.61878545 0.26504836
0.15826381 0.62276809 0.26832991
0.27878121 0.62672705 0.27162480
0.39923591 0.63062634 0.27490838
0.51957858 0.63442985 0.27815437
0.63976290 0.63810147 0.28133996
0.75973979 0.64160639 0.28444571
0.87945920 0.64490746 0.28743935
0.99887362 0.64796889 0.29029825
0.05343831 0.74784407 0.27609633
0.17372948 0.75160398 0.27932506
0.29384342 0.75521919 0.28248446
0.41373164 0.75865374 0.28554997
0.53334566 0.76187164 0.28849699
0.65263699 0.76483694 0.29130097
0.77155716 0.76751366 0.29393732
0.89005768 0.76986583 0.29638146
1.00000000 0.77244487 0.31661229
0.06768720 0.87567223 0.28663788
0.18718935 0.87880233 0.28953567
0.30635117 0.88166673 0.29228147
0.42512417 0.88422946 0.29485069
0.54345988 0.88645454 0.29721876
0.66130982 0.88830602 0.29936110
0.77862549 0.88974791 0.30125314
0.89535843 0.89074424 0.30287031
1.00000000 0.88993199 0.35107927
0.08107970 1.00000000 0.29745383
0.20460326 1.00000000 0.30469732
0.32607355 1.00000000 0.31243916
0.44531230 1.00000000 0.32068066
0.56214190 1.00000000 0.32942110
0.67638550 1.00000000 0.33865761
0.78786703 1.00000000 0.34838505
0.89641122 1.00000000 0.35859579
1.00000000 0.99832697 0.39128139
0.00106543 0.00255406 0.35051678
0.11484653 0.00174583 0.35003825
0.22941250 0.00150671 0.34997810
0.34471483 0.00180074 0.35031174
0.46070507 0.00259194 0.35101461
0.57733472 0.00384435 0.35206213
0.69455530 0.00552200 0.35342971
0.81231833 0.00758891 0.35509279
0.93057534 0.01000912 0.35702680
0.00000000 0.11761692 0.34473809
0.11346837 0.11881638 0.35135744
0.23031919 0.12022745 0.35252487
0.34774312 0.12205093 0.35400269
0.46569100 0.12425098 0.35576685
0.58411573 0.12679092 0.35779336
0.70296837 0.12963505 0.36005729
0.82220038 0.13274744 0.36253404
0.94176325 0.13609213 0.36519904
0.00099915 0.23863050 0.35461280
0.11912608 0.24095798 0.35647620
0.23771485 0.24359084 0.35861474
0.35685118 0.24641946 0.36100293
0.47616743 0.24969327 0.36349674
0.59574316 0.25317789 0.36621126
0.71567464 0.25678399 0.36909335
0.83582693 0.26053480 0.37210565
0.95614703 0.26439689 0.37522352
0.01049796 0.36351677 0.36184102
0.12997521 0.36680183 0.36445731
0.24968119 0.37026734 0.36724135
0.36950503 0.37298510 0.36984337
0.49180797 0.37518680 0.37209814
0.61101657 0.38111812 0.37612056
0.73084223 0.38559076 0.37959772
0.85135231 0.38958157 0.38287201
0.97188094 0.39355401 0.38616464
0.02389046 0.49114254 0.37127521
0.14416973 0.49497793 0.37436681
0.26457576 0.49889813 0.37754436
0.38467742 0.50275592 0.38053753
0.50419510 0.50502035 0.38113224
0.62698655 0.50870584 0.38453437
0.74678500 0.51452405 0.39042192
0.86693275 0.51851703 0.39389599
0.98711928 0.52219408 0.39708677
0.03933091 0.62013840 0.38197977
0.15986309 0.62411703 0.38526860
0.28036465 0.62805976 0.38856243
0.40078383 0.63193055 0.39183479
0.52097520 0.63567500 0.39495949
0.64099387 0.63916708 0.39772289
0.76110936 0.64267633 0.40109597
0.88071966 0.64597279 0.40423982
1.00000000 0.64895083 0.40707131
0.05497361 0.74913495 0.39301907
0.17521003 0.75284975 0.39622701
0.29525275 0.75640764 0.39935728
0.41505328 0.75977265 0.40238531
0.53456306 0.76290880 0.40528644
0.65373263 0.76578005 0.40803454
0.77251590 0.76835023 0.41060659
0.89086397 0.77058432 0.41298282
1.00000000 0.77344124 0.43096323
0.06897283 0.87676279 0.40345751
0.18836484 0.87980669 0.40630643
0.30740005 0.88257268 0.40899502
0.42602998 0.88502477 0.41149868
0.54420616 0.88712701 0.41379285
0.66188009 0.88884342 0.41585294
0.77900330 0.89013803 0.41765439
0.89552731 0.89097487 0.41917262
1.00000000 0.89062797 0.46079728
0.08418770 1.00000000 0.41487510
0.20742760 1.00000000 0.42112855
0.32857356 1.00000000 0.42782228
0.44744765 1.00000000 0.43495656
0.56387264 1.00000000 0.44252960
0.67767209 1.00000000 0.45053735
0.78867031 1.00000000 0.45897343
0.89669252 1.00000000 0.46782893
1.00000000 0.99858430 0.49572368
0.00028199 0.00221353 0.46612583
0.11433507 0.00160260 0.46579214
0.22915655 0.00154858 0.46586848
0.34469794 0.00201548 0.46633027
0.46091076 0.00296735 0.46715293
0.57774652 0.00436821 0.46831190
0.69515676 0.00618208 0.46978260
0.81309299 0.00837301 0.47154044
0.93150672 0.01090502 0.47356086
0.00000000 0.11809136 0.45901663
0.11375100 0.11924727 0.46753724
0.23080152 0.12080265 0.46881254
0.34840887 0.12275797 0.47039062
0.46652455 0.12507723 0.47224690
0.58510008 0.12772448 0.47435681
0.70408699 0.13066375 0.47669577
0.82343680 0.13385907 0.47923921
0.94310102 0.13727446 0.48196254
0.00172835 0.23938209 0.47103551
0.12001706 0.24182493 0.47298698
0.23874797 0.24458263 0.47518319
0.35787295 0.24761889 0.47760001
0.47734308 0.25089846 0.48021161
0.59710920 0.25438545 0.48299390
0.71712407 0.25804307 0.48592298
0.83733880 0.26183571 0.48897389
0.95770485 0.26572741 0.49212202
0.01170399 0.36460706 0.47852888
0.13128752 0.36796618 0.48120574
0.25114937 0.37151884 0.48404536
0.37123293 0.37520321 0.48705264
0.49160270 0.37890600 0.49021876
0.61200575 0.38290961 0.49331719
0.73242615 0.38694795 0.49652922
0.85295328 0.39093352 0.49980887
0.97347249 0.39489448 0.50310368
0.02538698 0.49243328 0.48813378
0.14571669 0.49630161 0.49125791
0.26616184 0.50024277 0.49446149
0.38658047 0.50419061 0.49773871
0.50633076 0.50715567 0.50117509
0.62838693 0.50949142 0.50413275
0.74861689 0.51548564 0.50747206
0.86844609 0.51977449 0.51080603
0.98855825 0.52340624 0.51397189
0.04093161 0.62149136 0.49891459
0.16145883 0.62546183 0.50220787
0.28193897 0.62938418 0.50549782
0.40231678 0.63322211 0.50875904
0.52204944 0.63683219 0.51182252
0.64016512 0.63876383 0.51313555
0.76251028 0.64188921 0.51605585
0.88209116 0.64683887 0.52085910
1.00000000 0.65014513 0.52457552
0.05649216 0.75041188 0.50993569
0.17666823 0.75407743 0.51312001
0.29663414 0.75757384 0.51621831
0.41634139 0.76086516 0.51920602
0.53573787 0.76391547 0.52205703
0.65466482 0.76667649 0.52466058
0.77317467 0.76903596 0.52681349
0.89161884 0.77119797 0.52937570
1.00000000 0.77446242 0.54436924
0.07022290 0.87782545 0.52026147
0.18949918 0.88077900 0.52305870
0.30840219 0.88344242 0.52568724
0.42688346 0.88577974 0.52812251
0.54489451 0.88775498 0.53033995
0.66238677 0.88933219 0.53231489
0.77931083 0.89047542 0.53402123
0.89562065 0.89114840 0.53543583
1.00000000 0.89134263 0.56944938
0.08733540 1.00000000 0.53157955
0.21028455 1.00000000 0.53680345
0.33109924 1.00000000 0.54240909
0.44960190 1.00000000 0.54839569
0.56561570 1.00000000 0.55476033
0.67896458 1.00000000 0.56149778
0.78947330 1.00000000 0.56860038
0.89696752 1.00000000 0.57605790
1.00000000 0.99885103 0.59898969
0.00000000 0.00230339 0.57699974
0.11391223 0.00152361 0.58159332
0.22898363 0.00165053 0.58180331
0.34475848 0.00228616 0.58239041
0.46118829 0.00339454 0.58333005
0.57822459 0.00493969 0.58459763
0.69581889 0.00688565 0.58616860
0.81392271 0.00919645 0.58801837
0.93248758 0.01183611 0.59012237
0.00000000 0.11858249 0.57393151
0.11410344 0.11972841 0.58375486
0.23134850 0.12142364 0.58513574
0.34913391 0.12350659 0.58681105
0.46741120 0.12594127 0.58875623
0.58613188 0.12869173 0.59094668
0.70524747 0.13172199 0.59335784
0.82470948 0.13499607 0.59596512
0.94446945 0.13847802 0.59874396
0.00251414 0.24017415 0.58748928
0.12095846 0.24272796 0.58952659
0.23982852 0.24558444 0.59180024
0.35907584 0.24870763 0.59428564
0.47865195 0.25206155 0.59695823
0.59850835 0.25561024 0.59979343
0.71859656 0.25931773 0.60276666
0.83886812 0.26314804 0.60585334
0.95927453 0.26706521 0.60902890
0.01294780 0.36572386 0.59523826
0.13263156 0.36915285 0.59797290
0.25257797 0.37276352 0.60086119
0.37273853 0.37651985 0.60387865
0.49306498 0.38038552 0.60700121
0.61350871 0.38432535 0.61020284
0.73402051 0.38830344 0.61345948
0.85455289 0.39228295 0.61674740
0.97505709 0.39622826 0.62004156
0.02690248 0.49373658 0.60500433
0.14727703 0.49763369 0.60815816
0.26775112 0.50159147 0.61138298
0.38827520 0.50557356 0.61465519
0.50877861 0.50951665 0.61799131
0.62930633 0.51330812 0.62140022
0.74972872 0.51723723 0.62455001
0.86992131 0.52102872 0.62771291
0.98997143 0.52459778 0.63084634
0.04253248 0.62284291 0.61585185
0.16304915 0.62680107 0.61914676
0.28350228 0.63069890 0.62242998
0.40384271 0.63450036 0.62567714
0.52390417 0.63814055 0.62890473
0.64261515 0.64068177 0.63260993
0.76353765 0.64247220 0.63563010
0.88348233 0.64752618 0.63782887
1.00000000 0.65136963 0.64125290
0.05799206 0.75167345 0.62684522
0.17810220 0.75528559 0.63000308
0.29798571 0.75871639 0.63306659
0.41759409 0.76192988 0.63601115
0.53687145 0.76488998 0.63881210
0.65521760 0.76748376 0.64136921
0.77143444 0.76852672 0.64248633
0.89222505 0.77024956 0.64438542
1.00000000 0.77539880 0.65677850
0.07143552 0.87885879 0.63704882
0.19059047 0.88171785 0.63979151
0.30935569 0.88427455 0.64235718
0.42768271 0.88649294 0.64472122
0.54552303 0.88833704 0.64685908
0.66282458 0.88977116 0.64874474
0.77943586 0.89075908 0.65026806
0.89544352 0.89121044 0.65120830
1.00000000 0.89203941 0.67690097
0.09052265 1.00000000 0.64754708
0.21317402 1.00000000 0.65170170
0.33365058 1.00000000 0.65617907
0.45177513 1.00000000 0.66097730
0.56737123 1.00000000 0.66609233
0.68026322 1.00000000 0.67151769
0.79027629 1.00000000 0.67724442
0.89723622 1.00000000 0.68326048
1.00000000 0.99912672 0.70106162
0.00000000 0.00263165 0.68566623
0.11357611 0.00150743 0.69744082
0.22889184 0.00181115 0.69778164
0.34489455 0.00261136 0.69849122
0.46153577 0.00387210 0.69954498
0.57876700 0.00555741 0.70091835
0.69653978 0.00763130 0.70258676
0.81480561 0.01005781 0.70452562
0.93351602 0.01280097 0.70671037
0.00000000 0.11908296 0.68953502
0.11452380 0.12025841 0.70000927
0.23195780 0.12208935 0.70149290
0.34991569 0.12429578 0.70326261
0.46834899 0.12684173 0.70529384
0.58720922 0.12969125 0.70756200
0.70644789 0.13280834 0.71004252
0.82601653 0.13615705 0.71271082
0.94586666 0.13970141 0.71554234
0.00335462 0.24100526 0.70397313
0.12194896 0.24366589 0.70609346
0.24095258 0.24661698 0.70844178
0.36031699 0.24982257 0.71099351
0.47999372 0.25324667 0.71372408
0.59993429 0.25685332 0.71660890
0.72009020 0.26060655 0.71962342
0.84041299 0.26447039 0.72274304
0.96085417 0.26840887 0.72594320
0.01422749 0.36686576 0.71196820
0.13400588 0.37036048 0.71475777
0.25403046 0.37402466 0.71769266
0.37425274 0.37782232 0.72074828
0.49462424 0.38171750 0.72390007
0.61509648 0.38567423 0.72712345
0.73562098 0.38965652 0.73039383
0.85614926 0.39362843 0.73368665
0.97663284 0.39755397 0.73697733
0.02843506 0.49505102 0.72188590
0.14884885 0.49897277 0.72506659
0.26934573 0.50294297 0.72830993
0.38987721 0.50692565 0.73159132
0.51039480 0.51088480 0.73488631
0.63085010 0.51478409 0.73817091
0.75119483 0.51858838 0.74141884
0.87137968 0.52226172 0.74460608
0.99135695 0.52576728 0.74770912
0.04413160 0.62419166 0.73279060
0.16463213 0.62813336 0.73608430
0.28505266 0.63200251 0.73935796
0.40534469 0.63576313 0.74258701
0.52545842 0.63937889 0.74574810
0.64531209 0.64278802 0.74886847
0.76494025 0.64588298 0.75196927
0.88429965 0.64893305 0.75463020
1.00000000 0.65263619 0.75707693
0.05947142 0.75291825 0.74374670
0.17951003 0.75647285 0.74687528
0.29930554 0.75983388 0.74990114
0.41880947 0.76296538 0.75279972
0.53797261 0.76583135 0.75554671
0.65661713 0.76837409 0.75817307
0.77353616 0.76982408 0.76139457
0.89263454 0.77039327 0.76366456
1.00000000 0.77627123 0.76841520
0.07260878 0.87986141 0.75381858
0.19163681 0.88262182 0.75650391
0.31025866 0.88506767 0.75900386
0.42842583 0.88716298 0.76129385
0.54608984 0.88887178 0.76334930
0.66319493 0.89015849 0.76514570
0.77918266 0.89096821 0.76657975
0.89340268 0.89057358 0.76623683
1.00000000 0.89188236 0.78221257
0.09374935 1.00000000 0.76275747
0.21609599 1.00000000 0.76580292
0.33622763 1.00000000 0.76911162
0.45396745 1.00000000 0.77268058
0.56913941 1.00000000 0.77650453
0.68156828 1.00000000 0.78057577
0.79107839 1.00000000 0.78488376
0.89746289 1.00000000 0.78938931
1.00000000 0.99942926 0.80150215
0.00000000 0.00294789 0.79541561
0.11332481 0.00155267 0.81333368
0.22887928 0.00202903 0.81380249
0.34510427 0.00298967 0.81463171
0.46195129 0.00439863 0.81579677
0.57937187 0.00621994 0.81727310
0.69731753 0.00841761 0.81903611
0.81573978 0.01095569 0.82106123
0.93459015 0.01379821 0.82332389
0.00000000 0.11958712 0.80586272
0.11501016 0.12083586 0.81629951
0.23262752 0.12279836 0.81788305
0.35075230 0.12512413 0.81974433
0.46933602 0.12777720 0.82185878
0.58833021 0.13072162 0.82420181
0.70768638 0.13392141 0.82674886
0.82735605 0.13734059 0.82947535
0.94729073 0.14094321 0.83235670
0.00424789 0.24187402 0.82048611
0.12298667 0.24463733 0.82268663
0.24211825 0.24767888 0.82510678
0.36159416 0.25096271 0.82772200
0.48136593 0.25445283 0.83050771
0.60138506 0.25811330 0.83343934
0.72160309 0.26190813 0.83649230
0.84197152 0.26580135 0.83964203
0.96244187 0.26975700 0.84286394
0.01554116 0.36803135 0.82871773
0.13540860 0.37158765 0.83155941
0.25550575 0.37530120 0.83453806
0.37578415 0.37913601 0.83762909
0.49619530 0.38305612 0.84080795
0.61669072 0.38702557 0.84405004
0.73722194 0.39100837 0.84733080
0.85774048 0.39496856 0.85062565
0.97819784 0.39887017 0.85391001
0.02998280 0.49637520 0.83877753
0.15043025 0.50031744 0.84198225
0.27094432 0.50429591 0.84524127
0.39147653 0.50827464 0.84853000
0.51197841 0.51221767 0.85182388
0.63240147 0.51608902 0.85509832
0.75269723 0.51985273 0.85832875
0.87281721 0.52347282 0.86149060
0.99271293 0.52691333 0.86455929
0.04572710 0.62553618 0.84972988
0.16620589 0.62945728 0.85301953
0.28658822 0.63329361 0.85628079
0.40682560 0.63700919 0.85948910
0.52686955 0.64056807 0.86261988
0.64667154 0.64393423 0.86564866
0.76618312 0.64707136 0.86855156
0.88535622 0.64994428 0.87130205
1.00000000 0.65393449 0.87202997
0.06092833 0.75414488 0.86063917
0.18088982 0.75763777 0.86373562
0.30059175 0.76092489 0.86672102
0.41998563 0.76397026 0.86957078
0.53902299 0.76673791 0.87226034
0.65765389 0.76919160 0.87476649
0.77579356 0.77127415 0.87712185
0.89348263 0.77288773 0.87934785
1.00000000 0.77765060 0.87879998
0.07374078 0.88083190 0.87056979
0.19263631 0.88348952 0.87319492
0.31110918 0.88582035 0.87562632
0.42911091 0.88778844 0.87783942
0.54659303 0.88935780 0.87980964
0.66350634 0.89049250 0.88151268
0.77968418 0.89114815 0.88297739
0.89427179 0.89084327 0.88477570
1.00000000 0.89241167 0.88919750
0.09701542 1.00000000 0.87719047
0.21905044 1.00000000 0.87908663
0.33883044 1.00000000 0.88118605
0.45617899 1.00000000 0.88348459
0.57092046 1.00000000 0.88597578
0.68288007 1.00000000 0.88865062
0.79188136 1.00000000 0.89149769
0.89760017 1.00000000 0.89446846
1.00000000 0.99980057 0.89932137
0.00000000 0.00325162 0.90623220
0.11315644 0.00165790 0.92927095
0.22894406 0.00230276 0.92986491
0.34538573 0.00341969 0.93081094
0.46243297 0.00497272 0.93208447
0.58003731 0.00692587 0.93366091
0.69815025 0.00924319 0.93551569
0.81672333 0.01188869 0.93762423
0.93570805 0.01482641 0.93996197
0.00000000 0.12009053 0.92293797
0.11556064 0.12145937 0.93262462
0.23335576 0.12354926 0.93430524
0.35164184 0.12599022 0.93625525
0.47037039 0.12874627 0.93845008
0.58949294 0.13178145 0.94086516
0.70896102 0.13505978 0.94347590
0.82872612 0.13854529 0.94625773
0.94873979 0.14220202 0.94918608
0.00519207 0.24277902 0.93702726
0.12406967 0.24564085 0.93930512
0.24332363 0.24876872 0.94179428
0.36290545 0.25212664 0.94447015
0.48276666 0.25567865 0.94730817
0.60285878 0.25938877 0.95028376
0.72313332 0.26322105 0.95337234
0.84354180 0.26713951 0.95654934
0.96403574 0.27110817 0.95979018
0.01688692 0.36921922 0.94548590
0.13683781 0.37283296 0.94837685
0.25700195 0.37659172 0.95139642
0.37733086 0.38045954 0.95452003
0.49777607 0.38440044 0.95772312
0.61828909 0.38837845 0.96098110
0.73882144 0.39235761 0.96426940
0.85932464 0.39630194 0.96756344
0.97975020 0.40017547 0.97083866
0.03154383 0.49770771 0.95567825
0.15201933 0.50166628 0.95890417
0.27254500 0.50564888 0.96217604
0.39307235 0.50961952 0.96546927
0.51355290 0.51354224 0.96875930
0.63393816 0.51738107 0.97202156
0.75417966 0.52110004 0.97523145
0.87422892 0.52466317 0.97836442
0.99403745 0.52803451 0.98139588
0.04731706 0.62687508 0.96666872
0.16776853 0.63077142 0.96995148
0.28810707 0.63457078 0.97319752
0.40828419 0.63823718 0.97638225
0.52825142 0.64173465 0.97948111
0.64796028 0.64502723 0.98246952
0.76736227 0.64807894 0.98532289
0.88640893 0.65085381 0.98801666
1.00000000 0.65526505 0.98609366
0.06236090 0.75535193 0.97752167
0.18223967 0.75877897 0.98058316
0.30184243 0.76198802 0.98352525
0.42112067 0.76494311 0.98632336
0.54002593 0.76760827 0.98895292
0.65850972 0.76994753 0.99138936
0.77652350 0.77192488 0.99360821
0.89401885 0.77350408 0.99558560
1.00000000 0.77882206 0.98820197
0.07482963 0.88176885 0.98730150
0.19358706 0.88431953 0.98986359
0.31190537 0.88653120 0.99222361
0.42973607 0.88836792 0.99435698
0.54703070 0.88979369 0.99623913
0.66374076 0.89077256 0.99784547
0.77981646 0.89126842 0.99915277
0.89518429 0.89125068 1.00000000
1.00000000 0.89430950 0.99319546
0.10032081 1.00000000 0.99082570
0.22203740 1.00000000 0.99153226
0.34145911 1.00000000 0.99238157
0.45840993 1.00000000 0.99336833
0.57271465 1.00000000 0.99448480
0.68419893 1.00000000 0.99572069
0.79268912 1.00000000 0.99706305
0.89798094 1.00000000 0.99850841
1.00000000 1.00000000 1.00000000
