assets/luts/DB_Sports_Field_Day_Rec709_100.cube
TITLE "Sports Field Day Rec709 100"
# Red changes fastest. Full-range normalized input.
LUT_3D_SIZE 9
DOMAIN_MIN 0 0 0
DOMAIN_MAX 1 1 1
0.00000000 0.00000000 0.00000000
0.10196956 0.00000438 0.00000000
0.20775394 0.00002355 0.00000000
0.31712947 0.00005492 0.00000000
0.42987487 0.00009644 0.00000000
0.54577764 0.00014849 0.00000000
0.66462227 0.00021033 0.00000000
0.78619350 0.00028108 0.00000000
0.91027635 0.00035977 0.00000000
0.00008880 0.10639670 0.00000000
0.10814772 0.10812167 0.00000000
0.21956303 0.10982356 0.00000000
0.33417853 0.11152117 0.00000000
0.45161713 0.11311017 0.00000000
0.57172094 0.11463033 0.00000000
0.69428329 0.11608567 0.00000000
0.81908957 0.11747517 0.00000000
0.94592537 0.11879772 0.00000000
0.00034797 0.22395945 0.00000000
0.11378001 0.22700123 0.00000000
0.23003389 0.22989758 0.00000000
0.34893596 0.23268019 0.00000000
0.47024108 0.23532254 0.00000000
0.59372804 0.23782005 0.00000000
0.71919079 0.24017776 0.00000000
0.84641548 0.24239469 0.00000000
0.97518812 0.24446959 0.00000000
0.00072718 0.35022119 0.00000000
0.11865874 0.35405120 0.00000000
0.23894160 0.35767129 0.00000000
0.36136123 0.36108042 0.00000000
0.48570354 0.36427766 0.00000000
0.61175401 0.36726149 0.00000000
0.73929876 0.37003074 0.00000000
0.86812397 0.37258412 0.00000000
0.99801598 0.37492028 0.00000000
0.00117285 0.48273230 0.00000000
0.12277761 0.48685786 0.00000000
0.24625084 0.49069888 0.00000000
0.37137844 0.49425414 0.00000000
0.49794646 0.49752237 0.00000000
0.62574112 0.50050226 0.00000000
0.75454873 0.50319245 0.00000000
0.88415573 0.50559156 0.00000000
1.00000000 0.51003888 0.01906449
0.00161817 0.61904319 0.00000000
0.12607373 0.62297466 0.00000000
0.25191568 0.62654667 0.00000000
0.37893027 0.62975790 0.00000000
0.50690386 0.63260699 0.00000000
0.63562290 0.63509256 0.00000000
0.76487390 0.63721320 0.00000000
0.89444341 0.63896749 0.00000000
1.00000000 0.64280137 0.04677470
0.00198987 0.75670609 0.00000000
0.12847455 0.75995362 0.00000000
0.25586422 0.76276658 0.00000000
0.38394535 0.76514357 0.00000000
0.51250450 0.76708319 0.00000000
0.64132822 0.76858401 0.00000000
0.77020312 0.76964460 0.00000000
0.89891573 0.77026354 0.00000000
1.00000000 0.77033086 0.08132344
0.00221228 0.89327396 0.00000000
0.12990549 0.89534737 0.00000000
0.25802280 0.89691096 0.00000000
0.38635081 0.89796327 0.00000000
0.51467614 0.89850288 0.00000000
0.64278536 0.89852837 0.00000000
0.77046500 0.89803832 0.00000000
0.89750150 0.89703135 0.00000000
1.00000000 0.89015638 0.12272490
0.06820445 1.00000000 0.06619237
0.19403122 1.00000000 0.07688350
0.31762931 1.00000000 0.08817411
0.43878035 1.00000000 0.10006455
0.55726607 1.00000000 0.11255507
0.67286819 1.00000000 0.12564579
0.78536853 1.00000000 0.13933665
0.89454892 1.00000000 0.15362748
1.00000000 0.99980934 0.17096973
0.00000024 0.00000000 0.10068544
0.10266086 0.00000000 0.10264623
0.20912459 0.00000000 0.10452322
0.31917364 0.00000000 0.10631581
0.43258722 0.00000000 0.10802428
0.54914782 0.00000000 0.10964966
0.66863705 0.00000000 0.11119276
0.79083637 0.00000000 0.11265449
0.91552723 0.00000000 0.11403584
0.00000000 0.10703699 0.10695444
0.10877565 0.10873018 0.10859375
0.23721729 0.10590651 0.10574667
0.37135473 0.10244993 0.10215275
0.50490604 0.09979706 0.09939735
0.63804400 0.09787953 0.09738603
0.77162490 0.09642750 0.09583528
0.90562128 0.09538969 0.09469494
1.00000000 0.10551219 0.10475537
0.00000000 0.22513497 0.11223296
0.09945743 0.23390770 0.09889970
0.23195315 0.23183603 0.10045190
0.36318434 0.23128792 0.09908760
0.49995774 0.23017162 0.09467963
0.63483414 0.22955873 0.09372179
0.76962991 0.22931504 0.09337042
0.90468022 0.22933017 0.09328001
1.00000000 0.23957178 0.11181136
0.00000000 0.35181720 0.11656429
0.09512759 0.36486695 0.09409966
0.22977861 0.36439756 0.09370916
0.36452283 0.36420574 0.09402221
0.49960841 0.36438742 0.09358693
0.63507225 0.36468391 0.09350216
0.77055373 0.36512409 0.09383510
0.90612784 0.36566710 0.09428485
1.00000000 0.37565515 0.12474057
0.00000000 0.48460905 0.12000551
0.09485232 0.49947706 0.09335127
0.23023796 0.49982890 0.09360214
0.36575403 0.50031187 0.09399129
0.50135191 0.50088045 0.09447146
0.63698767 0.50148846 0.09499084
0.77261298 0.50208834 0.09551442
0.90818071 0.50263419 0.09599462
1.00000000 0.51128669 0.14360305
0.00000000 0.62103434 0.12262379
0.09658217 0.63610015 0.09465411
0.23221921 0.63671020 0.09518319
0.36782877 0.63729576 0.09569672
0.50336401 0.63781042 0.09614966
0.63877809 0.63820781 0.09649696
0.77402417 0.63844152 0.09669358
0.90905539 0.63846516 0.09669447
1.00000000 0.64399195 0.16844766
0.00000000 0.75861611 0.12449272
0.09853126 0.77297112 0.09629070
0.23388960 0.77331429 0.09658836
0.36906287 0.77347689 0.09671893
0.50400424 0.77341253 0.09663739
0.63866685 0.77307481 0.09629867
0.77300387 0.77241734 0.09565775
0.90696844 0.77139373 0.09466957
1.00000000 0.77129798 0.19930787
0.00000000 0.89487715 0.12568811
0.09891614 0.90832366 0.09654621
0.23346564 0.90787490 0.09610269
0.36767249 0.90708951 0.09534056
0.50148984 0.90592107 0.09421477
0.63487084 0.90432320 0.09268029
0.76776866 0.90224951 0.09069208
0.90013644 0.89965360 0.08820507
1.00000000 0.89073384 0.23619766
0.07174614 1.00000000 0.18584986
0.19730047 1.00000000 0.19539019
0.32057665 1.00000000 0.20545739
0.44135636 1.00000000 0.21605178
0.55942131 1.00000000 0.22717357
0.67455327 1.00000000 0.23882281
0.78653405 1.00000000 0.25099942
0.89514551 1.00000000 0.26370316
1.00000000 0.99983097 0.27910729
0.00000096 0.00000000 0.20272519
0.10331706 0.00000000 0.20660500
0.21038606 0.00000000 0.21032736
0.32098958 0.00000000 0.21389280
0.43490918 0.00000000 0.21730194
0.55192640 0.00000000 0.22055551
0.67182273 0.00000000 0.22365437
0.79437964 0.00000000 0.22659945
0.91937856 0.00000000 0.22939176
0.00000000 0.10763065 0.21519556
0.10753900 0.10747704 0.24224264
0.23904140 0.10416521 0.23870112
0.37132661 0.10136615 0.23595028
0.50422625 0.09908969 0.23365634
0.63751256 0.09733708 0.23181057
0.77123982 0.09603093 0.23040425
0.90536665 0.09512324 0.22939303
1.00000000 0.10599349 0.23288062
0.00000000 0.22615486 0.22584190
0.09861729 0.23337355 0.23291190
0.23187367 0.23171775 0.23125000
0.36265091 0.23124216 0.23078839
0.49914668 0.23009773 0.22936807
0.63471530 0.22944827 0.22857441
0.76962039 0.22929356 0.22831295
0.90474766 0.22938580 0.22830020
1.00000000 0.24048622 0.23937275
0.00000000 0.35309791 0.23471836
0.09496056 0.36468445 0.22888134
0.22991361 0.36420950 0.22873835
0.36389866 0.36367300 0.23196328
0.49663389 0.36461814 0.23205984
0.63482199 0.36487512 0.22890086
0.77073635 0.36529998 0.22898014
0.90633731 0.36586649 0.22945403
1.00000000 0.37683650 0.25091525
0.00000000 0.48598451 0.24188146
0.09496577 0.49957892 0.22841839
0.23040315 0.49997946 0.22872299
0.36599461 0.50045539 0.22929248
0.50144867 0.50098299 0.23035365
0.63705199 0.50168702 0.23045462
0.77280662 0.50228270 0.23069424
0.90835215 0.50279905 0.23113969
1.00000000 0.51256871 0.26756832
0.00000000 0.62233837 0.24739827
0.09679868 0.63630720 0.22983273
0.23243164 0.63691413 0.23036159
0.36802127 0.63748078 0.23085970
0.50352094 0.63796030 0.23128422
0.63888211 0.63830720 0.23158791
0.77406087 0.63847539 0.23171893
0.90900880 0.63841717 0.23164228
1.00000000 0.64520837 0.28938086
0.00000000 0.75968254 0.25134216
0.09867080 0.77310503 0.23140773
0.23397154 0.77339208 0.23165369
0.36907131 0.77348280 0.23171728
0.50392327 0.77333081 0.23155345
0.63848056 0.77288971 0.23111716
0.77269634 0.77211310 0.23036336
0.90652378 0.77095458 0.22924700
1.00000000 0.77228257 0.31638626
0.00000000 0.89553987 0.25378854
0.09879867 0.90820613 0.23142852
0.23323705 0.90764825 0.23088185
0.36731688 0.90673798 0.23000127
0.50099129 0.90542891 0.22874174
0.63421346 0.90367465 0.22705822
0.76693652 0.90142881 0.22490567
0.89911365 0.89864499 0.22223903
1.00000000 0.89132037 0.34859825
0.07535428 1.00000000 0.30467289
0.20062775 1.00000000 0.31301306
0.32357363 1.00000000 0.32180748
0.44397360 1.00000000 0.33105645
0.56160941 1.00000000 0.34076010
0.67626281 1.00000000 0.35091846
0.78771565 1.00000000 0.36153139
0.89574981 1.00000000 0.37259858
1.00000000 0.99985325 0.38600676
0.00000216 0.00000000 0.30609395
0.10396436 0.00000000 0.31184273
0.21163001 0.00000000 0.31736150
0.32278070 0.00000000 0.32265079
0.43719798 0.00000000 0.32771129
0.55466339 0.00000000 0.33254376
0.67495840 0.00000000 0.33714907
0.79786446 0.00000000 0.34152821
0.92316301 0.00000000 0.34568221
0.00000000 0.10821444 0.32460487
0.10633365 0.10626351 0.37605296
0.23819825 0.10310325 0.37281543
0.37063399 0.10051118 0.37013894
0.50359489 0.09844070 0.36797777
0.63703263 0.09684594 0.36628588
0.77090082 0.09568031 0.36501879
0.90515270 0.09489740 0.36413149
1.00000000 0.10653402 0.36090747
0.00000000 0.22715746 0.34045286
0.09797415 0.23280731 0.36730872
0.23157344 0.23137540 0.36573277
0.36542064 0.23040055 0.36450477
0.49984479 0.22973110 0.36385558
0.63466050 0.22936415 0.36345141
0.76963882 0.22930003 0.36328356
0.90483761 0.22946403 0.36334329
1.00000000 0.24145157 0.36666891
0.00000000 0.35435311 0.35370761
0.09482308 0.36454141 0.36369846
0.22968823 0.36428436 0.36334237
0.36445063 0.36415828 0.36328125
0.49652115 0.36499987 0.36420855
0.63436349 0.36515964 0.36396527
0.77091527 0.36548884 0.36413678
0.90655109 0.36607050 0.36462862
1.00000000 0.37806042 0.37665797
0.00000000 0.48732615 0.36442567
0.09509780 0.49969949 0.36350462
0.23058175 0.50014362 0.36385445
0.36638351 0.50052721 0.36459949
0.50083758 0.50051152 0.36850059
0.63404846 0.50192947 0.36906145
0.77259283 0.50251676 0.36615490
0.90850628 0.50295108 0.36627474
1.00000000 0.51388494 0.39093505
0.00000000 0.62360027 0.37267401
0.09701560 0.63651495 0.36501300
0.23263908 0.63711341 0.36553643
0.36820554 0.63765458 0.36601633
0.50370240 0.63805042 0.36654924
0.63883571 0.63827534 0.36736197
0.77391614 0.63847213 0.36700262
0.90892219 0.63833833 0.36657006
1.00000000 0.64645064 0.40954910
0.00000000 0.76069855 0.37852575
0.09879256 0.77322165 0.36650891
0.23403030 0.77344723 0.36669800
0.36905117 0.77346073 0.36668940
0.50380836 0.77321572 0.36643820
0.63825524 0.77266535 0.36590154
0.77234328 0.77176415 0.36503217
0.90602858 0.77046600 0.36377827
1.00000000 0.77328462 0.43253342
0.00000000 0.89614387 0.38205596
0.09864524 0.90805331 0.36627752
0.23296711 0.90738096 0.36562250
0.36691451 0.90634045 0.36461828
0.50044059 0.90488540 0.36321981
0.63349851 0.90296940 0.36138206
0.76604143 0.90054606 0.35905997
0.89802249 0.89756899 0.35620850
1.00000000 0.89191596 0.45990155
0.07902886 1.00000000 0.42263631
0.20401307 1.00000000 0.42972696
0.32662025 1.00000000 0.43719923
0.44663209 1.00000000 0.44505338
0.56383035 1.00000000 0.45328950
0.67799682 1.00000000 0.46190756
0.78891335 1.00000000 0.47090735
0.89636184 1.00000000 0.48028855
1.00000000 0.99987617 0.49164307
0.00000382 0.00000000 0.41076661
0.10460372 0.00000000 0.41833501
0.21285760 0.00000000 0.42560083
0.32454705 0.00000000 0.43256466
0.43945360 0.00000000 0.43922719
0.55735877 0.00000000 0.44558925
0.67804403 0.00000000 0.45165174
0.80129083 0.00000000 0.45741564
0.92688058 0.00000000 0.46288205
0.00000000 0.10878939 0.43515757
0.10520204 0.10512360 0.50988828
0.23726621 0.10216136 0.50684679
0.36988555 0.09975166 0.50434997
0.50301320 0.09784810 0.50235278
0.63660233 0.09640429 0.50081018
0.77060608 0.09537384 0.49967712
0.90497761 0.09471035 0.49890857
1.00000000 0.10713378 0.48881063
0.00000000 0.22814288 0.45604053
0.09744860 0.23227168 0.50174092
0.23119410 0.23098374 0.50035253
0.36533675 0.23009241 0.49935657
0.49983023 0.22955107 0.49870978
0.63462855 0.22931311 0.49836643
0.76968334 0.22933263 0.49828050
0.90494824 0.22956305 0.49840750
1.00000000 0.24246783 0.49367455
0.00000000 0.35558283 0.47350674
0.09472459 0.36443157 0.49855251
0.22962197 0.36429265 0.49830659
0.36475545 0.36439358 0.49825946
0.49991021 0.36472864 0.49834841
0.63543793 0.36516315 0.49880431
0.77113351 0.36567940 0.49929337
0.90676741 0.36627729 0.49980686
1.00000000 0.37932692 0.50194348
0.00000000 0.48863399 0.48761283
0.09524655 0.49983696 0.49860820
0.23076475 0.50032228 0.49899691
0.36642076 0.50086240 0.49945690
0.50166312 0.50124734 0.50000000
0.63401238 0.50239607 0.50131965
0.77213964 0.50281464 0.50125684
0.90863110 0.50309076 0.50139696
1.00000000 0.51523540 0.51367802
0.00000000 0.62482007 0.49842567
0.09723107 0.63672159 0.50019314
0.23283968 0.63730624 0.50070595
0.36837781 0.63781683 0.50115912
0.50399863 0.63803759 0.50179564
0.63795785 0.63757066 0.50537634
0.77060469 0.63843252 0.50540494
0.90839887 0.63827112 0.50175425
1.00000000 0.64771851 0.52892697
0.00000000 0.76166416 0.50601816
0.09889471 0.77331916 0.50159250
0.23406406 0.77347792 0.50171950
0.36900062 0.77340884 0.50163353
0.50365978 0.77306422 0.50129216
0.63802841 0.77235560 0.50079194
0.77181503 0.77125925 0.50035966
0.90532806 0.76991628 0.49854344
1.00000000 0.77430346 0.54772314
0.00000000 0.89668918 0.51046502
0.09845403 0.90786338 0.50109143
0.23265398 0.90707120 0.50032288
0.36646355 0.90589512 0.49918982
0.49983590 0.90428873 0.49764722
0.63272422 0.90220560 0.49565014
0.76508193 0.89959891 0.49315573
0.89686048 0.89642319 0.49011674
1.00000000 0.89252058 0.57008232
0.08276988 1.00000000 0.53971496
0.20745643 1.00000000 0.54550673
0.32971651 1.00000000 0.55160748
0.44933183 1.00000000 0.55801742
0.56608416 1.00000000 0.56473660
0.67975531 1.00000000 0.57176492
0.79012715 1.00000000 0.57910215
0.89698159 1.00000000 0.58674788
1.00000000 0.99989972 0.59599114
0.00000595 0.00000000 0.51671801
0.10523514 0.00000000 0.52605669
0.21406885 0.00000000 0.53502023
0.32628863 0.00000000 0.54360926
0.44167603 0.00000000 0.55182453
0.56001254 0.00000000 0.55966687
0.68107962 0.00000000 0.56713723
0.80465872 0.00000000 0.57423663
0.93053123 0.00000000 0.58096617
0.00000000 0.10935553 0.54682842
0.10413986 0.10405277 0.64379150
0.23639782 0.10128337 0.64094003
0.36919504 0.09905077 0.63861795
0.50248466 0.09730854 0.63678019
0.63621985 0.09601032 0.63538172
0.77035375 0.09510969 0.63437750
0.90483952 0.09456026 0.63372248
1.00000000 0.10779280 0.61656478
0.00000000 0.22911114 0.57257961
0.09697508 0.23178695 0.63622257
0.23086084 0.23063884 0.63497285
0.36512827 0.22987145 0.63410098
0.49973052 0.22943836 0.63356191
0.63462073 0.22929320 0.63331060
0.76975207 0.22938956 0.63330200
0.90507770 0.22968104 0.63349109
1.00000000 0.24353501 0.62036439
0.00000000 0.35678707 0.59409046
0.09465968 0.36435463 0.63343947
0.22964310 0.36430276 0.63328174
0.36485060 0.36447553 0.63335022
0.50023488 0.36482668 0.63359926
0.63574968 0.36530961 0.63398561
0.77134898 0.36587771 0.63446353
0.90698440 0.36648505 0.63498700
1.00000000 0.38063600 0.62674652
0.00000000 0.48990804 0.61141762
0.09541022 0.49998951 0.63372736
0.23096117 0.50050884 0.63415186
0.36657925 0.50109648 0.63465007
0.50221079 0.50170402 0.63513521
0.63763843 0.50232384 0.63554456
0.77323225 0.50283506 0.63610898
0.90877030 0.50320732 0.63649470
1.00000000 0.51662008 0.63577200
0.00000000 0.62599776 0.62462791
0.09744328 0.63692531 0.63537138
0.23303159 0.63749079 0.63586838
0.36852927 0.63796856 0.63628849
0.50394131 0.63828059 0.63656800
0.63866772 0.63818047 0.63671875
0.77030897 0.63864715 0.63743418
0.90760960 0.63824172 0.63655529
1.00000000 0.64901113 0.64748923
0.00000000 0.76257937 0.63379403
0.09897542 0.77339574 0.63665671
0.23407096 0.77348233 0.63671644
0.36891781 0.77332532 0.63654790
0.50347379 0.77287601 0.63610786
0.63789049 0.77191739 0.63563928
0.77044741 0.77006951 0.63790303
0.90147925 0.76933791 0.63640280
1.00000000 0.77530323 0.66189532
0.00000000 0.89717580 0.63899037
0.09822320 0.90763452 0.63586851
0.23229582 0.90671717 0.63498121
0.36596216 0.90540015 0.63371412
0.49917538 0.90363707 0.63202220
0.63189090 0.90138027 0.62986300
0.76409908 0.89854389 0.62733308
0.89551772 0.89511116 0.62465923
1.00000000 0.89312047 0.67907729
0.08657733 1.00000000 0.65588370
0.21095781 1.00000000 0.66032722
0.33286239 1.00000000 0.66500707
0.45207280 1.00000000 0.66992340
0.56837082 1.00000000 0.67507621
0.68153827 1.00000000 0.68046537
0.79135703 1.00000000 0.68609057
0.89760896 1.00000000 0.69195108
1.00000000 0.99992390 0.69902517
0.00000855 0.00000000 0.62392302
0.10585862 0.00000000 0.63498262
0.21526373 0.00000000 0.64559454
0.32800543 0.00000000 0.65575946
0.44386525 0.00000000 0.66547815
0.56262468 0.00000000 0.67475148
0.68406516 0.00000000 0.68358042
0.80796812 0.00000000 0.69196604
0.93411496 0.00000000 0.69990944
0.00000000 0.10991286 0.65959216
0.10314527 0.10304920 0.77776097
0.23559162 0.10046730 0.77509433
0.36856132 0.09840643 0.77294178
0.50200751 0.09682019 0.77125826
0.63588335 0.09566220 0.76999873
0.77014200 0.09488604 0.76911815
0.90473662 0.09444533 0.76857148
1.00000000 0.10851109 0.74414463
0.00000000 0.23006227 0.69004484
0.09655097 0.23135148 0.77075300
0.23057160 0.23033786 0.76963664
0.36495799 0.22968920 0.76888284
0.49966329 0.22935910 0.76844655
0.63464064 0.22930116 0.76828272
0.76984322 0.22946899 0.76834631
0.90522416 0.22981619 0.76859227
1.00000000 0.24465313 0.74671314
0.00000000 0.35796584 0.71543344
0.09462601 0.36430894 0.76835773
0.22969079 0.36433857 0.76828191
0.36496372 0.36457707 0.76841711
0.50039798 0.36497806 0.76871829
0.63594670 0.36549513 0.76914041
0.77156306 0.36608190 0.76963841
0.90720019 0.36669196 0.77016727
1.00000000 0.38198767 0.75104184
0.00000000 0.49114831 0.73581471
0.09558696 0.50015531 0.76886034
0.23116573 0.50070312 0.76931530
0.36679508 0.50130374 0.76982975
0.50242815 0.50191077 0.77035854
0.63801763 0.50247794 0.77085602
0.77351732 0.50295868 0.77127894
0.90888119 0.50330638 0.77158157
1.00000000 0.51803899 0.75719175
0.00000000 0.62713339 0.75125539
0.09765038 0.63712428 0.77054598
0.23321301 0.63766525 0.77102196
0.36866862 0.63810294 0.77140590
0.50397100 0.63839069 0.77165168
0.63906524 0.63847919 0.77167252
0.77373361 0.63836051 0.77140571
0.90835397 0.63791962 0.77108209
1.00000000 0.65033209 0.76521207
0.00000000 0.76344421 0.76182801
0.09903285 0.77344958 0.77169980
0.23404918 0.77345865 0.77168706
0.36880091 0.77320837 0.77143075
0.50324166 0.77265215 0.77088568
0.63737631 0.77171188 0.76998816
0.77062101 0.77015326 0.76875000
0.90059531 0.76896952 0.76786465
1.00000000 0.77629262 0.77509075
0.00000000 0.89760376 0.76760665
0.09795091 0.90736492 0.77060697
0.23189081 0.90631705 0.76959575
0.36540852 0.90485375 0.76818943
0.49845719 0.90292863 0.76634298
0.63099477 0.90049306 0.76401315
0.76319059 0.89734338 0.76144293
0.89349421 0.89322714 0.76139316
1.00000000 0.89341681 0.78643298
0.09045120 1.00000000 0.77111737
0.21451723 1.00000000 0.77416327
0.33605791 1.00000000 0.77737283
0.45485502 1.00000000 0.78074615
0.57069033 1.00000000 0.78428318
0.68334571 1.00000000 0.78798374
0.79260262 1.00000000 0.79184715
0.89823293 1.00000000 0.79585535
1.00000000 0.99995017 0.80061370
0.00001159 0.00000000 0.73235647
0.10647413 0.00000000 0.74508765
0.21644223 0.00000000 0.75729864
0.32969744 0.00000000 0.76899013
0.44602126 0.00000000 0.78016293
0.56519518 0.00000000 0.79081795
0.68700062 0.00000000 0.80095620
0.81121901 0.00000000 0.81057875
0.93763175 0.00000000 0.81968675
0.00000000 0.11046139 0.77342354
0.10221644 0.10211107 0.91179493
0.23484578 0.09971132 0.90930792
0.36798255 0.09781684 0.90731971
0.50157990 0.09638123 0.90578523
0.63559100 0.09535811 0.90465944
0.76996900 0.09470108 0.90389731
0.90466706 0.09436374 0.90345379
1.00000000 0.10928865 0.87152488
0.00000000 0.23099626 0.80841093
0.09617445 0.23096345 0.90533043
0.23032455 0.23007898 0.90434225
0.36482449 0.22954370 0.90370133
0.49962743 0.22931123 0.90336261
0.63468653 0.22933516 0.90328107
0.76995493 0.22956911 0.90341164
0.90538580 0.22996667 0.90370930
1.00000000 0.24582220 0.87269554
0.00000000 0.35911917 0.83751039
0.09462176 0.36429270 0.90330553
0.22976248 0.36439847 0.90330642
0.36509545 0.36469735 0.90350304
0.50057384 0.36514296 0.90385034
0.63615078 0.36568891 0.90430328
0.77177945 0.36628879 0.90481681
0.90741299 0.36689621 0.90534589
1.00000000 0.38338194 0.87480417
0.00000000 0.49235482 0.86077876
0.09577494 0.50033255 0.90400538
0.23137614 0.50090350 0.90448559
0.36701200 0.50151150 0.90501000
0.50263568 0.50211015 0.90553356
0.63820033 0.50265306 0.90601123
0.77365912 0.50309383 0.90639797
0.90896518 0.50338607 0.90664873
1.00000000 0.51949214 0.87791207
0.00000000 0.62822695 0.87828277
0.09785055 0.63731670 0.90571515
0.23338208 0.63782779 0.90616493
0.36879069 0.63821986 0.90650737
0.50402953 0.63844650 0.90669744
0.63905174 0.63846133 0.90668998
0.77381003 0.63821807 0.90643935
0.90825819 0.63767016 0.90590228
1.00000000 0.65167827 0.88206855
0.00000000 0.76425870 0.89009476
0.09906516 0.77347887 0.90671999
0.23399688 0.77340506 0.90662958
0.36864809 0.77305615 0.90628031
0.50297195 0.77238574 0.90562713
0.63692222 0.77134717 0.90462392
0.77044457 0.76989152 0.90318390
0.90332406 0.76801302 0.90124435
1.00000000 0.77745388 0.88730829
0.00000000 0.89797308 0.89628852
0.09763533 0.90705276 0.90530506
0.23143711 0.90586901 0.90416472
0.36480078 0.90425408 0.90261398
0.49767950 0.90216158 0.90060780
0.63002691 0.89954492 0.89810101
0.76185219 0.89632921 0.89502988
0.89267957 0.89236124 0.89140625
1.00000000 0.89398304 0.89345405
0.09439150 1.00000000 0.88539082
0.21813466 1.00000000 0.88698972
0.33930307 1.00000000 0.88867960
0.45767848 1.00000000 0.89046049
0.57304271 1.00000000 0.89233232
0.68517764 1.00000000 0.89429483
0.79386432 1.00000000 0.89634736
0.89883577 1.00000000 0.89845104
1.00000000 0.99998213 0.90048151
0.00001508 0.00000000 0.84199322
0.10708168 0.00000000 0.85634666
0.21760436 0.00000000 0.87010737
0.33136465 0.00000000 0.88327612
0.44814405 0.00000000 0.89585374
0.56772402 0.00000000 0.90784116
0.68988600 0.00000000 0.91923943
0.81441139 0.00000000 0.93004964
0.94108158 0.00000000 0.94027298
0.00000000 0.11100113 0.88829728
0.10491812 0.10480915 1.00000000
0.23219371 0.10399698 1.00000000
0.36008695 0.10368565 1.00000000
0.48838379 0.10387390 1.00000000
0.61687012 0.10456052 1.00000000
0.74533165 0.10574435 1.00000000
0.87355398 0.10742426 1.00000000
1.00000000 0.11012551 0.99868023
0.00000000 0.23191315 0.92765258
0.10427748 0.23214731 1.00000000
0.23314927 0.23290519 1.00000000
0.36215661 0.23408900 1.00000000
0.49108517 0.23569758 1.00000000
0.61972048 0.23772981 1.00000000
0.74784787 0.24018464 1.00000000
0.87525247 0.24306108 1.00000000
1.00000000 0.24704223 0.99828630
0.00000000 0.36024707 0.96029599
0.10928080 0.36381798 1.00000000
0.23892833 0.36565572 1.00000000
0.36822875 0.36784463 1.00000000
0.49696734 0.37038369 1.00000000
0.62492916 0.37327192 1.00000000
0.75189902 0.37650841 1.00000000
0.87766147 0.38009236 1.00000000
1.00000000 0.38481882 0.99800829
0.00000000 0.49352760 0.98628446
0.11986822 0.49736943 1.00000000
0.24947114 0.49979677 1.00000000
0.37824360 0.50250077 1.00000000
0.50597036 0.50548052 1.00000000
0.63243588 0.50873523 1.00000000
0.75742435 0.51226420 1.00000000
0.88071959 0.51606681 1.00000000
1.00000000 0.52097953 0.99790775
0.00615142 0.62802378 1.00000000
0.13598895 0.63034720 1.00000000
0.26472739 0.63287378 1.00000000
0.39215118 0.63560271 1.00000000
0.51804442 0.63853332 1.00000000
0.64219088 0.64166500 1.00000000
0.76437395 0.64499729 1.00000000
0.88437665 0.64852981 1.00000000
1.00000000 0.65304982 0.99803411
0.02896686 0.75828672 1.00000000
0.15760539 0.76029294 1.00000000
0.28466035 0.76242810 1.00000000
0.40991546 0.76469164 1.00000000
0.53315405 0.76708309 1.00000000
0.65415905 0.76960211 1.00000000
0.77271297 0.77224848 1.00000000
0.88859780 0.77502206 1.00000000
1.00000000 0.77855672 0.99842060
0.05807461 0.88354538 1.00000000
0.18469739 0.88474308 1.00000000
0.30925109 0.88599583 1.00000000
0.43151858 0.88730331 1.00000000
0.55128231 0.88866533 1.00000000
0.66832425 0.89008182 1.00000000
0.78242575 0.89155278 1.00000000
0.89336257 0.89307419 1.00000000
1.00000000 0.89500621 0.99909441
0.09839822 1.00000000 0.99867889
0.22181012 1.00000000 0.99878142
0.34259785 1.00000000 0.99890221
0.46054318 1.00000000 0.99904127
0.57542796 1.00000000 0.99919845
0.68703406 1.00000000 0.99937347
0.79514334 1.00000000 0.99956586
0.89952673 1.00000000 0.99977650
1.00000000 1.00000000 1.00000000
