assets/luts/DB_Sports_Arena_Clean_Rec709_50.cube
TITLE "Sports Arena Clean Rec709 50"
# Red changes fastest. Full-range normalized input.
LUT_3D_SIZE 33
DOMAIN_MIN 0 0 0
DOMAIN_MAX 1 1 1
0.00150000 0.00150000 0.00150000
0.03232228 0.00131955 0.00133919
0.06318791 0.00113791 0.00117328
0.09406569 0.00096421 0.00101454
0.12491236 0.00081108 0.00087970
0.15570101 0.00068626 0.00077886
0.18643856 0.00058748 0.00070880
0.21715726 0.00050502 0.00065665
0.24789061 0.00042884 0.00060927
0.27865595 0.00035370 0.00055991
0.30945355 0.00027939 0.00050846
0.34027534 0.00020814 0.00045791
0.37111309 0.00014223 0.00041132
0.40196157 0.00008304 0.00037050
0.43281830 0.00003113 0.00033626
0.46363288 0.00000000 0.00032207
0.49436641 0.00000000 0.00033826
0.52513355 0.00000000 0.00035391
0.55593373 0.00000000 0.00036902
0.58676640 0.00000000 0.00038360
0.61763097 0.00000000 0.00039766
0.64852688 0.00000000 0.00041119
0.67945357 0.00000000 0.00042421
0.71041045 0.00000000 0.00043672
0.74139696 0.00000000 0.00044872
0.77241253 0.00000000 0.00046021
0.80345659 0.00000000 0.00047121
0.83452857 0.00000000 0.00048171
0.86549199 0.00003671 0.00052824
0.89644074 0.00008462 0.00058543
0.92739467 0.00013821 0.00064780
0.95835367 0.00019736 0.00071523
0.98931761 0.00026195 0.00078761
0.00102297 0.03190305 0.00102297
0.03184231 0.03176226 0.00085289
0.06272547 0.03161384 0.00066813
0.09365938 0.03146145 0.00049074
0.12459705 0.03131865 0.00035286
0.15548320 0.03120142 0.00027772
0.18629165 0.03111724 0.00026378
0.21704052 0.03106066 0.00028649
0.24777364 0.03101876 0.00031535
0.27852932 0.03098024 0.00033073
0.30932335 0.03094037 0.00032857
0.34015236 0.03089998 0.00031471
0.37100578 0.03086198 0.00029706
0.40187442 0.03082889 0.00028133
0.43275300 0.03080208 0.00027046
0.46363914 0.03078207 0.00026557
0.49453197 0.03076898 0.00026695
0.52543116 0.03076273 0.00027460
0.55633654 0.03076322 0.00028842
0.58724799 0.03077032 0.00030830
0.61816538 0.03078392 0.00033413
0.64908861 0.03080389 0.00036579
0.68001755 0.03083012 0.00040317
0.71095209 0.03086247 0.00044615
0.74189212 0.03090082 0.00049462
0.77283752 0.03094505 0.00054845
0.80378817 0.03099505 0.00060754
0.83474396 0.03105067 0.00067177
0.86570477 0.03111182 0.00074102
0.89667048 0.03117835 0.00081517
0.92764099 0.03125015 0.00089411
0.95861617 0.03132709 0.00097773
0.98959591 0.03140906 0.00106591
0.00066634 0.06239781 0.00066634
0.03146847 0.06229930 0.00049457
0.06232863 0.06219464 0.00028992
0.09326200 0.06207904 0.00007728
0.12417283 0.06197065 0.00000000
0.15503583 0.06188670 0.00000000
0.18592359 0.06181441 0.00000000
0.21684465 0.06174857 0.00000000
0.24772915 0.06170180 0.00003547
0.27849288 0.06169231 0.00013577
0.30928482 0.06168420 0.00020187
0.34011573 0.06167416 0.00023721
0.37097917 0.06166382 0.00025457
0.40186407 0.06165613 0.00026579
0.43276206 0.06165333 0.00027809
0.46366869 0.06165652 0.00029478
0.49458208 0.06166607 0.00031699
0.52550156 0.06168202 0.00034498
0.55642687 0.06170429 0.00037875
0.58735787 0.06173275 0.00041818
0.61829442 0.06176730 0.00046317
0.64923642 0.06180781 0.00051360
0.68018374 0.06185416 0.00056936
0.71113627 0.06190621 0.00063034
0.74209390 0.06196386 0.00069640
0.77305651 0.06202698 0.00076745
0.80402399 0.06209545 0.00084336
0.83499621 0.06216913 0.00092402
0.86597306 0.06224792 0.00100931
0.89695443 0.06233168 0.00109912
0.92794020 0.06242030 0.00119333
0.95893026 0.06251365 0.00129182
0.98992449 0.06261160 0.00139449
0.00043562 0.09297628 0.00043562
0.03123612 0.09291345 0.00029004
0.06206866 0.09285197 0.00009806
0.09295317 0.09277303 0.00000000
0.12381630 0.09270202 0.00000000
0.15467516 0.09264897 0.00000000
0.18556594 0.09260644 0.00000000
0.21650553 0.09256848 0.00000000
0.24748583 0.09253287 0.00000000
0.27848459 0.09250083 0.00000000
0.30931676 0.09251149 0.00012280
0.34015570 0.09252781 0.00021706
0.37102808 0.09254340 0.00027656
0.40192641 0.09256006 0.00031807
0.43284136 0.09258017 0.00035424
0.46376662 0.09260530 0.00039188
0.49469908 0.09263615 0.00043380
0.52563750 0.09267292 0.00048089
0.55658142 0.09271558 0.00053329
0.58753065 0.09276402 0.00059096
0.61848506 0.09281812 0.00065381
0.64944451 0.09287778 0.00072170
0.68040891 0.09294286 0.00079453
0.71137812 0.09301324 0.00087218
0.74235204 0.09308879 0.00095454
0.77333055 0.09316941 0.00104149
0.80431354 0.09325495 0.00113291
0.83530088 0.09334530 0.00122870
0.86629247 0.09344034 0.00132872
0.89728819 0.09353995 0.00143287
0.92828791 0.09364399 0.00154104
0.95929153 0.09375236 0.00165310
0.99029893 0.09386492 0.00176893
0.00030731 0.12363933 0.00030731
0.03113144 0.12360251 0.00021147
0.06196364 0.12357370 0.00007231
0.09284410 0.12352976 0.00000000
0.12372541 0.12348661 0.00000000
0.15460138 0.12345797 0.00000000
0.18550063 0.12343991 0.00000000
0.21644497 0.12342751 0.00000000
0.24743760 0.12341722 0.00000000
0.27846396 0.12340826 0.00000000
0.30939126 0.12342423 0.00011129
0.34025532 0.12345996 0.00025752
0.37114326 0.12349756 0.00035974
0.40205572 0.12353643 0.00043332
0.43298629 0.12357798 0.00049407
0.46392856 0.12362372 0.00055228
0.49487860 0.12367453 0.00061293
0.52583458 0.12373075 0.00067788
0.55679579 0.12379241 0.00074764
0.58776194 0.12385944 0.00082225
0.61873288 0.12393171 0.00090163
0.64970848 0.12400913 0.00098567
0.68068864 0.12409155 0.00107426
0.71167322 0.12417886 0.00116729
0.74266213 0.12427093 0.00126463
0.77365523 0.12436765 0.00136617
0.80465242 0.12446888 0.00147179
0.83565358 0.12457451 0.00158139
0.86665859 0.12468442 0.00169484
0.89766734 0.12479848 0.00181202
0.92867971 0.12491656 0.00193283
0.95969558 0.12503855 0.00205715
0.99071485 0.12516432 0.00218485
0.00025473 0.15438910 0.00025473
0.03111504 0.15437252 0.00021183
0.06197390 0.15436605 0.00014162
0.09284261 0.15436648 0.00003459
0.12374983 0.15435484 0.00000000
0.15466359 0.15434705 0.00000000
0.18559079 0.15434832 0.00000000
0.21654974 0.15435601 0.00000000
0.24755026 0.15436710 0.00000000
0.27858265 0.15438049 0.00000906
0.30949561 0.15441913 0.00020467
0.34039997 0.15446844 0.00037526
0.37131386 0.15452334 0.00050795
0.40224478 0.15458135 0.00060953
0.43319155 0.15464236 0.00069363
0.46414991 0.15470718 0.00077158
0.49511620 0.15477655 0.00084993
0.52608839 0.15485084 0.00093155
0.55706556 0.15493011 0.00101738
0.58804732 0.15501434 0.00110762
0.61903348 0.15510340 0.00120223
0.65002393 0.15519717 0.00130111
0.68101853 0.15529555 0.00140416
0.71201718 0.15539840 0.00151124
0.74301975 0.15550560 0.00162225
0.77402614 0.15561703 0.00173707
0.80503622 0.15573257 0.00185559
0.83604988 0.15585209 0.00197769
0.86706700 0.15597547 0.00210325
0.89808747 0.15610259 0.00223216
0.92911118 0.15623332 0.00236430
0.96013800 0.15636755 0.00249956
0.99116782 0.15650514 0.00263782
0.00026535 0.18522352 0.00026535
0.03115965 0.18522607 0.00026433
0.06205335 0.18523765 0.00025266
0.09294878 0.18525767 0.00022130
0.12385438 0.18528360 0.00016724
0.15478221 0.18531149 0.00010198
0.18573956 0.18533833 0.00005348
0.21672082 0.18536469 0.00005511
0.24770848 0.18539494 0.00012604
0.27868454 0.18543431 0.00025834
0.30964225 0.18548539 0.00042238
0.34058795 0.18554706 0.00058544
0.37153334 0.18561633 0.00072799
0.40248701 0.18569066 0.00084718
0.43345161 0.18576893 0.00095014
0.46442583 0.18585112 0.00104578
0.49540737 0.18593757 0.00114047
0.52639451 0.18602851 0.00123748
0.55738632 0.18612401 0.00133810
0.58838238 0.18622404 0.00144267
0.61938246 0.18632849 0.00155121
0.65038643 0.18643725 0.00166362
0.68139418 0.18655019 0.00177980
0.71240557 0.18666719 0.00189964
0.74342051 0.18678813 0.00202301
0.77443886 0.18691289 0.00214980
0.80546053 0.18704133 0.00227990
0.83648538 0.18717335 0.00241319
0.86751330 0.18730882 0.00254955
0.89854419 0.18744761 0.00268888
0.92957792 0.18758960 0.00283104
0.96061437 0.18773468 0.00297594
0.99165344 0.18788270 0.00312344
0.00033757 0.21613713 0.00033757
0.03125862 0.21615934 0.00036610
0.06218220 0.21618887 0.00039413
0.09310776 0.21622590 0.00041662
0.12403722 0.21626984 0.00042924
0.15497564 0.21631905 0.00043278
0.18592903 0.21637133 0.00043702
0.21689973 0.21642530 0.00045946
0.24788316 0.21648162 0.00051676
0.27886994 0.21654263 0.00061431
0.30985217 0.21661076 0.00074246
0.34082818 0.21668687 0.00088297
0.37180192 0.21677020 0.00101972
0.40277869 0.21685929 0.00114544
0.43376173 0.21695302 0.00126103
0.46475165 0.21705092 0.00137117
0.49574758 0.21715293 0.00148034
0.52674850 0.21725910 0.00159132
0.55775367 0.21736944 0.00170540
0.58876271 0.21748388 0.00182300
0.61977540 0.21760233 0.00194414
0.65079159 0.21772468 0.00206878
0.68181116 0.21785079 0.00219679
0.71283400 0.21798055 0.00232806
0.74385999 0.21811384 0.00246249
0.77488900 0.21825053 0.00259994
0.80592094 0.21839050 0.00274031
0.83695567 0.21853363 0.00288348
0.86799309 0.21867979 0.00302934
0.89903308 0.21882887 0.00317777
0.93007552 0.21898073 0.00332865
0.96112030 0.21913526 0.00348186
0.99216730 0.21929233 0.00363730
0.00047166 0.24712383 0.00047166
0.03141386 0.24716569 0.00052210
0.06236033 0.24721372 0.00057611
0.09331045 0.24726801 0.00063173
0.12426411 0.24732852 0.00068653
0.15522247 0.24739480 0.00073906
0.18618790 0.24746597 0.00079098
0.21716273 0.24754096 0.00084819
0.24814722 0.24761928 0.00091904
0.27913867 0.24770129 0.00100968
0.31013302 0.24778802 0.00111997
0.34112749 0.24788032 0.00124354
0.37212198 0.24797837 0.00137183
0.40311831 0.24808170 0.00149869
0.43411836 0.24818968 0.00162225
0.46512306 0.24830184 0.00174373
0.49613239 0.24841796 0.00186531
0.52714591 0.24853794 0.00198872
0.55816318 0.24866171 0.00211490
0.58918391 0.24878918 0.00224419
0.62020790 0.24892024 0.00237664
0.65123500 0.24905478 0.00251218
0.68226509 0.24919268 0.00265071
0.71329806 0.24933382 0.00279212
0.74433378 0.24947806 0.00293628
0.77537215 0.24962530 0.00308309
0.80641304 0.24977540 0.00323242
0.83745635 0.24992825 0.00338416
0.86850195 0.25008372 0.00353820
0.89954973 0.25024168 0.00369442
0.93059958 0.25040203 0.00385270
0.96165137 0.25056462 0.00401293
0.99270500 0.25072935 0.00417500
0.00066588 0.27817811 0.00066588
0.03162611 0.27823882 0.00073452
0.06259101 0.27830502 0.00080770
0.09356027 0.27837666 0.00088481
0.12453360 0.27845369 0.00096493
0.15551099 0.27853601 0.00104712
0.18649294 0.27862330 0.00113109
0.21748030 0.27871514 0.00121797
0.24847369 0.27881107 0.00131039
0.27947287 0.27891088 0.00141138
0.31047658 0.27901471 0.00152247
0.34148338 0.27912286 0.00164260
0.37249244 0.27923552 0.00176877
0.40350386 0.27935262 0.00189781
0.43451824 0.27947391 0.00202790
0.46553608 0.27959910 0.00215875
0.49655749 0.27972797 0.00229097
0.52758236 0.27986036 0.00242529
0.55861045 0.27999616 0.00256218
0.58964157 0.28013525 0.00270184
0.62067554 0.28027754 0.00284428
0.65171224 0.28042289 0.00298943
0.68275154 0.28057118 0.00313717
0.71379333 0.28072230 0.00328739
0.74483748 0.28087612 0.00343998
0.77588389 0.28103251 0.00359483
0.80693244 0.28119135 0.00375181
0.83798301 0.28135253 0.00391082
0.86903548 0.28151592 0.00407173
0.90008974 0.28168139 0.00423443
0.93114568 0.28184882 0.00439881
0.96220318 0.28201809 0.00456474
0.99326212 0.28218908 0.00473212
0.00091677 0.30929498 0.00091677
0.03189320 0.30937333 0.00100164
0.06287412 0.30945669 0.00109097
0.09385935 0.30954494 0.00118455
0.12484872 0.30963800 0.00128207
0.15584208 0.30973576 0.00138314
0.18683938 0.30983808 0.00148743
0.21784072 0.30994479 0.00159489
0.24884631 0.31005564 0.00170600
0.27985618 0.31017042 0.00182161
0.31087009 0.31028900 0.00194250
0.34188754 0.31041137 0.00206879
0.37290806 0.31053753 0.00219981
0.40393140 0.31066743 0.00233444
0.43495755 0.31080095 0.00247171
0.46598661 0.31093794 0.00261116
0.49701861 0.31107823 0.00275273
0.52805347 0.31122165 0.00289659
0.55909107 0.31136810 0.00304285
0.59013127 0.31151744 0.00319156
0.62117393 0.31166955 0.00334267
0.65221892 0.31182432 0.00349610
0.68326612 0.31198162 0.00365174
0.71431541 0.31214133 0.00380947
0.74536669 0.31230333 0.00396919
0.77641982 0.31246749 0.00413076
0.80747471 0.31263368 0.00429409
0.83853123 0.31280180 0.00445904
0.86958927 0.31297171 0.00462552
0.90064870 0.31314330 0.00479339
0.93170942 0.31331643 0.00496255
0.96277131 0.31349099 0.00513288
0.99383426 0.31366686 0.00530426
0.00122015 0.34046971 0.00122015
0.03221136 0.34056435 0.00131980
0.06320671 0.34066356 0.00142359
0.09420607 0.34076723 0.00153137
0.12520931 0.34087524 0.00164300
0.15621628 0.34098747 0.00175830
0.18722689 0.34110382 0.00187709
0.21824103 0.34122413 0.00199921
0.24925866 0.34134829 0.00212460
0.28027974 0.34147612 0.00225335
0.31130417 0.34160748 0.00238562
0.34233179 0.34174227 0.00252147
0.37336238 0.34188038 0.00266077
0.40439574 0.34202174 0.00280321
0.43543174 0.34216622 0.00294841
0.46647032 0.34231370 0.00309606
0.49751139 0.34246406 0.00324599
0.52855487 0.34261716 0.00339815
0.55960065 0.34277286 0.00355247
0.59064862 0.34293106 0.00370892
0.62169865 0.34309161 0.00386739
0.65275061 0.34325441 0.00402780
0.68380440 0.34341932 0.00419003
0.71485990 0.34358624 0.00435396
0.74591698 0.34375502 0.00451948
0.77697554 0.34392556 0.00468648
0.80803546 0.34409772 0.00485483
0.83909662 0.34427139 0.00502443
0.87015890 0.34444644 0.00519515
0.90122220 0.34462274 0.00536689
0.93228640 0.34480019 0.00553952
0.96335137 0.34497865 0.00571293
0.99441701 0.34515800 0.00588701
0.00157165 0.37169760 0.00157165
0.03257632 0.37180714 0.00168476
0.06358475 0.37192084 0.00180162
0.09459680 0.37203857 0.00192212
0.12561237 0.37216023 0.00204612
0.15663133 0.37228568 0.00217350
0.18765357 0.37241481 0.00230414
0.21867896 0.37254749 0.00243790
0.24970741 0.37268359 0.00257466
0.28073880 0.37282300 0.00271434
0.31177305 0.37296557 0.00285686
0.34281004 0.37311119 0.00300218
0.37384962 0.37325973 0.00315020
0.40489168 0.37341109 0.00330078
0.43593607 0.37356513 0.00345377
0.46698268 0.37372174 0.00360898
0.49803141 0.37388080 0.00376627
0.52908215 0.37404219 0.00392552
0.56013479 0.37420577 0.00408664
0.59118921 0.37437143 0.00424951
0.62224529 0.37453904 0.00441404
0.65330293 0.37470847 0.00458011
0.68436199 0.37487962 0.00474762
0.71542238 0.37505234 0.00491644
0.74648396 0.37522652 0.00508646
0.77754663 0.37540205 0.00525757
0.80861027 0.37557878 0.00542964
0.83967476 0.37575661 0.00560257
0.87073998 0.37593541 0.00577623
0.90180583 0.37611505 0.00595052
0.93287219 0.37629542 0.00612532
0.96393894 0.37647638 0.00630050
0.99500596 0.37665783 0.00647596
0.00196687 0.40297398 0.00196687
0.03298369 0.40309703 0.00209213
0.06400388 0.40322382 0.00222075
0.09502730 0.40335424 0.00235262
0.12605386 0.40348817 0.00248760
0.15708342 0.40362547 0.00262560
0.18811587 0.40376604 0.00276649
0.21915111 0.40390974 0.00291015
0.25018900 0.40405645 0.00305647
0.28122945 0.40420605 0.00320533
0.31227232 0.40435841 0.00335661
0.34331752 0.40451342 0.00351023
0.37436493 0.40467095 0.00366606
0.40541442 0.40483087 0.00382399
0.43646588 0.40499306 0.00398391
0.46751919 0.40515741 0.00414569
0.49857423 0.40532379 0.00430919
0.52963089 0.40549208 0.00447431
0.56068906 0.40566215 0.00464093
0.59174862 0.40583388 0.00480893
0.62280945 0.40600715 0.00497820
0.65387145 0.40618184 0.00514863
0.68493448 0.40635782 0.00532011
0.71599844 0.40653497 0.00549251
0.74706322 0.40671316 0.00566572
0.77812868 0.40689228 0.00583962
0.80919473 0.40707220 0.00601411
0.84026124 0.40725280 0.00618905
0.87132810 0.40743395 0.00636435
0.90239519 0.40761554 0.00653988
0.93346240 0.40779744 0.00671553
0.96452961 0.40797953 0.00689117
0.99559670 0.40816168 0.00706670
0.00240140 0.43429416 0.00240140
0.03342907 0.43442933 0.00253750
0.06445970 0.43456784 0.00267657
0.09549318 0.43470956 0.00281850
0.12652940 0.43485436 0.00296315
0.15756825 0.43500214 0.00311043
0.18860959 0.43515276 0.00326022
0.21965333 0.43530610 0.00341239
0.25069934 0.43546204 0.00356684
0.28174751 0.43562045 0.00372344
0.31279773 0.43578122 0.00388209
0.34384987 0.43594422 0.00404266
0.37490382 0.43610932 0.00420505
0.40595946 0.43627641 0.00436913
0.43701669 0.43644536 0.00453480
0.46807538 0.43661605 0.00470193
0.49913542 0.43678836 0.00487041
0.53019669 0.43696216 0.00504012
0.56125907 0.43713733 0.00521094
0.59232246 0.43731375 0.00538277
0.62338673 0.43749129 0.00555548
0.65445177 0.43766983 0.00572895
0.68551746 0.43784926 0.00590308
0.71658369 0.43802944 0.00607775
0.74765034 0.43821026 0.00625284
0.77871730 0.43839158 0.00642823
0.80978444 0.43857330 0.00660382
0.84085167 0.43875528 0.00677948
0.87191885 0.43893740 0.00695510
0.90298587 0.43911954 0.00713056
0.93405262 0.43930158 0.00730574
0.96511898 0.43948340 0.00748054
0.99618484 0.43966486 0.00765484
0.00287085 0.46565349 0.00287085
0.03390804 0.46579939 0.00301648
0.06494781 0.46594821 0.00316468
0.09599004 0.46609984 0.00331535
0.12703462 0.46625414 0.00346837
0.15808143 0.46641099 0.00362362
0.18913036 0.46657028 0.00378098
0.22018129 0.46673187 0.00394035
0.25123410 0.46689565 0.00410160
0.28228868 0.46706149 0.00426462
0.31334491 0.46722927 0.00442929
0.34440268 0.46739887 0.00459550
0.37546188 0.46757016 0.00476313
0.40652238 0.46774303 0.00493206
0.43758407 0.46791734 0.00510219
0.46864683 0.46809298 0.00527339
0.49971055 0.46826982 0.00544555
0.53077511 0.46844774 0.00561855
0.56184040 0.46862662 0.00579228
0.59290630 0.46880634 0.00596662
0.62397270 0.46898676 0.00614145
0.65503948 0.46916778 0.00631667
0.68610652 0.46934926 0.00649214
0.71717371 0.46953109 0.00666777
0.74824093 0.46971314 0.00684343
0.77930806 0.46989528 0.00701900
0.81037500 0.47007740 0.00719437
0.84144162 0.47025937 0.00736943
0.87250781 0.47044107 0.00754406
0.90357345 0.47062238 0.00771814
0.93463843 0.47080317 0.00789156
0.96570264 0.47098333 0.00806420
0.99676595 0.47116272 0.00823595
0.00337079 0.49704727 0.00337079
0.03441620 0.49720251 0.00352464
0.06546379 0.49736027 0.00368067
0.09651346 0.49752041 0.00383878
0.12756509 0.49768281 0.00399884
0.15861856 0.49784735 0.00416075
0.18967376 0.49801392 0.00432438
0.22073056 0.49818237 0.00448963
0.25178887 0.49835260 0.00465637
0.28284855 0.49852448 0.00482449
0.31390949 0.49869789 0.00499387
0.34497159 0.49887270 0.00516440
0.37603471 0.49904879 0.00533596
0.40709875 0.49922604 0.00550844
0.43816360 0.49940433 0.00568172
0.46922912 0.49958352 0.00585568
0.50029522 0.49976351 0.00603022
0.53136177 0.49994417 0.00620520
0.56242865 0.50012537 0.00638053
0.59349576 0.50030699 0.00655607
0.62456297 0.50048891 0.00673172
0.65563017 0.50067100 0.00690736
0.68669725 0.50085315 0.00708288
0.71776409 0.50103523 0.00725815
0.74883056 0.50121712 0.00743306
0.77989657 0.50139870 0.00760751
0.81096198 0.50157983 0.00778136
0.84202670 0.50176040 0.00795451
0.87309059 0.50194029 0.00812684
0.90415354 0.50211938 0.00829823
0.93521544 0.50229753 0.00846857
0.96627618 0.50247464 0.00863774
0.99733563 0.50265056 0.00880563
0.00389683 0.52847084 0.00389683
0.03494914 0.52863404 0.00405758
0.06600325 0.52879933 0.00422013
0.09705905 0.52896660 0.00438436
0.12811641 0.52913571 0.00455016
0.15917523 0.52930656 0.00471742
0.19023539 0.52947901 0.00488601
0.22129676 0.52965294 0.00505583
0.25235925 0.52982823 0.00522675
0.28342272 0.53000476 0.00539866
0.31448706 0.53018240 0.00557144
0.34555217 0.53036103 0.00574498
0.37661792 0.53054053 0.00591917
0.40768419 0.53072077 0.00609388
0.43875087 0.53090164 0.00626900
0.46981785 0.53108301 0.00644442
0.50088501 0.53126475 0.00662001
0.53195223 0.53144675 0.00679567
0.56301941 0.53162888 0.00697128
0.59408641 0.53181102 0.00714672
0.62515313 0.53199304 0.00732188
0.65621945 0.53217483 0.00749663
0.68728525 0.53235626 0.00767087
0.71835042 0.53253720 0.00784448
0.74941485 0.53271754 0.00801735
0.78047841 0.53289715 0.00818935
0.81154100 0.53307591 0.00836037
0.84260249 0.53325370 0.00853030
0.87366277 0.53343039 0.00869902
0.90472172 0.53360586 0.00886641
0.93577924 0.53377999 0.00903236
0.96683519 0.53395265 0.00919675
0.99788947 0.53412373 0.00935947
0.00444455 0.55991952 0.00444455
0.03550246 0.56008928 0.00461089
0.06656177 0.56026072 0.00477865
0.09762239 0.56043373 0.00494770
0.12868418 0.56060817 0.00511793
0.15974704 0.56078392 0.00528922
0.19081084 0.56096087 0.00546147
0.22187548 0.56113888 0.00563454
0.25294083 0.56131785 0.00580833
0.28400678 0.56149763 0.00598272
0.31507322 0.56167812 0.00615759
0.34614002 0.56185918 0.00633283
0.37720708 0.56204070 0.00650833
0.40827427 0.56222255 0.00668396
0.43934149 0.56240461 0.00685962
0.47040861 0.56258676 0.00703518
0.50147553 0.56276887 0.00721053
0.53254211 0.56295082 0.00738555
0.56360826 0.56313249 0.00756013
0.59467385 0.56331376 0.00773416
0.62573876 0.56349450 0.00790751
0.65680289 0.56367459 0.00808007
0.68786611 0.56385390 0.00825173
0.71892831 0.56403232 0.00842237
0.74998937 0.56420972 0.00859187
0.78104918 0.56438598 0.00876012
0.81210762 0.56456098 0.00892700
0.84316458 0.56473459 0.00909240
0.87421994 0.56490669 0.00925619
0.90527359 0.56507715 0.00941828
0.93632540 0.56524586 0.00957853
0.96737527 0.56541270 0.00973683
0.99842307 0.56557753 0.00989307
0.00500954 0.59138864 0.00500954
0.03607174 0.59156357 0.00518018
0.06713495 0.59173977 0.00535183
0.09819907 0.59191712 0.00552438
0.12926398 0.59209550 0.00569773
0.16032957 0.59227477 0.00587175
0.19139571 0.59245483 0.00604633
0.22246229 0.59263554 0.00622135
0.25352920 0.59281678 0.00639670
0.28459632 0.59299844 0.00657226
0.31566354 0.59318038 0.00674792
0.34673074 0.59336248 0.00692355
0.37779780 0.59354463 0.00709905
0.40886460 0.59372670 0.00727429
0.43993104 0.59390856 0.00744917
0.47099700 0.59409010 0.00762356
0.50206235 0.59427119 0.00779735
0.53312699 0.59445171 0.00797043
0.56419080 0.59463153 0.00814268
0.59525367 0.59481053 0.00831398
0.62631546 0.59498859 0.00848421
0.65737609 0.59516559 0.00865327
0.68843541 0.59534141 0.00882104
0.71949333 0.59551591 0.00898739
0.75054972 0.59568899 0.00915222
0.78160447 0.59586051 0.00931541
0.81265746 0.59603035 0.00947684
0.84370858 0.59619839 0.00963639
0.87475771 0.59636451 0.00979396
0.90580473 0.59652858 0.00994942
0.93684954 0.59669049 0.01010266
0.96789201 0.59685010 0.01025357
0.99893202 0.59700730 0.01040202
0.00558741 0.62287351 0.00558741
0.03665258 0.62305223 0.00576101
0.06771838 0.62323180 0.00593525
0.09878469 0.62341211 0.00611001
0.12985141 0.62359303 0.00628516
0.16091841 0.62377444 0.00646060
0.19198558 0.62395621 0.00663621
0.22305280 0.62413823 0.00681187
0.25411996 0.62432036 0.00698746
0.28518694 0.62450250 0.00716288
0.31625363 0.62468450 0.00733801
0.34731991 0.62486626 0.00751272
0.37838566 0.62504765 0.00768691
0.40945077 0.62522854 0.00786045
0.44051512 0.62540882 0.00803324
0.47157860 0.62558836 0.00820516
0.50264108 0.62576704 0.00837608
0.53370247 0.62594473 0.00854591
0.56476263 0.62612131 0.00871451
0.59582146 0.62629666 0.00888177
0.62687883 0.62647066 0.00904758
0.65793464 0.62664318 0.00921183
0.68898876 0.62681410 0.00937439
0.72004109 0.62698330 0.00953515
0.75109149 0.62715066 0.00969399
0.78213987 0.62731605 0.00985081
0.81318610 0.62747935 0.01000548
0.84423007 0.62764043 0.01015788
0.87527166 0.62779918 0.01030791
0.90631075 0.62795547 0.01045544
0.93734724 0.62810918 0.01060036
0.96838099 0.62826018 0.01074256
0.99941191 0.62840836 0.01088191
0.00617373 0.65436948 0.00617373
0.03724057 0.65455059 0.00634900
0.06830764 0.65473214 0.00652452
0.09937484 0.65491402 0.00670016
0.13044206 0.65509609 0.00687581
0.16150917 0.65527824 0.00705135
0.19257605 0.65546034 0.00722668
0.22364260 0.65564227 0.00740167
0.25470870 0.65582391 0.00757620
0.28577423 0.65600513 0.00775017
0.31683908 0.65618582 0.00792345
0.34790313 0.65636584 0.00809594
0.37896626 0.65654508 0.00826751
0.41002836 0.65672341 0.00843804
0.44108931 0.65690071 0.00860743
0.47214900 0.65707686 0.00877556
0.50320731 0.65725173 0.00894231
0.53426413 0.65742521 0.00910757
0.56531934 0.65759716 0.00927121
0.59637282 0.65776747 0.00943313
0.62742446 0.65793601 0.00959321
0.65847414 0.65810267 0.00975133
0.68952175 0.65826731 0.00990737
0.72056717 0.65842982 0.01006123
0.75161028 0.65859006 0.01021278
0.78265097 0.65874793 0.01036191
0.81368913 0.65890330 0.01050851
0.84472464 0.65905604 0.01065245
0.87575738 0.65920603 0.01079363
0.90678723 0.65935314 0.01093192
