assets/luts/DB_Sports_Floodlight_Rec709_50.cube
TITLE "Sports Floodlight Rec709 50"
# Red changes fastest. Full-range normalized input.
LUT_3D_SIZE 33
DOMAIN_MIN 0 0 0
DOMAIN_MAX 1 1 1
0.00250000 0.00250000 0.00250000
0.03266063 0.00219644 0.00224533
0.06296196 0.00187849 0.00196627
0.09329490 0.00157515 0.00169970
0.12350983 0.00132650 0.00149584
0.15351487 0.00115718 0.00138502
0.18333569 0.00106012 0.00135778
0.21308467 0.00100472 0.00137566
0.24287744 0.00095939 0.00139944
0.27277331 0.00090766 0.00140907
0.30277265 0.00084905 0.00140430
0.33284755 0.00079074 0.00139427
0.36296978 0.00074007 0.00138817
0.39312152 0.00070153 0.00139163
0.42329438 0.00067709 0.00140716
0.45348512 0.00066730 0.00143550
0.48369259 0.00067215 0.00147673
0.51391629 0.00069146 0.00153070
0.54415590 0.00072499 0.00159719
0.57441116 0.00077248 0.00167599
0.60468178 0.00083370 0.00176687
0.63496750 0.00090839 0.00186960
0.66526803 0.00099631 0.00198396
0.69558311 0.00109720 0.00210974
0.72591246 0.00121083 0.00224669
0.75625581 0.00133693 0.00239461
0.78661289 0.00147526 0.00255326
0.81698342 0.00162558 0.00272242
0.84736713 0.00178762 0.00290187
0.87776374 0.00196116 0.00309139
0.90817299 0.00214593 0.00329074
0.93859460 0.00234169 0.00349971
0.96902830 0.00254818 0.00371806
0.00144596 0.03204062 0.00179870
0.03162352 0.03182085 0.00148614
0.06201221 0.03156658 0.00112095
0.09254620 0.03129169 0.00076922
0.12304784 0.03104110 0.00052737
0.15332687 0.03086581 0.00046503
0.18330914 0.03078818 0.00057774
0.21307833 0.03078891 0.00079209
0.24280001 0.03082550 0.00101692
0.27260974 0.03086169 0.00119352
0.30255798 0.03088291 0.00130993
0.33262747 0.03089250 0.00138372
0.36277751 0.03090036 0.00143870
0.39297437 0.03091488 0.00149210
0.42319900 0.03094069 0.00155281
0.45344313 0.03097965 0.00162434
0.48370375 0.03103224 0.00170767
0.51397986 0.03109841 0.00180290
0.54427099 0.03117795 0.00190990
0.57457685 0.03127062 0.00202845
0.60489716 0.03137617 0.00215832
0.63523163 0.03149437 0.00229929
0.66558001 0.03162495 0.00245114
0.69594202 0.03176767 0.00261364
0.72631738 0.03192229 0.00278657
0.75670582 0.03208855 0.00296971
0.78710707 0.03226620 0.00316284
0.81752085 0.03245500 0.00336571
0.84794689 0.03265470 0.00357813
0.87838492 0.03286504 0.00379985
0.90883467 0.03308579 0.00403065
0.93929586 0.03331668 0.00427032
0.96976821 0.03355748 0.00451863
0.00065998 0.06175948 0.00135820
0.03079894 0.06163374 0.00101181
0.06114994 0.06147601 0.00055872
0.09172884 0.06127525 0.00007358
0.12218689 0.06109344 0.00000000
0.15255222 0.06095976 0.00000000
0.18293473 0.06085030 0.00000000
0.21319621 0.06079140 0.00012752
0.24295325 0.06087234 0.00058778
0.27271198 0.06097797 0.00099324
0.30259603 0.06107502 0.00128897
0.33263228 0.06115419 0.00148544
0.36278732 0.06122212 0.00162102
0.39301555 0.06128938 0.00173131
0.42328448 0.06136370 0.00183804
0.45357746 0.06144897 0.00195119
0.48388778 0.06154658 0.00207433
0.51421311 0.06165681 0.00220835
0.54455266 0.06177955 0.00235332
0.57490602 0.06191458 0.00250908
0.60527292 0.06206166 0.00267540
0.63565308 0.06222055 0.00285208
0.66604621 0.06239098 0.00303888
0.69645205 0.06257272 0.00323558
0.72687033 0.06276552 0.00344195
0.75730077 0.06296912 0.00365778
0.78774310 0.06318328 0.00388284
0.81819704 0.06340775 0.00411690
0.84866232 0.06364228 0.00435973
0.87913868 0.06388662 0.00461113
0.90962583 0.06414053 0.00487085
0.94012351 0.06440375 0.00513869
0.97063143 0.06467604 0.00541440
0.00015488 0.09163853 0.00119960
0.03026868 0.09159220 0.00090429
0.06052890 0.09153497 0.00046220
0.09100206 0.09143479 0.00000000
0.12148728 0.09130591 0.00000000
0.15191258 0.09122133 0.00000000
0.18233541 0.09116770 0.00000000
0.21280823 0.09112930 0.00000000
0.24311374 0.09114413 0.00022203
0.27294413 0.09128108 0.00083432
0.30282321 0.09143153 0.00132942
0.33283745 0.09157116 0.00167908
0.36298837 0.09169651 0.00191801
0.39323651 0.09181529 0.00209657
0.42354158 0.09193642 0.00225275
0.45387818 0.09206568 0.00240708
0.48423440 0.09220566 0.00256807
0.51460569 0.09235719 0.00273848
0.54499051 0.09252033 0.00291892
0.57538829 0.09269491 0.00310935
0.60579869 0.09288071 0.00330960
0.63622142 0.09307747 0.00351945
0.66665622 0.09328494 0.00373866
0.69710281 0.09350288 0.00396702
0.72756091 0.09373104 0.00420430
0.75803026 0.09396918 0.00445028
0.78851058 0.09421703 0.00470473
0.81900159 0.09447436 0.00496743
0.84950303 0.09474091 0.00523816
0.88001462 0.09501644 0.00551669
0.91053608 0.09530069 0.00580280
0.94106715 0.09559343 0.00609626
0.97160755 0.09589439 0.00639685
0.00000000 0.12163879 0.00136448
0.03002895 0.12169130 0.00108486
0.06023814 0.12170992 0.00077536
0.09058919 0.12171647 0.00032611
0.12111168 0.12167750 0.00000000
0.15163964 0.12162646 0.00000000
0.18214769 0.12160908 0.00000000
0.21267758 0.12161541 0.00000000
0.24312169 0.12165603 0.00019037
0.27315029 0.12179303 0.00087142
0.30313292 0.12196615 0.00149566
0.33318586 0.12214604 0.00197904
0.36335369 0.12231866 0.00232447
0.39362292 0.12248434 0.00257803
0.42395956 0.12264955 0.00278719
0.45433509 0.12282029 0.00298290
0.48473333 0.12300001 0.00318018
0.51514722 0.12319008 0.00338472
0.54557416 0.12339082 0.00359815
0.57601324 0.12360215 0.00382075
0.60646405 0.12382384 0.00405238
0.63692628 0.12405566 0.00429286
0.66739965 0.12429736 0.00454195
0.69788389 0.12454869 0.00479943
0.72837873 0.12480941 0.00506508
0.75888390 0.12507925 0.00533867
0.78939911 0.12535799 0.00561999
0.81992411 0.12564536 0.00590880
0.85045861 0.12594112 0.00620488
0.88100234 0.12624502 0.00650801
0.91155503 0.12655681 0.00681797
0.94211640 0.12687624 0.00713452
0.97268619 0.12720307 0.00745745
0.00000000 0.15182494 0.00163900
0.03001339 0.15194813 0.00141746
0.06023939 0.15201539 0.00129024
0.09053034 0.15209055 0.00104582
0.12093441 0.15215710 0.00070774
0.15146496 0.15220359 0.00037651
0.18206477 0.15223630 0.00020307
0.21262124 0.15228038 0.00030829
0.24303606 0.15236430 0.00070458
0.27329163 0.15250042 0.00128734
0.30345419 0.15267913 0.00190407
0.33361779 0.15287974 0.00243996
0.36384588 0.15308542 0.00285654
0.39415352 0.15328980 0.00317432
0.42452480 0.15349448 0.00343415
0.45493711 0.15370353 0.00367015
0.48537411 0.15392017 0.00390204
0.51582732 0.15414601 0.00413849
0.54629322 0.15438156 0.00438248
0.57677050 0.15462682 0.00463471
0.60725861 0.15488160 0.00489521
0.63775724 0.15514567 0.00516378
0.66826610 0.15541878 0.00544021
0.69878491 0.15570069 0.00572428
0.72931339 0.15599114 0.00601576
0.75985128 0.15628989 0.00631444
0.79039831 0.15659669 0.00662008
0.82095419 0.15691129 0.00693246
0.85151866 0.15723345 0.00725136
0.88209144 0.15756291 0.00757656
0.91267226 0.15789942 0.00790782
0.94326085 0.15824274 0.00824493
0.97385694 0.15859261 0.00858766
0.00000000 0.18224456 0.00186674
0.03016411 0.18237203 0.00182648
0.06044510 0.18247524 0.00185174
0.09075010 0.18259371 0.00181152
0.12110589 0.18271963 0.00169699
0.15153727 0.18284281 0.00154265
0.18204134 0.18295808 0.00143235
0.21257363 0.18307174 0.00146612
0.24306784 0.18319957 0.00170148
0.27347931 0.18335633 0.00211484
0.30381399 0.18354593 0.00261755
0.33411761 0.18376082 0.00311181
0.36443989 0.18398959 0.00353929
0.39480761 0.18422433 0.00389152
0.42522217 0.18446283 0.00419000
0.45567226 0.18470633 0.00446155
0.48614594 0.18495680 0.00472533
0.51663553 0.18521554 0.00499128
0.54713728 0.18548308 0.00526336
0.57764965 0.18575946 0.00554273
0.60817199 0.18604451 0.00582955
0.63870392 0.18633802 0.00612368
0.66924517 0.18663973 0.00642492
0.69979545 0.18694940 0.00673304
0.73035449 0.18726678 0.00704782
0.76092202 0.18759162 0.00736904
0.79149776 0.18792368 0.00769647
0.82208144 0.18826269 0.00802989
0.85267279 0.18860843 0.00836907
0.88327153 0.18896063 0.00871379
0.91387740 0.18931905 0.00906383
0.94449011 0.18968344 0.00941896
0.97510940 0.19005355 0.00977896
0.00012833 0.21283302 0.00217760
0.03045935 0.21295617 0.00230803
0.06080000 0.21309414 0.00243075
0.09115264 0.21324687 0.00253080
0.12152608 0.21341218 0.00259533
0.15193414 0.21358541 0.00262679
0.18238627 0.21376141 0.00265467
0.21287541 0.21393852 0.00273142
0.24337541 0.21412103 0.00290706
0.27385539 0.21431686 0.00319784
0.30430043 0.21453207 0.00357503
0.33472006 0.21476701 0.00398407
0.36513798 0.21501733 0.00437692
0.39557488 0.21527783 0.00473183
0.42603917 0.21554544 0.00505170
0.45652882 0.21581948 0.00535062
0.48703791 0.21610053 0.00564212
0.51756130 0.21638924 0.00593470
0.54809592 0.21668593 0.00623229
0.57864030 0.21699061 0.00653626
0.60919376 0.21730313 0.00684687
0.63975592 0.21762325 0.00716403
0.67032647 0.21795075 0.00748753
0.70090513 0.21828537 0.00781717
0.73149164 0.21862686 0.00815271
0.76208571 0.21897498 0.00849394
0.79268708 0.21932948 0.00884063
0.82329546 0.21969010 0.00919254
0.85391060 0.22005660 0.00954947
0.88453222 0.22042873 0.00991119
0.91516003 0.22080625 0.01027747
0.94579378 0.22118890 0.01064808
0.97643318 0.22157643 0.01102281
0.00051584 0.24352479 0.00270601
0.03089684 0.24368648 0.00288162
0.06128910 0.24386051 0.00306212
0.09169218 0.24404704 0.00324174
0.12210753 0.24424573 0.00341337
0.15253941 0.24445522 0.00357277
0.18299341 0.24467315 0.00372502
0.21347185 0.24489734 0.00388793
0.24396938 0.24512747 0.00408661
0.27447396 0.24536566 0.00433957
0.30497413 0.24561505 0.00464658
0.33546659 0.24587750 0.00498864
0.36595723 0.24615251 0.00534023
0.39645549 0.24643802 0.00568311
0.42696805 0.24673202 0.00601177
0.45749659 0.24703341 0.00632999
0.48803945 0.24734194 0.00664443
0.51859413 0.24765767 0.00696038
0.54915870 0.24798065 0.00728078
0.57973205 0.24831081 0.00760678
0.61031355 0.24864797 0.00793865
0.64090283 0.24899191 0.00827630
0.67149959 0.24934238 0.00861954
0.70210355 0.24969913 0.00896815
0.73271443 0.25006192 0.00932192
0.76333195 0.25043050 0.00968062
0.79395586 0.25080463 0.01004402
0.82458586 0.25118404 0.01041190
0.85522170 0.25156849 0.01078404
0.88586309 0.25195775 0.01116021
0.91650977 0.25235154 0.01154019
0.94716145 0.25274964 0.01192376
0.97781788 0.25315178 0.01231068
0.00105024 0.27435060 0.00334739
0.03147492 0.27454948 0.00355844
0.06191117 0.27475922 0.00377772
0.09235846 0.27497977 0.00400348
0.12281658 0.27521098 0.00423312
0.15328610 0.27545252 0.00446395
0.18376859 0.27570361 0.00469520
0.21426569 0.27596319 0.00493036
0.24477744 0.27623041 0.00517749
0.27530108 0.27650520 0.00544572
0.30583210 0.27678828 0.00573978
0.33636704 0.27708055 0.00605662
0.36690556 0.27738231 0.00638737
0.39745001 0.27769308 0.00672271
0.42800322 0.27801198 0.00705725
0.45856673 0.27833826 0.00739027
0.48914050 0.27867145 0.00772370
0.51972365 0.27901134 0.00805987
0.55031522 0.27935778 0.00840033
0.58091448 0.27971059 0.00874578
0.61152095 0.28006958 0.00909635
0.64213427 0.28043452 0.00945195
0.67275415 0.28080514 0.00981239
0.70338030 0.28118122 0.01017745
0.73401246 0.28156250 0.01054690
0.76465035 0.28194873 0.01092054
0.79529370 0.28233966 0.01129812
0.82594223 0.28273505 0.01167943
0.85659568 0.28313465 0.01206425
0.88725376 0.28353820 0.01245234
0.91791620 0.28394547 0.01284348
0.94858274 0.28435619 0.01323746
0.97925310 0.28477013 0.01363404
0.00172308 0.30530021 0.00409604
0.03218734 0.30553389 0.00433805
0.06266261 0.30577744 0.00458844
0.09314853 0.30603065 0.00484671
0.12364476 0.30629334 0.00511203
0.15415110 0.30656528 0.00538338
0.18466759 0.30684616 0.00565987
0.21519456 0.30713554 0.00594152
0.24573224 0.30743293 0.00622982
0.27628024 0.30773792 0.00652748
0.30683738 0.30805038 0.00683694
0.33740219 0.30837040 0.00715871
0.36797369 0.30869802 0.00749087
0.39855184 0.30903311 0.00783023
0.42913719 0.30937533 0.00817400
0.45973028 0.30972424 0.00852087
0.49033119 0.31007948 0.00887087
0.52093962 0.31044076 0.00922454
0.55155511 0.31080784 0.00958241
0.58217721 0.31118050 0.00994471
0.61280556 0.31155850 0.01031144
0.64343983 0.31194161 0.01068246
0.67407974 0.31232958 0.01105756
0.70472500 0.31272217 0.01143652
0.73537535 0.31311912 0.01181914
0.76603052 0.31352019 0.01220517
0.79669022 0.31392512 0.01259440
0.82735419 0.31433367 0.01298660
0.85802215 0.31474560 0.01338155
0.88869382 0.31516064 0.01377903
0.91936895 0.31557856 0.01417880
0.95004725 0.31599911 0.01458066
0.98072845 0.31642203 0.01498436
0.00252444 0.33636397 0.00494412
0.03302497 0.33662973 0.00521415
0.06353566 0.33690449 0.00549198
0.09405623 0.33718801 0.00577733
0.12458638 0.33748006 0.00606988
0.15512581 0.33778040 0.00636923
0.18567429 0.33808878 0.00667494
0.21623165 0.33840495 0.00698666
0.24679777 0.33872858 0.00730436
0.27737247 0.33905936 0.00762841
0.30795540 0.33939703 0.00795939
0.33854604 0.33974137 0.00829763
0.36914383 0.34009223 0.00864289
0.39974840 0.34044943 0.00899432
0.43035957 0.34081273 0.00935090
0.46097727 0.34118186 0.00971185
0.49160141 0.34155651 0.01007680
0.52223175 0.34193643 0.01044566
0.55286800 0.34232136 0.01081843
0.58350985 0.34271105 0.01119505
0.61415698 0.34310525 0.01157540
0.64480911 0.34350373 0.01195929
0.67546596 0.34390624 0.01234651
0.70612724 0.34431252 0.01273685
0.73679270 0.34472233 0.01313008
0.76746204 0.34513542 0.01352598
0.79813501 0.34555154 0.01392432
0.82881132 0.34597044 0.01432488
0.85949070 0.34639188 0.01472743
0.89017289 0.34681560 0.01513175
0.92085760 0.34724136 0.01553762
0.95154457 0.34766891 0.01594482
0.98223352 0.34809800 0.01635311
0.00344402 0.36753238 0.00588324
0.03397770 0.36782742 0.00617869
0.06452063 0.36813061 0.00648121
0.09507254 0.36844173 0.00679057
0.12563316 0.36876051 0.00710652
0.15620219 0.36908671 0.00742882
0.18677938 0.36942009 0.00775719
0.21736445 0.36976040 0.00809138
0.24795715 0.37010738 0.00843114
0.27855726 0.37046076 0.00877632
0.30916451 0.37082030 0.00912686
0.33977859 0.37118573 0.00948270
0.37039918 0.37155683 0.00984371
0.40102596 0.37193336 0.01020960
0.43165863 0.37231508 0.01057999
0.46229697 0.37270174 0.01095448
0.49294073 0.37309310 0.01133277
0.52358967 0.37348890 0.01171461
0.55424352 0.37388887 0.01209983
0.58490200 0.37429279 0.01248826
0.61556482 0.37470038 0.01287969
0.64623172 0.37511141 0.01327392
0.67690242 0.37552564 0.01367073
0.70757663 0.37594280 0.01406990
0.73825410 0.37636265 0.01447121
0.76893453 0.37678495 0.01487444
0.79961767 0.37720945 0.01527935
0.83030323 0.37763589 0.01568573
0.86099096 0.37806403 0.01609335
0.89168056 0.37849361 0.01650198
0.92237177 0.37892440 0.01691141
0.95306431 0.37935614 0.01732141
0.98375792 0.37978859 0.01773175
0.00447144 0.39879597 0.00690487
0.03503517 0.39911747 0.00722321
0.06560723 0.39944630 0.00754786
0.09618736 0.39978220 0.00787860
0.12677528 0.40012493 0.00821521
0.15737072 0.40047425 0.00855745
0.18797339 0.40082989 0.00890509
0.21858304 0.40119163 0.00925791
0.24919938 0.40155919 0.00961567
0.27982216 0.40193234 0.00997815
0.31045109 0.40231082 0.01034515
0.34108592 0.40269439 0.01071647
0.37172636 0.40308279 0.01109192
0.40237212 0.40347578 0.01147127
0.43302294 0.40387312 0.01185430
0.46367852 0.40427455 0.01224073
0.49433862 0.40467982 0.01263033
0.52500295 0.40508870 0.01302285
0.55567126 0.40550092 0.01341807
0.58634326 0.40591624 0.01381578
0.61701869 0.40633442 0.01421577
0.64769727 0.40675519 0.01461780
0.67837872 0.40717832 0.01502167
0.70906277 0.40760355 0.01542714
0.73974915 0.40803064 0.01583399
0.77043759 0.40845933 0.01624201
0.80112781 0.40888939 0.01665096
0.83181954 0.40932055 0.01706062
0.86251250 0.40975257 0.01747077
0.89320643 0.41018521 0.01788119
0.92390105 0.41061822 0.01829164
0.95459608 0.41105134 0.01870190
0.98529126 0.41148432 0.01911176
0.00559629 0.43014526 0.00800048
0.03618698 0.43049042 0.00833917
0.06678509 0.43084207 0.00868342
0.09739034 0.43119995 0.00903300
0.12800247 0.43156383 0.00938769
0.15862119 0.43193345 0.00974728
0.18924624 0.43230857 0.01011152
0.21987734 0.43268893 0.01048020
0.25051422 0.43307429 0.01085309
0.28115660 0.43346440 0.01122997
0.31180422 0.43385901 0.01161061
0.34245681 0.43425787 0.01199480
0.37311408 0.43466073 0.01238231
0.40377576 0.43506734 0.01277292
0.43444159 0.43547747 0.01316642
0.46511128 0.43589084 0.01356256
0.49578456 0.43630723 0.01396113
0.52646117 0.43672638 0.01436190
0.55714082 0.43714804 0.01476463
0.58782325 0.43757196 0.01516911
0.61850818 0.43799790 0.01557511
0.64919534 0.43842560 0.01598242
0.67988446 0.43885482 0.01639080
0.71057526 0.43928530 0.01680003
0.74126747 0.43971681 0.01720990
0.77196082 0.44014909 0.01762017
0.80265503 0.44058189 0.01803062
0.83334983 0.44101496 0.01844103
0.86404495 0.44144806 0.01885118
0.89474011 0.44188094 0.01926083
0.92543504 0.44231334 0.01966977
0.95612947 0.44274503 0.02007777
0.98682313 0.44317574 0.02048460
0.00680819 0.46157081 0.00916155
0.03742275 0.46193681 0.00951805
0.06804381 0.46230846 0.00987936
0.09867109 0.46268551 0.01024524
0.12930433 0.46306772 0.01061549
0.15994325 0.46345484 0.01098987
0.19058757 0.46384661 0.01136816
0.22123703 0.46424280 0.01175013
0.25189135 0.46464314 0.01213556
0.28255025 0.46504740 0.01252423
0.31321347 0.46545532 0.01291592
0.34388074 0.46586666 0.01331039
0.37455177 0.46628116 0.01370743
0.40522629 0.46669858 0.01410680
0.43590404 0.46711868 0.01450830
0.46658474 0.46754119 0.01491169
0.49726811 0.46796587 0.01531675
0.52795389 0.46839248 0.01572326
0.55864179 0.46882076 0.01613098
0.58933155 0.46925047 0.01653970
0.62002290 0.46968136 0.01694919
0.65071555 0.47011317 0.01735923
0.68140925 0.47054567 0.01776959
0.71210370 0.47097860 0.01818006
0.74279865 0.47141171 0.01859039
0.77349382 0.47184476 0.01900038
0.80418893 0.47227749 0.01940980
0.83488371 0.47270966 0.01981842
0.86557789 0.47314102 0.02022603
0.89627120 0.47357132 0.02063238
0.92696335 0.47400031 0.02103727
0.95765409 0.47442775 0.02144047
0.98834314 0.47485338 0.02184174
0.00809673 0.49306314 0.01037954
0.03873207 0.49344716 0.01075132
0.06937299 0.49383601 0.01112715
0.10001921 0.49422941 0.01150680
0.13067047 0.49462714 0.01189006
0.16132649 0.49502894 0.01227670
0.19198700 0.49543456 0.01266650
0.22265173 0.49584376 0.01305922
0.25332039 0.49625627 0.01345466
0.28399273 0.49667187 0.01385257
0.31466846 0.49709029 0.01425275
0.34534731 0.49751129 0.01465496
0.37602901 0.49793462 0.01505898
0.40671329 0.49836004 0.01546459
0.43739987 0.49878728 0.01587156
0.46808849 0.49921611 0.01627968
0.49877886 0.49964628 0.01668870
0.52947071 0.50007753 0.01709842
0.56016378 0.50050963 0.01750860
0.59085778 0.50094231 0.01791903
0.62155245 0.50137533 0.01832947
0.65224750 0.50180845 0.01873971
0.68294268 0.50224141 0.01914952
0.71363770 0.50267397 0.01955867
0.74433230 0.50310587 0.01996695
0.77502619 0.50353688 0.02037412
0.80571911 0.50396673 0.02077997
0.83641078 0.50439518 0.02118427
0.86710094 0.50482199 0.02158679
0.89778930 0.50524690 0.02198732
0.92847559 0.50566967 0.02238562
0.95915954 0.50609004 0.02278147
0.98984088 0.50650777 0.02317466
0.00945152 0.52461279 0.01164593
0.04010455 0.52501203 0.01203044
0.07076223 0.52541525 0.01241826
0.10142431 0.52582220 0.01280915
0.13209050 0.52623263 0.01320288
0.16276053 0.52664630 0.01359925
0.19343413 0.52706295 0.01399801
0.22411103 0.52748234 0.01439896
0.25479096 0.52790422 0.01480185
0.28547363 0.52832834 0.01520648
0.31615878 0.52875444 0.01561261
0.34684613 0.52918230 0.01602002
0.37753542 0.52961164 0.01642849
0.40822636 0.53004223 0.01683780
0.43891868 0.53047382 0.01724771
0.46961212 0.53090616 0.01765801
0.50030640 0.53133899 0.01806846
0.53100124 0.53177208 0.01847886
0.56169637 0.53220517 0.01888897
0.59239152 0.53263801 0.01929856
0.62308642 0.53307036 0.01970742
0.65378079 0.53350197 0.02011532
0.68447436 0.53393258 0.02052204
0.71516686 0.53436195 0.02092735
0.74585801 0.53478983 0.02133103
0.77654754 0.53521598 0.02173285
0.80723518 0.53564014 0.02213259
0.83792066 0.53606206 0.02253003
0.86860369 0.53648150 0.02292494
0.89928401 0.53689821 0.02331710
0.92996135 0.53731194 0.02370628
0.96063543 0.53772243 0.02409226
0.99130597 0.53812945 0.02447481
0.01086216 0.55621029 0.01295217
0.04152978 0.55662193 0.01334689
0.07220115 0.55703671 0.01374416
0.10287598 0.55745439 0.01414374
0.13355401 0.55787472 0.01454542
0.16423497 0.55829744 0.01494897
0.19491857 0.55872231 0.01535418
0.22560456 0.55914908 0.01576080
0.25629264 0.55957751 0.01616862
0.28698256 0.56000734 0.01657742
0.31767404 0.56043832 0.01698697
0.34836680 0.56087021 0.01739705
0.37906058 0.56130276 0.01780743
0.40975509 0.56173571 0.01821789
0.44045007 0.56216883 0.01862821
0.47114524 0.56260186 0.01903816
0.50184033 0.56303455 0.01944751
0.53253507 0.56346665 0.01985605
0.56322918 0.56389793 0.02026354
0.59392240 0.56432812 0.02066978
0.62461443 0.56475698 0.02107452
0.65530503 0.56518425 0.02147754
0.68599390 0.56560971 0.02187863
0.71668078 0.56603308 0.02227756
0.74736540 0.56645413 0.02267411
0.77804748 0.56687260 0.02306804
0.80872674 0.56728825 0.02345914
0.83940292 0.56770083 0.02384718
0.87007575 0.56811009 0.02423194
0.90074494 0.56851578 0.02461319
0.93141023 0.56891766 0.02499071
0.96207134 0.56931547 0.02536428
0.99272800 0.56970896 0.02573367
0.01231825 0.58784619 0.01428975
0.04299738 0.58826741 0.01469214
0.07367933 0.58869095 0.01509631
0.10436383 0.58911654 0.01550206
0.13505061 0.58954394 0.01590915
0.16573940 0.58997291 0.01631735
0.19642992 0.59040318 0.01672645
0.22712189 0.59083453 0.01713622
0.25781506 0.59126668 0.01754643
0.28850913 0.59169941 0.01795687
0.31920385 0.59213245 0.01836730
0.34989893 0.59256556 0.01877751
0.38059410 0.59299850 0.01918727
0.41128910 0.59343101 0.01959635
0.44198364 0.59386284 0.02000454
0.47267745 0.59429374 0.02041160
0.50337027 0.59472348 0.02081731
0.53406181 0.59515179 0.02122145
0.56475181 0.59557843 0.02162380
0.59543999 0.59600316 0.02202413
0.62612608 0.59642571 0.02242222
0.65680981 0.59684585 0.02281784
0.68749089 0.59726333 0.02321076
0.71816907 0.59767789 0.02360078
0.74884406 0.59808929 0.02398765
0.77951559 0.59849728 0.02437116
0.81018339 0.59890161 0.02475108
0.84084719 0.59930203 0.02512719
0.87150672 0.59969830 0.02549926
0.90216169 0.60009016 0.02586707
0.93281184 0.60047737 0.02623040
0.96345690 0.60085968 0.02658902
0.99409658 0.60123683 0.02694271
0.01380939 0.61951101 0.01565012
0.04449694 0.61993901 0.01605764
0.07518638 0.62036848 0.01646620
0.10587747 0.62079917 0.01687557
0.13656991 0.62123084 0.01728552
0.16726343 0.62166323 0.01769584
0.19795777 0.62209610 0.01810631
0.22865265 0.62252920 0.01851668
0.25934780 0.62296228 0.01892675
0.29004294 0.62339508 0.01933629
0.32073780 0.62382737 0.01974507
0.35143211 0.62425890 0.02015287
0.38212559 0.62468941 0.02055947
0.41281798 0.62511865 0.02096464
0.44350899 0.62554638 0.02136815
0.47419836 0.62597236 0.02176979
0.50488581 0.62639632 0.02216933
0.53557107 0.62681803 0.02256655
0.56625386 0.62723722 0.02296121
0.59693392 0.62765367 0.02335310
0.62761097 0.62806711 0.02374200
0.65828473 0.62847729 0.02412767
0.68895494 0.62888398 0.02450990
0.71962132 0.62928692 0.02488846
0.75028359 0.62968586 0.02526312
0.78094149 0.63008055 0.02563367
0.81159474 0.63047075 0.02599988
0.84224307 0.63085620 0.02636152
0.87288620 0.63123666 0.02671837
0.90352386 0.63161188 0.02707021
0.93415579 0.63198161 0.02741680
0.96478169 0.63234560 0.02775794
0.99540131 0.63270360 0.02809339
0.01532519 0.65119529 0.01702476
0.04601806 0.65162725 0.01743488
0.07671191 0.65205984 0.01784527
0.10740648 0.65249283 0.01825573
0.13810149 0.65292594 0.01866602
0.16879667 0.65335895 0.01907592
0.19949174 0.65379160 0.01948521
0.23018643 0.65422364 0.01989366
0.26088047 0.65465482 0.02030105
0.29157358 0.65508490 0.02070715
0.32226550 0.65551362 0.02111175
0.35295595 0.65594075 0.02151461
0.38364465 0.65636601 0.02191551
0.41433133 0.65678918 0.02231422
0.44501573 0.65721001 0.02271054
0.47569756 0.65762823 0.02310422
0.50637655 0.65804361 0.02349504
0.53705243 0.65845589 0.02388279
0.56772493 0.65886484 0.02426724
0.59839378 0.65927019 0.02464815
0.62905869 0.65967170 0.02502532
0.65971941 0.66006912 0.02539851
0.69037565 0.66046220 0.02576751
0.72102713 0.66085070 0.02613208
0.75167360 0.66123436 0.02649200
0.78231478 0.66161294 0.02684705
0.81295038 0.66198619 0.02719701
0.84358014 0.66235386 0.02754164
0.87420380 0.66271570 0.02788074
0.90482106 0.66307147 0.02821406
