assets/luts/DB_Sports_Arena_Clean_Rec709_100.cube
TITLE "Sports Arena Clean Rec709 100"
# Red changes fastest. Full-range normalized input.
LUT_3D_SIZE 9
DOMAIN_MIN 0 0 0
DOMAIN_MAX 1 1 1
0.00300000 0.00300000 0.00300000
0.12482472 0.00162216 0.00175941
0.24578121 0.00085768 0.00121854
0.36722618 0.00028446 0.00082263
0.48873282 0.00000000 0.00067652
0.61026194 0.00000000 0.00079532
0.73279391 0.00000000 0.00089744
0.85598398 0.00007343 0.00105648
0.97863522 0.00052389 0.00157522
0.00061463 0.12227866 0.00061463
0.12245083 0.12197321 0.00000000
0.24487521 0.12183444 0.00000000
0.36728652 0.12199511 0.00071948
0.48975720 0.12234907 0.00122586
0.61246576 0.12286343 0.00180326
0.73532425 0.12354186 0.00252925
0.85831718 0.12436884 0.00338968
0.98142970 0.12532864 0.00436970
0.00094333 0.24424766 0.00094333
0.12352823 0.24465703 0.00137306
0.24629444 0.24523855 0.00183808
0.36924397 0.24595673 0.00274365
0.49226478 0.24683593 0.00373061
0.61541579 0.24784048 0.00475328
0.73866756 0.24895612 0.00587256
0.86200390 0.25016744 0.00707640
0.98540999 0.25145870 0.00834999
0.00314329 0.36839520 0.00314329
0.12622474 0.36932046 0.00409223
0.24941481 0.37036718 0.00514932
0.37269924 0.37151947 0.00630040
0.49606282 0.37276161 0.00753254
0.61949058 0.37407807 0.00882808
0.74296792 0.37545305 0.01017292
0.86647997 0.37687082 0.01155247
0.99001191 0.37831566 0.01295191
0.00674159 0.49409454 0.00674159
0.13013018 0.49536562 0.00799768
0.25357773 0.49670521 0.00931273
0.37706943 0.49809758 0.01067192
0.50059043 0.49952702 0.01206043
0.62412594 0.50097782 0.01346344
0.74766113 0.50243424 0.01486613
0.87118117 0.50388059 0.01625367
0.99467126 0.50530113 0.01761126
0.01117482 0.62074703 0.01117482
0.13470282 0.62218606 0.01257032
0.25823993 0.62364073 0.01397493
0.38177132 0.62509530 0.01537382
0.50528217 0.62653407 0.01675217
0.62875767 0.62794132 0.01809517
0.75218299 0.62930132 0.01938799
0.87554331 0.63059836 0.02061581
0.99882382 0.63181672 0.02176382
0.01587878 0.74775426 0.01587878
0.13937848 0.74918337 0.01724598
0.26283742 0.75057524 0.01857242
0.38624080 0.75191414 0.01984330
0.50957378 0.75318436 0.02104378
0.63282155 0.75437017 0.02215905
0.75596930 0.75545587 0.02317430
0.87900219 0.75642574 0.02407469
1.00000000 0.75725729 0.03052297
0.02028928 0.87451786 0.02028928
0.14359296 0.87575917 0.02146046
0.26680603 0.87691036 0.02254103
0.38991367 0.87795570 0.02351617
0.51290107 0.87887949 0.02437107
0.63575341 0.87966600 0.02509091
0.75845586 0.88029952 0.02566086
0.88099361 0.88076432 0.02606611
1.00000000 0.88028721 0.04366512
0.02494560 1.00000000 0.02494560
0.14992300 1.00000000 0.02842737
0.27416328 1.00000000 0.03210908
0.39759343 1.00000000 0.03599159
0.52014043 1.00000000 0.04007571
0.64173129 1.00000000 0.04436224
0.76229302 1.00000000 0.04885194
0.88175264 1.00000000 0.05354555
1.00000000 0.99996284 0.05892131
0.00263658 0.00256618 0.12478117
0.12391355 0.00146956 0.12391355
0.24540333 0.00066693 0.12325180
0.36711389 0.00012694 0.12284771
0.48847649 0.00000000 0.12265820
0.61036547 0.00000000 0.12273857
0.73317575 0.00000000 0.12296965
0.85614189 0.00020637 0.12334689
0.97884731 0.00071633 0.12391981
0.00060431 0.12212596 0.12275921
0.12253479 0.12190004 0.12253479
0.24536234 0.12170236 0.12229702
0.36751804 0.12204411 0.12295537
0.48993877 0.12250319 0.12353522
0.61269632 0.12307619 0.12416631
0.73560213 0.12380684 0.12493963
0.85863733 0.12468069 0.12584233
0.98178710 0.12568202 0.12685960
0.00108479 0.24436370 0.12321818
0.12363884 0.24485485 0.12363884
0.24626412 0.24552852 0.12314279
0.36990122 0.24612780 0.12401333
0.49266834 0.24714386 0.12610131
0.61578617 0.24820747 0.12725484
0.73906765 0.24935755 0.12840515
0.86242934 0.25059778 0.12963434
0.98585575 0.25191261 0.13092825
0.00345244 0.36869483 0.12558494
0.12657170 0.36966333 0.12657170
0.24977273 0.37075543 0.12761756
0.37308481 0.37194576 0.12862845
0.49651460 0.37319881 0.13001429
0.61994387 0.37453896 0.13140970
0.74343328 0.37593052 0.13277076
0.86695374 0.37735924 0.13415874
0.99048907 0.37880970 0.13556157
0.00716063 0.49451755 0.12929313
0.13057091 0.49581366 0.13057091
0.25403510 0.49717294 0.13190258
0.37753819 0.49857976 0.13327271
0.50106596 0.50001821 0.13466711
0.62460313 0.50147258 0.13607284
0.74813479 0.50292735 0.13747228
0.87164632 0.50436669 0.13885132
0.99512286 0.50577489 0.14019536
0.01164680 0.62123300 0.13377930
0.13517955 0.62267911 0.13517955
0.25871638 0.62413550 0.13658388
0.38224246 0.62558647 0.13797746
0.50574296 0.62701630 0.13934546
0.62920308 0.62840926 0.14067308
0.75260799 0.62974965 0.14194549
0.87594288 0.63102173 0.14314788
0.99919291 0.63220980 0.14426541
0.01634674 0.74824280 0.13847924
0.13983426 0.74966102 0.13983426
0.26327599 0.75103666 0.14114349
0.38665712 0.75235400 0.14239212
0.50996283 0.75359732 0.14356533
0.63317830 0.75475090 0.14464830
0.75628870 0.75579902 0.14562620
0.87927921 0.75672597 0.14648421
1.00000000 0.75758767 0.15278467
0.02069626 0.87494854 0.14282876
0.14397083 0.87616101 0.14397083
0.26714976 0.87727802 0.14501726
0.39021823 0.87828384 0.14595323
0.51316142 0.87916277 0.14676392
0.63596452 0.87989909 0.14743452
0.75861269 0.88047707 0.14795019
0.88109114 0.88088101 0.14829614
1.00000000 0.88048488 0.16447055
0.02610565 1.00000000 0.14789721
0.15099451 1.00000000 0.15099451
0.27512981 1.00000000 0.15426743
0.39843854 1.00000000 0.15771680
0.52084769 1.00000000 0.16134345
0.64228427 1.00000000 0.16514816
0.76267528 1.00000000 0.16913172
0.88194774 1.00000000 0.17329485
1.00000000 0.99997133 0.17800677
0.00230641 0.00216760 0.24657144
0.12363742 0.00117993 0.24577006
0.24521674 0.00046162 0.24521674
0.36702086 0.00000000 0.24489217
0.48836684 0.00000000 0.24456295
0.61056008 0.00000000 0.24474391
0.73361550 0.00000000 0.24517688
0.85631876 0.00036012 0.24565626
0.97907665 0.00092775 0.24628165
0.00057022 0.12202027 0.24483570
0.12267365 0.12187530 0.24481824
0.24500489 0.12193373 0.24500489
0.36749525 0.12221222 0.24534372
0.49013241 0.12267942 0.24586623
0.61294351 0.12330729 0.24654601
0.73589492 0.12408833 0.24736492
0.85897069 0.12500724 0.24830819
0.98215600 0.12604829 0.24936100
0.00124801 0.24450043 0.24551318
0.12393838 0.24502676 0.24609328
0.24663988 0.24570719 0.24663988
0.37019612 0.24634192 0.24713081
0.49311964 0.24744215 0.24855697
0.61617004 0.24858577 0.24976649
0.73947692 0.24976939 0.25094691
0.86286224 0.25103672 0.25219974
0.98630726 0.25237332 0.25351226
0.00377528 0.36900966 0.24804028
0.12693056 0.37001951 0.24906396
0.25007386 0.37116830 0.25007386
0.37320517 0.37242566 0.25008384
0.49731572 0.37353471 0.25142783
0.62047095 0.37498661 0.25390392
0.74390273 0.37641212 0.25537140
0.86742922 0.37785017 0.25676672
0.99096623 0.37930444 0.25817123
0.00758761 0.49494965 0.25185261
0.13101786 0.49626898 0.25315036
0.25449618 0.49764639 0.25449618
0.37798736 0.49907349 0.25583219
0.50152300 0.50052487 0.25706665
0.62510013 0.50196504 0.25859982
0.74860758 0.50341838 0.26007341
0.87210743 0.50484920 0.26144492
0.99556871 0.50624326 0.26277371
0.01212095 0.62172198 0.25638595
0.13565675 0.62317334 0.25778925
0.25919159 0.62462966 0.25919159
0.38271063 0.62607521 0.26057812
0.50619889 0.62749438 0.26193340
0.62964211 0.62887124 0.26324326
0.75302498 0.63019010 0.26449470
0.87633265 0.63143541 0.26567015
0.99955050 0.63259138 0.26675550
0.01681112 0.74872823 0.26107612
0.14028476 0.75013376 0.26241726
0.26370757 0.75149136 0.26370757
0.38706475 0.75278532 0.26493225
0.51034147 0.75399993 0.26607647
0.63352292 0.75511946 0.26712542
0.75659427 0.75612819 0.26806427
0.87954070 0.75701041 0.26887820
1.00000000 0.75792301 0.27475476
0.02109391 0.87537003 0.26535891
0.14433767 0.87655184 0.26647017
0.26748075 0.87763285 0.26748075
0.39050833 0.87859735 0.26837583
0.51340561 0.87942961 0.26914061
0.63615776 0.88011392 0.26976026
0.75874995 0.88063456 0.27021995
0.88116738 0.88097581 0.27050488
1.00000000 0.88068450 0.28493113
0.02728871 1.00000000 0.27057015
0.15208627 1.00000000 0.27326636
0.27611385 1.00000000 0.27611385
0.39929842 1.00000000 0.27911346
0.52156698 1.00000000 0.28226602
0.64284652 1.00000000 0.28557231
0.76306406 1.00000000 0.28903310
0.88214663 1.00000000 0.29264914
1.00000000 0.99997877 0.29669399
0.00200544 0.00180102 0.36840294
0.12342236 0.00090663 0.36768736
0.24508256 0.00027623 0.36721506
0.36670530 0.00000000 0.36670530
0.48837142 0.00000000 0.36647791
0.61082764 0.00000000 0.36685627
0.73385973 0.00008024 0.36746223
0.85651401 0.00053405 0.36798401
0.97932266 0.00115755 0.36866016
0.00053876 0.12194607 0.36693626
0.12271515 0.12187727 0.36698018
0.24508501 0.12201954 0.36721766
0.36763351 0.12235725 0.36763351
0.49034560 0.12287472 0.36821309
0.61320675 0.12355610 0.36894175
0.73620206 0.12438572 0.36980456
0.85931669 0.12534787 0.37078669
0.98253582 0.12642684 0.37187332
0.00142875 0.24465821 0.36782625
0.12419661 0.24523717 0.36846208
0.24710309 0.24597343 0.36924768
0.37016577 0.24683917 0.37016577
0.49332446 0.24785103 0.37117293
0.61655809 0.24897766 0.37229191
0.73989477 0.25019104 0.37349727
0.86330203 0.25148366 0.37477203
0.98676394 0.25284021 0.37610144
0.00411121 0.36933907 0.37050871
0.12730323 0.37038787 0.37156840
0.25056270 0.37154672 0.37271759
0.37375730 0.37278574 0.37375730
0.49775424 0.37390514 0.37468893
0.62103906 0.37541609 0.37647639
0.74437769 0.37689651 0.37797414
0.86790585 0.37834300 0.37937584
0.99144281 0.37979926 0.38078031
0.00802193 0.49539024 0.37441943
0.13147044 0.49673097 0.37573545
0.25496114 0.49812463 0.37709454
0.37837421 0.49958330 0.37837421
0.50175066 0.50107661 0.37862933
0.62598776 0.50234767 0.38009988
0.74915031 0.50388765 0.38258327
0.87256463 0.50532732 0.38403330
0.99600824 0.50670560 0.38534574
0.01259671 0.62221333 0.37899421
0.13613384 0.62366814 0.38039884
0.25966498 0.62512257 0.38179748
0.38317452 0.62656115 0.38317452
0.50662915 0.62797548 0.38447398
0.63006376 0.62934017 0.38560740
0.75345723 0.63061972 0.38695692
0.87671364 0.63183850 0.38817947
0.99989602 0.63296083 0.38923351
0.01727136 0.74920995 0.38366886
0.14072939 0.75060097 0.38499439
0.26413158 0.75193872 0.38626408
0.38746310 0.75320750 0.38746310
0.51070911 0.75439158 0.38857660
0.63385466 0.75547534 0.38958918
0.75688546 0.75644287 0.39048662
0.87978614 0.75727845 0.39125586
1.00000000 0.75826329 0.39642518
0.02148167 0.87578171 0.38787917
0.14469289 0.87693105 0.38895789
0.26779841 0.87797425 0.38993091
0.39078341 0.87889560 0.39078341
0.51363306 0.87967938 0.39150056
0.63633255 0.88030987 0.39206755
0.75886706 0.88077135 0.39246956
0.88122176 0.88104810 0.39269176
1.00000000 0.88088604 0.40503877
0.02849479 1.00000000 0.39295593
0.15319832 1.00000000 0.39523442
0.27711543 1.00000000 0.39763986
0.40017310 1.00000000 0.40017310
0.52229832 1.00000000 0.40283494
0.64341809 1.00000000 0.40562620
0.76345942 1.00000000 0.40854762
0.88234933 1.00000000 0.41159995
1.00000000 0.99998514 0.41497485
0.00173422 0.00146670 0.49026422
0.12323542 0.00066372 0.48963292
0.24497487 0.00011941 0.48923987
0.36653046 0.00000000 0.48846693
0.48846601 0.00000000 0.48846601
0.61115394 0.00000000 0.48910917
0.73401870 0.00021435 0.48975370
0.85672707 0.00072755 0.49032957
0.97958477 0.00140510 0.49105477
0.00053106 0.12189805 0.48906106
0.12277480 0.12190272 0.48917230
0.24520693 0.12211316 0.48947193
0.36781263 0.12251367 0.48994513
0.49057708 0.12308852 0.49057708
0.61348546 0.12382201 0.49135296
0.73652295 0.12469840 0.49225795
0.85967474 0.12570198 0.49327724
0.98292599 0.12681704 0.49439599
0.00162760 0.24483610 0.49015760
0.12444617 0.24547052 0.49084367
0.24740326 0.24625785 0.49166829
0.37048412 0.24718232 0.49261676
0.49367392 0.24822829 0.49367392
0.61695761 0.24938009 0.49482510
0.74032064 0.25062187 0.49605564
0.86374812 0.25193796 0.49735062
0.98722522 0.25331265 0.49869522
0.00445966 0.36968244 0.49298966
0.12768533 0.37076875 0.49408283
0.25099939 0.37195512 0.49526487
0.37438227 0.37322487 0.49652686
0.49785230 0.37455016 0.49785230
0.62134812 0.37594764 0.49919659
0.74484868 0.37738596 0.50058250
0.86838301 0.37883710 0.50198551
0.99191824 0.38029354 0.50338824
0.00846302 0.49583870 0.49699302
0.13192809 0.49719901 0.49832559
0.25543183 0.49860651 0.49969700
0.37893431 0.50005014 0.50108920
0.50232906 0.50150000 0.50232906
0.62646487 0.50275630 0.50339955
0.74972935 0.50433024 0.50516668
0.87301941 0.50579970 0.50661587
0.99644086 0.50716130 0.50791086
0.01307348 0.62270646 0.50160348
0.13661024 0.62416290 0.50300774
0.26013598 0.62561362 0.50440098
0.38363425 0.62704334 0.50576765
0.50699442 0.62846414 0.50699442
0.63032698 0.62984565 0.50720565
0.75434936 0.63093098 0.50846148
0.87716239 0.63221130 0.51059536
1.00000000 0.63337076 0.51184551
0.01772686 0.74968735 0.50625686
0.14116759 0.75106204 0.50756509
0.26454744 0.75237813 0.50881244
0.38785158 0.75361990 0.50998408
0.51106447 0.75477190 0.51106447
0.63415516 0.75582572 0.51199999
0.75716180 0.75675596 0.51270545
0.88004258 0.75752714 0.51354227
1.00000000 0.75860846 0.51778762
0.02185894 0.87618296 0.51038894
0.14503593 0.87729802 0.51143343
0.26810218 0.87830160 0.51236718
0.39104288 0.87917799 0.51317538
0.51384320 0.87991148 0.51384320
0.63648830 0.88048634 0.51435579
0.75896327 0.88088694 0.51469778
0.88125376 0.88109738 0.51485492
1.00000000 0.88108948 0.52478538
0.02972393 1.00000000 0.51504607
0.15433070 1.00000000 0.51689022
0.27813459 1.00000000 0.51883699
0.40106261 1.00000000 0.52088723
0.52304175 1.00000000 0.52304175
0.64399899 1.00000000 0.52530134
0.76386137 1.00000000 0.52766678
0.88255589 1.00000000 0.53013881
1.00000000 0.99999042 0.53284125
0.00149219 0.00116403 0.61215469
0.12307597 0.00045065 0.61160597
0.24487842 0.00000000 0.61124012
0.36646358 0.00000000 0.61026515
0.48863217 0.00000000 0.61057314
0.61152762 0.00000000 0.61152762
0.73419660 0.00036923 0.61206410
0.85695735 0.00094001 0.61269235
0.97986238 0.00166980 0.61346488
0.00054679 0.12187559 0.61120929
0.12285617 0.12195190 0.61138617
0.24534891 0.12222865 0.61174641
0.36801018 0.12269013 0.61227518
0.49082518 0.12332062 0.61295768
0.61377907 0.12410440 0.61377907
0.73685703 0.12502575 0.61472453
0.86004426 0.12606895 0.61577926
0.98332593 0.12721829 0.61692843
0.00184414 0.24503343 0.61250664
0.12471142 0.24572155 0.61324142
0.24771219 0.24655723 0.61410969
0.37083165 0.24752476 0.61509665
0.49405498 0.24860843 0.61618748
0.61736734 0.24979250 0.61736734
0.74075393 0.25106128 0.61862143
0.86419993 0.25239903 0.61993493
0.98769051 0.25379005 0.62129301
0.00482004 0.37003917 0.61548254
0.12807750 0.37116121 0.61660750
0.25141860 0.37237794 0.61781610
0.37482853 0.37367365 0.61909355
0.49829251 0.37503256 0.62042515
0.62179573 0.37643905 0.62179573
0.74532312 0.37787743 0.62319061
0.86886015 0.37933186 0.62459515
0.99239193 0.38078667 0.62599443
0.00891029 0.49629440 0.61957279
0.13239022 0.49767249 0.62092022
0.25590393 0.49909240 0.62230143
0.37943634 0.50053843 0.62370181
0.50296858 0.50199391 0.62511317
0.62652060 0.50343100 0.62652060
0.75002338 0.50486635 0.62787185
0.87346192 0.50626861 0.62919574
0.99686600 0.50760976 0.63046849
0.01355069 0.62320074 0.62421319
0.13708537 0.62465700 0.62561537
0.26060399 0.62610220 0.62700149
0.38409156 0.62752066 0.62835674
0.50751027 0.62890131 0.62966517
0.63079719 0.63021426 0.63079719
0.75475616 0.63125972 0.63169084
0.87764354 0.63254888 0.63308087
1.00000000 0.63380902 0.63429782
0.01817705 0.75015979 0.62883955
0.14159877 0.75151634 0.63012877
0.26495457 0.75280896 0.63135207
0.38822963 0.75402192 0.63249463
0.51140763 0.75513995 0.63354103
0.63438901 0.75617513 0.63438901
0.75736051 0.75709709 0.63423918
0.88083255 0.75764894 0.63494466
1.00000000 0.75895744 0.63882532
0.02222515 0.87657316 0.63288765
0.14536620 0.87765213 0.63389620
0.26839147 0.87861428 0.63478897
0.39128616 0.87944390 0.63555116
0.51403543 0.88012527 0.63616793
0.63662378 0.88064294 0.63662378
0.75902243 0.88098850 0.63686726
0.88127187 0.88113655 0.63681551
1.00000000 0.88129471 0.64415935
0.03097617 1.00000000 0.63683208
0.15548342 1.00000000 0.63822526
0.27917136 1.00000000 0.63969674
0.40196699 1.00000000 0.64124736
0.52379729 1.00000000 0.64287794
0.64458927 1.00000000 0.64458927
0.76426994 1.00000000 0.64638212
0.88276631 1.00000000 0.64825723
1.00000000 0.99999457 0.65028507
0.00127877 0.00089238 0.73407377
0.12294340 0.00026680 0.73360590
0.24468862 0.00000000 0.73270326
0.36648074 0.00000000 0.73216202
0.48885563 0.00000000 0.73283297
0.61173553 0.00008711 0.73386803
0.73439286 0.00054426 0.73439286
0.85720427 0.00117080 0.73507177
0.98015493 0.00195102 0.73588993
0.00058538 0.12187805 0.73338038
0.12295869 0.12202419 0.73362119
0.24551033 0.12236544 0.73404033
0.36822547 0.12288608 0.73462297
0.49108929 0.12357039 0.73535429
0.61408698 0.12440265 0.73621948
0.73720371 0.12536715 0.73720371
0.86042467 0.12644816 0.73829217
0.98373504 0.12762997 0.73947004
0.00207778 0.24524959 0.73487278
0.12499206 0.24598959 0.73565456
0.24803480 0.24687181 0.73656480
0.37119120 0.24788054 0.73758870
0.49444642 0.24900007 0.73871142
0.61778566 0.25021468 0.73991816
0.74119408 0.25150864 0.74119408
0.86465688 0.25286624 0.74252438
0.98815923 0.25427177 0.74389423
0.00519178 0.37040862 0.73798678
0.12847931 0.37156459 0.73914181
0.25184545 0.37280990 0.74037545
0.37527538 0.37412885 0.74167288
0.49875429 0.37550572 0.74301930
0.62226736 0.37692479 0.74439986
0.74579977 0.37837034 0.74579977
0.86933669 0.37982666 0.74720419
0.99286330 0.38127802 0.74859830
0.00936317 0.49675674 0.74215817
0.13285624 0.49815080 0.74351874
0.25637806 0.49958133 0.74490806
0.37991382 0.50103262 0.74631132
0.50344870 0.50248895 0.74771373
0.62696794 0.50393456 0.74910058
0.75045670 0.50535380 0.75045670
0.87389991 0.50673102 0.75176740
0.99728306 0.50805035 0.75301806
0.01402776 0.62369556 0.74682276
0.13755865 0.62514983 0.74822115
0.26106844 0.62658769 0.74959844
0.38454231 0.62799345 0.75093982
0.50796519 0.62935140 0.75223067
0.63131940 0.63064486 0.75346399
0.75462678 0.63184600 0.75462678
0.87780742 0.63297147 0.75565589
1.00000000 0.63425527 0.75648015
0.01862134 0.75062668 0.75141634
0.14202234 0.75196328 0.75268484
0.26535238 0.75323061 0.75388238
0.38859666 0.75441294 0.75499416
0.51174020 0.75549460 0.75600537
0.63474764 0.75646452 0.75690254
0.75760371 0.75729281 0.75760371
0.88105628 0.75777968 0.75799096
1.00000000 0.75931006 0.75954179
0.02257972 0.87695171 0.75537472
0.14568311 0.87799276 0.75634561
0.26866570 0.87891167 0.75719570
0.39151266 0.87969271 0.75791016
0.51420918 0.88032016 0.75847418
0.63673903 0.88077876 0.75887242
0.75901248 0.88108056 0.75901248
0.88127764 0.88119522 0.75815631
1.00000000 0.88149818 0.76311111
0.03225154 1.00000000 0.75830547
0.15665653 1.00000000 0.75923107
0.28022578 1.00000000 0.76021064
0.40288626 1.00000000 0.76124503
0.52456499 1.00000000 0.76233506
0.64518895 1.00000000 0.76348151
0.76468516 1.00000000 0.76468516
0.88298053 1.00000000 0.76594664
1.00000000 0.99999765 0.76729711
0.00109337 0.00065115 0.85602087
0.12283716 0.00011154 0.85563216
0.24459056 0.00000000 0.85425865
0.36656406 0.00000000 0.85420178
0.48912514 0.00000000 0.85527020
0.61189556 0.00022239 0.85616056
0.73460688 0.00073883 0.85673938
0.85746725 0.00141932 0.85746725
0.98046184 0.00224815 0.85832934
0.00064624 0.12190483 0.85557374
0.12308178 0.12211899 0.85587678
0.24569060 0.12252293 0.85635310
0.36845790 0.12310091 0.85698790
0.49136884 0.12383723 0.85776634
0.61440862 0.12471616 0.85867362
0.73756242 0.12572198 0.85969492
0.86081540 0.12683899 0.86081540
0.98415276 0.12805146 0.86202026
0.00232795 0.24548397 0.85725545
0.12528752 0.24627403 0.85808252
0.24837052 0.24720098 0.85903302
0.37156214 0.24824910 0.86009214
0.49484756 0.24940268 0.86124506
0.61821195 0.25064600 0.86247695
0.74164050 0.25196334 0.86377300
0.86511840 0.25333898 0.86511840
0.98863080 0.25475720 0.86649830
0.00557430 0.37079020 0.86050180
0.12889018 0.37197827 0.86168518
0.25227965 0.37325035 0.86294215
0.37572788 0.37459074 0.86425788
0.49922005 0.37598370 0.86561755
0.62274135 0.37741353 0.86700635
0.74627695 0.37886450 0.86840945
0.86981203 0.38032089 0.86981203
0.99333178 0.38176700 0.87119928
0.00982108 0.49722511 0.86474858
0.13332557 0.49863331 0.86612057
0.25685379 0.50007265 0.86751629
0.38039092 0.50152742 0.86892092
0.50392213 0.50298189 0.87031963
0.62743262 0.50442034 0.87169762
0.75090755 0.50582707 0.87304005
0.87433211 0.50718634 0.87433211
0.99769148 0.50848245 0.87555898
0.01450411 0.62419030 0.86943161
0.13802949 0.62564076 0.87082449
0.26152875 0.62706948 0.87219125
0.38498705 0.62846075 0.87351705
0.50838960 0.62979885 0.87478710
0.63172155 0.63106806 0.87598658
0.75496817 0.63225261 0.87710081
0.87811458 0.63333687 0.87811458
1.00000000 0.63470931 0.87838350
0.01905917 0.75108739 0.87398667
0.14243773 0.75240222 0.87523273
0.26574031 0.75364245 0.87640281
0.38895209 0.75479235 0.87748209
0.51205825 0.75583619 0.87845575
0.63504373 0.75675831 0.87930920
0.75789211 0.75754200 0.88003669
0.88062695 0.75815944 0.88062695
1.00000000 0.75967265 0.87994790
0.02292207 0.87731798 0.87784957
0.14598609 0.87831931 0.87878109
0.26892428 0.87919316 0.87958678
0.39172182 0.87992380 0.88025182
0.51436388 0.88049552 0.88076138
0.63683550 0.88089264 0.88110067
0.75910347 0.88110408 0.88125837
0.88119064 0.88109996 0.88119064
1.00000000 0.88170489 0.88175063
0.03355007 1.00000000 0.87945776
0.15785005 1.00000000 0.87989916
0.28129786 1.00000000 0.88037021
0.40382046 1.00000000 0.88087175
0.52534487 1.00000000 0.88140462
0.64579807 1.00000000 0.88196959
0.76510707 1.00000000 0.88256743
0.88319858 1.00000000 0.88319858
1.00000000 0.99999960 0.88386966
0.00093542 0.00043971 0.97799542
0.12275241 0.00000000 0.97754084
0.24456281 0.00000000 0.97596106
0.36669992 0.00000000 0.97641616
0.48943176 0.00000000 0.97790282
0.61207450 0.00037841 0.97847200
0.73483810 0.00095232 0.97910310
0.85774571 0.00168495 0.97987821
0.98078251 0.00256058 0.98078251
0.00072880 0.12195530 0.97778880
0.12322485 0.12223568 0.97815235
0.24588915 0.12270048 0.97868415
0.36870689 0.12333400 0.97936939
0.49166326 0.12412051 0.98019326
0.61474342 0.12504430 0.98114092
0.73793256 0.12608964 0.98219756
0.86121586 0.12724083 0.98334836
0.98457850 0.12848214 0.98457850
0.00259407 0.24573596 0.97965407
0.12559721 0.24657426 0.98052471
0.24871877 0.24754413 0.98151377
0.37194390 0.24862983 0.98260640
0.49525780 0.24981564 0.98378780
0.61864565 0.25108586 0.98504315
0.74209262 0.25242476 0.98635762
0.86558389 0.25381663 0.98771639
0.98910465 0.25524574 0.98910465
0.00596701 0.37118328 0.98302701
0.12930955 0.37240164 0.98423705
0.25272063 0.37369868 0.98551563
0.37618545 0.37505868 0.98684795
0.49968917 0.37646593 0.98821917
0.62321699 0.37790470 0.98961449
0.74675407 0.37935927 0.99101907
0.87028561 0.38081394 0.99241811
0.99379678 0.38225297 0.99379678
0.01028344 0.49769887 0.98734344
0.13379765 0.49911941 0.98872515
0.25733055 0.50056576 0.99012555
0.38086733 0.50202218 0.99152983
0.50439317 0.50347298 0.99292317
0.62789324 0.50490242 0.99429074
0.75135273 0.50629479 0.99561773
0.87475682 0.50763438 0.99688932
0.99809068 0.50890546 0.99809068
0.01497915 0.62468434 0.99203915
0.13849732 0.62612918 0.99342482
0.26198433 0.62754695 0.99477933
0.38542536 0.62892193 0.99608786
0.50880560 0.63023839 0.99733560
0.63211021 0.63148063 0.99850771
0.75532439 0.63263292 0.99958939
0.87810714 0.63383362 1.00000000
1.00000000 0.63517111 1.00000000
0.01948994 0.75154130 0.99654994
0.14284436 0.75283256 0.99777186
0.26611776 0.75404388 0.99891276
0.38929533 0.75515952 0.99995783
0.51303294 0.75605448 1.00000000
0.63606739 0.75698565 1.00000000
0.75828661 0.75796047 1.00000000
0.87962077 0.75897807 1.00000000
1.00000000 0.76003762 1.00000000
0.02397055 0.87748910 1.00000000
0.14888690 0.87797597 1.00000000
0.27311070 0.87848376 1.00000000
0.39657220 0.87901160 1.00000000
0.51920161 0.87955860 1.00000000
0.64092907 0.88012392 1.00000000
0.76168462 0.88070673 1.00000000
0.88139790 0.88130619 1.00000000
1.00000000 0.88192119 1.00000000
0.03590930 0.99971991 1.00000000
0.15988180 0.99977922 1.00000000
0.28300539 0.99983322 1.00000000
0.40521016 0.99988106 1.00000000
0.52642616 0.99992192 1.00000000
0.64658332 0.99995500 1.00000000
0.76561152 0.99997953 1.00000000
0.88344033 0.99999481 1.00000000
1.00000000 1.00000000 1.00000000
