assets/luts/DB_Sports_Highlight_Reel_Rec709_100.cube
TITLE "Sports Highlight Reel Rec709 100"
# Red changes fastest. Full-range normalized input.
LUT_3D_SIZE 9
DOMAIN_MIN 0 0 0
DOMAIN_MAX 1 1 1
0.00000000 0.00000000 0.00000000
0.07209218 0.00000000 0.00024718
0.15306670 0.00000000 0.00063410
0.24235377 0.00000000 0.00093912
0.33944051 0.00000000 0.00116769
0.44385036 0.00000000 0.00134152
0.55508682 0.00000000 0.00145685
0.67265225 0.00000000 0.00151094
0.79604851 0.00000000 0.00150253
0.00000000 0.08212560 0.00249963
0.08515761 0.08657641 0.00000000
0.17974357 0.09024556 0.00000000
0.28187170 0.09385941 0.00000000
0.39045444 0.09720007 0.00000000
0.50499700 0.10042314 0.00000000
0.62502960 0.10353891 0.00000000
0.75005509 0.10654709 0.00000000
0.87958016 0.10944614 0.00000000
0.00000000 0.19000257 0.00418221
0.09539844 0.19828153 0.00000000
0.20148911 0.20454731 0.00000000
0.31341038 0.21062287 0.00000000
0.43074396 0.21640303 0.00000000
0.55295061 0.22188873 0.00000000
0.67953978 0.22709717 0.00000000
0.81002224 0.23202634 0.00000000
0.94391157 0.23667263 0.00000000
0.00000000 0.31801004 0.00444061
0.10544528 0.32819601 0.00000000
0.22066967 0.33614706 0.00000000
0.34064665 0.34365764 0.00000000
0.46488315 0.35072670 0.00000000
0.59288936 0.35735079 0.00000000
0.72417875 0.36352653 0.00000000
0.85826786 0.36924952 0.00000000
0.99467583 0.37451449 0.00000000
0.00000000 0.46051257 0.00333704
0.11494862 0.47094229 0.00000000
0.23739817 0.47942734 0.00000000
0.36348812 0.48730398 0.00000000
0.49273232 0.49456852 0.00000000
0.62464744 0.50121643 0.00000000
0.75875274 0.50724243 0.00000000
0.89456967 0.51264055 0.00000000
1.00000000 0.52254996 0.04214084
0.00000000 0.61183937 0.00115679
0.12355994 0.62099211 0.00000000
0.25130076 0.62890863 0.00000000
0.38157983 0.63604582 0.00000000
0.51391679 0.64239825 0.00000000
0.64783341 0.64795988 0.00000000
0.78285331 0.65272412 0.00000000
0.91850160 0.65668393 0.00000000
1.00000000 0.66532305 0.10551118
0.00158925 0.76566385 0.00000000
0.13076062 0.77285749 0.00000000
0.26185504 0.77910430 0.00000000
0.39439491 0.78439806 0.00000000
0.52790436 0.78873201 0.00000000
0.66190895 0.79209898 0.00000000
0.79593539 0.79449147 0.00000000
0.92951122 0.79590173 0.00000000
1.00000000 0.79609436 0.18530267
0.00423985 0.91648733 0.00000000
0.13592118 0.92108340 0.00000000
0.26843746 0.92455754 0.00000000
0.40131499 0.92690235 0.00000000
0.53408110 0.92811013 0.00000000
0.66626389 0.92817297 0.00000000
0.79739190 0.92708280 0.00000000
0.92699385 0.92483152 0.00000000
1.00000000 0.90923925 0.28134178
0.15480026 1.00000000 0.14989787
0.28186420 1.00000000 0.17406809
0.40383684 1.00000000 0.19963636
0.52021917 1.00000000 0.22660404
0.63051261 1.00000000 0.25497117
0.73421907 1.00000000 0.28473639
0.83084096 1.00000000 0.31589682
0.91988124 1.00000000 0.34844798
1.00000000 0.99917226 0.39306681
0.00000000 0.00016728 0.06760125
0.07348108 0.00000000 0.07459941
0.15583530 0.00000000 0.07925194
0.24639834 0.00000000 0.08369124
0.34466853 0.00000000 0.08790347
0.45015069 0.00000000 0.09189115
0.56234761 0.00000000 0.09565110
0.68076139 0.00000000 0.09918139
0.80489362 0.00000000 0.10248152
0.00000000 0.08366989 0.08473972
0.08526469 0.08812967 0.08985775
0.21503732 0.08247817 0.08397967
0.35324212 0.07655934 0.07866864
0.49158444 0.07211690 0.07427428
0.62982841 0.06914397 0.07116136
0.76917046 0.06721962 0.06902486
0.90952715 0.06623172 0.06776224
1.00000000 0.07979484 0.08091748
0.00000000 0.19252765 0.09914113
0.06718477 0.21190108 0.07336040
0.20557493 0.20844415 0.07493492
0.34100821 0.20814465 0.07342533
0.48510877 0.20741818 0.06792599
0.62723589 0.20745522 0.06727684
0.76954870 0.20826284 0.06769200
0.91249222 0.20965477 0.06865824
1.00000000 0.22555914 0.09583411
0.00000000 0.32113301 0.11037282
0.06195516 0.34853944 0.06734095
0.20389990 0.34885135 0.06757181
0.34628317 0.34977593 0.06903419
0.48929005 0.35151642 0.06955352
0.63311217 0.35355512 0.07069938
0.77712281 0.35590806 0.07256174
0.92137883 0.35849210 0.07466083
1.00000000 0.37598130 0.12417293
0.00000000 0.46384893 0.11840730
0.06656094 0.49347526 0.06965120
0.21033794 0.49562788 0.07133647
0.35444423 0.49807672 0.07330918
0.49876413 0.50071836 0.07546916
0.64318949 0.50344841 0.07770884
0.78760582 0.50615968 0.07994707
0.93189988 0.50874812 0.08208310
1.00000000 0.52536348 0.16648539
0.00000000 0.61500689 0.12350924
0.07616485 0.64295847 0.07627371
0.22059955 0.64569313 0.07852871
0.36498408 0.64837177 0.08074179
0.50920583 0.65088946 0.08281612
0.65315218 0.65314124 0.08465485
0.79671053 0.65502215 0.08616114
0.93976826 0.65642725 0.08723815
1.00000000 0.66802386 0.22316446
0.00000000 0.76891566 0.12616472
0.08647528 0.79299556 0.08351790
0.23029341 0.79512446 0.08524682
0.37368254 0.79684430 0.08660803
0.51653005 0.79805012 0.08750471
0.65872336 0.79863696 0.08784000
0.80014983 0.79849987 0.08751707
0.94069688 0.79753392 0.08643907
1.00000000 0.79830477 0.29436388
0.00000000 0.91986967 0.12700202
0.09320514 0.93959094 0.08769686
0.23513230 0.93992638 0.08780373
0.37625164 0.93949968 0.08721711
0.51645056 0.93820590 0.08584017
0.65561643 0.93594008 0.08357605
0.79363666 0.93259728 0.08032793
0.93039863 0.92807254 0.07599894
1.00000000 0.91058039 0.37992168
0.16289807 1.00000000 0.26275860
0.28933232 1.00000000 0.28433110
0.41056219 1.00000000 0.30713609
0.52608888 1.00000000 0.33117429
0.63541403 1.00000000 0.35644506
0.73803981 1.00000000 0.38294631
0.83346890 1.00000000 0.41067439
0.92120452 1.00000000 0.43962401
1.00000000 0.99926396 0.47928914
0.00000000 0.00033505 0.13830009
0.07480746 0.00000000 0.15186894
0.15855130 0.00000000 0.16072298
0.25038924 0.00000000 0.16919342
0.34982473 0.00000000 0.17727416
0.45636065 0.00000000 0.18496099
0.56949935 0.00000000 0.19225125
0.68874267 0.00000000 0.19914379
0.81359196 0.00000000 0.20563884
0.00000000 0.08519059 0.16967789
0.08229517 0.08586520 0.22915742
0.21674962 0.07968986 0.22277707
0.35287131 0.07474185 0.21806310
0.49044123 0.07098159 0.21434657
0.62905969 0.06837893 0.21158178
0.76875895 0.06678437 0.20975293
0.90943460 0.06609061 0.20876505
1.00000000 0.08082528 0.21367187
0.00000000 0.19500936 0.19649618
0.06573892 0.21111435 0.21316569
0.20500399 0.20859009 0.21014926
0.34052974 0.20825882 0.20936442
0.48425053 0.20757954 0.20881774
0.62749174 0.20766351 0.20860431
0.77005812 0.20867539 0.20921354
0.91319201 0.21024156 0.21034387
1.00000000 0.22758679 0.22725941
0.00000000 0.32419195 0.21833121
0.06207555 0.34858848 0.20852125
0.20467850 0.34892383 0.20911172
0.34667732 0.34900702 0.21445808
0.48574585 0.35208505 0.21607976
0.63340771 0.35439052 0.21298911
0.77811511 0.35676589 0.21450765
0.92243816 0.35940343 0.21665709
1.00000000 0.37863093 0.25234399
0.00000000 0.46710172 0.23512770
0.06737526 0.49416649 0.21143563
0.21128055 0.49642964 0.21323186
0.35555451 0.49888010 0.21549762
0.49969403 0.50143992 0.21856890
0.64403836 0.50435071 0.22016979
0.78864627 0.50705839 0.22195407
0.93288592 0.50958063 0.22401784
1.00000000 0.52825898 0.28948572
0.00000000 0.61807195 0.24712944
0.07724503 0.64388694 0.21828821
0.22167532 0.64661434 0.22053983
0.36601729 0.64925004 0.22271682
0.51015867 0.65168826 0.22472588
0.65398404 0.65382565 0.22646667
0.79738566 0.65555785 0.22783127
0.94024831 0.65677758 0.22873910
1.00000000 0.67078811 0.33908754
0.00000000 0.77141333 0.25480335
0.08738855 0.79375790 0.22539027
0.23107361 0.79575966 0.22700517
0.37429143 0.79731670 0.22821949
0.51692941 0.79832407 0.22893638
0.65887492 0.79867684 0.22905900
0.80001536 0.79827003 0.22849050
0.94023813 0.79699871 0.22713404
1.00000000 0.80055952 0.40131443
0.00000000 0.92142214 0.25875947
0.09351870 0.93978381 0.22905491
0.23518416 0.93987219 0.22893713
0.37600354 0.93916279 0.22809297
0.51586426 0.93755067 0.22642560
0.65465369 0.93493087 0.22383817
0.79225924 0.93119845 0.22023383
0.92856828 0.92624844 0.21551576
1.00000000 0.91194613 0.47601698
0.17114273 1.00000000 0.37373092
0.29692802 1.00000000 0.39259313
0.41739595 1.00000000 0.41252200
0.53204791 1.00000000 0.43351758
0.64038582 1.00000000 0.45557853
0.74191207 1.00000000 0.47870202
0.83612961 1.00000000 0.50288360
0.92254198 1.00000000 0.52811714
1.00000000 0.99935977 0.56266040
0.00000000 0.00050103 0.21205902
0.07611692 0.00000000 0.23204315
0.16123052 0.00000000 0.24499228
0.25432696 0.00000000 0.25738670
0.35490941 0.00000000 0.26922134
0.46248048 0.00000000 0.28049281
0.57654223 0.00000000 0.29119923
0.69659625 0.00000000 0.30134020
0.82214364 0.00000000 0.31091670
0.00000000 0.08668587 0.25730856
0.07987690 0.08358790 0.36825753
0.21504100 0.07780116 0.36252285
0.35159370 0.07329925 0.35798556
0.48942382 0.06997689 0.35454763
0.62841659 0.06772988 0.35211038
0.76846004 0.06645301 0.35057798
0.90944168 0.06604129 0.34985367
1.00000000 0.08199132 0.34620202
0.00000000 0.19744687 0.29619020
0.06472490 0.21028951 0.35354741
0.20412619 0.20840518 0.35136360
0.34429990 0.20751395 0.34991505
0.48562822 0.20738111 0.34968536
0.62787614 0.20793706 0.34999169
0.77063652 0.20915111 0.35079448
0.91394773 0.21087942 0.35207775
1.00000000 0.22973251 0.35806465
0.00000000 0.32718676 0.32825921
0.06227304 0.34872546 0.34977894
0.20473174 0.34950968 0.35016606
0.34765708 0.35048308 0.35067798
0.48626678 0.35318267 0.35303268
0.63340167 0.35537294 0.35471580
0.77911163 0.35765057 0.35647604
0.92350969 0.36032511 0.35866404
1.00000000 0.38138083 0.37950166
0.00000000 0.47027097 0.35344050
0.06823604 0.49489998 0.35326017
0.21225699 0.49726196 0.35515084
0.35694534 0.49955042 0.35766179
0.49984104 0.50093907 0.36491552
0.64015381 0.50506361 0.36742798
0.78903184 0.50799846 0.36439759
0.93383494 0.51038358 0.36592895
1.00000000 0.53123660 0.41108293
0.00000000 0.62103466 0.37195869
0.07832800 0.64481694 0.36030525
0.22274090 0.64752499 0.36254233
0.36703090 0.65010349 0.36467586
0.51114207 0.65237345 0.36683720
0.65455081 0.65425707 0.36938078
0.79774111 0.65600784 0.36991286
0.94063993 0.65705746 0.37019132
1.00000000 0.67361586 0.45322243
0.00000000 0.77379037 0.38426254
0.08826091 0.79448106 0.36722761
0.23179993 0.79634356 0.36871733
0.37483346 0.79772570 0.36977358
0.51724897 0.79852248 0.37029968
0.65893412 0.79862815 0.37020247
0.79977363 0.79793934 0.36938143
0.93965998 0.79635162 0.36772838
1.00000000 0.80285857 0.50609743
0.00000000 0.92283610 0.39094493
0.09374768 0.93989677 0.37034035
0.23513843 0.93972599 0.36998675
0.37564488 0.93872179 0.36887388
0.51515441 0.93677923 0.36690492
0.65355441 0.93379335 0.36398300
0.79073229 0.92965919 0.36001130
0.92657542 0.92427182 0.35489296
1.00000000 0.91333628 0.56957209
0.17953419 1.00000000 0.48275749
0.30465130 1.00000000 0.49879673
0.42433814 1.00000000 0.51573651
0.53809635 1.00000000 0.53357619
0.64542809 1.00000000 0.55231373
0.74583600 1.00000000 0.57194551
0.83882333 1.00000000 0.59246629
0.92389388 1.00000000 0.61386907
1.00000000 0.99945933 0.64312645
0.00000000 0.00066526 0.28882082
0.07741035 0.00000000 0.31508087
0.16387542 0.00000000 0.33200953
0.25821197 0.00000000 0.34821287
0.35992286 0.00000000 0.36368670
0.46851042 0.00000000 0.37842844
0.58347644 0.00000000 0.39243701
0.70432225 0.00000000 0.40571276
0.83054873 0.00000000 0.41825734
0.00000000 0.08815771 0.34758710
0.07764754 0.08147200 0.50742064
0.21329635 0.07613316 0.50210430
0.35029554 0.07204363 0.49795053
0.48853251 0.06909847 0.49486250
0.62789464 0.06719272 0.49274335
0.76826934 0.06622143 0.49149624
0.90954398 0.06607965 0.49102433
1.00000000 0.08329327 0.47844756
0.00000000 0.19984016 0.39816844
0.06397088 0.20953985 0.49398393
0.20371471 0.20798646 0.49219328
0.34442955 0.20732952 0.49123810
0.48600333 0.20746380 0.49102481
0.62832493 0.20828401 0.49145535
0.77127945 0.20968588 0.49243105
0.91475498 0.21156423 0.49385608
1.00000000 0.23199655 0.48818978
0.00000000 0.33011738 0.44010007
0.06256371 0.34893825 0.49111302
0.20512952 0.34998213 0.49175044
0.34829222 0.35156354 0.49281723
0.49167619 0.35363721 0.49417616
0.63573623 0.35599553 0.49627155
0.78017805 0.35854431 0.49845031
0.92458912 0.36125302 0.50067784
1.00000000 0.38423122 0.50558641
0.00000000 0.47335671 0.47328782
0.06913889 0.49567162 0.49512103
0.21325040 0.49812560 0.49709412
0.35767797 0.50071340 0.49920759
0.50166312 0.50291046 0.50124734
0.64082657 0.50637239 0.50468365
0.78902415 0.50902474 0.50624916
0.93472598 0.51115630 0.50781087
1.00000000 0.53429646 0.53121822
0.00000000 0.62389516 0.49793818
0.07940935 0.64574437 0.50232103
0.22379186 0.64842095 0.50453240
0.36801727 0.65093059 0.50660596
0.51229909 0.65286385 0.50890807
0.65366206 0.65336564 0.51599308
0.79277157 0.65619720 0.51719820
0.94028039 0.65732283 0.51205984
1.00000000 0.67650663 0.56551091
0.00000000 0.77604700 0.51448276
0.08908797 0.79516093 0.50902612
0.23246794 0.79687206 0.51037950
0.37530420 0.79806719 0.51126651
0.51748761 0.79863915 0.51159472
0.65895104 0.79841058 0.51150701
0.79916519 0.79731009 0.51136886
0.93869044 0.79556755 0.50869641
1.00000000 0.80520052 0.60865410
0.00000000 0.92411184 0.52349832
0.09388765 0.93992571 0.51154940
0.23499072 0.93948367 0.51094880
0.37517123 0.93817257 0.50955606
0.51431659 0.93588746 0.50727433
0.65231426 0.93252333 0.50400694
0.78905190 0.92797450 0.49966076
0.92441430 0.92213756 0.49413519
1.00000000 0.91475058 0.66053139
0.18807243 1.00000000 0.58978090
0.31250215 1.00000000 0.60288439
0.43138881 1.00000000 0.61672198
0.54423429 1.00000000 0.63129236
0.65054098 1.00000000 0.64659274
0.74981181 1.00000000 0.66261873
0.84155029 1.00000000 0.67936423
0.92526052 1.00000000 0.69682140
1.00000000 0.99956229 0.72063339
0.00000000 0.00082727 0.36853287
0.07868817 0.00000000 0.40092341
0.16648640 0.00000000 0.42171623
0.26204460 0.00000000 0.44161353
0.36486534 0.00000000 0.46061196
0.47445067 0.00000000 0.47870976
0.59030212 0.00000000 0.49590663
0.71192078 0.00000000 0.51220362
0.83880730 0.00000000 0.52760308
0.00000000 0.08960581 0.44045932
0.07558693 0.07951229 0.64672881
0.21170696 0.07460949 0.64181814
0.34913914 0.07092037 0.63803716
0.48777085 0.06833996 0.63528902
0.62748948 0.06676333 0.63347688
0.76818243 0.06608552 0.63250390
0.90973708 0.06620157 0.63227322
1.00000000 0.08473140 0.61034811
0.00000000 0.20218907 0.50237531
0.06334344 0.20890530 0.63452603
0.20342982 0.20766804 0.63303061
0.34444952 0.20729139 0.63233908
0.48628993 0.20767040 0.63235461
0.62883844 0.20870012 0.63298035
0.77198245 0.21027560 0.63411945
0.91560934 0.21229188 0.63567508
1.00000000 0.23437918 0.61757479
0.00000000 0.33298374 0.55379687
0.06293663 0.34922549 0.63251688
0.20571498 0.35046605 0.63334072
0.34904783 0.35221415 0.63464249
0.49282194 0.35436504 0.63632427
0.63692543 0.35681352 0.63829236
0.78124712 0.35945429 0.64044871
0.92567200 0.36218304 0.64269475
1.00000000 0.38718228 0.63053881
0.00000000 0.47635901 0.59461166
0.07007941 0.49647728 0.63701443
0.21427534 0.49900794 0.63906157
0.35864814 0.50169258 0.64125914
0.50307836 0.50441897 0.64343729
0.64717629 0.50714025 0.64546984
0.79148265 0.50966416 0.64773901
0.93562840 0.51188147 0.64964416
1.00000000 0.53743870 0.64983294
0.00000000 0.62665360 0.62500899
0.08048466 0.64666511 0.64433178
0.22482380 0.64929813 0.64650626
0.36896056 0.65173223 0.64850703
0.51286599 0.65380471 0.65020678
0.65546126 0.65497402 0.65166078
0.79278724 0.65695062 0.65401654
0.93944659 0.65762020 0.65330417
1.00000000 0.67945878 0.67589531
0.00000000 0.77818342 0.64540438
0.08986530 0.79579339 0.65078202
0.23307325 0.79734105 0.65198787
0.37569924 0.79833708 0.65269448
0.51763793 0.79867255 0.65280827
0.65905354 0.79794714 0.65274802
0.79673633 0.79541206 0.65737661
0.93213865 0.79460267 0.65511859
1.00000000 0.80751565 0.70886334
0.00000000 0.92524960 0.65635951
0.09393422 0.93986653 0.65267825
0.23473661 0.93914112 0.65181950
0.37457820 0.93751101 0.65013571
0.51334641 0.93487124 0.64753005
0.65093206 0.93111476 0.64391020
0.78726988 0.92607072 0.63942351
0.92184889 0.91968166 0.63443219
1.00000000 0.91616306 0.74876011
0.19675741 1.00000000 0.69474373
0.32048060 1.00000000 0.70479854
0.43854803 1.00000000 0.71542072
0.55046183 1.00000000 0.72660826
0.65572465 1.00000000 0.73835760
0.75383969 1.00000000 0.75066354
0.84431073 1.00000000 0.76351914
0.92664199 1.00000000 0.77691516
1.00000000 0.99966830 0.79512591
0.00000000 0.00098658 0.45114233
0.07995080 0.00000000 0.48951204
0.16906381 0.00000000 0.51405384
0.26582514 0.00000000 0.53753030
0.36973708 0.00000000 0.55993892
0.48030141 0.00000000 0.58127873
0.59701942 0.00000000 0.60155018
0.71939194 0.00000000 0.62075503
0.84691940 0.00000000 0.63889628
0.00000000 0.09102987 0.53587081
0.07369064 0.07770467 0.78617843
0.21026891 0.07322581 0.78166227
0.34812108 0.06992498 0.77824291
0.48713454 0.06769723 0.77582350
0.62719668 0.06643761 0.77430720
0.76819490 0.06604116 0.77359717
0.91001658 0.06640294 0.77359656
1.00000000 0.08630601 0.74184337
0.00000000 0.20449343 0.60875497
0.06283662 0.20838210 0.77517202
0.20325259 0.20744888 0.77396047
0.34456363 0.20734062 0.77351992
0.48665715 0.20795239 0.77375354
0.62942052 0.20917922 0.77456447
0.77274114 0.21091617 0.77585589
0.91650641 0.21305828 0.77753095
1.00000000 0.23688063 0.74615975
0.00000000 0.33578580 0.66929251
0.06338649 0.34958336 0.77398704
0.20636578 0.35100805 0.77498411
0.34986132 0.35290465 0.77642641
0.49376050 0.35516821 0.77821708
0.63795073 0.35769377 0.78025929
0.78231938 0.36037638 0.78245620
0.92675385 0.36311110 0.78471095
1.00000000 0.39023420 0.75429952
0.00000000 0.47927791 0.71735383
0.07105317 0.49731287 0.77893656
0.21532139 0.49990775 0.78104630
0.35972704 0.50262148 0.78327547
0.50415751 0.50534910 0.78552706
0.64849947 0.50798583 0.78770320
0.79264126 0.51042652 0.78971005
0.93647166 0.51256586 0.79144959
1.00000000 0.54066341 0.76686855
0.00000000 0.62931013 0.75311208
0.08154954 0.64757505 0.78633369
0.22583231 0.65015241 0.78846012
0.36987369 0.65249554 0.79038020
0.51356209 0.65449899 0.79199533
0.65676971 0.65605018 0.79314277
0.79909803 0.65710368 0.79370555
0.94115480 0.65746603 0.79400505
1.00000000 0.68247937 0.78432035
0.00000000 0.78019986 0.77696767
0.09058850 0.79637433 0.79249151
0.23361144 0.79774642 0.79353867
0.37601417 0.79853124 0.79405370
0.51768481 0.79862349 0.79393954
0.65858418 0.79786281 0.79308017
0.79749069 0.79577559 0.79172174
0.93072691 0.79404004 0.79073059
1.00000000 0.80981965 0.80680818
0.00000000 0.92624967 0.78946832
0.09388296 0.93971512 0.79372312
0.23437168 0.93869423 0.79259504
0.37386138 0.93673301 0.79060904
0.51223944 0.93372649 0.78766827
0.64940049 0.92956599 0.78367941
0.78552250 0.92388330 0.77907911
0.91765981 0.91620365 0.77875195
1.00000000 0.91700395 0.83335438
0.20558913 1.00000000 0.79758848
0.32858668 1.00000000 0.80448157
0.44581588 1.00000000 0.81177499
0.55677912 1.00000000 0.81946601
0.66097929 1.00000000 0.82755028
0.75791989 1.00000000 0.83602177
0.84710418 1.00000000 0.84487216
0.92801675 1.00000000 0.85406085
1.00000000 0.99978270 0.86631868
0.00000000 0.00114274 0.53659611
0.08119861 0.00000000 0.58078815
0.17160796 0.00000000 0.60896389
0.26955385 0.00000000 0.63590488
0.37453831 0.00000000 0.66160944
0.48606283 0.00000000 0.68607736
0.60362845 0.00000000 0.70930982
0.72673580 0.00000000 0.73130928
0.85488507 0.00000000 0.75207935
0.00000000 0.09242960 0.63376693
0.07195426 0.07604501 0.92576572
0.20897778 0.07197798 0.92163290
0.34723696 0.06905335 0.91856399
0.48661918 0.06716615 0.91646214
0.62701185 0.06621143 0.91523051
0.76830234 0.06608425 0.91477226
0.91037806 0.06667966 0.91499054
1.00000000 0.08801738 0.87287304
0.00000000 0.20675310 0.71725139
0.06244602 0.20796615 0.91591810
0.20317859 0.20732486 0.91497925
0.34476799 0.20747290 0.91477851
0.48710162 0.20830531 0.91521904
0.63006686 0.20971715 0.91620402
0.77355112 0.21160346 0.91763658
0.91744178 0.21385929 0.91941989
1.00000000 0.23950114 0.87388477
0.00000000 0.33852354 0.78652974
0.06390889 0.35000776 0.91551971
0.20707612 0.35160448 0.91667884
0.35072137 0.35363747 0.91825031
0.49473202 0.35600178 0.92013727
0.63899547 0.35859244 0.92224288
0.78339910 0.36130452 0.92447028
0.92783031 0.36403305 0.92672265
1.00000000 0.39338716 0.87680930
0.00000000 0.48211352 0.84145606
0.07205577 0.49817426 0.92088363
0.21638329 0.50082128 0.92304479
0.36081000 0.50355150 0.92529250
0.50522329 0.50625996 0.92752991
0.64951055 0.50884173 0.92966018
0.79355918 0.51119185 0.93158646
0.93725656 0.51320536 0.93321192
1.00000000 0.54397068 0.88226665
0.00000000 0.63186491 0.88218831
0.08259956 0.64847008 0.92832296
0.22681298 0.65097967 0.93039018
0.37074677 0.65321939 0.93221816
0.51428832 0.65508430 0.93371005
0.65732501 0.65646944 0.93476884
0.79974344 0.65727004 0.93529674
0.94143213 0.65738095 0.93519974
1.00000000 0.68556222 0.89072558
0.00000000 0.78209656 0.90911284
0.09125316 0.79689964 0.93415079
0.23407810 0.79808406 0.93502810
0.37624459 0.79864556 0.93534038
0.51764002 0.79847919 0.93499078
0.65815268 0.79747951 0.93388083
0.79765137 0.79553587 0.93185266
0.93573923 0.79260811 0.92879274
1.00000000 0.81246915 0.90243001
0.00000000 0.92711232 0.92276453
0.09372946 0.93946735 0.93468022
0.23389154 0.93813889 0.93327164
0.37301635 0.93583445 0.93097225
0.51099126 0.93244907 0.92768521
0.64770443 0.92787749 0.92331348
0.78312091 0.92196688 0.91774430
0.91619054 0.91441698 0.91123367
1.00000000 0.91835137 0.91701212
0.21456761 1.00000000 0.89825763
0.33682045 1.00000000 0.90187581
0.45319247 1.00000000 0.90572699
0.56318629 1.00000000 0.90980766
0.66630510 1.00000000 0.91411267
0.76205267 1.00000000 0.91863517
0.84993174 1.00000000 0.92336605
0.92935167 1.00000000 0.92822879
1.00000000 0.99992011 0.93360241
0.00000000 0.00129534 0.62484088
0.08243197 0.00000000 0.67469316
0.17411917 0.00000000 0.70638800
0.27323100 0.00000000 0.73667906
0.37926921 0.00000000 0.76556544
0.49173505 0.00000000 0.79304772
0.61012932 0.00000000 0.81912776
0.73395241 0.00000000 0.84380869
0.86270431 0.00000000 0.86709475
0.00000000 0.09380473 0.73409282
0.07569742 0.07955754 1.00000000
0.20531161 0.07784159 1.00000000
0.33636327 0.07726511 1.00000000
0.46838060 0.07782015 1.00000000
0.60089113 0.07949895 1.00000000
0.73342139 0.08229404 1.00000000
0.86549664 0.08619837 1.00000000
0.99664055 0.09120530 1.00000000
0.00000000 0.20896794 0.82780835
0.07435921 0.20975917 1.00000000
0.20779191 0.21158954 1.00000000
0.34158536 0.21438089 1.00000000
0.47526530 0.21812598 1.00000000
0.60835614 0.22281801 1.00000000
0.74038056 0.22845064 1.00000000
0.87085929 0.23501815 1.00000000
0.99931079 0.24251549 1.00000000
0.00000000 0.34119696 0.90545114
0.08651873 0.34971454 1.00000000
0.22186957 0.35397894 1.00000000
0.35649819 0.35902769 1.00000000
0.48992664 0.36485465 1.00000000
0.62167488 0.37145432 1.00000000
0.75126047 0.37882190 1.00000000
0.87819830 0.38695341 1.00000000
1.00000000 0.39664132 0.99800903
0.00000000 0.48486591 0.96685990
0.11160591 0.49395094 1.00000000
0.24696871 0.49953883 1.00000000
0.38051940 0.50573648 1.00000000
0.51177501 0.51253926 1.00000000
0.64024975 0.51994337 1.00000000
0.76545468 0.52794595 1.00000000
0.88689743 0.53654516 1.00000000
1.00000000 0.54736059 0.99596898
0.01321476 0.63161933 1.00000000
0.14911096 0.63697777 1.00000000
0.28258363 0.64277737 1.00000000
0.41314666 0.64901443 1.00000000
0.54031069 0.65568620 1.00000000
0.66358279 0.66279102 1.00000000
0.78246610 0.67032838 1.00000000
0.89645947 0.67829904 1.00000000
1.00000000 0.68870765 0.99505501
0.06544254 0.76863805 1.00000000
0.19865986 0.77326405 1.00000000
0.32835476 0.77815930 1.00000000
0.45403412 0.78332218 1.00000000
0.57520077 0.78875228 1.00000000
0.69135317 0.79445048 1.00000000
0.80198497 0.80041909 1.00000000
0.90658457 0.80666184 1.00000000
1.00000000 0.81501452 0.99552120
0.13140984 0.89444720 1.00000000
0.26009379 0.89721483 1.00000000
0.38414883 0.90008206 1.00000000
0.50307338 0.90304979 1.00000000
0.61636098 0.90612038 1.00000000
0.72349989 0.90929774 1.00000000
0.82397242 0.91258728 1.00000000
0.91724330 0.91598879 1.00000000
1.00000000 0.92059904 0.99735252
0.22369288 1.00000000 0.99669357
0.34518199 1.00000000 0.99692356
0.46067790 1.00000000 0.99721887
0.56968351 1.00000000 0.99757520
0.67170229 1.00000000 0.99798662
0.76623829 1.00000000 0.99844540
0.85279605 1.00000000 0.99894196
0.93085973 1.00000000 0.99946805
1.00000000 1.00000000 1.00000000
