assets/luts/DB_Studio_Neutral_Rec709_100.cube
TITLE "Studio Neutral Rec709 100"
# Red changes fastest. Full-range normalized input.
LUT_3D_SIZE 33
DOMAIN_MIN 0 0 0
DOMAIN_MAX 1 1 1
0.00000000 0.00000000 0.00000000
0.02879961 0.00000000 0.00000000
0.05769755 0.00000000 0.00000000
0.08669249 0.00000000 0.00000000
0.11578313 0.00000000 0.00000000
0.14496812 0.00000000 0.00000000
0.17424614 0.00000000 0.00000000
0.20361588 0.00000000 0.00000000
0.23307600 0.00000000 0.00000000
0.26262519 0.00000000 0.00000000
0.29226212 0.00000000 0.00000000
0.32198546 0.00000000 0.00000000
0.35179389 0.00000000 0.00000000
0.38168608 0.00000000 0.00000000
0.41166072 0.00000000 0.00000000
0.44171648 0.00000000 0.00000000
0.47185202 0.00000000 0.00000000
0.50206604 0.00000000 0.00000000
0.53235721 0.00000000 0.00000000
0.56272419 0.00000000 0.00000000
0.59316567 0.00000000 0.00000000
0.62368033 0.00000000 0.00000000
0.65426683 0.00000000 0.00000000
0.68492386 0.00000000 0.00000000
0.71565008 0.00000000 0.00000000
0.74644419 0.00000000 0.00000000
0.77730484 0.00000000 0.00000000
0.80823072 0.00000000 0.00000000
0.83922051 0.00000000 0.00000000
0.87027287 0.00000000 0.00000000
0.90138649 0.00000000 0.00000000
0.93256004 0.00000000 0.00000000
0.96379220 0.00000000 0.00000000
0.00000000 0.02891513 0.00000000
0.02896325 0.02896325 0.00000000
0.05802186 0.02901093 0.00000000
0.08717451 0.02905817 0.00000000
0.11641988 0.02910497 0.00000000
0.14575663 0.02915133 0.00000000
0.17518345 0.02919724 0.00000000
0.20469901 0.02924272 0.00000000
0.23430199 0.02928775 0.00000000
0.26399106 0.02933234 0.00000000
0.29376490 0.02937649 0.00000000
0.32362219 0.02942020 0.00000000
0.35356159 0.02946347 0.00000000
0.38358179 0.02950629 0.00000000
0.41368147 0.02954868 0.00000000
0.44385929 0.02959062 0.00000000
0.47411393 0.02963212 0.00000000
0.50444408 0.02967318 0.00000000
0.53484840 0.02971380 0.00000000
0.56532557 0.02975398 0.00000000
0.59587427 0.02979371 0.00000000
0.62649317 0.02983301 0.00000000
0.65718095 0.02987186 0.00000000
0.68793629 0.02991027 0.00000000
0.71875785 0.02994824 0.00000000
0.74964432 0.02998577 0.00000000
0.78059438 0.03002286 0.00000000
0.81160669 0.03005951 0.00000000
0.84267993 0.03009571 0.00000000
0.87381278 0.03013148 0.00000000
0.90500392 0.03016680 0.00000000
0.93625202 0.03020168 0.00000000
0.96755576 0.03023612 0.00000000
0.00000000 0.05815052 0.00000000
0.02912190 0.05824379 0.00000000
0.05833619 0.05833619 0.00000000
0.08764155 0.05842770 0.00000000
0.11703665 0.05851832 0.00000000
0.14652017 0.05860807 0.00000000
0.17609079 0.05869693 0.00000000
0.20574718 0.05878491 0.00000000
0.23548802 0.05887200 0.00000000
0.26531198 0.05895822 0.00000000
0.29521774 0.05904355 0.00000000
0.32520397 0.05912799 0.00000000
0.35526936 0.05921156 0.00000000
0.38541257 0.05929424 0.00000000
0.41563228 0.05937604 0.00000000
0.44592717 0.05945696 0.00000000
0.47629592 0.05953699 0.00000000
0.50673720 0.05961614 0.00000000
0.53724968 0.05969441 0.00000000
0.56783204 0.05977179 0.00000000
0.59848296 0.05984830 0.00000000
0.62920112 0.05992392 0.00000000
0.65998518 0.05999865 0.00000000
0.69083383 0.06007251 0.00000000
0.72174573 0.06014548 0.00000000
0.75271958 0.06021757 0.00000000
0.78375403 0.06028877 0.00000000
0.81484778 0.06035909 0.00000000
0.84599949 0.06042853 0.00000000
0.87720783 0.06049709 0.00000000
0.90847150 0.06056477 0.00000000
0.93978915 0.06063156 0.00000000
0.97115947 0.06069747 0.00000000
0.00000000 0.08769119 0.00000000
0.02927555 0.08782665 0.00000000
0.05864052 0.08796078 0.00000000
0.08809359 0.08809359 0.00000000
0.11763344 0.08822508 0.00000000
0.14725873 0.08835524 0.00000000
0.17696815 0.08848408 0.00000000
0.20676038 0.08861159 0.00000000
0.23663408 0.08873778 0.00000000
0.26658793 0.08886264 0.00000000
0.29662062 0.08898619 0.00000000
0.32673081 0.08910840 0.00000000
0.35691718 0.08922929 0.00000000
0.38717840 0.08934886 0.00000000
0.41751316 0.08946711 0.00000000
0.44792013 0.08958403 0.00000000
0.47839798 0.08969962 0.00000000
0.50894539 0.08981389 0.00000000
0.53956104 0.08992684 0.00000000
0.57024360 0.09003846 0.00000000
0.60099175 0.09014876 0.00000000
0.63180416 0.09025774 0.00000000
0.66267951 0.09036539 0.00000000
0.69361647 0.09047171 0.00000000
0.72461373 0.09057672 0.00000000
0.75566995 0.09068039 0.00000000
0.78678382 0.09078275 0.00000000
0.81795400 0.09088378 0.00000000
0.84917918 0.09098348 0.00000000
0.88045802 0.09108186 0.00000000
0.91178922 0.09117892 0.00000000
0.94317143 0.09127465 0.00000000
0.97460334 0.09136906 0.00000000
0.00000000 0.11752215 0.00000000
0.02942421 0.11769682 0.00000000
0.05893487 0.11786973 0.00000000
0.08853065 0.11804087 0.00000000
0.11821025 0.11821025 0.00000000
0.14797232 0.11837786 0.00000000
0.17781555 0.11854370 0.00000000
0.20773861 0.11870778 0.00000000
0.23774018 0.11887009 0.00000000
0.26781893 0.11903064 0.00000000
0.29797355 0.11918942 0.00000000
0.32820269 0.11934643 0.00000000
0.35850505 0.11950168 0.00000000
0.38887930 0.11965517 0.00000000
0.41932411 0.11980689 0.00000000
0.44983816 0.11995684 0.00000000
0.48042012 0.12010503 0.00000000
0.51106867 0.12025145 0.00000000
0.54178249 0.12039611 0.00000000
0.57256025 0.12053900 0.00000000
0.60340063 0.12068013 0.00000000
0.63430230 0.12081949 0.00000000
0.66526395 0.12095708 0.00000000
0.69628423 0.12109291 0.00000000
0.72736184 0.12122697 0.00000000
0.75849545 0.12135927 0.00000000
0.78968372 0.12148980 0.00000000
0.82092535 0.12161857 0.00000000
0.85221900 0.12174557 0.00000000
0.88356335 0.12187081 0.00000000
0.91495708 0.12199428 0.00000000
0.94639885 0.12211598 0.00000000
0.97788736 0.12223592 0.00000000
0.00000000 0.14762842 0.00000000
0.02956787 0.14783934 0.00000000
0.05921922 0.14804805 0.00000000
0.08895273 0.14825455 0.00000000
0.11876707 0.14845884 0.00000000
0.14866093 0.14866093 0.00000000
0.17863297 0.14886081 0.00000000
0.20868188 0.14905848 0.00000000
0.23880632 0.14925395 0.00000000
0.26900498 0.14944721 0.00000000
0.29927652 0.14963826 0.00000000
0.32961964 0.14982711 0.00000000
0.36003299 0.15001375 0.00000000
0.39051526 0.15019818 0.00000000
0.42106512 0.15038040 0.00000000
0.45168126 0.15056042 0.00000000
0.48236234 0.15073823 0.00000000
0.51310703 0.15091383 0.00000000
0.54391403 0.15108723 0.00000000
0.57478200 0.15125842 0.00000000
0.60570961 0.15142740 0.00000000
0.63669555 0.15159418 0.00000000
0.66773849 0.15175875 0.00000000
0.69883710 0.15192111 0.00000000
0.72999007 0.15208126 0.00000000
0.76119606 0.15223921 0.00000000
0.79245375 0.15239495 0.00000000
0.82376183 0.15254849 0.00000000
0.85511896 0.15269981 0.00000000
0.88652382 0.15284893 0.00000000
0.91797508 0.15299585 0.00000000
0.94940662 0.15315662 0.00003162
0.98032809 0.15345309 0.00032809
0.00000000 0.17799502 0.00000000
0.02970653 0.17823920 0.00000000
0.05949358 0.17848075 0.00000000
0.08935982 0.17871964 0.00000000
0.11930392 0.17895588 0.00000000
0.14932456 0.17918948 0.00000000
0.17942042 0.17942042 0.00000000
0.20959018 0.17964872 0.00000000
0.23983250 0.17987437 0.00000000
0.27014606 0.18009738 0.00000000
0.30052955 0.18031773 0.00000000
0.33098163 0.18053543 0.00000000
0.36150098 0.18075049 0.00000000
0.39208628 0.18096290 0.00000000
0.42273621 0.18117266 0.00000000
0.45344943 0.18137977 0.00000000
0.48422463 0.18158424 0.00000000
0.51506048 0.18178605 0.00000000
0.54595565 0.18198522 0.00000000
0.57690883 0.18218174 0.00000000
0.60791868 0.18237561 0.00000000
0.63898389 0.18256683 0.00000000
0.67010313 0.18275540 0.00000000
0.70127508 0.18294133 0.00000000
0.73249841 0.18312460 0.00000000
0.76377179 0.18330523 0.00000000
0.79509391 0.18348321 0.00000000
0.82646344 0.18365854 0.00000000
0.85763868 0.18388868 0.00013868
0.88856289 0.18418789 0.00043789
0.91949444 0.18449444 0.00074444
0.95043304 0.18480804 0.00105804
0.98137843 0.18512843 0.00137843
0.00000000 0.20860694 0.00000000
0.02984021 0.20888144 0.00000000
0.05975795 0.20915284 0.00000000
0.08975192 0.20942115 0.00000000
0.11982079 0.20968638 0.00000000
0.14996322 0.20994851 0.00000000
0.18017790 0.21020756 0.00000000
0.21046351 0.21046351 0.00000000
0.24081871 0.21071637 0.00000000
0.27124219 0.21096615 0.00000000
0.30173262 0.21121283 0.00000000
0.33228868 0.21145643 0.00000000
0.36290903 0.21169694 0.00000000
0.39359237 0.21193435 0.00000000
0.42433735 0.21216868 0.00000000
0.45514267 0.21239991 0.00000000
0.48600699 0.21262806 0.00000000
0.51692900 0.21285312 0.00000000
0.54790736 0.21307508 0.00000000
0.57894075 0.21329396 0.00000000
0.61002785 0.21350975 0.00000000
0.64116734 0.21372245 0.00000000
0.67235789 0.21393205 0.00000000
0.70359817 0.21413857 0.00000000
0.73488686 0.21434200 0.00000000
0.76587174 0.21462174 0.00024674
0.79679865 0.21492365 0.00054865
0.82773281 0.21523281 0.00085781
0.85867392 0.21554892 0.00117392
0.88962170 0.21587170 0.00149670
0.92057588 0.21620088 0.00182588
0.95153616 0.21653616 0.00216116
0.98250228 0.21687728 0.00250228
0.00000000 0.23944922 0.00000000
0.02996888 0.23975105 0.00000000
0.06001234 0.24004935 0.00000000
0.09012904 0.24034411 0.00000000
0.12031767 0.24063534 0.00000000
0.15057690 0.24092305 0.00000000
0.18090541 0.24120722 0.00000000
0.21130188 0.24148786 0.00000000
0.24176497 0.24176497 0.00000000
0.27229336 0.24203855 0.00000000
0.30288574 0.24230859 0.00000000
0.33354077 0.24257511 0.00000000
0.36425714 0.24283809 0.00000000
0.39503351 0.24309755 0.00000000
0.42586857 0.24335347 0.00000000
0.45676099 0.24360586 0.00000000
0.48770944 0.24385472 0.00000000
0.51871260 0.24410005 0.00000000
0.54976915 0.24434185 0.00000000
0.58087777 0.24458011 0.00000000
0.61203712 0.24481485 0.00000000
0.64318364 0.24505864 0.00005864
0.67410580 0.24535580 0.00035580
0.70503538 0.24566038 0.00066038
0.73597210 0.24597210 0.00097210
0.76691567 0.24629067 0.00129067
0.79786581 0.24661581 0.00161581
0.82882225 0.24694725 0.00194725
0.85978469 0.24728469 0.00228469
0.89075286 0.24762786 0.00262786
0.92172648 0.24797648 0.00297648
0.95270527 0.24833027 0.00333027
0.98368893 0.24868893 0.00368893
0.00000000 0.27050687 0.00000000
0.03009256 0.27083306 0.00000000
0.06025673 0.27115528 0.00000000
0.09049117 0.27147352 0.00000000
0.12079458 0.27178780 0.00000000
0.15116561 0.27209810 0.00000000
0.18160295 0.27240443 0.00000000
0.21210528 0.27270678 0.00000000
0.24267126 0.27300517 0.00000000
0.27329958 0.27329958 0.00000000
0.30398891 0.27359002 0.00000000
0.33473793 0.27387648 0.00000000
0.36554530 0.27415898 0.00000000
0.39640972 0.27443750 0.00000000
0.42732985 0.27471205 0.00000000
0.45830437 0.27498262 0.00000000
0.48933196 0.27524923 0.00000000
0.52041129 0.27551186 0.00000000
0.55141607 0.27579093 0.00016578
0.58234088 0.27609084 0.00046581
0.61327306 0.27639806 0.00077305
0.64421230 0.27671230 0.00108730
0.67515830 0.27703330 0.00140830
0.70611076 0.27736076 0.00173576
0.73706942 0.27769442 0.00206942
0.76803398 0.27803398 0.00240898
0.79900417 0.27837917 0.00275417
0.82997970 0.27872970 0.00310470
0.86096029 0.27908529 0.00346029
0.89194567 0.27944567 0.00382067
0.92293554 0.27981054 0.00418554
0.95392963 0.28017963 0.00455463
0.98492766 0.28055266 0.00492766
0.00000000 0.30176489 0.00000000
0.03021125 0.30211247 0.00000000
0.06049113 0.30245565 0.00000000
0.09083832 0.30279441 0.00000000
0.12125150 0.30312875 0.00000000
0.15172934 0.30345868 0.00000000
0.18227052 0.30378420 0.00000000
0.21287371 0.30410530 0.00000000
0.24353759 0.30442199 0.00000000
0.27426084 0.30473426 0.00000000
0.30504212 0.30504212 0.00000000
0.33588013 0.30534557 0.00000000
0.36677353 0.30564460 0.00000000
0.39772099 0.30593922 0.00000000
0.42872120 0.30622943 0.00000000
0.45965052 0.30652417 0.00027148
0.49057745 0.30682680 0.00057570
0.52151190 0.30713663 0.00088625
0.55245348 0.30745339 0.00120327
0.58340181 0.30777678 0.00152675
0.61435654 0.30810653 0.00185653
0.64531737 0.30844237 0.00219237
0.67628402 0.30878401 0.00253401
0.70725618 0.30913118 0.00288118
0.73823359 0.30948359 0.00323359
0.76921595 0.30984095 0.00359095
0.80020300 0.31020300 0.00395300
0.83119444 0.31056944 0.00431944
0.86219000 0.31094000 0.00469000
0.89318939 0.31131439 0.00506439
0.92419233 0.31169233 0.00544233
0.95519854 0.31207354 0.00582354
0.98620775 0.31245775 0.00620775
0.00000000 0.33320830 0.00000000
0.03032494 0.33357431 0.00000000
0.06071554 0.33393547 0.00000000
0.09117048 0.33429177 0.00000000
0.12168844 0.33464322 0.00000000
0.15226809 0.33498981 0.00000000
0.18290811 0.33533154 0.00000000
0.21360718 0.33566842 0.00000000
0.24436396 0.33600044 0.00000000
0.27517714 0.33632761 0.00000000
0.30604539 0.33664993 0.00000000
0.33696117 0.33696117 0.00007988
0.36788433 0.33725885 0.00037860
0.39881463 0.33756395 0.00068520
0.42975185 0.33787622 0.00099892
0.46069581 0.33819537 0.00131916
0.49164635 0.33852110 0.00164555
0.52260322 0.33885310 0.00197789
0.55356614 0.33919109 0.00231602
0.58453479 0.33953478 0.00265976
0.61550889 0.33988389 0.00300888
0.64648813 0.34023813 0.00336313
0.67747223 0.34059723 0.00372223
0.70846091 0.34096091 0.00408591
0.73945388 0.34132888 0.00445388
0.77045087 0.34170087 0.00482587
0.80145159 0.34207659 0.00520159
0.83245575 0.34245575 0.00558075
0.86346309 0.34283809 0.00596309
0.89447331 0.34322331 0.00634831
0.92548613 0.34361113 0.00673613
0.95650128 0.34400128 0.00712628
0.98751848 0.34439348 0.00751848
0.00000000 0.36482213 0.00000000
0.03043363 0.36520359 0.00000000
0.06092996 0.36557976 0.00000000
0.09148766 0.36595064 0.00000000
0.12210540 0.36631621 0.00000000
0.15278187 0.36667649 0.00000000
0.18351574 0.36703147 0.00000000
0.21430568 0.36738116 0.00000000
0.24519314 0.36769339 0.00019265
0.27611873 0.36799400 0.00049292
0.30705166 0.36830188 0.00080053
0.33799163 0.36861675 0.00111529
0.36893832 0.36893832 0.00143697
0.39989142 0.36926633 0.00176526
0.43085063 0.36960051 0.00209978
0.46181569 0.36994058 0.00244016
0.49278634 0.37028627 0.00278605
0.52376231 0.37063727 0.00313718
0.55474334 0.37099332 0.00349329
0.58572913 0.37135412 0.00385411
0.61671940 0.37171940 0.00421939
0.64771386 0.37208886 0.00458886
0.67871224 0.37246224 0.00496224
0.70971424 0.37283924 0.00533924
0.74071959 0.37321959 0.00571959
0.77172801 0.37360301 0.00610301
0.80273922 0.37398922 0.00648922
0.83375292 0.37437792 0.00687792
0.86476885 0.37476885 0.00726885
0.89578671 0.37516171 0.00766171
0.92680624 0.37555624 0.00805624
0.95782714 0.37595214 0.00845214
0.98884913 0.37634913 0.00884913
0.00000000 0.39659137 0.00000000
0.03053733 0.39698532 0.00000000
0.06113439 0.39737354 0.00000000
0.09178985 0.39775601 0.00000000
0.12250605 0.39813105 0.00000605
0.15342685 0.39842685 0.00030184
0.18435511 0.39873013 0.00060510
0.21529056 0.39904059 0.00091553
0.24623292 0.39935795 0.00123285
0.27718189 0.39968194 0.00155678
0.30813722 0.40001227 0.00188705
0.33909862 0.40034866 0.00222339
0.37006580 0.40069082 0.00256555
0.40103847 0.40103847 0.00291323
0.43201635 0.40139134 0.00326616
0.46299916 0.40174914 0.00362403
0.49398662 0.40211160 0.00398654
0.52497844 0.40247843 0.00435340
0.55597436 0.40284936 0.00472434
0.58697409 0.40322409 0.00509908
0.61797734 0.40360234 0.00547734
0.64898384 0.40398384 0.00585884
0.67999331 0.40436831 0.00624331
0.71100545 0.40475545 0.00663045
0.74202000 0.40514500 0.00702000
0.77303666 0.40553666 0.00741166
0.80405517 0.40593017 0.00780517
0.83507522 0.40632522 0.00820022
0.86609656 0.40672156 0.00859656
0.89711888 0.40711888 0.00899388
0.92814192 0.40751692 0.00939192
0.95916538 0.40791538 0.00979038
0.99018899 0.40831399 0.01018899
0.00000000 0.42850105 0.00000000
0.03073786 0.42886286 0.00011286
0.06166141 0.42916141 0.00041141
0.09259233 0.42946733 0.00071733
0.12353033 0.42978033 0.00103033
0.15447514 0.43010014 0.00135014
0.18542646 0.43042646 0.00167646
0.21638402 0.43075903 0.00200902
0.24734754 0.43109755 0.00234754
0.27831674 0.43144175 0.00269173
0.30929133 0.43179134 0.00304131
0.34027104 0.43214604 0.00339601
0.37125557 0.43250558 0.00375554
0.40224466 0.43286966 0.00411962
0.43323802 0.43323802 0.00448798
0.46423536 0.43361036 0.00486033
0.49523641 0.43398640 0.00523639
0.52624087 0.43436587 0.00561586
0.55724849 0.43474848 0.00599848
0.58825896 0.43513396 0.00638396
0.61927201 0.43552201 0.00677201
0.65028736 0.43591236 0.00716236
0.68130473 0.43630473 0.00755473
0.71232383 0.43669883 0.00794883
0.74334438 0.43709438 0.00834438
0.77436611 0.43749111 0.00874111
0.80538872 0.43788872 0.00913872
0.83641195 0.43828695 0.00953695
0.86743550 0.43868550 0.00993550
0.89845910 0.43908410 0.01033410
0.92948246 0.43948246 0.01073246
0.96050530 0.43988030 0.01113030
0.99152735 0.44027735 0.01152735
0.00083048 0.46020548 0.00083048
0.03177099 0.46052099 0.00114599
0.06271820 0.46084320 0.00146820
0.09367183 0.46117183 0.00179683
0.12463159 0.46150659 0.00213159
0.15559721 0.46184721 0.00247221
0.18656841 0.46219341 0.00281841
0.21754489 0.46254489 0.00316989
0.24852639 0.46290139 0.00352639
0.27951261 0.46326261 0.00388761
0.31050329 0.46362829 0.00425328
0.34149812 0.46399812 0.00462312
0.37249685 0.46437185 0.00499684
0.40349917 0.46474917 0.00537417
0.43450482 0.46512982 0.00575481
0.46551351 0.46551351 0.00613850
0.49652495 0.46589995 0.00652495
0.52753887 0.46628887 0.00691387
0.55855499 0.46667999 0.00730499
0.58957302 0.46707302 0.00769802
0.62059268 0.46746768 0.00809268
0.65161370 0.46786370 0.00848869
0.68263578 0.46826078 0.00888578
0.71365865 0.46865865 0.00928365
0.74468202 0.46905702 0.00968202
0.77570562 0.46945562 0.01008062
0.80672917 0.46985417 0.01047917
0.83775237 0.47025237 0.01087737
0.86877496 0.47064996 0.01127496
0.89979664 0.47104664 0.01167164
0.93081714 0.47144214 0.01206714
0.96183618 0.47183618 0.01246118
0.99285347 0.47222847 0.01285347
0.00191801 0.49191801 0.00191801
0.03287994 0.49225494 0.00225494
0.06384762 0.49259762 0.00259762
0.09482077 0.49294577 0.00294577
0.12579911 0.49329911 0.00329911
0.15678237 0.49365737 0.00365737
0.18777024 0.49402024 0.00402024
0.21876246 0.49438746 0.00438746
0.24975875 0.49475875 0.00475875
0.28075882 0.49513382 0.00513381
0.31176238 0.49551238 0.00551238
0.34276917 0.49589417 0.00589417
0.37377889 0.49627889 0.00627889
0.40479127 0.49666627 0.00666627
0.43580602 0.49705602 0.00705602
0.46682287 0.49744787 0.00744787
0.49784153 0.49784153 0.00784153
0.52886171 0.49823671 0.00823671
0.55988315 0.49863315 0.00863315
0.59090555 0.49903055 0.00903055
0.62192864 0.49942864 0.00942864
0.65295213 0.49982713 0.00982713
0.68397574 0.50022574 0.01022574
0.71499919 0.50062419 0.01062419
0.74602221 0.50102221 0.01102221
0.77704450 0.50141950 0.01141950
0.80806578 0.50181578 0.01181578
0.83908578 0.50221078 0.01221078
0.87010422 0.50260422 0.01260422
0.90112080 0.50299580 0.01299580
0.93213526 0.50338526 0.01338526
0.96314730 0.50377230 0.01377230
0.99415665 0.50415665 0.01415665
0.00307383 0.52369883 0.00307383
0.03405399 0.52405399 0.00342899
0.06503895 0.52441395 0.00378895
0.09602845 0.52477845 0.00415345
0.12702218 0.52514718 0.00452218
0.15801987 0.52551987 0.00489487
0.18902125 0.52589625 0.00527125
0.22002602 0.52627602 0.00565102
0.25103391 0.52665891 0.00603391
0.28204463 0.52704463 0.00641963
0.31305791 0.52743291 0.00680791
0.34407345 0.52782345 0.00719845
0.37509099 0.52821599 0.00759099
0.40611024 0.52861024 0.00798524
0.43713091 0.52900591 0.00838091
0.46815273 0.52940273 0.00877773
0.49917542 0.52980042 0.00917542
0.53019868 0.53019868 0.00957368
0.56122225 0.53059725 0.00997225
0.59224584 0.53099584 0.01037084
0.62326916 0.53139416 0.01076916
0.65429194 0.53179194 0.01116694
0.68531390 0.53218890 0.01156390
0.71633475 0.53258475 0.01195975
0.74735421 0.53297921 0.01235421
0.77837201 0.53337201 0.01274701
0.80938785 0.53376285 0.01313785
0.84040146 0.53415146 0.01352646
0.87141255 0.53453755 0.01391255
0.90242085 0.53492085 0.01429585
0.93342607 0.53530107 0.01467607
0.96442794 0.53567794 0.01505294
0.99542616 0.53605116 0.01542616
0.00428721 0.55553721 0.00428721
0.03528242 0.55590742 0.00465742
0.06628149 0.55628149 0.00503149
0.09728413 0.55665913 0.00540913
0.12829007 0.55704007 0.00579007
0.15929902 0.55742402 0.00617402
0.19031071 0.55781071 0.00656071
0.22132484 0.55819984 0.00694984
0.25234115 0.55859115 0.00734115
0.28335934 0.55898434 0.00773434
0.31437914 0.55937914 0.00812914
0.34540026 0.55977526 0.00852526
0.37642243 0.56017243 0.00892243
0.40744536 0.56057036 0.00932036
0.43846877 0.56096877 0.00971877
0.46949237 0.56136737 0.01011737
0.50051590 0.56176590 0.01051590
0.53153906 0.56216406 0.01091406
0.56256157 0.56256157 0.01131157
0.59358316 0.56295816 0.01170816
0.62460354 0.56335354 0.01210354
0.65562242 0.56374742 0.01249742
0.68663954 0.56413954 0.01288954
0.71765460 0.56452960 0.01327960
0.74866733 0.56491733 0.01366733
0.77967744 0.56530244 0.01405244
0.81068465 0.56568465 0.01443465
0.84168868 0.56606368 0.01481368
0.87268925 0.56643925 0.01518925
0.90368608 0.56681108 0.01556108
0.93467888 0.56717888 0.01592888
0.96566738 0.56754238 0.01629238
0.99665129 0.56790129 0.01665129
0.00554745 0.58742245 0.00554745
0.03655452 0.58780452 0.00592952
0.06756450 0.58818950 0.00631450
0.09857711 0.58857711 0.00670211
0.12959207 0.58896707 0.00709207
0.16060909 0.58935909 0.00748409
0.19162790 0.58975290 0.00787790
0.22264821 0.59014821 0.00827321
0.25366975 0.59054475 0.00866975
0.28469223 0.59094223 0.00906723
0.31571536 0.59134036 0.00946536
0.34673888 0.59173888 0.00986388
0.37776249 0.59213749 0.01026249
0.40878591 0.59253591 0.01066091
0.43980887 0.59293387 0.01105887
0.47083108 0.59333108 0.01145608
0.50185226 0.59372726 0.01185226
0.53287212 0.59412212 0.01224712
0.56389040 0.59451540 0.01264040
0.59490680 0.59490680 0.01303180
0.62592104 0.59529604 0.01342104
0.65693285 0.59568285 0.01380785
0.68794194 0.59606694 0.01419194
0.71894802 0.59644802 0.01457302
0.74995083 0.59682583 0.01495083
0.78095007 0.59720007 0.01532507
0.81194547 0.59757047 0.01569547
0.84293673 0.59793673 0.01606173
0.87392360 0.59829860 0.01642360
0.90490577 0.59865577 0.01678077
0.93588297 0.59900797 0.01713297
0.96685491 0.59935491 0.01747991
0.99782133 0.59969633 0.01782133
0.00684382 0.61934382 0.00684382
0.03785956 0.61973456 0.00723456
0.06887727 0.62012727 0.00762727
0.09989666 0.62052166 0.00802166
0.13091745 0.62091745 0.00841745
0.16193936 0.62131436 0.00881436
0.19296211 0.62171211 0.00921211
0.22398542 0.62211042 0.00961042
0.25500900 0.62250900 0.01000900
0.28603257 0.62290757 0.01040757
0.31705586 0.62330586 0.01080586
0.34807858 0.62370358 0.01120358
0.37910045 0.62410045 0.01160045
0.41012118 0.62449618 0.01199618
0.44114050 0.62489050 0.01239050
0.47215813 0.62528313 0.01278313
0.50317377 0.62567377 0.01317377
0.53418716 0.62606216 0.01356216
0.56519801 0.62644801 0.01394801
0.59620604 0.62683104 0.01433104
0.62721096 0.62721096 0.01471096
0.65821250 0.62758750 0.01508750
0.68921038 0.62796038 0.01546038
0.72020430 0.62832930 0.01582930
0.75119400 0.62869400 0.01619400
0.78217919 0.62905419 0.01655419
0.81315958 0.62940958 0.01690958
0.84413490 0.62975990 0.01725990
0.87510487 0.63010487 0.01760487
0.90606919 0.63044419 0.01794419
0.93702760 0.63077760 0.01827760
0.96797981 0.63110481 0.01860481
0.99892554 0.63142554 0.01892554
0.00816561 0.65129061 0.00816561
0.03918684 0.65168684 0.00856184
0.07020909 0.65208409 0.00895909
0.10123207 0.65248207 0.00935707
0.13225551 0.65288051 0.00975551
0.16327912 0.65327912 0.01015412
0.19430262 0.65367762 0.01055262
0.22532574 0.65407574 0.01095074
0.25634818 0.65447318 0.01134818
0.28736966 0.65486966 0.01174466
0.31838992 0.65526492 0.01213992
0.34940865 0.65565865 0.01253365
0.38042559 0.65605059 0.01292559
0.41144045 0.65644045 0.01331545
0.44245294 0.65682794 0.01370294
0.47346280 0.65721280 0.01408780
0.50446973 0.65759473 0.01446973
0.53547345 0.65797345 0.01484845
0.56647369 0.65834869 0.01522369
0.59747016 0.65872016 0.01559516
0.62846258 0.65908758 0.01596258
0.65945067 0.65945067 0.01632567
0.69043414 0.65980914 0.01668414
0.72141272 0.66016272 0.01703772
0.75238612 0.66051112 0.01738612
0.78335407 0.66085407 0.01772907
0.81431628 0.66119128 0.01806628
0.84527246 0.66152246 0.01839746
0.87622235 0.66184735 0.01872235
0.90716564 0.66216564 0.01904064
