assets/luts/DB_Soft_Interior_Rec709_50.cube
TITLE "Soft Interior Rec709 50"
# Red changes fastest. Full-range normalized input.
LUT_3D_SIZE 33
DOMAIN_MIN 0 0 0
DOMAIN_MAX 1 1 1
0.00300000 0.00300000 0.00300000
0.03398991 0.00359138 0.00355109
0.06508913 0.00412435 0.00404978
0.09618611 0.00463764 0.00452861
0.12712723 0.00518458 0.00503188
0.15781790 0.00579821 0.00558662
0.18828451 0.00646978 0.00618519
0.21864306 0.00715950 0.00679448
0.24901326 0.00782622 0.00738062
0.27945697 0.00844876 0.00792643
0.30997524 0.00902696 0.00843206
0.34053984 0.00957083 0.00890590
0.37112208 0.01009054 0.00935644
0.40170404 0.01059254 0.00978905
0.43227749 0.01107995 0.01020635
0.46283954 0.01155402 0.01060944
0.49338944 0.01201526 0.01099883
0.52392716 0.01246394 0.01137481
0.55445283 0.01290027 0.01173763
0.58496662 0.01332444 0.01208754
0.61546870 0.01373665 0.01242476
0.64595926 0.01413709 0.01274955
0.67643847 0.01452594 0.01306212
0.70690652 0.01490342 0.01336274
0.73736357 0.01526969 0.01365162
0.76780982 0.01562496 0.01392902
0.79824543 0.01596943 0.01419516
0.82867058 0.01630328 0.01445029
0.85908546 0.01662670 0.01469464
0.88949024 0.01693989 0.01492845
0.91988510 0.01724304 0.01515196
0.95027023 0.01753634 0.01536541
0.98064578 0.01781998 0.01556903
0.00506227 0.03530059 0.00486656
0.03590029 0.03585443 0.00526404
0.06692096 0.03632448 0.00558559
0.09807470 0.03673545 0.00588936
0.12919328 0.03715216 0.00626023
0.16008257 0.03764340 0.00675994
0.19065417 0.03823550 0.00738539
0.22097673 0.03889750 0.00807293
0.25120785 0.03956900 0.00874304
0.28148333 0.04020081 0.00934448
0.31185825 0.04077482 0.00986696
0.34232016 0.04129757 0.01032625
0.37283166 0.04178406 0.01074366
0.40336070 0.04224676 0.01113476
0.43388913 0.04269272 0.01150783
0.46440923 0.04312504 0.01186639
0.49491848 0.04354493 0.01221174
0.52541630 0.04395285 0.01254443
0.55590270 0.04434905 0.01286474
0.58637782 0.04473374 0.01317294
0.61684185 0.04510711 0.01346926
0.64729494 0.04546936 0.01375393
0.67773730 0.04582068 0.01402720
0.70816908 0.04616125 0.01428930
0.73859047 0.04649128 0.01454048
0.76900166 0.04681096 0.01478097
0.79940281 0.04712047 0.01501100
0.82979410 0.04742001 0.01523082
0.86017572 0.04770977 0.01544067
0.89054784 0.04798995 0.01564077
0.92091064 0.04826074 0.01583138
0.95126430 0.04852232 0.01601272
0.98160900 0.04877490 0.01618503
0.00704920 0.06741694 0.00662062
0.03768782 0.06795358 0.00688994
0.06849144 0.06840408 0.00703702
0.09950901 0.06876528 0.00712753
0.13065553 0.06908437 0.00728631
0.16172590 0.06944426 0.00763623
0.19252121 0.06991225 0.00821989
0.22298369 0.07049451 0.00897095
0.25321831 0.07113760 0.00976098
0.28339578 0.07177117 0.01047816
0.31364018 0.07234978 0.01107419
0.34398802 0.07286426 0.01155842
0.37441596 0.07332769 0.01196501
0.40488520 0.07375743 0.01232574
0.43536677 0.07416579 0.01266027
0.46584564 0.07455910 0.01297786
0.49631590 0.07493996 0.01328209
0.52677576 0.07530932 0.01357422
0.55722490 0.07566758 0.01385472
0.58766338 0.07601496 0.01412390
0.61809136 0.07635168 0.01438200
0.64850901 0.07667791 0.01462926
0.67891652 0.07699387 0.01486591
0.70931406 0.07729973 0.01509220
0.73970181 0.07759568 0.01530836
0.77007995 0.07788194 0.01551463
0.80044866 0.07815867 0.01571125
0.83080812 0.07842609 0.01589845
0.86115849 0.07868437 0.01607648
0.89149997 0.07893371 0.01624557
0.92183273 0.07917431 0.01640596
0.95215695 0.07940636 0.01655789
0.98247281 0.07963004 0.01670159
0.00900504 0.09935066 0.00829785
0.03950040 0.09986930 0.00851819
0.07007137 0.10032286 0.00858209
0.10082053 0.10068756 0.00852810
0.13177669 0.10097673 0.00847978
0.16283154 0.10125252 0.00860440
0.19378138 0.10159677 0.00901820
0.22446089 0.10205720 0.00970922
0.25485169 0.10261643 0.01054638
0.28507039 0.10321080 0.01136583
0.31526598 0.10377661 0.01205891
0.34552994 0.10428217 0.01260060
0.37587837 0.10472829 0.01302176
0.40628507 0.10513096 0.01336729
0.43671803 0.10550601 0.01367132
0.46715593 0.10586334 0.01395249
0.49758861 0.10620762 0.01421882
0.52801236 0.10654067 0.01447321
0.55842622 0.10686318 0.01471662
0.58883007 0.10717544 0.01494948
0.61922402 0.10747767 0.01517206
0.64960825 0.10777008 0.01538459
0.67998294 0.10805284 0.01558732
0.71034826 0.10832616 0.01578048
0.74070439 0.10859023 0.01596432
0.77105150 0.10884523 0.01613906
0.80138979 0.10909137 0.01630496
0.83171942 0.10932883 0.01646224
0.86204057 0.10955781 0.01661114
0.89235343 0.10977850 0.01675191
0.92265817 0.10999109 0.01688477
0.95295497 0.11019577 0.01700998
0.98324400 0.11039274 0.01712775
0.01087646 0.13111905 0.00985794
0.04132228 0.13160637 0.01009762
0.07176033 0.13205561 0.01019051
0.10227537 0.13244117 0.01013427
0.13295021 0.13275200 0.01000476
0.16379053 0.13301373 0.00995349
0.19468809 0.13328737 0.01013890
0.22547703 0.13363504 0.01062901
0.25604640 0.13407795 0.01135547
0.28640689 0.13458486 0.01216056
0.31665876 0.13509902 0.01289424
0.34690765 0.13557560 0.01348175
0.37720799 0.13599893 0.01392568
0.40756218 0.13637589 0.01426719
0.43794892 0.13672071 0.01454891
0.46834694 0.13704497 0.01479884
0.49874348 0.13735518 0.01503084
0.52913294 0.13765421 0.01525042
0.55951347 0.13794317 0.01545949
0.58988469 0.13822249 0.01565873
0.62024664 0.13849242 0.01584848
0.65059946 0.13875317 0.01602898
0.68094334 0.13900492 0.01620047
0.71127846 0.13924788 0.01636320
0.74160498 0.13948223 0.01651741
0.77192309 0.13970817 0.01666332
0.80223297 0.13992589 0.01680118
0.83253480 0.14013558 0.01693123
0.86282875 0.14033743 0.01705370
0.89311501 0.14053164 0.01716884
0.92339374 0.14071840 0.01727687
0.95366513 0.14089789 0.01737804
0.98392937 0.14107033 0.01747259
0.01259551 0.16274150 0.01125146
0.04304445 0.16318718 0.01152563
0.07345297 0.16361294 0.01169699
0.10385972 0.16400289 0.01174046
0.13433090 0.16434120 0.01167697
0.16492061 0.16462809 0.01159604
0.19561856 0.16489124 0.01163247
0.22633780 0.16517653 0.01189492
0.25696738 0.16551960 0.01239576
0.28744767 0.16592177 0.01304286
0.31780024 0.16635231 0.01370078
0.34809372 0.16677234 0.01426719
0.37838941 0.16715755 0.01470771
0.40871344 0.16750365 0.01504078
0.43906299 0.16781839 0.01530322
0.46942469 0.16811154 0.01552596
0.49978719 0.16838998 0.01572709
0.53014426 0.16865726 0.01591486
0.56049344 0.16891488 0.01609237
0.59083404 0.16916344 0.01626071
0.62116599 0.16940325 0.01642032
0.65148943 0.16963451 0.01657148
0.68180452 0.16985744 0.01671443
0.71211145 0.17007221 0.01684942
0.74241039 0.17027902 0.01697668
0.77270152 0.17047807 0.01709646
0.80298501 0.17066954 0.01720898
0.83326105 0.17085364 0.01731448
0.86352982 0.17103054 0.01741322
0.89379149 0.17120045 0.01750541
0.92404624 0.17136355 0.01759130
0.95429425 0.17152004 0.01767113
0.98453570 0.17167011 0.01774514
0.01414003 0.19422992 0.01246586
0.04459315 0.19463211 0.01275179
0.07501065 0.19502188 0.01298090
0.10540009 0.19539287 0.01312943
0.13579044 0.19573522 0.01318969
0.16622428 0.19604207 0.01319264
0.19672958 0.19631896 0.01321351
0.22729109 0.19658705 0.01334241
0.25785200 0.19687303 0.01363178
0.28835132 0.19719163 0.01406154
0.31876402 0.19753619 0.01455303
0.34910889 0.19788540 0.01501899
0.37942406 0.19821864 0.01540722
0.40973881 0.19852602 0.01571028
0.44006331 0.19880830 0.01594771
0.47039461 0.19907100 0.01614401
0.50072616 0.19931950 0.01631684
0.53105306 0.19955716 0.01647561
0.56137292 0.19978562 0.01662431
0.59168490 0.20000561 0.01676446
0.62198887 0.20021747 0.01689663
0.65228494 0.20042144 0.01702114
0.68257327 0.20061771 0.01713825
0.71285403 0.20080647 0.01724819
0.74312740 0.20098793 0.01735120
0.77339357 0.20116226 0.01744752
0.80365270 0.20132967 0.01753740
0.83390497 0.20149034 0.01762106
0.86415057 0.20164447 0.01769874
0.89438967 0.20179225 0.01777069
0.92462246 0.20193388 0.01783713
0.95484910 0.20206954 0.01789831
0.98506978 0.20219943 0.01795447
0.01552526 0.22559023 0.01351738
0.04596473 0.22595187 0.01378870
0.07638185 0.22630306 0.01403208
0.10677463 0.22664221 0.01423449
0.13714949 0.22696559 0.01438475
0.16752425 0.22726855 0.01448533
0.19792129 0.22754950 0.01456300
0.22835164 0.22781404 0.01466531
0.25880286 0.22807438 0.01483787
0.28924467 0.22834252 0.01509607
0.31964960 0.22862224 0.01541483
0.35000993 0.22890716 0.01574555
0.38033715 0.22918625 0.01604525
0.41064864 0.22945106 0.01629458
0.44095605 0.22969885 0.01649645
0.47126263 0.22993126 0.01666393
0.50156678 0.23015127 0.01680968
0.53186600 0.23036129 0.01694183
0.56215866 0.23056274 0.01706439
0.59244406 0.23075633 0.01717905
0.62272208 0.23094243 0.01728647
0.65299280 0.23112127 0.01738703
0.68325638 0.23129306 0.01748098
0.71351299 0.23145799 0.01756856
0.74376282 0.23161626 0.01765002
0.77400603 0.23176806 0.01772558
0.80424281 0.23191358 0.01779550
0.83447334 0.23205301 0.01786000
0.86469779 0.23218655 0.01791933
0.89491635 0.23231438 0.01797372
0.92512918 0.23243671 0.01802341
0.95533648 0.23255371 0.01806863
0.98553842 0.23266560 0.01810964
0.01677372 0.25682722 0.01442733
0.04718660 0.25715192 0.01466997
0.07758558 0.25746665 0.01489738
0.10796869 0.25777133 0.01510481
0.13833574 0.25806513 0.01528625
0.16869089 0.25834639 0.01543826
0.19904314 0.25861355 0.01556578
0.22940208 0.25886696 0.01568528
0.25977071 0.25911014 0.01581991
0.29014179 0.25934857 0.01598699
0.32050217 0.25958641 0.01618691
0.35084182 0.25982380 0.01640304
0.38115940 0.26005722 0.01661271
0.41146034 0.26028235 0.01679976
0.44175128 0.26049659 0.01695954
0.47203613 0.26069968 0.01709586
0.50231582 0.26089272 0.01721517
0.53258982 0.26107703 0.01732276
0.56285743 0.26125358 0.01742171
0.59311831 0.26142293 0.01751353
0.62337240 0.26158543 0.01759890
0.65361979 0.26174133 0.01767820
0.68386064 0.26189082 0.01775168
0.71409512 0.26203410 0.01781960
0.74432342 0.26217136 0.01788219
0.77454570 0.26230280 0.01793969
0.80476216 0.26242861 0.01799234
0.83497295 0.26254897 0.01804038
0.86517828 0.26266409 0.01808404
0.89537831 0.26277415 0.01812356
0.92557321 0.26287936 0.01815919
0.95576318 0.26297989 0.01819115
0.98594839 0.26307594 0.01821969
0.01790138 0.28794673 0.01521182
0.04828329 0.28823742 0.01542205
0.07865480 0.28851859 0.01562151
0.10901525 0.28879043 0.01580909
0.13936407 0.28905296 0.01598286
0.16970163 0.28930593 0.01614079
0.20003009 0.28954883 0.01628262
0.23035320 0.28978142 0.01641191
0.26067432 0.29000430 0.01653640
0.29099386 0.29021914 0.01666488
0.32130863 0.29042793 0.01680215
0.35161405 0.29063181 0.01694594
0.38190726 0.29083046 0.01708864
0.41218844 0.29102256 0.01722219
0.44245974 0.29120690 0.01734209
0.47272335 0.29138298 0.01744808
0.50298044 0.29155106 0.01754237
0.53323135 0.29171171 0.01762750
0.56347603 0.29186546 0.01770534
0.59371444 0.29201273 0.01777698
0.62394662 0.29215382 0.01784298
0.65417270 0.29228894 0.01790370
0.68439284 0.29241831 0.01795941
0.71460721 0.29254211 0.01801035
0.74481600 0.29266054 0.01805677
0.77501937 0.29277380 0.01809889
0.80521752 0.29288207 0.01813697
0.83541061 0.29298555 0.01817124
0.86559882 0.29308443 0.01820193
0.89578234 0.29317890 0.01822928
0.92596134 0.29326915 0.01825353
0.95613600 0.29335539 0.01827492
0.98630649 0.29343779 0.01829369
0.01891836 0.31895556 0.01588243
0.04926944 0.31921465 0.01606118
0.07961146 0.31946480 0.01623081
0.10994438 0.31970621 0.01639128
0.14026811 0.31993906 0.01654229
0.17058263 0.32016348 0.01668334
0.20088830 0.32037949 0.01681407
0.23118608 0.32058709 0.01693491
0.26147733 0.32078641 0.01704768
0.29176305 0.32097788 0.01715527
0.32204324 0.32116217 0.01726038
0.35231686 0.32133996 0.01736395
0.38258270 0.32151157 0.01746468
0.41284022 0.32167692 0.01756009
0.44308975 0.32183574 0.01764806
0.47333206 0.32198787 0.01772783
0.50356785 0.32213340 0.01779983
0.53379752 0.32227257 0.01786503
0.56402128 0.32240570 0.01792435
0.59423924 0.32253306 0.01797844
0.62445154 0.32265490 0.01802775
0.65465833 0.32277143 0.01807259
0.68485978 0.32288285 0.01811321
0.71505606 0.32298935 0.01814988
0.74524735 0.32309113 0.01818281
0.77543384 0.32318838 0.01821226
0.80561569 0.32328130 0.01823845
0.83579309 0.32337007 0.01826164
0.86596621 0.32345488 0.01828204
0.89613524 0.32353593 0.01829991
0.92630035 0.32361342 0.01831549
0.95646172 0.32368753 0.01832899
0.98661952 0.32375846 0.01834068
0.01983227 0.34986090 0.01644881
0.05015415 0.35009062 0.01659843
0.08046770 0.35031203 0.01673987
0.11077306 0.35052533 0.01687333
0.14107034 0.35073071 0.01699894
0.17135965 0.35092836 0.01711679
0.20164114 0.35111845 0.01722690
0.23191506 0.35130112 0.01732941
0.26218186 0.35147653 0.01742473
0.29244200 0.35164487 0.01751364
0.32269584 0.35180641 0.01759711
0.35294343 0.35196148 0.01767592
0.38318460 0.35211037 0.01775026
0.41341921 0.35225325 0.01781982
0.44364730 0.35239025 0.01788409
0.47386912 0.35252142 0.01794281
0.50408499 0.35264692 0.01799607
0.53429520 0.35276690 0.01804423
0.56449998 0.35288160 0.01808773
0.59469951 0.35299123 0.01812697
0.62489394 0.35309600 0.01816228
0.65508346 0.35319611 0.01819392
0.68526824 0.35329176 0.01822216
0.71544845 0.35338315 0.01824723
0.74562427 0.35347045 0.01826937
0.77579588 0.35355388 0.01828883
0.80596346 0.35363361 0.01830584
0.83612719 0.35370985 0.01832063
0.86628724 0.35378277 0.01833345
0.89644379 0.35385259 0.01834453
0.92659703 0.35391948 0.01835411
0.95674713 0.35398365 0.01836243
0.98689427 0.35404528 0.01836973
0.02065007 0.38067005 0.01692016
0.05094470 0.38087258 0.01704328
0.08123162 0.38106745 0.01715905
0.11151099 0.38125485 0.01726768
0.14178299 0.38143498 0.01736941
0.17204779 0.38160802 0.01746446
0.20230554 0.38177418 0.01755300
0.23255641 0.38193363 0.01763525
0.26280063 0.38208655 0.01771143
0.29303842 0.38223313 0.01778184
0.32327004 0.38237358 0.01784688
0.35349567 0.38250810 0.01790693
0.38371546 0.38263691 0.01796231
0.41392951 0.38276022 0.01801321
0.44413793 0.38287821 0.01805972
0.47434088 0.38299106 0.01810191
0.50453857 0.38309893 0.01813995
0.53473119 0.38320201 0.01817407
0.56491895 0.38330049 0.01820453
0.59510204 0.38339458 0.01823162
0.62528063 0.38348445 0.01825561
0.65545490 0.38357033 0.01827675
0.68562502 0.38365238 0.01829529
0.71579117 0.38373082 0.01831147
0.74595354 0.38380583 0.01832551
0.77611230 0.38387760 0.01833767
0.80626763 0.38394633 0.01834818
0.83641970 0.38401221 0.01835727
0.86656870 0.38407543 0.01836520
0.89671480 0.38413619 0.01837218
0.92685819 0.38419467 0.01837847
0.95699903 0.38425107 0.01838429
0.98713751 0.38430558 0.01838989
0.02137855 0.41139032 0.01730553
0.05164795 0.41156785 0.01740484
0.08191023 0.41173836 0.01749760
0.11216558 0.41190205 0.01758403
0.14241417 0.41205911 0.01766438
0.17265617 0.41220974 0.01773888
0.20289178 0.41235412 0.01780776
0.23312115 0.41249245 0.01787125
0.26334447 0.41262492 0.01792959
0.29356192 0.41275171 0.01798301
0.32377370 0.41287304 0.01803176
0.35398000 0.41298907 0.01807613
0.38418099 0.41310002 0.01811636
0.41437684 0.41320608 0.01815271
0.44456772 0.41330744 0.01818540
0.47475379 0.41340429 0.01821463
0.50493524 0.41349682 0.01824061
0.53511224 0.41358523 0.01826358
0.56528497 0.41366969 0.01828377
0.59545363 0.41375041 0.01830143
0.62561839 0.41382758 0.01831681
0.65577942 0.41390139 0.01833014
0.68593691 0.41397203 0.01834168
0.71609103 0.41403970 0.01835164
0.74624196 0.41410459 0.01836028
0.77638989 0.41416689 0.01836783
0.80653498 0.41422679 0.01837454
0.83667742 0.41428449 0.01838063
0.86681738 0.41434018 0.01838634
0.89695505 0.41439405 0.01839192
0.92709060 0.41444630 0.01839760
0.95722421 0.41449710 0.01840362
0.98735606 0.41454667 0.01841021
0.02202452 0.44202905 0.01761398
0.05227070 0.44218374 0.01769218
0.08251036 0.44233207 0.01776461
0.11274369 0.44247423 0.01783153
0.14297087 0.44261040 0.01789317
0.17319206 0.44274079 0.01794975
0.20340746 0.44286558 0.01800153
0.23361723 0.44298496 0.01804874
0.26382156 0.44309913 0.01809162
0.29402063 0.44320829 0.01813039
0.32421460 0.44331261 0.01816531
0.35440368 0.44341230 0.01819661
0.38458803 0.44350755 0.01822454
0.41476783 0.44359855 0.01824933
0.44494326 0.44368549 0.01827123
0.47511450 0.44376856 0.01829046
0.50528172 0.44384797 0.01830727
0.53544510 0.44392389 0.01832188
0.56560482 0.44399652 0.01833453
0.59576107 0.44406606 0.01834547
0.62591401 0.44413270 0.01835493
0.65606382 0.44419662 0.01836314
0.68621070 0.44425803 0.01837036
0.71635480 0.44431711 0.01837681
0.74649632 0.44437405 0.01838274
0.77663543 0.44442906 0.01838838
0.80677230 0.44448231 0.01839396
0.83690713 0.44453401 0.01839974
0.86704008 0.44458435 0.01840594
0.89717133 0.44463351 0.01841281
0.92730107 0.44468169 0.01842057
0.95742946 0.44472909 0.01842948
0.98755670 0.44477589 0.01843976
0.02259477 0.47259355 0.01785457
0.05281975 0.47272759 0.01791434
0.08303881 0.47285592 0.01796915
0.11325214 0.47297872 0.01801924
0.14345992 0.47309618 0.01806485
0.17366231 0.47320851 0.01810621
0.20385951 0.47331588 0.01814357
0.23405169 0.47341850 0.01817716
0.26423902 0.47351655 0.01820721
0.29442169 0.47361023 0.01823397
0.32459988 0.47369972 0.01825768
0.35477375 0.47378524 0.01827856
0.38494350 0.47386695 0.01829687
0.41510930 0.47394506 0.01831284
0.44527133 0.47401977 0.01832670
0.47542977 0.47409125 0.01833870
0.50558479 0.47415971 0.01834907
0.53573657 0.47422534 0.01835805
0.56588530 0.47428832 0.01836587
0.59603114 0.47434886 0.01837278
0.62617428 0.47440714 0.01837902
0.65631490 0.47446336 0.01838481
0.68645318 0.47451770 0.01839040
0.71658929 0.47457037 0.01839603
0.74672341 0.47462155 0.01840194
0.77685572 0.47467143 0.01840835
0.80698640 0.47472022 0.01841552
0.83711562 0.47476809 0.01842367
0.86724358 0.47481525 0.01843305
0.89737043 0.47486188 0.01844389
0.92749637 0.47490818 0.01845644
0.95762157 0.47495434 0.01847092
0.98774621 0.47500055 0.01848758
0.02309609 0.50309115 0.01803635
0.05330188 0.50320672 0.01808039
0.08350237 0.50331722 0.01812026
0.11369772 0.50342284 0.01815622
0.14388811 0.50352377 0.01818849
0.17407373 0.50362021 0.01821732
0.20425474 0.50371235 0.01824295
0.23443134 0.50380037 0.01826560
0.26460370 0.50388448 0.01828552
0.29477199 0.50396486 0.01830295
0.32493639 0.50404171 0.01831812
0.35509709 0.50411522 0.01833128
0.38525426 0.50418558 0.01834266
0.41540808 0.50425298 0.01835249
0.44555873 0.50431763 0.01836102
0.47570639 0.50437970 0.01836848
0.50585123 0.50443939 0.01837512
0.53599343 0.50449690 0.01838116
0.56613317 0.50455241 0.01838686
0.59627064 0.50460612 0.01839244
0.62640600 0.50465822 0.01839814
0.65653945 0.50470891 0.01840420
0.68667114 0.50475837 0.01841086
0.71680127 0.50480680 0.01841836
0.74693002 0.50485439 0.01842693
0.77705755 0.50490134 0.01843681
0.80718405 0.50494783 0.01844825
0.83730970 0.50499405 0.01846147
0.86743468 0.50504021 0.01847672
0.89755916 0.50508649 0.01849423
0.92768332 0.50513308 0.01851425
0.95780734 0.50518019 0.01853700
0.98793140 0.50522799 0.01856273
0.02353527 0.53352918 0.01816838
0.05372390 0.53362846 0.01819938
0.08390782 0.53372330 0.01822701
0.11408721 0.53381392 0.01825152
0.14426224 0.53390050 0.01827316
0.17443309 0.53398323 0.01829214
0.20459995 0.53406230 0.01830872
0.23476299 0.53413791 0.01832313
0.26492238 0.53421025 0.01833561
0.29507831 0.53427951 0.01834640
0.32523095 0.53434589 0.01835573
0.35538049 0.53440957 0.01836385
0.38552710 0.53447076 0.01837098
0.41567096 0.53452963 0.01837738
0.44581225 0.53458639 0.01838327
0.47595114 0.53464123 0.01838889
0.50608782 0.53469433 0.01839448
0.53622247 0.53474589 0.01840029
0.56635525 0.53479611 0.01840654
0.59648636 0.53484518 0.01841348
0.62661596 0.53489328 0.01842134
0.65674425 0.53494061 0.01843036
0.68687138 0.53498737 0.01844078
0.71699755 0.53503374 0.01845284
0.74712294 0.53507992 0.01846678
0.77724771 0.53512610 0.01848282
0.80737205 0.53517247 0.01850122
0.83749615 0.53521923 0.01852220
0.86762016 0.53526656 0.01854601
0.89774428 0.53531466 0.01857289
0.92786869 0.53536373 0.01860306
0.95799355 0.53541395 0.01863678
0.98811906 0.53546552 0.01867427
0.02391909 0.56391496 0.01825972
0.05409259 0.56400011 0.01828036
0.08426196 0.56408149 0.01829845
0.11442741 0.56415928 0.01831421
0.14458910 0.56423368 0.01832789
0.17474721 0.56430488 0.01833973
0.20490192 0.56437307 0.01834996
0.23505342 0.56443844 0.01835882
0.26520187 0.56450119 0.01836655
0.29534745 0.56456151 0.01837338
0.32549036 0.56461959 0.01837957
0.35563075 0.56467563 0.01838533
0.38576882 0.56472981 0.01839092
0.41590474 0.56478233 0.01839656
0.44603869 0.56483338 0.01840250
0.47617084 0.56488316 0.01840898
0.50630138 0.56493185 0.01841622
0.53643048 0.56497965 0.01842448
0.56655832 0.56502675 0.01843398
0.59668509 0.56507335 0.01844497
0.62681095 0.56511963 0.01845769
0.65693609 0.56516578 0.01847236
0.68706069 0.56521201 0.01848923
0.71718492 0.56525850 0.01850855
0.74730896 0.56530544 0.01853053
0.77743300 0.56535304 0.01855543
0.80755720 0.56540147 0.01858348
0.83768175 0.56545093 0.01861492
0.86780683 0.56550162 0.01864998
0.89793261 0.56555373 0.01868891
0.92805927 0.56560744 0.01873194
0.95818700 0.56566296 0.01877931
0.98831596 0.56572047 0.01883126
0.02425437 0.59425581 0.01831942
0.05441473 0.59432902 0.01833240
0.08457159 0.59439910 0.01834362
0.11472511 0.59446624 0.01835333
0.14487547 0.59453064 0.01836175
0.17502286 0.59459248 0.01836913
0.20516745 0.59465197 0.01837570
0.23530942 0.59470928 0.01838170
0.26544895 0.59476462 0.01838737
0.29558621 0.59481818 0.01839295
0.32572139 0.59487014 0.01839868
0.35585467 0.59492071 0.01840478
0.38598621 0.59497006 0.01841151
0.41611621 0.59501841 0.01841910
0.44624483 0.59506593 0.01842778
0.47637226 0.59511283 0.01843780
0.50649868 0.59515928 0.01844939
0.53662426 0.59520550 0.01846279
0.56674918 0.59525166 0.01847824
0.59687362 0.59529796 0.01849597
0.62699776 0.59534459 0.01851623
0.65712178 0.59539175 0.01853925
0.68724586 0.59543962 0.01856526
0.71737017 0.59548841 0.01859452
0.74749489 0.59553830 0.01862725
0.77762020 0.59558948 0.01866369
0.80774628 0.59564215 0.01870409
0.83787331 0.59569650 0.01874867
0.86800147 0.59575272 0.01879768
0.89813093 0.59581100 0.01885135
0.92826187 0.59587154 0.01890993
0.95839448 0.59593453 0.01897364
0.98852892 0.59600016 0.01904274
0.02454788 0.62455906 0.01835653
0.05469714 0.62462250 0.01836454
0.08484349 0.62468347 0.01837160
0.11498710 0.62474214 0.01837794
0.14512816 0.62479871 0.01838379
0.17526684 0.62485338 0.01838940
0.20540333 0.62490633 0.01839501
0.23553779 0.62495776 0.01840084
0.26567042 0.62500787 0.01840715
0.29580138 0.62505684 0.01841416
0.32593085 0.62510486 0.01842212
0.35605902 0.62515213 0.01843126
0.38618606 0.62519884 0.01844182
0.41631215 0.62524519 0.01845405
0.44643747 0.62529136 0.01846816
0.47656220 0.62533755 0.01848442
0.50668651 0.62538395 0.01850304
0.53681059 0.62543075 0.01852428
0.56693461 0.62547815 0.01854836
0.59705875 0.62552633 0.01857553
0.62718318 0.62557550 0.01860602
0.65730810 0.62562583 0.01864007
0.68743367 0.62567753 0.01867793
0.71756008 0.62573079 0.01871982
0.74768750 0.62578580 0.01876599
0.77781611 0.62584275 0.01881667
0.80794609 0.62590183 0.01887210
0.83807762 0.62596324 0.01893252
0.86821087 0.62602717 0.01899816
0.89834603 0.62609381 0.01906927
0.92848327 0.62616335 0.01914608
0.95862277 0.62623599 0.01922884
0.98876471 0.62631192 0.01931777
0.02480641 0.65483203 0.01838011
0.05494658 0.65488789 0.01838585
0.08508445 0.65494191 0.01839143
0.11522018 0.65499428 0.01839709
0.14535395 0.65504521 0.01840307
0.17548595 0.65509488 0.01840961
0.20561635 0.65514348 0.01841694
0.23574532 0.65519121 0.01842530
0.26587306 0.65523825 0.01843493
0.29599974 0.65528481 0.01844607
0.32612553 0.65533107 0.01845895
0.35625061 0.65537723 0.01847382
0.38637516 0.65542347 0.01849091
0.41649937 0.65546999 0.01851046
0.44662340 0.65551699 0.01853270
0.47674745 0.65556465 0.01855788
0.50687167 0.65561317 0.01858623
0.53699627 0.65566274 0.01861799
0.56712140 0.65571355 0.01865340
0.59724726 0.65576579 0.01869270
0.62737401 0.65581967 0.01873612
0.65750184 0.65587536 0.01878390
0.68763093 0.65593306 0.01883628
0.71776145 0.65599297 0.01889350
0.74789359 0.65605528 0.01895580
0.77802751 0.65612017 0.01902340
0.80816341 0.65618785 0.01909656
0.83830145 0.65625849 0.01917551
0.86844183 0.65633231 0.01926049
0.89858470 0.65640948 0.01935173
