assets/luts/DB_Sports_Floodlight_Rec709_100.cube
TITLE "Sports Floodlight Rec709 100"
# Red changes fastest. Full-range normalized input.
LUT_3D_SIZE 9
DOMAIN_MIN 0 0 0
DOMAIN_MAX 1 1 1
0.00500000 0.00500000 0.00500000
0.12201966 0.00265300 0.00299168
0.23575488 0.00191877 0.00279889
0.35093955 0.00148014 0.00277633
0.46738517 0.00134431 0.00295347
0.58436357 0.00166740 0.00353373
0.70182492 0.00242165 0.00449339
0.81973425 0.00357525 0.00580375
0.93805661 0.00509637 0.00743613
0.00000000 0.11827759 0.00272896
0.11722336 0.11835499 0.00000000
0.23624338 0.11831206 0.00038073
0.35170738 0.11963731 0.00464894
0.46946667 0.12100001 0.00636036
0.58792810 0.12264768 0.00810476
0.70675747 0.12461881 0.01013016
0.82591721 0.12688224 0.01240977
0.94537238 0.12940614 0.01491490
0.00103168 0.23704958 0.00541202
0.11921506 0.23849146 0.00682674
0.23793876 0.24025495 0.00817322
0.35691446 0.24230501 0.01068047
0.47607890 0.24468388 0.01328885
0.59562710 0.24729595 0.01587729
0.71542885 0.25012385 0.01864384
0.83544339 0.25313699 0.02156808
0.95563575 0.25630356 0.02462136
0.00688804 0.36006476 0.01176648
0.12626631 0.36252101 0.01421304
0.24591431 0.36521475 0.01686227
0.36579836 0.36811366 0.01968742
0.48588146 0.37118621 0.02266553
0.60612965 0.37440076 0.02575937
0.72650819 0.37772531 0.02894242
0.84698191 0.38112805 0.03218669
0.96751585 0.38457718 0.03546351
0.01619347 0.48612628 0.02075909
0.13634094 0.48925428 0.02378013
0.25664078 0.49251255 0.02690931
0.37705803 0.49586925 0.03011797
0.49755771 0.49929256 0.03337740
0.61810489 0.50275067 0.03665894
0.73866460 0.50621175 0.03993390
0.85920187 0.50964398 0.04317358
0.97968177 0.51301554 0.04634932
0.02761879 0.61402201 0.03130024
0.14813981 0.61746168 0.03457105
0.26869560 0.62092455 0.03785351
0.38925118 0.62437881 0.04111894
0.50977162 0.62779264 0.04433866
0.63022193 0.63113421 0.04748399
0.75056718 0.63437171 0.05052625
0.87077240 0.63747332 0.05343674
0.99080263 0.64040720 0.05618678
0.03983311 0.74254052 0.04229793
0.16033207 0.74593173 0.04549389
0.28074818 0.74923909 0.04860501
0.40104649 0.75243080 0.05160261
0.52119205 0.75547503 0.05445801
0.64114989 0.75833996 0.05714252
0.76088506 0.76099376 0.05962746
0.88036259 0.76340462 0.06188415
0.99954754 0.76554072 0.06388390
0.05150555 0.87047034 0.05266013
0.17158682 0.87345298 0.05545664
0.29146764 0.87624473 0.05807181
0.41111306 0.87881377 0.06047698
0.53048812 0.88112828 0.06264344
0.64955786 0.88315644 0.06454252
0.76828733 0.88486644 0.06614554
0.88664157 0.88622644 0.06742381
1.00000000 0.88617081 0.09209232
0.06130522 0.99660004 0.06129485
0.18057318 0.99881398 0.06336729
0.30115607 1.00000000 0.06758465
0.42286038 1.00000000 0.07563589
0.54270096 1.00000000 0.08411579
0.66052515 1.00000000 0.09302704
0.77618036 1.00000000 0.10237215
0.88951404 1.00000000 0.11215341
1.00000000 0.99962845 0.12715397
0.00417359 0.00434860 0.12147230
0.11920860 0.00277791 0.12048399
0.23470242 0.00181596 0.11983795
0.35071515 0.00138148 0.11970488
0.46735123 0.00140371 0.12001871
0.58449756 0.00187679 0.12073103
0.70211497 0.00277023 0.12181300
0.82016848 0.00405221 0.12323594
0.93862314 0.00569090 0.12497115
0.00000000 0.11819793 0.11970517
0.11686208 0.11835528 0.11984848
0.23661487 0.11828717 0.11966481
0.35252178 0.11988199 0.12195842
0.46996313 0.12151730 0.12382706
0.58853988 0.12328233 0.12567480
0.70748534 0.12535630 0.12778975
0.82674934 0.12771175 0.13014917
0.94629688 0.13031687 0.13272437
0.00142602 0.23749315 0.12281471
0.11961285 0.23909583 0.12414144
0.23922355 0.24082579 0.12255498
0.36005680 0.24248200 0.12490720
0.47724495 0.24546521 0.13076718
0.59658484 0.24823287 0.13370791
0.71646021 0.25112794 0.13653318
0.83653906 0.25419676 0.13950446
0.95678386 0.25740820 0.14259504
0.00769300 0.36087032 0.12948514
0.12716516 0.36341132 0.13200202
0.24686446 0.36619282 0.13458006
0.36692937 0.36914027 0.13695325
0.48710317 0.37224145 0.14036462
0.60729950 0.37551769 0.14373589
0.72770870 0.37887372 0.14695124
0.84820677 0.38229578 0.15020980
0.96875320 0.38575342 0.15349114
0.01727283 0.48717198 0.13868364
0.13747597 0.49034779 0.14174462
0.25781955 0.49364307 0.14490392
0.37826838 0.49702614 0.14813098
0.49878882 0.50046471 0.15139906
0.61934406 0.50392729 0.15468511
0.73989986 0.50738218 0.15795199
0.86042156 0.51079737 0.16117318
0.98087401 0.51414109 0.16432067
0.02883819 0.61518556 0.14932044
0.14937494 0.61863668 0.15259841
0.26993458 0.62210019 0.15587831
0.39048215 0.62554429 0.15913144
0.51098269 0.62893715 0.16232911
0.63140125 0.63224695 0.16544265
0.75170286 0.63544187 0.16844337
0.87185257 0.63849008 0.17130259
0.99181542 0.64135977 0.17399163
0.04105821 0.74369962 0.16030352
0.16153295 0.74706592 0.16347389
0.28191298 0.75033758 0.16654968
0.40216333 0.75348277 0.16950220
0.52224906 0.75646967 0.17230278
0.64213520 0.75926647 0.17492274
0.76178680 0.76184134 0.17733338
0.88116889 0.76416246 0.17950602
1.00000000 0.76620621 0.18205663
0.05260199 0.87150269 0.17054089
0.17261910 0.87442407 0.17327903
0.29242390 0.87714375 0.17582610
0.41198142 0.87962992 0.17815342
0.53125672 0.88185076 0.18023230
0.65021482 0.88377444 0.18203405
0.76882078 0.88536914 0.18353000
0.88703964 0.88660305 0.18469146
1.00000000 0.88657504 0.20834219
0.06213864 0.99738334 0.17894053
0.18130251 0.99949967 0.18092184
0.30323223 1.00000000 0.18644934
0.42467231 1.00000000 0.19361059
0.54421383 1.00000000 0.20115131
0.66170417 1.00000000 0.20907409
0.77699075 1.00000000 0.21738133
0.88992110 1.00000000 0.22607523
1.00000000 0.99965934 0.23954162
0.00342575 0.00376954 0.23793843
0.11854994 0.00243239 0.23705360
0.23427310 0.00163217 0.23664265
0.35055960 0.00133720 0.23667743
0.46737563 0.00151526 0.23712988
0.58468588 0.00213467 0.23797096
0.70245531 0.00316362 0.23917194
0.82064898 0.00457031 0.24070414
0.93923192 0.00632290 0.24253889
0.00000000 0.11821692 0.23643383
0.11673051 0.11859908 0.23741634
0.23434627 0.11932064 0.23843176
0.35223237 0.12051321 0.23970248
0.47048076 0.12208108 0.24133847
0.58919240 0.12395312 0.24327636
0.70824996 0.12612625 0.24547754
0.82761416 0.12857006 0.24791346
0.94725004 0.13125273 0.25055542
0.00187280 0.23797738 0.24025645
0.12031255 0.23964683 0.24200155
0.23944952 0.24146631 0.24348310
0.36102120 0.24298312 0.24465038
0.47860719 0.24618841 0.24848586
0.59757972 0.24919033 0.25155654
0.71751476 0.25215215 0.25443957
0.83765387 0.25527298 0.25745459
0.95794706 0.25852561 0.26057916
0.00853175 0.36170568 0.24722960
0.12809359 0.36432755 0.24981596
0.24772976 0.36720884 0.25225055
0.36847804 0.36997386 0.25159662
0.49044424 0.37265091 0.25485758
0.60876246 0.37656267 0.26144458
0.72892125 0.38002918 0.26496411
0.84943720 0.38346762 0.26823554
0.96999209 0.38693010 0.27151810
0.01837242 0.48823513 0.25662285
0.13862719 0.49145508 0.25972046
0.25900871 0.49478423 0.26290429
0.37944670 0.49820225 0.26601669
0.50006941 0.50163302 0.26879872
0.62067769 0.50507863 0.27246446
0.74113642 0.50854662 0.27595682
0.86163328 0.51194252 0.27916426
0.98205424 0.51525474 0.28228023
0.03006427 0.61635421 0.26734416
0.15061271 0.61981311 0.27062600
0.27117217 0.62327360 0.27390003
0.39170764 0.62670388 0.27713745
0.51218384 0.63007227 0.28030777
0.63256725 0.63334649 0.28338420
0.75282120 0.63649506 0.28634350
0.87291119 0.63948625 0.28914881
0.99280262 0.64228808 0.29177354
0.04227641 0.74485147 0.27830152
0.16272291 0.74818920 0.28144298
0.28306282 0.75142147 0.28448013
0.40326119 0.75451648 0.28738427
0.52328305 0.75744239 0.29012672
0.64309346 0.76016739 0.29267881
0.76265745 0.76265965 0.29501184
0.88194007 0.76488735 0.29709714
1.00000000 0.76688510 0.30091689
0.05367797 0.87251545 0.28840293
0.17362690 0.87537190 0.29107939
0.29335164 0.87801585 0.29355505
0.41281724 0.88041548 0.29580121
0.53198874 0.88253896 0.29778919
0.65083117 0.88435449 0.29949031
0.76930959 0.88583023 0.30087588
0.88738903 0.88693437 0.30191722
1.00000000 0.88698909 0.32380949
0.06293804 0.99813470 0.29655636
0.18238955 1.00000000 0.29876134
0.30534006 1.00000000 0.30467133
0.42650985 1.00000000 0.31090889
0.54574627 1.00000000 0.31747667
0.66289673 1.00000000 0.32437716
0.77780870 1.00000000 0.33161268
0.89032972 1.00000000 0.33918531
1.00000000 0.99969459 0.35102741
0.00274899 0.00325332 0.35449516
0.11808023 0.00210220 0.35377417
0.23399863 0.00147711 0.35351808
0.35046922 0.00134622 0.35369821
0.46745705 0.00167771 0.35428588
0.58492715 0.00243977 0.35525239
0.70284458 0.00360058 0.35656908
0.82117436 0.00512830 0.35820724
0.93988155 0.00699113 0.36013821
0.00000000 0.11830532 0.35320664
0.11686856 0.11881947 0.35459547
0.23450591 0.11973021 0.35569328
0.35257773 0.12102823 0.35713015
0.47104846 0.12268185 0.35887787
0.58988431 0.12465880 0.36090829
0.70904993 0.12692742 0.36319241
0.82851032 0.12945592 0.36570151
0.94823051 0.13221247 0.36840692
0.00236272 0.23850345 0.35773169
0.12097028 0.24027836 0.35958643
0.23993419 0.24235857 0.36173164
0.35934385 0.24466920 0.36413131
0.47886068 0.24731167 0.36667109
0.59857714 0.25017743 0.36943480
0.71859109 0.25319525 0.37236193
0.83878644 0.25636440 0.37541736
0.95912401 0.25965456 0.37857261
0.00940294 0.36256958 0.36499872
0.12905559 0.36526736 0.36765361
0.24889885 0.36817485 0.37047130
0.36918720 0.37102946 0.37287172
0.49171883 0.37344413 0.37487477
0.61039197 0.37752892 0.37938208
0.73015160 0.38118779 0.38297958
0.85067185 0.38464230 0.38626278
0.97123116 0.38810596 0.38954325
0.01949088 0.48931449 0.37457559
0.13979324 0.49257490 0.37770654
0.26020848 0.49593405 0.38091406
0.38050408 0.49939427 0.38384710
0.50149886 0.50253177 0.38369163
0.62387053 0.50552016 0.38716979
0.74262911 0.50961910 0.39369079
0.86283798 0.51307745 0.39714392
0.98322109 0.51635522 0.40022685
0.03129565 0.61752672 0.38537029
0.15185175 0.62098972 0.38865269
0.27240700 0.62444352 0.39191753
0.39292442 0.62785682 0.39513376
0.51332666 0.63120863 0.39814948
0.63373301 0.63442323 0.40071553
0.75400441 0.63750561 0.40399170
0.87395184 0.64045919 0.40696654
0.99376290 0.64319088 0.40953136
0.04348636 0.74599483 0.39629079
0.16390058 0.74930031 0.39940005
0.28419634 0.75248954 0.40239524
0.40433869 0.75553069 0.40524769
0.52429261 0.75839195 0.40792862
0.64402278 0.76104166 0.41040761
0.76349573 0.76344753 0.41265779
0.88267494 0.76557804 0.41465572
1.00000000 0.76757925 0.41909662
0.05473212 0.87350736 0.40624511
0.17460884 0.87629522 0.40885659
0.29424950 0.87885976 0.41125753
0.41361914 0.88116918 0.41341923
0.53268280 0.88319165 0.41531301
0.65140553 0.88489536 0.41691018
0.76975238 0.88624847 0.41818206
0.88768837 0.88721917 0.41909998
1.00000000 0.88741303 0.43847602
0.06370206 0.99885288 0.41414121
0.18477044 1.00000000 0.41723167
0.30747945 1.00000000 0.42223342
0.42837291 1.00000000 0.42751353
0.54729821 1.00000000 0.43307459
0.66410278 1.00000000 0.43891898
0.77863413 1.00000000 0.44504891
0.89073984 1.00000000 0.45146634
1.00000000 0.99973425 0.46159339
0.00214398 0.00280144 0.47110889
0.11767854 0.00183252 0.47054901
0.23378838 0.00137883 0.47044428
0.35043855 0.00140854 0.47076602
0.46759408 0.00188982 0.47148556
0.58522002 0.00279087 0.47257421
0.70328140 0.00407985 0.47400329
0.82174328 0.00572494 0.47574411
0.94057069 0.00769434 0.47776799
0.00000000 0.11844614 0.47019207
0.11706370 0.11908344 0.47184068
0.23485222 0.12012941 0.47305659
0.35306346 0.12155172 0.47460248
0.47166245 0.12331856 0.47644967
0.59061426 0.12539812 0.47856948
0.70988391 0.12775856 0.48093322
0.82943644 0.13036807 0.48351220
0.94923691 0.13319483 0.48627776
0.00289690 0.23906925 0.47524161
0.12162839 0.24095363 0.47719137
0.24069996 0.24313912 0.47940337
0.36007698 0.24559373 0.48184925
0.47972405 0.24828597 0.48449932
0.59960560 0.25118415 0.48732533
0.71968784 0.25425597 0.49029910
0.83993542 0.25746978 0.49339164
0.96031333 0.26079379 0.49657426
0.01030519 0.36346078 0.48279138
0.13004171 0.36623163 0.48550905
0.25000018 0.36919655 0.48839293
0.37014820 0.37231577 0.49143204
0.49056996 0.37551294 0.49459268
0.61095178 0.37890015 0.49775696
0.73136641 0.38235906 0.50100879
0.85190932 0.38581860 0.50429041
0.97246904 0.38927976 0.50756548
0.02062683 0.49040879 0.49254075
0.14097277 0.49370599 0.49570171
0.26142319 0.49709029 0.49893188
0.38189311 0.50053281 0.50219295
0.50250000 0.50374110 0.50498220
0.62518797 0.50637349 0.50726435
0.74425703 0.51059437 0.51164793
0.86404106 0.51419822 0.51511098
0.98437319 0.51744128 0.51815941
0.03253096 0.61870183 0.50339770
0.15309069 0.62216527 0.50667735
0.27363770 0.62560870 0.50992970
0.39413283 0.62900116 0.51312393
0.51431080 0.63234227 0.51593638
0.63477331 0.63520371 0.51576107
0.75680048 0.63779111 0.51878175
0.87521408 0.64132391 0.52451542
0.99469710 0.64406621 0.52726231
0.04468667 0.74712845 0.51427022
0.16506458 0.75039802 0.51734396
0.28531217 0.75354053 0.52029389
0.40539446 0.75652415 0.52309133
0.52527437 0.75931761 0.52570540
0.64486926 0.76190083 0.52799127
0.76429434 0.76420093 0.52970959
0.88344968 0.76621145 0.53195811
1.00000000 0.76828823 0.53657646
0.05576309 0.87447720 0.52406631
0.17556356 0.87719278 0.52660951
0.29511609 0.87967425 0.52893242
0.41438574 0.88188979 0.53100634
0.53333755 0.88380758 0.53280261
0.65193649 0.88539580 0.53429245
0.77014724 0.88662283 0.53544549
0.88793637 0.88745634 0.53623478
1.00000000 0.88784690 0.55232353
0.06442931 0.99953663 0.53169395
0.18718886 1.00000000 0.53505856
0.30965031 1.00000000 0.53911836
0.43026141 1.00000000 0.54340728
0.54886955 1.00000000 0.54792782
0.66532223 1.00000000 0.55268226
0.77946697 1.00000000 0.55767269
0.89115141 1.00000000 0.56290098
1.00000000 0.99977836 0.57122163
0.00160934 0.00241264 0.58777843
0.11734319 0.00162226 0.58737633
0.23364045 0.00133631 0.58741966
0.35046617 0.00152294 0.58787971
0.46778537 0.00215035 0.58872782
0.58556311 0.00318670 0.58993530
0.70376442 0.00460019 0.59147346
0.82235435 0.00635899 0.59331362
0.94129794 0.00843127 0.59542710
0.00000000 0.11862662 0.58749931
0.11731163 0.11939448 0.58912733
0.23524762 0.12057182 0.59045852
0.35359447 0.12211471 0.59210995
0.47231720 0.12399132 0.59405294
0.59138086 0.12616983 0.59625880
0.71075050 0.12861843 0.59869885
0.83039116 0.13130529 0.60134441
0.95026788 0.13419859 0.60416680
0.00347433 0.23967346 0.59278508
0.12232523 0.24166366 0.59482709
0.24150434 0.24394419 0.59712153
0.36097670 0.24648321 0.59963973
0.48070734 0.24924891 0.60235298
0.60066131 0.25220947 0.60523262
0.72080366 0.25533306 0.60824996
0.84109942 0.25858787 0.61137631
0.96151364 0.26194207 0.61458299
0.01123712 0.36437804 0.60060645
0.13105312 0.36721836 0.60338361
0.25107972 0.37024196 0.60631670
0.37128196 0.37341699 0.60937710
0.49162520 0.37671146 0.61253649
0.61207409 0.38009390 0.61576514
0.73259306 0.38353261 0.61903479
0.85314825 0.38699527 0.62231730
0.97370435 0.39045026 0.62558366
0.02177892 0.49151680 0.61051719
0.14216439 0.49484713 0.61370487
0.26264286 0.49825368 0.61695199
0.38317879 0.50170461 0.62023044
0.50373609 0.50515940 0.62353140
0.62439323 0.50854120 0.62682593
0.74487010 0.51196747 0.62997328
0.86521066 0.51531450 0.63307540
0.98550913 0.51851171 0.63607681
0.03376884 0.61987830 0.62142527
0.15432817 0.62333852 0.62469887
0.27486290 0.62676791 0.62793542
0.39533765 0.63013472 0.63110627
0.51566021 0.63340957 0.63417937
0.63581280 0.63629760 0.63678241
0.75790879 0.63847449 0.63874552
0.87658323 0.64207565 0.64228428
0.99561038 0.64491017 0.64496556
0.04587599 0.74825108 0.63223868
0.16621356 0.75148107 0.63527359
0.28640893 0.75457319 0.63817495
0.40642713 0.75749562 0.64091409
0.52622880 0.76021742 0.64346048
0.64552491 0.76274297 0.64552366
0.76478865 0.76469384 0.64472599
0.88569890 0.76616513 0.64663136
1.00000000 0.76898494 0.65330174
0.05676949 0.87542370 0.64186542
0.17648968 0.87806335 0.64433702
0.29595007 0.88045808 0.64657859
0.41511569 0.88257606 0.64856144
0.53395160 0.88438549 0.65025688
0.65242065 0.88585514 0.65163417
0.77043939 0.88696772 0.65255492
0.88812755 0.88765614 0.65278681
1.00000000 0.88828079 0.66529838
0.06570431 1.00000000 0.64931799
0.18964471 1.00000000 0.65222480
0.31185256 1.00000000 0.65530891
0.43217526 1.00000000 0.65857287
0.55046024 1.00000000 0.66201907
0.66655502 1.00000000 0.66564969
0.78030717 1.00000000 0.66946670
0.89156427 1.00000000 0.67347167
1.00000000 0.99982698 0.67989347
0.00114372 0.00208568 0.70450265
0.11707283 0.00147018 0.70425504
0.23355347 0.00134829 0.70444310
0.35055070 0.00168818 0.70503816
0.46802954 0.00245803 0.70601152
0.58595505 0.00362603 0.70733452
0.70429226 0.00516036 0.70897846
0.82300621 0.00702919 0.71091466
0.94206196 0.00920070 0.71311443
0.00000000 0.11883719 0.70520559
0.11761097 0.11975134 0.70645422
0.23569041 0.12105639 0.70789738
0.35416883 0.12271618 0.70965104
0.47301126 0.12469889 0.71168652
0.59218276 0.12697269 0.71397513
0.71164836 0.12950577 0.71648819
0.83137310 0.13226631 0.71919702
0.95132203 0.13522248 0.72207293
0.00409365 0.24031481 0.71036097
0.12305993 0.24240718 0.71249192
0.24234255 0.24477906 0.71486557
0.36190654 0.24739863 0.71745322
0.48171695 0.25023407 0.72022620
0.60173881 0.25325357 0.72315582
0.72193718 0.25642529 0.72621340
0.84227709 0.25971742 0.72937024
0.96272359 0.26309813 0.73259768
0.01219738 0.36532010 0.71844282
0.13208881 0.36822623 0.72127615
0.25217899 0.37130483 0.72425567
0.37243293 0.37452407 0.72735271
0.49281569 0.37785213 0.73053857
0.61329231 0.38125720 0.73378459
0.73382783 0.38470745 0.73706206
0.85438729 0.38817105 0.74034232
0.97493573 0.39161620 0.74359667
0.02294576 0.49263728 0.72850379
0.14336673 0.49599706 0.73171488
0.26386884 0.49942226 0.73497567
0.38441712 0.50288105 0.73825748
0.50497661 0.50634161 0.74153169
0.62551263 0.50977192 0.74476998
0.74598990 0.51314054 0.74794259
0.86637286 0.51641575 0.75102126
0.98662758 0.51956524 0.75397790
0.03500791 0.62105489 0.73945187
0.15556280 0.62450820 0.74271610
0.27608123 0.62791989 0.74593355
0.39652823 0.63125812 0.74907552
0.51686816 0.63449106 0.75211396
0.63706143 0.63757815 0.75504356
0.75718229 0.64044332 0.75784112
0.87698011 0.64320246 0.76033326
0.99647201 0.64573226 0.76264958
0.04705294 0.74936149 0.75019504
0.16734613 0.75254822 0.75318781
0.28748526 0.75558628 0.75603730
0.40743535 0.75844384 0.75871482
0.52716102 0.76108915 0.76119176
0.64656499 0.76349400 0.76344344
0.76555048 0.76539534 0.76524020
0.88636150 0.76645041 0.76624466
1.00000000 0.76967583 0.76931172
0.05774996 0.87634563 0.75964130
0.17738584 0.87890567 0.76203800
0.29675004 0.88120998 0.76419492
0.41580762 0.88322675 0.76608338
0.53452359 0.88492415 0.76767470
0.65285853 0.88627136 0.76893863
0.77052140 0.88728650 0.76961424
0.88803218 0.88770635 0.76750746
1.00000000 0.88849190 0.77698379
0.06842233 1.00000000 0.76676656
0.19213790 1.00000000 0.76871316
0.31408611 1.00000000 0.77078783
0.43411439 1.00000000 0.77299303
0.55207019 1.00000000 0.77533105
0.66780108 1.00000000 0.77780396
0.78115434 1.00000000 0.78041341
0.89196934 1.00000000 0.78314952
1.00000000 0.99988418 0.78748139
0.00074574 0.00181933 0.82128042
0.11686607 0.00137503 0.82118398
0.23352607 0.00141352 0.82151348
0.35069077 0.00190300 0.82224023
0.46832523 0.00281164 0.82333555
0.58639447 0.00410761 0.82477076
0.70486354 0.00575910 0.82651717
0.82369749 0.00773429 0.82854609
0.94286136 0.01000136 0.83082886
0.00016357 0.11909946 0.82259784
0.11796036 0.12015279 0.82382022
0.23617922 0.12158188 0.82537205
0.35478518 0.12335490 0.82722463
0.47374328 0.12544004 0.82934929
0.59301858 0.12780546 0.83171734
0.71257610 0.13041935 0.83430011
0.83238090 0.13324990 0.83706889
0.95239801 0.13626527 0.83999502
0.00475348 0.24099207 0.82796816
0.12383111 0.24318293 0.83018475
0.24321320 0.24564250 0.83263429
0.36286480 0.24833895 0.83528810
0.48275094 0.25124046 0.83811749
0.60283667 0.25431522 0.84109378
0.72308702 0.25753140 0.84418828
0.84346705 0.26085718 0.84737232
0.96394179 0.26426075 0.85061720
0.01318458 0.36628572 0.83629936
0.13314743 0.36925399 0.83918555
0.25329714 0.37238392 0.84220820
0.37359875 0.37564369 0.84533862
0.49401731 0.37900147 0.84854813
0.61451785 0.38242545 0.85180804
0.73506542 0.38588380 0.85508968
0.85562506 0.38934471 0.85836436
0.97616181 0.39277635 0.86160338
0.02412599 0.49376896 0.84649944
0.14457844 0.49715453 0.84973062
0.26510015 0.50059470 0.85300176
0.38565615 0.50405767 0.85628419
0.50621151 0.50751161 0.85954921
0.62673124 0.51092469 0.86276814
0.74718040 0.51426510 0.86591229
0.86752403 0.51750102 0.86895300
0.98772717 0.52060062 0.87186156
0.03624680 0.62223034 0.85747639
0.15679323 0.62567309 0.86072795
0.27729132 0.62906340 0.86392298
0.39770611 0.63236945 0.86703279
0.51800264 0.63555942 0.87002871
0.63814594 0.63860148 0.87288211
0.75810130 0.64146363 0.87556472
0.87783354 0.64411440 0.87804668
0.99730705 0.64652209 0.88029975
0.04821614 0.75045842 0.86813819
0.16846094 0.75359823 0.87108552
0.28853979 0.75657856 0.87387982
0.40841774 0.75936758 0.87649242
0.52805982 0.76193347 0.87889462
0.64743036 0.76424441 0.88105846
0.76648778 0.76626073 0.88298238
0.88530575 0.76790864 0.88464829
1.00000000 0.77049969 0.88464267
0.05870312 0.87724173 0.87739284
0.17825066 0.87971849 0.87971132
0.29751466 0.88192872 0.88178029
0.41646014 0.88384060 0.88357106
0.53505217 0.88542230 0.88505494
0.65325533 0.88664209 0.88620334
0.77097235 0.88747497 0.88699803
0.88813792 0.88773068 0.88732344
1.00000000 0.88889949 0.88860661
0.07118364 1.00000000 0.88355373
0.19466834 1.00000000 0.88450640
0.31635088 1.00000000 0.88553787
0.43607871 1.00000000 0.88665050
0.55369934 1.00000000 0.88784648
0.66906036 1.00000000 0.88912776
0.78200877 1.00000000 0.89049594
0.89235334 1.00000000 0.89192836
1.00000000 0.99995942 0.89371198
0.00041403 0.00161233 0.93811063
0.11672155 0.00133555 0.93816205
0.23355687 0.00153077 0.93862968
0.35088503 0.00216617 0.93948481
0.46867106 0.00320992 0.94069878
0.58688000 0.00463019 0.94224288
0.70547691 0.00639518 0.94408845
0.82442682 0.00847306 0.94620680
0.94369478 0.01083201 0.94856924
0.00041438 0.11941306 0.93988674
0.11835843 0.12059757 0.94122422
0.23671267 0.12214703 0.94288140
0.35544214 0.12402962 0.94482960
0.47451188 0.12621351 0.94704014
0.59388694 0.12866688 0.94948432
0.71353236 0.13135792 0.95213347
0.83341318 0.13425480 0.95495891
0.95349445 0.13732570 0.95793195
0.00545246 0.24170399 0.94560552
0.12463741 0.24398967 0.94790444
0.24411494 0.24653325 0.95042657
0.36385011 0.24930291 0.95314322
0.48380795 0.25226683 0.95602571
0.60395351 0.25539319 0.95904536
0.72425182 0.25865016 0.96217349
0.84466793 0.26200592 0.96538141
0.96516689 0.26542866 0.96864043
0.01419737 0.36727366 0.95417494
0.13422760 0.37030040 0.95711069
0.25443282 0.37347799 0.96017316
0.37477807 0.37677461 0.96333365
0.49522838 0.38015844 0.96656350
0.61574882 0.38359766 0.96983400
0.73630440 0.38706045 0.97311649
0.85686019 0.39051498 0.97638228
0.97738121 0.39392945 0.97960268
0.02531823 0.49491062 0.96450300
0.14579813 0.49831830 0.96775097
0.26633540 0.50176978 0.97102916
0.38689511 0.50523325 0.97430889
0.50744229 0.50867688 0.97756147
0.62794197 0.51206885 0.98075823
0.74835922 0.51537734 0.98387047
0.86865906 0.51857053 0.98686951
0.98880653 0.52161661 0.98972668
0.03748415 0.62340342 0.97549769
0.15801809 0.62683193 0.97873327
0.27849181 0.63019719 0.98190258
0.39887036 0.63346739 0.98497693
0.51911877 0.63661070 0.98792764
0.63920210 0.63959531 0.99072603
0.75908538 0.64238939 0.99334341
0.87873365 0.64496113 0.99575110
0.99811196 0.64727869 0.99792042
0.04936425 0.75154062 0.98606700
0.16955661 0.75462984 0.98896557
0.28957115 0.75754877 0.99170138
0.40937292 0.76026558 0.99424575
0.52892695 0.76274846 0.99656998
0.64819830 0.76496559 0.99864539
0.76718606 0.76691976 1.00000000
0.88499092 0.76889713 1.00000000
1.00000000 0.77128164 0.99914603
0.05962762 0.87811077 0.99511891
0.17908279 0.88050058 0.99735587
0.29824253 0.88261306 0.99933358
0.41892785 0.88396798 1.00000000
0.53926703 0.88501153 1.00000000
0.65777332 0.88607328 1.00000000
0.77430202 0.88715101 1.00000000
0.88870309 0.88823975 1.00000000
1.00000000 0.88966483 0.99917863
0.07398816 1.00000000 0.99966227
0.19723595 1.00000000 0.99958727
0.31864679 1.00000000 0.99954175
0.43806816 1.00000000 0.99952798
0.55534762 1.00000000 0.99954804
0.67033279 1.00000000 0.99960376
0.78287131 1.00000000 0.99969680
0.89280247 1.00000000 0.99982989
1.00000000 1.00000000 1.00000000
