assets/luts/DB_Soft_Interior_Rec709_100.cube
TITLE "Soft Interior Rec709 100"
# Red changes fastest. Full-range normalized input.
LUT_3D_SIZE 9
DOMAIN_MIN 0 0 0
DOMAIN_MAX 1 1 1
0.00600000 0.00600000 0.00600000
0.12925446 0.01036916 0.01006375
0.24802653 0.01565245 0.01476125
0.36724415 0.02018107 0.01871288
0.48677888 0.02403052 0.02199766
0.60593740 0.02747330 0.02484952
0.72472714 0.03053938 0.02730324
0.84317092 0.03325339 0.02938928
0.96129157 0.03563996 0.03113806
0.02175292 0.13723810 0.01971587
0.14090042 0.14050400 0.02000952
0.26209279 0.14315591 0.02271095
0.37941597 0.14699787 0.02785135
0.49748695 0.14971036 0.03006167
0.61549327 0.15198484 0.03169695
0.73320996 0.15396446 0.03303481
0.85065750 0.15567486 0.03410740
0.96785873 0.15714065 0.03494517
0.03354743 0.26365444 0.02885465
0.15167148 0.26613027 0.03057249
0.26954142 0.26822027 0.03163982
0.38731880 0.27011444 0.03322542
0.50463164 0.27178544 0.03443035
0.62174480 0.27317087 0.03519780
0.73864684 0.27434272 0.03576437
0.85535656 0.27532818 0.03616808
0.97189678 0.27615188 0.03643938
0.04130013 0.38634009 0.03384032
0.15856599 0.38786996 0.03473883
0.27560126 0.38917310 0.03542286
0.39243092 0.39027382 0.03592461
0.50907713 0.39119786 0.03627991
0.62556126 0.39196891 0.03651122
0.74190708 0.39261166 0.03665102
0.85813740 0.39315087 0.03673039
0.97427503 0.39361115 0.03677978
0.04619218 0.50618231 0.03607270
0.16277622 0.50704755 0.03637699
0.27920739 0.50776896 0.03657104
0.39550852 0.50837116 0.03668531
0.51170245 0.50887878 0.03675024
0.62781201 0.50931645 0.03679627
0.74386003 0.50970879 0.03685386
0.85986935 0.51008042 0.03695344
0.97586281 0.51045597 0.03712547
0.04909575 0.62411812 0.03671306
0.16525632 0.62459742 0.03676758
0.28134083 0.62501574 0.03681430
0.39737212 0.62539769 0.03688365
0.51337302 0.62576790 0.03700608
0.62936637 0.62615099 0.03721204
0.74537500 0.62657160 0.03753197
0.86142174 0.62705434 0.03799632
0.97752943 0.62762385 0.03863554
0.05088018 0.74108503 0.03692047
0.16687569 0.74145708 0.03706979
0.28287196 0.74185098 0.03731372
0.39889182 0.74229136 0.03768270
0.51495810 0.74280284 0.03820719
0.63109365 0.74341004 0.03891763
0.74732130 0.74413760 0.03984446
0.86366388 0.74501014 0.04101813
0.98014422 0.74605227 0.04246908
0.05241479 0.85802054 0.03785405
0.16850365 0.85856402 0.03844271
0.28467009 0.85921219 0.03922840
0.40093693 0.85998968 0.04024157
0.51732702 0.86092111 0.04151267
0.63386319 0.86203111 0.04307213
0.75056827 0.86334430 0.04495041
0.86746509 0.86488531 0.04717796
0.98457650 0.86667876 0.04978521
0.05456890 0.97586216 0.04067287
0.17100953 0.97685575 0.04204543
0.28760454 0.97803688 0.04371744
0.40437679 0.97943016 0.04571935
0.52134909 0.98106022 0.04808160
0.63854429 0.98295169 0.05083465
0.75598522 0.98512919 0.05400893
0.87369470 0.98761736 0.05763490
0.99169559 0.99044080 0.06174300
0.00785239 0.00781570 0.12326457
0.12867653 0.01278917 0.12792491
0.24890177 0.01737633 0.13188770
0.36863599 0.02153669 0.13543438
0.48804628 0.02524347 0.13856521
0.60707700 0.02855557 0.14127844
0.72574669 0.03149932 0.14360388
0.84407817 0.03409937 0.14557197
0.96209427 0.03638034 0.14721315
0.02334875 0.13849142 0.13664286
0.14224964 0.14170720 0.13967306
0.26312748 0.14375871 0.14167266
0.38076252 0.14767221 0.14418124
0.49836647 0.15051122 0.14620194
0.61625986 0.15268884 0.14773543
0.73388257 0.15457428 0.14897979
0.85124390 0.15619885 0.14996922
0.96836667 0.15758717 0.15073417
0.03448137 0.26453075 0.14506924
0.15217056 0.26687910 0.14658223
0.26888679 0.26793801 0.14548914
0.38875661 0.26920391 0.14659828
0.50538817 0.27212659 0.15004255
0.62222814 0.27359006 0.15096131
0.73906026 0.27469706 0.15147071
0.85570986 0.27562482 0.15182604
0.97219771 0.27639919 0.15205930
0.04190919 0.38688659 0.14972372
0.15909129 0.38833689 0.15054473
0.27595316 0.38955849 0.15105526
0.39262710 0.39048337 0.15108125
0.50942940 0.39140282 0.15170972
0.62584834 0.39219725 0.15211270
0.74214910 0.39280515 0.15223571
0.85834536 0.39331480 0.15230150
0.97445671 0.39375388 0.15234763
0.04656105 0.50649380 0.15174279
0.16309062 0.50730744 0.15200623
0.27947498 0.50798560 0.15216969
0.39573601 0.50855278 0.15226197
0.51189889 0.50903340 0.15231517
0.62798607 0.50945339 0.15236487
0.74401837 0.50983608 0.15243393
0.86001974 0.51020629 0.15255471
0.97601300 0.51058877 0.15275827
0.04931220 0.62428926 0.15228684
0.16544438 0.62474509 0.15233530
0.28150826 0.62514829 0.15238629
0.39752666 0.62552349 0.15247025
0.51352244 0.62589532 0.15261763
0.62951841 0.62628839 0.15285888
0.74553743 0.62672734 0.15322445
0.86160230 0.62723679 0.15374477
0.97773589 0.62784136 0.15445029
0.05103196 0.74121046 0.15251496
0.16702517 0.74158717 0.15269300
0.28302689 0.74199409 0.15297598
0.39905995 0.74245585 0.15339436
0.51514720 0.74299708 0.15397858
0.63131147 0.74364240 0.15475909
0.74757558 0.74441643 0.15576634
0.86396238 0.74534380 0.15703076
0.98049471 0.74644913 0.15858281
0.05258966 0.85819490 0.15358625
0.16870231 0.85877117 0.15423841
0.28490028 0.85946050 0.15509795
0.40120642 0.86028750 0.15619530
0.51764356 0.86127681 0.15756091
0.63423452 0.86245306 0.15922523
0.75100216 0.86384085 0.16121871
0.86796930 0.86546483 0.16357179
0.98515877 0.86734961 0.16631491
0.05485462 0.97618009 0.15665981
0.17134511 0.97723461 0.15813065
0.28799776 0.97848502 0.15991128
0.40483538 0.97995595 0.16203215
0.52188082 0.98167202 0.16452371
0.63915691 0.98365787 0.16741639
0.75668648 0.98593812 0.17074066
0.87449237 0.98853738 0.17452694
0.99259741 0.99148030 0.17880569
0.00965754 0.00958198 0.24038866
0.13020489 0.01445214 0.24478177
0.25030759 0.01886395 0.24867472
0.36998776 0.02284226 0.25209853
0.48926939 0.02641111 0.25508451
0.60817495 0.02959535 0.25766263
0.72672723 0.03241962 0.25986330
0.84494904 0.03490855 0.26171695
0.96286324 0.03708676 0.26325405
0.02473195 0.13974012 0.25323571
0.14386016 0.14315421 0.25610989
0.26271813 0.14611920 0.25864801
0.38115224 0.14886345 0.26061594
0.49918955 0.15128659 0.26231242
0.61699364 0.15335992 0.26374100
0.73452502 0.15515401 0.26489537
0.85180278 0.15669559 0.26580515
0.96884973 0.15800929 0.26650079
0.03538664 0.26536870 0.26124576
0.15328449 0.26761869 0.26289174
0.27017697 0.26893712 0.26444265
0.38920012 0.26924760 0.26511868
0.50620477 0.27229653 0.26596369
0.62269528 0.27398041 0.26670393
0.73945241 0.27503085 0.26715945
0.85604450 0.27590377 0.26746992
0.97248262 0.27663164 0.26766865
0.04249003 0.38740506 0.26558028
0.15959073 0.38877839 0.26633020
0.27598623 0.38986687 0.26671881
0.39087319 0.38936311 0.26499270
0.50993145 0.38978192 0.26514473
0.62627565 0.39223513 0.26751469
0.74238049 0.39298632 0.26781323
0.85854353 0.39347059 0.26787034
0.97463123 0.39389132 0.26791673
0.04691056 0.50678684 0.26739785
0.16338828 0.50755170 0.26762394
0.27972503 0.50818944 0.26775873
0.39583456 0.50870535 0.26773560
0.51183574 0.50902370 0.26739151
0.62815460 0.50950257 0.26773698
0.74417595 0.50995860 0.26801327
0.86016920 0.51033356 0.26816551
0.97616489 0.51072583 0.26840413
0.04951814 0.62445149 0.26785740
0.16562456 0.62488669 0.26790331
0.28167044 0.62527762 0.26796208
0.39767851 0.62564891 0.26806409
0.51367058 0.62602500 0.26823819
0.62967194 0.62643040 0.26851640
0.74570515 0.62689105 0.26893415
0.86179080 0.62743020 0.26951457
0.97795291 0.62807268 0.27028992
0.05118209 0.74133653 0.26811805
0.16717563 0.74172074 0.26832831
0.28318543 0.74214352 0.26865386
0.39923434 0.74262951 0.26912514
0.51534518 0.74320333 0.26977261
0.63154079 0.74388959 0.27062671
0.74784401 0.74471294 0.27171788
0.86427768 0.74569799 0.27307657
0.98086461 0.74686936 0.27473322
0.05277174 0.85837945 0.26933887
0.16891080 0.85899136 0.27005804
0.28514295 0.85972468 0.27099492
0.40149101 0.86060404 0.27217996
0.51797783 0.86165408 0.27364360
0.63462624 0.86289940 0.27541629
0.75145906 0.86436465 0.27752848
0.86849915 0.86607443 0.28001060
0.98576932 0.86805339 0.28289312
0.05515640 0.97651777 0.27267896
0.17169940 0.97763605 0.27425159
0.28841231 0.97895859 0.27614436
0.40531795 0.98051001 0.27838770
0.52243915 0.98231494 0.28101207
0.63979876 0.98439801 0.28404791
0.75741961 0.98678383 0.28752566
0.87532453 0.98949704 0.29147578
0.99353636 0.99256226 0.29592870
0.01140500 0.01128892 0.35749062
0.13179851 0.01600082 0.36171006
0.25175515 0.02026262 0.36544060
0.37129775 0.02409893 0.36871269
0.49044914 0.02753439 0.37155677
0.60923216 0.03059362 0.37400329
0.72766965 0.03330124 0.37608270
0.84578444 0.03568189 0.37782543
0.96359935 0.03776018 0.37926194
0.02599456 0.14094726 0.36979606
0.14500918 0.14424288 0.37249197
0.26366392 0.14717097 0.37480207
0.38198156 0.14975664 0.37675516
0.49998416 0.15202469 0.37838230
0.61769553 0.15399905 0.37971485
0.73513823 0.15570462 0.38078274
0.85233504 0.15716604 0.38161638
0.96930880 0.15840796 0.38224622
0.03625096 0.26617062 0.37738322
0.15414402 0.26832849 0.37890102
0.27173008 0.27018268 0.38017829
0.38912801 0.27168657 0.38127445
0.50627630 0.27313109 0.38191483
0.62312109 0.27436043 0.38243196
0.73982415 0.27534509 0.38283181
0.85636138 0.27616599 0.38310091
0.97275240 0.27685020 0.38326863
0.04304353 0.38789648 0.38141119
0.16007500 0.38919563 0.38209362
0.27678401 0.39027042 0.38262977
0.39222893 0.39029165 0.38341434
0.50998146 0.38947225 0.38345214
0.62675075 0.39209981 0.38325812
0.74260717 0.39315146 0.38338697
0.85873282 0.39361920 0.38343811
0.97479948 0.39402442 0.38348827
0.04724159 0.50706237 0.38303906
0.16367010 0.50778131 0.38323133
0.27996164 0.50838122 0.38334386
0.39559074 0.50877216 0.38328102
0.50937667 0.50742017 0.38156346
0.62810913 0.50751674 0.38141601
0.74446274 0.50989060 0.38342897
0.86032031 0.51046182 0.38378577
0.97631937 0.51086811 0.38406423
0.04971446 0.62460578 0.38342594
0.16579776 0.62502318 0.38347280
0.28182826 0.62540468 0.38354286
0.39782502 0.62577478 0.38366499
0.51369519 0.62613529 0.38377904
0.62955724 0.62641151 0.38372685
0.74587555 0.62697904 0.38447124
0.86199090 0.62763223 0.38530031
0.97818139 0.62831876 0.38615560
0.05133146 0.74146421 0.38373091
0.16732796 0.74185876 0.38397691
0.28334848 0.74230025 0.38434854
0.39941586 0.74281330 0.38487625
0.51555285 0.74342254 0.38559040
0.63178126 0.74415245 0.38651987
0.74812643 0.74502751 0.38769661
0.86461068 0.74607353 0.38915611
0.98125483 0.74731392 0.39092150
0.05296192 0.85857517 0.38511308
0.16913003 0.85922555 0.38590277
0.28539898 0.86000571 0.38692051
0.40179161 0.86094027 0.38819675
0.51833074 0.86205386 0.38976193
0.63503922 0.86337111 0.39164651
0.75193987 0.86491664 0.39388091
0.86905553 0.86671508 0.39649559
0.98640904 0.86879105 0.39952101
0.05547514 0.97687617 0.38873153
0.17207329 0.97806105 0.39040946
0.28884908 0.97945856 0.39241787
0.40582537 0.98109332 0.39478720
0.52302498 0.98298994 0.39754789
0.64047075 0.98517306 0.40073039
0.75818551 0.98766731 0.40436515
0.87619210 0.99049730 0.40848261
0.99451334 0.99368766 0.41311321
0.01309944 0.01294111 0.47453277
0.13334202 0.01749739 0.47858277
0.25315549 0.02161193 0.48215420
0.37256267 0.02530935 0.48527752
0.49158641 0.02861427 0.48798318
0.61024952 0.03155134 0.49030161
0.72857486 0.03414515 0.49226327
0.84658525 0.03642036 0.49389859
0.96430352 0.03840157 0.49523803
0.02721211 0.14210919 0.48630930
0.14610191 0.14527734 0.48887046
0.26463941 0.14808659 0.49105548
0.38284744 0.15056156 0.49289480
0.50074884 0.15272688 0.49441888
0.61836644 0.15460718 0.49565817
0.73572307 0.15622707 0.49664309
0.85284157 0.15761119 0.49740411
0.96974478 0.15878415 0.49797166
0.03707939 0.26693693 0.49348456
0.15487482 0.26899563 0.49490143
0.27239473 0.27077824 0.49604468
0.38966208 0.27230908 0.49694537
0.50669985 0.27361344 0.49763221
0.62353008 0.27471604 0.49813625
0.74017638 0.27564073 0.49848896
0.85666140 0.27641244 0.49872022
0.97300795 0.27705585 0.49886043
0.04357059 0.38836182 0.49721764
0.16053007 0.38958975 0.49783478
0.27728955 0.39062416 0.49828178
0.39384017 0.39146470 0.49863660
0.51028987 0.39205806 0.49896600
0.62665293 0.39274342 0.49895032
0.74280699 0.39332092 0.49896129
0.85891407 0.39376162 0.49900601
0.97496236 0.39415415 0.49906344
0.04755504 0.50732137 0.49866763
0.16393698 0.50799722 0.49882959
0.28019633 0.50856264 0.49892290
0.39622678 0.50901104 0.49902249
0.51085241 0.50837270 0.49969372
0.62798057 0.50706911 0.49972338
0.74479793 0.50965650 0.49921409
0.86047870 0.51058719 0.49941917
0.97647735 0.51101656 0.49973979
0.04990206 0.62475308 0.49899364
0.16596487 0.62515553 0.49904497
0.28198263 0.62553044 0.49912984
0.39797050 0.62590197 0.49927848
0.51337495 0.62616571 0.49942431
0.62691429 0.62475004 0.49824466
0.74578144 0.62503523 0.49847781
0.86233377 0.62766014 0.50094663
0.97842395 0.62857924 0.50204727
0.05148097 0.74159447 0.49935476
0.16748307 0.74200219 0.49964001
0.28351694 0.74246523 0.50006123
0.39960542 0.74300818 0.50064886
0.51576760 0.74365561 0.50143181
0.63191454 0.74441276 0.50235107
0.74818151 0.74521700 0.50324356
0.86497341 0.74639762 0.50507655
0.98166963 0.74778087 0.50714206
0.05316109 0.85878302 0.50091008
0.16936089 0.85947471 0.50177380
0.28566928 0.86030454 0.50287592
0.40210910 0.86129714 0.50424687
0.51870318 0.86247714 0.50591710
0.63547428 0.86386916 0.50791699
0.75244439 0.86549778 0.51027533
0.86963870 0.86738743 0.51302412
0.98707894 0.86956347 0.51619912
0.05581175 0.97725625 0.50481869
0.17246766 0.97851058 0.50660545
0.28930898 0.97998589 0.50873301
0.40635855 0.98170682 0.51123183
0.52363920 0.98369798 0.51413236
0.64117375 0.98598400 0.51746503
0.75898506 0.98858950 0.52126030
0.87709595 0.99153912 0.52554861
0.99552925 0.99485747 0.53036041
0.01474175 0.01453951 0.59151622
0.13483605 0.01894301 0.59540028
0.25450898 0.02291313 0.59881612
0.37378338 0.02647450 0.60179419
0.49268208 0.02965173 0.60436493
0.61122793 0.03246947 0.60655878
0.72944374 0.03495232 0.60840620
0.84735237 0.03712492 0.60993763
0.96497664 0.03901189 0.61118351
0.02838640 0.14322688 0.60277565
0.14715400 0.14627039 0.60520566
0.26557705 0.14896335 0.60726986
0.38367838 0.15133040 0.60899872
0.50148084 0.15339617 0.61042266
0.61900725 0.15518527 0.61157215
0.73628045 0.15672233 0.61247762
0.85332328 0.15803198 0.61316952
0.97015856 0.15913884 0.61367830
0.03787341 0.26766856 0.60955082
0.15557272 0.26963074 0.61087132
0.27300431 0.27132524 0.61192844
0.39019099 0.27277665 0.61275264
0.50715562 0.27400962 0.61337435
0.62392101 0.27504877 0.61382402
0.74051001 0.27591872 0.61413209
0.85694545 0.27664410 0.61432902
0.97325017 0.27724953 0.61444524
0.04407210 0.38880203 0.61300082
0.16096155 0.38996158 0.61355637
0.27766008 0.39093628 0.61395096
0.39419049 0.39175071 0.61421516
0.51057565 0.39242915 0.61438004
0.62683876 0.39299700 0.61447421
0.74300178 0.39347897 0.61452876
0.85908821 0.39389880 0.61457521
0.97512077 0.39428148 0.61464344
0.04785180 0.50756480 0.61428475
0.16418980 0.50820040 0.61441990
0.28041369 0.50873399 0.61449652
0.39654486 0.50918979 0.61454631
0.51256840 0.50956388 0.61465168
0.62858740 0.50980044 0.61488446
0.74466114 0.51026459 0.61488838
0.86062360 0.51073077 0.61506871
0.97663970 0.51117218 0.61543198
0.05008183 0.62489437 0.61456170
0.16612679 0.62528471 0.61462101
0.28213446 0.62565587 0.61472420
0.39812692 0.62603241 0.61490198
0.51399229 0.62640498 0.61523543
0.62849435 0.62578217 0.61638639
0.74570653 0.62467461 0.61698274
0.86274378 0.62754102 0.61698113
0.97868644 0.62885041 0.61796867
0.05163151 0.74172826 0.61499077
0.16764184 0.74215201 0.61531878
0.28369170 0.74263942 0.61579310
0.39980392 0.74321512 0.61644418
0.51599374 0.74390337 0.61730231
0.63172969 0.74461828 0.61830412
0.74600309 0.74399360 0.61807954
0.86544017 0.74496420 0.61939581
0.98227306 0.74811087 0.62322890
0.05337016 0.85900396 0.61673106
0.16960427 0.85973980 0.61767233
0.28595474 0.86062215 0.61886233
0.40244439 0.86167563 0.62033150
0.51909604 0.86292486 0.62211030
0.63592911 0.86439461 0.62422752
0.75287214 0.86610221 0.62661720
0.87009844 0.86801041 0.62909789
0.98782934 0.87032365 0.63271694
0.05616710 0.97765897 0.62094166
0.17288342 0.97898559 0.62284074
0.28979290 0.98054155 0.62509097
0.40691838 0.98235149 0.62772280
0.52428270 0.98444003 0.63076667
0.64190868 0.98683178 0.63425303
0.75981910 0.98955140 0.63821224
0.87803627 0.99262368 0.64267294
0.99658509 0.99607284 0.64766726
0.01633284 0.01608508 0.70844216
0.13628147 0.02033865 0.71216380
0.25581650 0.02416719 0.71542755
0.37496075 0.02759534 0.71826387
0.49373706 0.03064773 0.72070321
0.61216827 0.03334897 0.72277600
0.73027720 0.03572370 0.72451269
0.84808669 0.03779654 0.72594373
0.96561959 0.03959211 0.72709957
0.02951831 0.14430131 0.71919630
0.14816634 0.14722301 0.72149866
0.26647758 0.14980253 0.72344557
0.38447485 0.15206450 0.72506746
0.50218100 0.15403355 0.72639479
0.61961886 0.15573429 0.72745799
0.73681127 0.15719136 0.72828752
0.85378105 0.15842938 0.72891382
0.97055104 0.15947297 0.72936733
0.03863392 0.26836647 0.72558319
0.15623975 0.27023499 0.72681083
0.27358560 0.27184417 0.72778544
0.39069432 0.27321864 0.72853745
0.50758872 0.27438303 0.72909732
0.62429165 0.27536195 0.72949549
0.74082594 0.27618004 0.72976241
0.85721442 0.27686193 0.72992852
0.97347994 0.27743223 0.73002426
0.04454896 0.38921807 0.72876192
0.16137101 0.39031209 0.72925940
0.27800990 0.39122961 0.72960626
0.39448847 0.39199526 0.72983295
0.51082954 0.39263367 0.72996992
0.62705595 0.39316946 0.73004760
0.74319054 0.39362726 0.73009646
0.85925614 0.39403169 0.73014692
0.97527558 0.39440737 0.73022945
0.04813277 0.50779362 0.72989160
0.16442946 0.50839182 0.73000346
0.28061980 0.50889636 0.73006712
0.39672663 0.50933188 0.73011304
0.51277272 0.50972295 0.73017177
0.62878094 0.51009383 0.73027443
0.74477458 0.51047001 0.73044953
0.86077556 0.51087612 0.73072819
0.97680731 0.51133592 0.73114200
0.05025467 0.62503061 0.73013131
0.16628440 0.62541167 0.73020210
0.28228460 0.62578192 0.73032713
0.39827811 0.62616598 0.73053683
0.51428624 0.62658806 0.73086296
0.63029280 0.62704386 0.73139036
0.74640429 0.62748049 0.73219161
0.86267991 0.62825877 0.73289499
0.97894729 0.62915267 0.73392252
0.05178397 0.74186656 0.73064015
0.16780517 0.74230916 0.73101443
0.28387365 0.74282380 0.73154537
0.40001225 0.74343509 0.73226340
0.51624306 0.74416760 0.73319923
0.63245998 0.74501667 0.73443414
0.74760165 0.74512194 0.73659794
0.86566841 0.74492516 0.73828055
0.98298577 0.74832779 0.73970879
0.05359001 0.85923895 0.73257722
0.16986108 0.86002179 0.73359954
0.28625625 0.86095949 0.73488094
0.40279836 0.86207669 0.73645185
0.51951023 0.86339801 0.73834272
0.63640775 0.86494814 0.74058362
0.75304581 0.86670060 0.74307587
0.86916012 0.86779168 0.74411136
0.98957713 0.86993050 0.74723572
0.05654209 0.97808531 0.73710161
0.17332145 0.97948705 0.73911652
0.29030173 0.98112651 0.74149293
0.40750576 0.98302829 0.74426128
0.52495638 0.98521704 0.74745201
0.64267641 0.98771738 0.75109556
0.76068589 0.99055447 0.75522042
0.87894749 0.99376809 0.75974295
0.99769795 0.99736196 0.76444612
0.01787358 0.01757880 0.82531178
0.13767919 0.02168527 0.82887451
0.25707895 0.02537507 0.83198969
0.37609569 0.02867285 0.83468778
0.49475224 0.03160323 0.83699922
0.61307144 0.03419083 0.83895445
0.73107612 0.03646027 0.84058393
0.84878912 0.03843619 0.84191810
0.96623327 0.04014320 0.84298740
0.03060876 0.14533343 0.83557244
0.14913985 0.14813616 0.83775068
0.26734190 0.15060508 0.83958379
0.38523774 0.15276481 0.84110223
0.50285022 0.15463998 0.84233645
0.62020216 0.15625521 0.84331688
0.73731640 0.15763513 0.84407398
0.85421578 0.15880436 0.84463818
0.97092312 0.15978753 0.84503994
0.03936181 0.26903164 0.84158287
0.15687679 0.27080932 0.84272116
0.27413955 0.27233603 0.84361676
0.39117292 0.27363640 0.84430011
0.50799974 0.27473504 0.84480165
0.62464284 0.27565658 0.84515183
0.74112505 0.27642566 0.84538110
0.85746921 0.27706688 0.84551990
0.97369816 0.27760489 0.84559867
0.04500206 0.38961093 0.84450215
0.16175935 0.39064224 0.84494506
0.27834124 0.39150543 0.84524769
0.39477055 0.39222511 0.84544050
0.51107012 0.39282590 0.84555392
0.62726279 0.39333245 0.84561840
0.74337138 0.39376936 0.84566439
0.85941875 0.39416126 0.84572233
0.97542771 0.39453279 0.84582267
0.04839884 0.50800880 0.84548938
0.16465685 0.50857243 0.84558146
0.28081627 0.50905077 0.84563568
0.39689993 0.50946845 0.84568250
0.51293067 0.50985008 0.84575235
0.62893133 0.51022030 0.84587568
0.74492473 0.51060373 0.84608295
0.86093371 0.51102500 0.84640458
0.97698110 0.51150872 0.84687104
0.05042147 0.62516276 0.84570366
0.16643861 0.62553739 0.84578946
0.28243398 0.62590957 0.84593982
0.39843041 0.62630392 0.84618520
0.51445073 0.62674508 0.84655604
0.63051773 0.62725762 0.84708289
0.74665425 0.62786580 0.84779690
0.86288362 0.62859511 0.84872652
0.97922769 0.62947016 0.84990292
0.05193926 0.74201032 0.84630408
0.16797395 0.74247463 0.84672815
0.28406368 0.74301932 0.84731921
0.40023129 0.74366904 0.84810770
0.51649961 0.74444839 0.84912407
0.63289003 0.74538165 0.85040008
0.74939137 0.74646822 0.85201949
0.86612424 0.74766498 0.85404924
0.98308823 0.74929011 0.85613610
0.05382154 0.85948897 0.84844974
0.17013219 0.86032164 0.84955663
0.28657470 0.86131754 0.85093294
0.40317191 0.86250129 0.85260909
0.51994664 0.86389753 0.85461555
0.63692105 0.86553087 0.85698300
0.75400934 0.86741053 0.85978416
0.87062122 0.86899392 0.86343394
0.99037529 0.87045722 0.86666714
0.05693762 0.97853622 0.85329973
0.17378266 0.98001593 0.85543400
0.29083636 0.98174171 0.85794010
0.40812157 0.98373819 0.86084848
0.52566113 0.98602999 0.86418957
0.64347785 0.98864175 0.86799384
0.76158894 0.99159901 0.87229067
0.87971413 0.99498342 0.87689500
0.99890243 0.99878517 0.87938336
0.01936489 0.01902163 0.94212628
0.13903011 0.02298383 0.94553360
0.25829723 0.02653774 0.94850372
0.37718909 0.02970799 0.95106709
0.49572851 0.03251919 0.95325414
0.61393834 0.03499598 0.95509533
0.73184140 0.03716298 0.95662111
0.84946054 0.03904482 0.95786191
0.96681858 0.04066611 0.95884819
0.03165861 0.14632421 0.95190527
0.15007540 0.14901082 0.95396289
0.26817090 0.15137198 0.95568573
0.38596796 0.15343231 0.95710423
0.50348939 0.15521644 0.95824884
0.62075805 0.15674899 0.95915001
0.73779676 0.15805460 0.95983819
0.85462836 0.15915788 0.96034381
0.97127568 0.16008346 0.96069733
0.04005798 0.26966502 0.95755104
0.15748474 0.27135471 0.95860350
0.27466704 0.27280179 0.95942361
0.39162771 0.27403089 0.96004180
0.50838957 0.27506662 0.96048852
0.62497547 0.27593363 0.96079423
0.74140824 0.27665652 0.96098936
0.85771071 0.27725993 0.96110435
0.97390572 0.27776849 0.96116967
0.04543230 0.38998155 0.96022268
0.16212746 0.39095301 0.96061454
0.27865497 0.39176469 0.96087646
0.39503766 0.39244124 0.96103890
0.51129837 0.39300726 0.96113228
0.62745992 0.39348740 0.96118707
0.74354517 0.39390626 0.96123370
0.85957693 0.39428849 0.96130263
0.97557805 0.39465869 0.96142429
0.04865091 0.50821131 0.96107928
0.16487288 0.50874321 0.96115509
0.28100401 0.50919819 0.96120339
0.39706714 0.50960086 0.96125461
0.51308510 0.50997586 0.96133921
0.62908073 0.51034780 0.96148764
0.74507686 0.51074132 0.96173033
0.86109633 0.51118104 0.96209773
0.97716196 0.51169158 0.96262029
0.05058312 0.62529179 0.96127995
0.16659031 0.62566283 0.96138426
0.28258348 0.62603978 0.96156347
0.39858546 0.62644726 0.96184804
0.51461909 0.62690991 0.96226841
0.63070721 0.62745235 0.96285502
0.74687264 0.62809920 0.96363832
0.86313822 0.62887509 0.96464875
0.97952679 0.62980465 0.96591677
0.05209826 0.74216051 0.96198376
0.16814908 0.74264936 0.96246113
0.28426270 0.74322696 0.96311582
0.40046195 0.74391794 0.96397829
0.51676967 0.74474692 0.96507897
0.63320868 0.74573854 0.96644832
0.74980178 0.74691737 0.96811689
0.86657188 0.74830773 0.97011580
0.98354216 0.74993498 0.97247356
0.05406564 0.85975497 0.96434983
0.17041851 0.86064031 0.96554480
0.28691100 0.86169725 0.96701952
0.40356593 0.86295040 0.96880443
0.52040615 0.86442440 0.97092999
0.63745447 0.86614387 0.97342663
0.75473254 0.86813323 0.97632602
0.87224209 0.87040059 0.97970592
0.99013094 0.87292068 0.98361914
0.05735459 0.97901267 0.96953724
0.17426793 0.98057319 0.97179437
0.29139769 0.98238814 0.97443367
0.40876672 0.98448215 0.97748558
0.52639785 0.98687985 0.98098056
0.64431390 0.98960586 0.98494904
0.76253717 0.99268488 0.98942165
0.88101984 0.99615099 0.99445103
1.00000000 1.00000000 1.00000000
