assets/luts/DB_Sports_Highlight_Reel_Rec709_50.cube
TITLE "Sports Highlight Reel Rec709 50"
# Red changes fastest. Full-range normalized input.
LUT_3D_SIZE 9
DOMAIN_MIN 0 0 0
DOMAIN_MAX 1 1 1
0.00000000 0.00000000 0.00000000
0.09854609 0.00000000 0.00012359
0.20153335 0.00000000 0.00031705
0.30867688 0.00000000 0.00046956
0.41972025 0.00000000 0.00058384
0.53442518 0.00000000 0.00067076
0.65254341 0.00000000 0.00072843
0.77382612 0.00000000 0.00075547
0.89802426 0.00000000 0.00075127
0.00000000 0.10356280 0.00124981
0.10507880 0.10578821 0.00000000
0.21487179 0.10762278 0.00000000
0.32843585 0.10942971 0.00000000
0.44522722 0.11110004 0.00000000
0.56499850 0.11271157 0.00000000
0.68751480 0.11426945 0.00000000
0.81252754 0.11577355 0.00000000
0.93979008 0.11722307 0.00000000
0.00000000 0.22000129 0.00209110
0.11019922 0.22414077 0.00000000
0.22574455 0.22727365 0.00000000
0.34420519 0.23031144 0.00000000
0.46537198 0.23320152 0.00000000
0.58897531 0.23594437 0.00000000
0.71476989 0.23854859 0.00000000
0.84251112 0.24101317 0.00000000
0.97195578 0.24333631 0.00000000
0.00000000 0.34650502 0.00222030
0.11522264 0.35159801 0.00000000
0.23533483 0.35557353 0.00000000
0.35782332 0.35932882 0.00000000
0.48244157 0.36286335 0.00000000
0.60894468 0.36617539 0.00000000
0.73708938 0.36926327 0.00000000
0.86663393 0.37212476 0.00000000
0.99733792 0.37475724 0.00000000
0.00000000 0.48025629 0.00166852
0.11997431 0.48547114 0.00000000
0.24369908 0.48971367 0.00000000
0.36924406 0.49365199 0.00000000
0.49636616 0.49728426 0.00000000
0.62482372 0.50060822 0.00000000
0.75437637 0.50362121 0.00000000
0.88478483 0.50632028 0.00000000
1.00000000 0.51127498 0.02107042
0.00000000 0.61841969 0.00057839
0.12427997 0.62299605 0.00000000
0.25065038 0.62695432 0.00000000
0.37828992 0.63052291 0.00000000
0.50695839 0.63369912 0.00000000
0.63641671 0.63647994 0.00000000
0.76642665 0.63886206 0.00000000
0.89675080 0.64084197 0.00000000
1.00000000 0.64516153 0.05275559
0.00079463 0.75783193 0.00000000
0.12788031 0.76142875 0.00000000
0.25592752 0.76455215 0.00000000
0.38469745 0.76719903 0.00000000
0.51395218 0.76936600 0.00000000
0.64345448 0.77104949 0.00000000
0.77296770 0.77224574 0.00000000
0.90225561 0.77295086 0.00000000
1.00000000 0.77304718 0.09265134
0.00211992 0.89574366 0.00000000
0.13046059 0.89804170 0.00000000
0.25921873 0.89977877 0.00000000
0.38815749 0.90095117 0.00000000
0.51704055 0.90155507 0.00000000
0.64563194 0.90158648 0.00000000
0.77369595 0.90104140 0.00000000
0.90099692 0.89991576 0.00000000
1.00000000 0.89211962 0.14067089
0.07740013 1.00000000 0.07494893
0.20343210 1.00000000 0.08703404
0.32691842 1.00000000 0.09981818
0.44760959 1.00000000 0.11330202
0.56525631 1.00000000 0.12748559
0.67960953 1.00000000 0.14236820
0.79042048 1.00000000 0.15794841
0.89744062 1.00000000 0.17422399
1.00000000 0.99958613 0.19653340
0.00000000 0.00008364 0.09630063
0.09924054 0.00000000 0.09979970
0.20291765 0.00000000 0.10212597
0.31069917 0.00000000 0.10434562
0.42233426 0.00000000 0.10645174
0.53757535 0.00000000 0.10844557
0.65617381 0.00000000 0.11032555
0.77788069 0.00000000 0.11209069
0.90244681 0.00000000 0.11374076
0.00000000 0.10433495 0.10486986
0.10513234 0.10656483 0.10742888
0.23251866 0.10373908 0.10448983
0.36412106 0.10077967 0.10183432
0.49579222 0.09855845 0.09963714
0.62741421 0.09707198 0.09808068
0.75958523 0.09610981 0.09701243
0.89226357 0.09561586 0.09638112
1.00000000 0.10239742 0.10295874
0.00000000 0.22126382 0.11207057
0.09609239 0.23095054 0.09918020
0.22778746 0.22922207 0.09996746
0.35800411 0.22907233 0.09921267
0.49255438 0.22870909 0.09646300
0.62611795 0.22872761 0.09613842
0.75977435 0.22913142 0.09634600
0.89374611 0.22982739 0.09682912
1.00000000 0.23777957 0.11041706
0.00000000 0.34806650 0.11768641
0.09347758 0.36176972 0.09617047
0.22694995 0.36192568 0.09628591
0.36064159 0.36238797 0.09701709
0.49464503 0.36325821 0.09727676
0.62905609 0.36427756 0.09784969
0.76356141 0.36545403 0.09878087
0.89818941 0.36674605 0.09983042
1.00000000 0.37549065 0.12458647
0.00000000 0.48192446 0.12170365
0.09578047 0.49673763 0.09732560
0.23016897 0.49781394 0.09816823
0.36472211 0.49903836 0.09915459
0.49938206 0.50035918 0.10023458
0.63409475 0.50172421 0.10135442
0.76880291 0.50307984 0.10247353
0.90344994 0.50437406 0.10354155
1.00000000 0.51268174 0.14574270
0.00000000 0.62000344 0.12425462
0.10058242 0.63397924 0.10063686
0.23529978 0.63534656 0.10176435
0.36999204 0.63668589 0.10287089
0.50460291 0.63794473 0.10390806
0.63907609 0.63907062 0.10482743
0.77335526 0.64001108 0.10558057
0.90738413 0.64071363 0.10611908
1.00000000 0.64651193 0.17408223
0.00000000 0.75945783 0.12558236
0.10573764 0.77149778 0.10425895
0.24014670 0.77256223 0.10512341
0.37434127 0.77342215 0.10580402
0.50826503 0.77402506 0.10625235
0.64186168 0.77431848 0.10642000
0.77507492 0.77424994 0.10625853
0.90784844 0.77376696 0.10571953
1.00000000 0.77415238 0.20968194
0.00000000 0.89743484 0.12600101
0.10910257 0.90729547 0.10634843
0.24256615 0.90746319 0.10640186
0.37562582 0.90724984 0.10610856
0.50822528 0.90660295 0.10542008
0.64030822 0.90547004 0.10428803
0.77181833 0.90379864 0.10266396
0.90269931 0.90153627 0.10049947
1.00000000 0.89279019 0.25246084
0.08144903 1.00000000 0.19387930
0.20716616 1.00000000 0.20466555
0.33028110 1.00000000 0.21606804
0.45054444 1.00000000 0.22808714
0.56770702 1.00000000 0.24072253
0.68151991 1.00000000 0.25397316
0.79173445 1.00000000 0.26783720
0.89810226 1.00000000 0.28231200
1.00000000 0.99963198 0.30214457
0.00000000 0.00016753 0.19415004
0.09990373 0.00000000 0.20093447
0.20427565 0.00000000 0.20536149
0.31269462 0.00000000 0.20959671
0.42491237 0.00000000 0.21363708
0.54068033 0.00000000 0.21748049
0.65974968 0.00000000 0.22112562
0.78187133 0.00000000 0.22457189
0.90679598 0.00000000 0.22781942
0.00000000 0.10509530 0.20983894
0.10364759 0.10543260 0.23957871
0.23337481 0.10234493 0.23638854
0.36393566 0.09987093 0.23403155
0.49522062 0.09799080 0.23217328
0.62702985 0.09668946 0.23079089
0.75937947 0.09589218 0.22987646
0.89221730 0.09554531 0.22938252
1.00000000 0.10291264 0.23183593
0.00000000 0.22250468 0.22324809
0.09536946 0.23055718 0.23158284
0.22750200 0.22929505 0.23007463
0.35776487 0.22912941 0.22968221
0.49212527 0.22878977 0.22940887
0.62624587 0.22883176 0.22930215
0.76002906 0.22933770 0.22960677
0.89409600 0.23012078 0.23017194
1.00000000 0.23879340 0.23862970
0.00000000 0.34959597 0.23416560
0.09353778 0.36179424 0.22926062
0.22733925 0.36196191 0.22955586
0.36083866 0.36200351 0.23222904
0.49287293 0.36354253 0.23303988
0.62920385 0.36469526 0.23149455
0.76405756 0.36588295 0.23225382
0.89871908 0.36720171 0.23332855
1.00000000 0.37681546 0.25117199
0.00000000 0.48355086 0.24256385
0.09618763 0.49708325 0.23071782
0.23064028 0.49821482 0.23161593
0.36527726 0.49944005 0.23274881
0.49984702 0.50071996 0.23428445
0.63451918 0.50217536 0.23508490
0.76932314 0.50352919 0.23597703
0.90394296 0.50479032 0.23700892
1.00000000 0.51412949 0.26974286
0.00000000 0.62153597 0.24856472
0.10112251 0.63444347 0.23414410
0.23583766 0.63580717 0.23526991
0.37050864 0.63712502 0.23635841
0.50507934 0.63834413 0.23736294
0.63949202 0.63941283 0.23823334
0.77369283 0.64027893 0.23891563
0.90762416 0.64088879 0.23936955
1.00000000 0.64789406 0.29454377
0.00000000 0.76070667 0.25240167
0.10619427 0.77187895 0.23769514
0.24053681 0.77287983 0.23850259
0.37464572 0.77365835 0.23910975
0.50846470 0.77416204 0.23946819
0.64193746 0.77433842 0.23952950
0.77500768 0.77413502 0.23924525
0.90761907 0.77349936 0.23856702
1.00000000 0.77527976 0.32565722
0.00000000 0.89821107 0.25437974
0.10925935 0.90739190 0.23952745
0.24259208 0.90743609 0.23946856
0.37550177 0.90708140 0.23904648
0.50793213 0.90627534 0.23821280
0.63982685 0.90496544 0.23691908
0.77112962 0.90309922 0.23511692
0.90178414 0.90062422 0.23275788
1.00000000 0.89347307 0.36300849
0.08557136 1.00000000 0.31186546
0.21096401 1.00000000 0.32129657
0.33369797 1.00000000 0.33126100
0.45352396 1.00000000 0.34175879
0.57019291 1.00000000 0.35278927
0.68345603 1.00000000 0.36435101
0.79306481 1.00000000 0.37644180
0.89877099 1.00000000 0.38905857
1.00000000 0.99967988 0.40633020
0.00000000 0.00025051 0.29352951
0.10055846 0.00000000 0.30352158
0.20561526 0.00000000 0.30999614
0.31466348 0.00000000 0.31619335
0.42745471 0.00000000 0.32211067
0.54374024 0.00000000 0.32774640
0.66327112 0.00000000 0.33309961
0.78579812 0.00000000 0.33817010
0.91107182 0.00000000 0.34295835
0.00000000 0.10584294 0.31615428
0.10243845 0.10429395 0.37162877
0.23252050 0.10140058 0.36876143
0.36329685 0.09914962 0.36649278
0.49471191 0.09748844 0.36477382
0.62670829 0.09636494 0.36355519
0.75923002 0.09572650 0.36278899
0.89222084 0.09552065 0.36242684
1.00000000 0.10349566 0.36060101
0.00000000 0.22372343 0.33559510
0.09486245 0.23014475 0.36427371
0.22706309 0.22920259 0.36318180
0.35964995 0.22875698 0.36245753
0.49281411 0.22869055 0.36234268
0.62643807 0.22896853 0.36249584
0.76031826 0.22957555 0.36289724
0.89447386 0.23043971 0.36353888
1.00000000 0.23986625 0.36653233
0.00000000 0.35109338 0.35162961
0.09363652 0.36186273 0.36238947
0.22736587 0.36225484 0.36258303
0.36132854 0.36274154 0.36283899
0.49313339 0.36409133 0.36401634
0.62920083 0.36518647 0.36485790
0.76455581 0.36632529 0.36573802
0.89925485 0.36766255 0.36683202
1.00000000 0.37819042 0.37725083
0.00000000 0.48513548 0.36422025
0.09661802 0.49744999 0.36413008
0.23112850 0.49863098 0.36507542
0.36597267 0.49977521 0.36633089
0.49992052 0.50046954 0.36995776
0.63257690 0.50253181 0.37121399
0.76951592 0.50399923 0.36969880
0.90441747 0.50519179 0.37046448
1.00000000 0.51561830 0.39304146
0.00000000 0.62301733 0.37347934
0.10166400 0.63490847 0.36765262
0.23637045 0.63626249 0.36877116
0.37101545 0.63755175 0.36983793
0.50557104 0.63868672 0.37091860
0.63977540 0.63962854 0.37219039
0.77387055 0.64050392 0.37245643
0.90781997 0.64102873 0.37259566
1.00000000 0.64930793 0.41411121
0.00000000 0.76189519 0.37963127
0.10663046 0.77224053 0.37111381
0.24089996 0.77317178 0.37185867
0.37491673 0.77386285 0.37238679
0.50862449 0.77426124 0.37264984
0.64196706 0.77431407 0.37260123
0.77488681 0.77396967 0.37219071
0.90732999 0.77317581 0.37136419
1.00000000 0.77642928 0.44054872
0.00000000 0.89891805 0.38297247
0.10937384 0.90744838 0.37267018
0.24256922 0.90736299 0.37249337
0.37532244 0.90686090 0.37193694
0.50757720 0.90588961 0.37095246
0.63927721 0.90439667 0.36949150
0.77036614 0.90232960 0.36750565
0.90078771 0.89963591 0.36494648
1.00000000 0.89416814 0.47228604
0.08976710 1.00000000 0.42887874
0.21482565 1.00000000 0.43689837
0.33716907 1.00000000 0.44536825
0.45654818 1.00000000 0.45428810
0.57271404 1.00000000 0.46365686
0.68541800 1.00000000 0.47347276
0.79441166 1.00000000 0.48373314
0.89944694 1.00000000 0.49443453
1.00000000 0.99972967 0.50906323
0.00000000 0.00033263 0.39441041
0.10120518 0.00000000 0.40754044
0.20693771 0.00000000 0.41600477
0.31660599 0.00000000 0.42410644
0.42996143 0.00000000 0.43184335
0.54675521 0.00000000 0.43921422
0.66673822 0.00000000 0.44621850
0.78966112 0.00000000 0.45285638
0.91527436 0.00000000 0.45912867
0.00000000 0.10657885 0.42379355
0.10132377 0.10323600 0.50371032
0.23164817 0.10056658 0.50105215
0.36264777 0.09852182 0.49897527
0.49426625 0.09704923 0.49743125
0.62644732 0.09609636 0.49637167
0.75913467 0.09561071 0.49574812
0.89227199 0.09553982 0.49551216
1.00000000 0.10414663 0.48922378
0.00000000 0.22492008 0.44908422
0.09448544 0.22976993 0.49699196
0.22685736 0.22899323 0.49609664
0.35971478 0.22866476 0.49561905
0.49300167 0.22873190 0.49551241
0.62666246 0.22914200 0.49572768
0.76063972 0.22984294 0.49621552
0.89487749 0.23078211 0.49692804
1.00000000 0.24099828 0.49409489
0.00000000 0.35255869 0.47005004
0.09378185 0.36196913 0.49555651
0.22756476 0.36249106 0.49587522
0.36164611 0.36328177 0.49640862
0.49583809 0.36431861 0.49708808
0.63036811 0.36549777 0.49813578
0.76508903 0.36677215 0.49922515
0.89979456 0.36812651 0.50033892
1.00000000 0.37961561 0.50279321
0.00000000 0.48667836 0.48664391
0.09706944 0.49783581 0.49756052
0.23162520 0.49906280 0.49854706
0.36633898 0.50035670 0.49960379
0.50083156 0.50145523 0.50062367
0.63291329 0.50318619 0.50234182
0.76951208 0.50451237 0.50312458
0.90486299 0.50557815 0.50390544
1.00000000 0.51714823 0.51560911
0.00000000 0.62444758 0.49896909
0.10220467 0.63537219 0.50116052
0.23689593 0.63671048 0.50226620
0.37150864 0.63796530 0.50330298
0.50614954 0.63893193 0.50445403
0.63933103 0.63918282 0.50799654
0.77138579 0.64059860 0.50859910
0.90764020 0.64116141 0.50602992
1.00000000 0.65075331 0.53275546
0.00000000 0.76302350 0.50724138
0.10704398 0.77258046 0.50451306
0.24123397 0.77343603 0.50518975
0.37515210 0.77403360 0.50563326
0.50874380 0.77431958 0.50579736
0.64197552 0.77420529 0.50575350
0.77458259 0.77365505 0.50568443
0.90684522 0.77278378 0.50434821
1.00000000 0.77760026 0.55432705
0.00000000 0.89955592 0.51174916
0.10944383 0.90746286 0.50577470
0.24249536 0.90724183 0.50547440
0.37508562 0.90658628 0.50477803
0.50715830 0.90544373 0.50363716
0.63865713 0.90376166 0.50200347
0.76952595 0.90148725 0.49983038
0.89970715 0.89856878 0.49706759
1.00000000 0.89487529 0.58026569
0.09403621 1.00000000 0.54489045
0.21875108 1.00000000 0.55144219
0.34069441 1.00000000 0.55836099
0.45961715 1.00000000 0.56564618
0.57527049 1.00000000 0.57329637
0.68740590 1.00000000 0.58130936
0.79577514 1.00000000 0.58968212
0.90013026 1.00000000 0.59841070
1.00000000 0.99978114 0.61031670
0.00000000 0.00041363 0.49676644
0.10184409 0.00000000 0.51296170
0.20824320 0.00000000 0.52335812
0.31852230 0.00000000 0.53330676
0.43243267 0.00000000 0.54280598
0.54972533 0.00000000 0.55185488
0.67015106 0.00000000 0.56045331
0.79346039 0.00000000 0.56860181
0.91940365 0.00000000 0.57630154
0.00000000 0.10730291 0.53272966
0.10029346 0.10225615 0.63586440
0.23085348 0.09980475 0.63340907
0.36206957 0.09796018 0.63151858
0.49388542 0.09666998 0.63014451
0.62624474 0.09588167 0.62923844
0.75909121 0.09554276 0.62875195
0.89236854 0.09560078 0.62863661
1.00000000 0.10486570 0.61767406
0.00000000 0.22609454 0.56368765
0.09417172 0.22945265 0.62976302
0.22671491 0.22883402 0.62901530
0.35972476 0.22864570 0.62866954
0.49314496 0.22883520 0.62867730
0.62691922 0.22935006 0.62899017
0.76099123 0.23013780 0.62955973
0.89530467 0.23114594 0.63033754
1.00000000 0.24218959 0.62128740
0.00000000 0.35399187 0.58939844
0.09396831 0.36211274 0.62875844
0.22785749 0.36273302 0.62917036
0.36202392 0.36360708 0.62982125
0.49641097 0.36468252 0.63066213
0.63096271 0.36590676 0.63164618
0.76562356 0.36722714 0.63272435
0.90033600 0.36859152 0.63384737
1.00000000 0.38109114 0.62776941
0.00000000 0.48817950 0.60980583
0.09753970 0.49823864 0.63100721
0.23213767 0.49950397 0.63203079
0.36682407 0.50084629 0.63312957
0.50153918 0.50220949 0.63421864
0.63608814 0.50357013 0.63523492
0.77074133 0.50483208 0.63636950
0.90531420 0.50594074 0.63732208
1.00000000 0.51871935 0.63741647
0.00000000 0.62582680 0.62500450
0.10274233 0.63583255 0.63466589
0.23741190 0.63714907 0.63575313
0.37198028 0.63836612 0.63675352
0.50643299 0.63940236 0.63760339
0.64023063 0.63998701 0.63833039
0.77139362 0.64097531 0.63950827
0.90722330 0.64131010 0.63915208
1.00000000 0.65222939 0.65044766
0.00000000 0.76409171 0.63520219
0.10743265 0.77289669 0.63789101
0.24153663 0.77367053 0.63849394
0.37534962 0.77416854 0.63884724
0.50881896 0.77433627 0.63890413
0.64202677 0.77397357 0.63887401
0.77336817 0.77270603 0.64118830
0.90356933 0.77230134 0.64005929
1.00000000 0.77875783 0.66693167
0.00000000 0.90012480 0.64067976
0.10946711 0.90743327 0.63883913
0.24236830 0.90707056 0.63840975
0.37478910 0.90625551 0.63756786
0.50667321 0.90493562 0.63626502
0.63796603 0.90305738 0.63445510
0.76863494 0.90053536 0.63221175
0.89842444 0.89734083 0.62971609
1.00000000 0.89558153 0.68688006
0.09837870 1.00000000 0.65987187
0.22274030 1.00000000 0.66489927
0.34427402 1.00000000 0.67021036
0.46273092 1.00000000 0.67580413
0.57786233 1.00000000 0.68167880
0.68941985 1.00000000 0.68783177
0.79715537 1.00000000 0.69425957
0.90082100 1.00000000 0.70095758
1.00000000 0.99983415 0.71006295
0.00000000 0.00049329 0.60057117
0.10247540 0.00000000 0.61975602
0.20953190 0.00000000 0.63202692
0.32041257 0.00000000 0.64376515
0.43486854 0.00000000 0.65496946
0.55265071 0.00000000 0.66563937
0.67350971 0.00000000 0.67577509
0.79719597 0.00000000 0.68537752
0.92345970 0.00000000 0.69444814
0.00000000 0.10801494 0.64293541
0.09934532 0.10135233 0.76808922
0.23013445 0.09911290 0.76583114
0.36156054 0.09746249 0.76412146
0.49356727 0.09634861 0.76291175
0.62609834 0.09571880 0.76215360
0.75909745 0.09552058 0.76179858
0.89250829 0.09570147 0.76179828
1.00000000 0.10565301 0.74592169
0.00000000 0.22724672 0.67937748
0.09391831 0.22919105 0.76258601
0.22662629 0.22872444 0.76198023
0.35978182 0.22867031 0.76175996
0.49332857 0.22897619 0.76187677
0.62721026 0.22958961 0.76228224
0.76137057 0.23045808 0.76292795
0.89575321 0.23152914 0.76376547
1.00000000 0.24344031 0.74807987
0.00000000 0.35539290 0.70964626
0.09419325 0.36229168 0.76199352
0.22818289 0.36300403 0.76249206
0.36243066 0.36395233 0.76321320
0.49688025 0.36508410 0.76410854
0.63147536 0.36634688 0.76512965
0.76615969 0.36768819 0.76622810
0.90087693 0.36905555 0.76735547
1.00000000 0.38261710 0.75214976
0.00000000 0.48963896 0.73367692
0.09802658 0.49865643 0.76446828
0.23266069 0.49995388 0.76552315
0.36736352 0.50131074 0.76663774
0.50207876 0.50267455 0.76776353
0.63674974 0.50399291 0.76885160
0.77132063 0.50521326 0.76985503
0.90573583 0.50628293 0.77072479
1.00000000 0.52033170 0.75843428
0.00000000 0.62715506 0.75155604
0.10327477 0.63628753 0.76816684
0.23791615 0.63757620 0.76923006
0.37243685 0.63874777 0.77019010
0.50678104 0.63974950 0.77099766
0.64088486 0.64052509 0.77157138
0.77454901 0.64105184 0.77185278
0.90807740 0.64123302 0.77200253
1.00000000 0.65373968 0.76716017
0.00000000 0.76509993 0.76348383
0.10779425 0.77318716 0.77124575
0.24180572 0.77387321 0.77176934
0.37550709 0.77426562 0.77202685
0.50884241 0.77431174 0.77196977
0.64179209 0.77393140 0.77154009
0.77374534 0.77288780 0.77086087
0.90286346 0.77202002 0.77036529
1.00000000 0.77990983 0.77840409
0.00000000 0.90062484 0.76973416
0.10944148 0.90735756 0.77186156
0.24218584 0.90684712 0.77129752
0.37443069 0.90586650 0.77030452
0.50611972 0.90436324 0.76883413
0.63720025 0.90228300 0.76683971
0.76776125 0.89944165 0.76453956
0.89632991 0.89560182 0.76437598
1.00000000 0.89600198 0.79167719
0.10279457 1.00000000 0.77379424
0.22679334 1.00000000 0.77724078
0.34790794 1.00000000 0.78088750
0.46588956 1.00000000 0.78473300
0.58048965 1.00000000 0.78877514
0.69145995 1.00000000 0.79301089
0.79855209 1.00000000 0.79743608
0.90150838 1.00000000 0.80203042
1.00000000 0.99989135 0.80815934
0.00000000 0.00057137 0.70579805
0.10309931 0.00000000 0.72789407
0.21080398 0.00000000 0.74198195
0.32227693 0.00000000 0.75545244
0.43726915 0.00000000 0.76830472
0.55553141 0.00000000 0.78053868
0.67681423 0.00000000 0.79215491
0.80086790 0.00000000 0.80315464
0.92744253 0.00000000 0.81353967
0.00000000 0.10871480 0.75438346
0.09847713 0.10052251 0.90038286
0.22948889 0.09848899 0.89831645
0.36111848 0.09702667 0.89678199
0.49330959 0.09608307 0.89573107
0.62600592 0.09560572 0.89511525
0.75915117 0.09554213 0.89488613
0.89268903 0.09583983 0.89499527
1.00000000 0.10650869 0.87393652
0.00000000 0.22837655 0.79612569
0.09372301 0.22898307 0.89545905
0.22658929 0.22866243 0.89498962
0.35988399 0.22873645 0.89488925
0.49355081 0.22915266 0.89510952
0.62753343 0.22985857 0.89560201
0.76177556 0.23080173 0.89631829
0.89622089 0.23192965 0.89720994
1.00000000 0.24475057 0.87444239
0.00000000 0.35676177 0.83076487
0.09445444 0.36250388 0.89525986
0.22853806 0.36330224 0.89583942
0.36286068 0.36431874 0.89662516
0.49736601 0.36550089 0.89756864
0.63199773 0.36679622 0.89862144
0.76669955 0.36815226 0.89973514
0.90141515 0.36951653 0.90086133
1.00000000 0.38419358 0.87590465
0.00000000 0.49105676 0.85822803
0.09852789 0.49908713 0.89794182
0.23319164 0.50041064 0.89902240
0.36790500 0.50177575 0.90014625
0.50261164 0.50312998 0.90126495
0.63725528 0.50442087 0.90233009
0.77177959 0.50559592 0.90329323
0.90612828 0.50660268 0.90410596
1.00000000 0.52198534 0.87863333
0.00000000 0.62843245 0.87859415
0.10379978 0.63673504 0.90166148
0.23840649 0.63798983 0.90269509
0.37287339 0.63910969 0.90360908
0.50714416 0.64004215 0.90435502
0.64116250 0.64073472 0.90488442
0.77487172 0.64113502 0.90514837
0.90821607 0.64119047 0.90509987
1.00000000 0.65528111 0.88286279
0.00000000 0.76604828 0.89205642
0.10812658 0.77344982 0.90457540
0.24203905 0.77404203 0.90501405
0.37562229 0.77432278 0.90517019
0.50882001 0.77423960 0.90499539
0.64157634 0.77373976 0.90444042
0.77382569 0.77276794 0.90342633
0.90536961 0.77130406 0.90189637
1.00000000 0.78123457 0.88871501
0.00000000 0.90105616 0.89888226
0.10936473 0.90723368 0.90484011
0.24194577 0.90656945 0.90413582
0.37400817 0.90541723 0.90298613
0.50549563 0.90372454 0.90134260
0.63635221 0.90143875 0.89915674
0.76656046 0.89848344 0.89637215
0.89559527 0.89470849 0.89311684
1.00000000 0.89667569 0.89600606
0.10728381 1.00000000 0.88662881
0.23091023 1.00000000 0.88843791
0.35159623 1.00000000 0.89036350
0.46909314 1.00000000 0.89240383
0.58315255 1.00000000 0.89455633
0.69352633 1.00000000 0.89681758
0.79996587 1.00000000 0.89918302
0.90217584 1.00000000 0.90161439
1.00000000 0.99996005 0.90430120
0.00000000 0.00064767 0.81242044
0.10371599 0.00000000 0.83734658
0.21205958 0.00000000 0.85319400
0.32411550 0.00000000 0.86833953
0.43963460 0.00000000 0.88278272
0.55836752 0.00000000 0.89652386
0.68006466 0.00000000 0.90956388
0.80447620 0.00000000 0.92190434
0.93135215 0.00000000 0.93354737
0.00000000 0.10940236 0.86704641
0.10034871 0.10227877 1.00000000
0.22765581 0.10142080 1.00000000
0.35568163 0.10113256 1.00000000
0.48419030 0.10141007 1.00000000
0.61294556 0.10224947 1.00000000
0.74171069 0.10364702 1.00000000
0.87024832 0.10559918 1.00000000
0.99832027 0.10810265 1.00000000
0.00000000 0.22948397 0.91390418
0.09967961 0.22987958 1.00000000
0.22889595 0.23079477 1.00000000
0.35829268 0.23219044 1.00000000
0.48763265 0.23406299 1.00000000
0.61667807 0.23640900 1.00000000
0.74519028 0.23922532 1.00000000
0.87292965 0.24250908 1.00000000
0.99965539 0.24625774 1.00000000
0.00000000 0.35809848 0.95272557
0.10575936 0.36235727 1.00000000
0.23593478 0.36448947 1.00000000
0.36574910 0.36701384 1.00000000
0.49496332 0.36992732 1.00000000
0.62333744 0.37322716 1.00000000
0.75063024 0.37691095 1.00000000
0.87659915 0.38097671 1.00000000
1.00000000 0.38582066 0.99900451
0.00000000 0.49243295 0.98342995
0.11830296 0.49697547 1.00000000
0.24848436 0.49976942 1.00000000
0.37775970 0.50286824 1.00000000
0.50588751 0.50626963 1.00000000
0.63262487 0.50997168 1.00000000
0.75772734 0.51397297 1.00000000
0.88094872 0.51827258 1.00000000
1.00000000 0.52368030 0.99798449
0.00660738 0.62830966 1.00000000
0.13705548 0.63098889 1.00000000
0.26629182 0.63388869 1.00000000
0.39407333 0.63700721 1.00000000
0.52015535 0.64034310 1.00000000
0.64429140 0.64389551 1.00000000
0.76623305 0.64766419 1.00000000
0.88572973 0.65164952 1.00000000
1.00000000 0.65685382 0.99752751
0.03272127 0.75931903 1.00000000
0.16182993 0.76163203 1.00000000
0.28917738 0.76407965 1.00000000
0.41451706 0.76666109 1.00000000
0.53760039 0.76937614 1.00000000
0.65817658 0.77222524 1.00000000
0.77599249 0.77520955 1.00000000
0.89079228 0.77833092 1.00000000
1.00000000 0.78250726 0.99776060
0.06570492 0.88472360 1.00000000
0.19254690 0.88610741 1.00000000
0.31707442 0.88754103 1.00000000
0.43903669 0.88902490 1.00000000
0.55818049 0.89056019 1.00000000
0.67424994 0.89214887 1.00000000
0.78698621 0.89379364 1.00000000
0.89612165 0.89549440 1.00000000
1.00000000 0.89779952 0.99867626
0.11184644 1.00000000 0.99834679
0.23509099 1.00000000 0.99846178
0.35533895 1.00000000 0.99860943
0.47234176 1.00000000 0.99878760
0.58585114 1.00000000 0.99899331
0.69561914 1.00000000 0.99922270
0.80139803 1.00000000 0.99947098
0.90292987 1.00000000 0.99973402
1.00000000 1.00000000 1.00000000
