assets/luts/DB_Sports_Floodlight_Rec709_100.cube
TITLE "Sports Floodlight Rec709 100"
# Red changes fastest. Full-range normalized input.
LUT_3D_SIZE 5
DOMAIN_MIN 0 0 0
DOMAIN_MAX 1 1 1
0.00500000 0.00500000 0.00500000
0.23575488 0.00191877 0.00279889
0.46738517 0.00134431 0.00295347
0.70182492 0.00242165 0.00449339
0.93805661 0.00509637 0.00743613
0.00103168 0.23704958 0.00541202
0.23793876 0.24025495 0.00817322
0.47607890 0.24468388 0.01328885
0.71542885 0.25012385 0.01864384
0.95563575 0.25630356 0.02462136
0.01619347 0.48612628 0.02075909
0.25664078 0.49251255 0.02690931
0.49755771 0.49929256 0.03337740
0.73866460 0.50621175 0.03993390
0.97968177 0.51301554 0.04634932
0.03983311 0.74254052 0.04229793
0.28074818 0.74923909 0.04860501
0.52119205 0.75547503 0.05445801
0.76088506 0.76099376 0.05962746
0.99954754 0.76554072 0.06388390
0.06130522 0.99660004 0.06129485
0.30115607 1.00000000 0.06758465
0.54270096 1.00000000 0.08411579
0.77618036 1.00000000 0.10237215
1.00000000 0.99962845 0.12715397
0.00342575 0.00376954 0.23793843
0.23427310 0.00163217 0.23664265
0.46737563 0.00151526 0.23712988
0.70245531 0.00316362 0.23917194
0.93923192 0.00632290 0.24253889
0.00187280 0.23797738 0.24025645
0.23944952 0.24146631 0.24348310
0.47860719 0.24618841 0.24848586
0.71751476 0.25215215 0.25443957
0.95794706 0.25852561 0.26057916
0.01837242 0.48823513 0.25662285
0.25900871 0.49478423 0.26290429
0.50006941 0.50163302 0.26879872
0.74113642 0.50854662 0.27595682
0.98205424 0.51525474 0.28228023
0.04227641 0.74485147 0.27830152
0.28306282 0.75142147 0.28448013
0.52328305 0.75744239 0.29012672
0.76265745 0.76265965 0.29501184
1.00000000 0.76688510 0.30091689
0.06293804 0.99813470 0.29655636
0.30534006 1.00000000 0.30467133
0.54574627 1.00000000 0.31747667
0.77780870 1.00000000 0.33161268
1.00000000 0.99969459 0.35102741
0.00214398 0.00280144 0.47110889
0.23378838 0.00137883 0.47044428
0.46759408 0.00188982 0.47148556
0.70328140 0.00407985 0.47400329
0.94057069 0.00769434 0.47776799
0.00289690 0.23906925 0.47524161
0.24069996 0.24313912 0.47940337
0.47972405 0.24828597 0.48449932
0.71968784 0.25425597 0.49029910
0.96031333 0.26079379 0.49657426
0.02062683 0.49040879 0.49254075
0.26142319 0.49709029 0.49893188
0.50250000 0.50374110 0.50498220
0.74425703 0.51059437 0.51164793
0.98437319 0.51744128 0.51815941
0.04468667 0.74712845 0.51427022
0.28531217 0.75354053 0.52029389
0.52527437 0.75931761 0.52570540
0.76429434 0.76420093 0.52970959
1.00000000 0.76828823 0.53657646
0.06442931 0.99953663 0.53169395
0.30965031 1.00000000 0.53911836
0.54886955 1.00000000 0.54792782
0.77946697 1.00000000 0.55767269
1.00000000 0.99977836 0.57122163
0.00114372 0.00208568 0.70450265
0.23355347 0.00134829 0.70444310
0.46802954 0.00245803 0.70601152
0.70429226 0.00516036 0.70897846
0.94206196 0.00920070 0.71311443
0.00409365 0.24031481 0.71036097
0.24234255 0.24477906 0.71486557
0.48171695 0.25023407 0.72022620
0.72193718 0.25642529 0.72621340
0.96272359 0.26309813 0.73259768
0.02294576 0.49263728 0.72850379
0.26386884 0.49942226 0.73497567
0.50497661 0.50634161 0.74153169
0.74598990 0.51314054 0.74794259
0.98662758 0.51956524 0.75397790
0.04705294 0.74936149 0.75019504
0.28748526 0.75558628 0.75603730
0.52716102 0.76108915 0.76119176
0.76555048 0.76539534 0.76524020
1.00000000 0.76967583 0.76931172
0.06842233 1.00000000 0.76676656
0.31408611 1.00000000 0.77078783
0.55207019 1.00000000 0.77533105
0.78115434 1.00000000 0.78041341
1.00000000 0.99988418 0.78748139
0.00041403 0.00161233 0.93811063
0.23355687 0.00153077 0.93862968
0.46867106 0.00320992 0.94069878
0.70547691 0.00639518 0.94408845
0.94369478 0.01083201 0.94856924
0.00545246 0.24170399 0.94560552
0.24411494 0.24653325 0.95042657
0.48380795 0.25226683 0.95602571
0.72425182 0.25865016 0.96217349
0.96516689 0.26542866 0.96864043
0.02531823 0.49491062 0.96450300
0.26633540 0.50176978 0.97102916
0.50744229 0.50867688 0.97756147
0.74835922 0.51537734 0.98387047
0.98880653 0.52161661 0.98972668
0.04936425 0.75154062 0.98606700
0.28957115 0.75754877 0.99170138
0.52892695 0.76274846 0.99656998
0.76718606 0.76691976 1.00000000
1.00000000 0.77128164 0.99914603
0.07398816 1.00000000 0.99966227
0.31864679 1.00000000 0.99954175
0.55534762 1.00000000 0.99954804
0.78287131 1.00000000 0.99969680
1.00000000 1.00000000 1.00000000
