assets/luts/DB_Soft_Interior_Rec709_50.cube
TITLE "Soft Interior Rec709 50"
# Red changes fastest. Full-range normalized input.
LUT_3D_SIZE 9
DOMAIN_MIN 0 0 0
DOMAIN_MAX 1 1 1
0.00300000 0.00300000 0.00300000
0.12712723 0.00518458 0.00503188
0.24901326 0.00782622 0.00738062
0.37112208 0.01009054 0.00935644
0.49338944 0.01201526 0.01099883
0.61546870 0.01373665 0.01242476
0.73736357 0.01526969 0.01365162
0.85908546 0.01662670 0.01469464
0.98064578 0.01781998 0.01556903
0.01087646 0.13111905 0.00985794
0.13295021 0.13275200 0.01000476
0.25604640 0.13407795 0.01135547
0.37720799 0.13599893 0.01392568
0.49874348 0.13735518 0.01503084
0.62024664 0.13849242 0.01584848
0.74160498 0.13948223 0.01651741
0.86282875 0.14033743 0.01705370
0.98392937 0.14107033 0.01747259
0.01677372 0.25682722 0.01442733
0.13833574 0.25806513 0.01528625
0.25977071 0.25911014 0.01581991
0.38115940 0.26005722 0.01661271
0.50231582 0.26089272 0.01721517
0.62337240 0.26158543 0.01759890
0.74432342 0.26217136 0.01788219
0.86517828 0.26266409 0.01808404
0.98594839 0.26307594 0.01821969
0.02065007 0.38067005 0.01692016
0.14178299 0.38143498 0.01736941
0.26280063 0.38208655 0.01771143
0.38371546 0.38263691 0.01796231
0.50453857 0.38309893 0.01813995
0.62528063 0.38348445 0.01825561
0.74595354 0.38380583 0.01832551
0.86656870 0.38407543 0.01836520
0.98713751 0.38430558 0.01838989
0.02309609 0.50309115 0.01803635
0.14388811 0.50352377 0.01818849
0.26460370 0.50388448 0.01828552
0.38525426 0.50418558 0.01834266
0.50585123 0.50443939 0.01837512
0.62640600 0.50465822 0.01839814
0.74693002 0.50485439 0.01842693
0.86743468 0.50504021 0.01847672
0.98793140 0.50522799 0.01856273
0.02454788 0.62455906 0.01835653
0.14512816 0.62479871 0.01838379
0.26567042 0.62500787 0.01840715
0.38618606 0.62519884 0.01844182
0.50668651 0.62538395 0.01850304
0.62718318 0.62557550 0.01860602
0.74768750 0.62578580 0.01876599
0.86821087 0.62602717 0.01899816
0.98876471 0.62631192 0.01931777
0.02544009 0.74554251 0.01846024
0.14593785 0.74572854 0.01853490
0.26643598 0.74592549 0.01865686
0.38694591 0.74614568 0.01884135
0.50747905 0.74640142 0.01910360
0.62804683 0.74670502 0.01945881
0.74866065 0.74706880 0.01992223
0.86933194 0.74750507 0.02050906
0.99007211 0.74802614 0.02123454
0.02620740 0.86651027 0.01892702
0.14675183 0.86678201 0.01922135
0.26733504 0.86710610 0.01961420
0.38796847 0.86749484 0.02012079
0.50866351 0.86796056 0.02075633
0.62943159 0.86851555 0.02153607
0.75028413 0.86917215 0.02247521
0.87123255 0.86994265 0.02358898
0.99228825 0.87083938 0.02489260
0.02728445 0.98793108 0.02033644
0.14800476 0.98842788 0.02102271
0.26880227 0.98901844 0.02185872
0.38968839 0.98971508 0.02285967
0.51067455 0.99053011 0.02404080
0.63177214 0.99147584 0.02541733
0.75299261 0.99256460 0.02700447
0.87434735 0.99380868 0.02881745
0.99584779 0.99522040 0.03087150
0.00392619 0.00390785 0.12413228
0.12683827 0.00639459 0.12646246
0.24945089 0.00868816 0.12844385
0.37181799 0.01076835 0.13021719
0.49402314 0.01262174 0.13178260
0.61603850 0.01427778 0.13313922
0.73787334 0.01574966 0.13430194
0.85953908 0.01704969 0.13528598
0.98104714 0.01819017 0.13610658
0.01167437 0.13174571 0.13082143
0.13362482 0.13335360 0.13233653
0.25656374 0.13437936 0.13333633
0.37788126 0.13633611 0.13459062
0.49918323 0.13775561 0.13560097
0.62062993 0.13884442 0.13636771
0.74194128 0.13978714 0.13698990
0.86312195 0.14059942 0.13748461
0.98418333 0.14129359 0.13786709
0.01724069 0.25726538 0.13503462
0.13858528 0.25843955 0.13579112
0.25944339 0.25896900 0.13524457
0.38187830 0.25960196 0.13579914
0.50269408 0.26106330 0.13752128
0.62361407 0.26179503 0.13798065
0.74453013 0.26234853 0.13823535
0.86535493 0.26281241 0.13841302
0.98609885 0.26319959 0.13852965
0.02095460 0.38094329 0.13736186
0.14204564 0.38166845 0.13777236
0.26297658 0.38227925 0.13802763
0.38381355 0.38274168 0.13804063
0.50471470 0.38320141 0.13835486
0.62542417 0.38359863 0.13855635
0.74607455 0.38390257 0.13861785
0.86667268 0.38415740 0.13865075
0.98722836 0.38437694 0.13867382
0.02328053 0.50324690 0.13837140
0.14404531 0.50365372 0.13850311
0.26473749 0.50399280 0.13858485
0.38536801 0.50427639 0.13863099
0.50594944 0.50451670 0.13865759
0.62649303 0.50472669 0.13868244
0.74700918 0.50491804 0.13871697
0.86750987 0.50510314 0.13877736
0.98800650 0.50529439 0.13887913
0.02465610 0.62464463 0.13864342
0.14522219 0.62487254 0.13866765
0.26575413 0.62507415 0.13869314
0.38626333 0.62526175 0.13873513
0.50676122 0.62544766 0.13880882
0.62725921 0.62564420 0.13892944
0.74776871 0.62586367 0.13911222
0.86830115 0.62611839 0.13937238
0.98886794 0.62642068 0.13972515
0.02551598 0.74560523 0.13875748
0.14601258 0.74579358 0.13884650
0.26651344 0.74599705 0.13898799
0.38702998 0.74622793 0.13919718
0.50757360 0.74649854 0.13948929
0.62815573 0.74682120 0.13987955
0.74878779 0.74720821 0.14038317
0.86948119 0.74767190 0.14101538
0.99024735 0.74822457 0.14179141
0.02629483 0.86659745 0.13929313
0.14685115 0.86688559 0.13961921
0.26745014 0.86723025 0.14004897
0.38810321 0.86764375 0.14059765
0.50882178 0.86813841 0.14128045
0.62961726 0.86872653 0.14211262
0.75050108 0.86942043 0.14310935
0.87148465 0.87023241 0.14428589
0.99257939 0.87117481 0.14565746
0.02742731 0.98809005 0.14082990
0.14817256 0.98861730 0.14156532
0.26899888 0.98924251 0.14245564
0.38991769 0.98997797 0.14351607
0.51094041 0.99083601 0.14476185
0.63207845 0.99182894 0.14620820
0.75334324 0.99296906 0.14787033
0.87474618 0.99426869 0.14976347
0.99629870 0.99574015 0.15190285
0.00482877 0.00479099 0.24519433
0.12760244 0.00722607 0.24739089
0.25015379 0.00943198 0.24933736
0.37249388 0.01142113 0.25104926
0.49463470 0.01320556 0.25254226
0.61658748 0.01479767 0.25383132
0.73836361 0.01620981 0.25493165
0.85997452 0.01745427 0.25585848
0.98143162 0.01854338 0.25662702
0.01236597 0.13237006 0.25161785
0.13443008 0.13407711 0.25305495
0.25635907 0.13555960 0.25432401
0.37807612 0.13693172 0.25530797
0.49959477 0.13814329 0.25615621
0.62099682 0.13917996 0.25687050
0.74226251 0.14007700 0.25744768
0.86340139 0.14084779 0.25790258
0.98442486 0.14150464 0.25825040
0.01769332 0.25768435 0.25562288
0.13914224 0.25880934 0.25644587
0.26008849 0.25946856 0.25722132
0.38210006 0.25962380 0.25755934
0.50310238 0.26114826 0.25798184
0.62384764 0.26199021 0.25835197
0.74472621 0.26251542 0.25857973
0.86552225 0.26295188 0.25873496
0.98624131 0.26331582 0.25883433
0.02124501 0.38120253 0.25779014
0.14229536 0.38188919 0.25816510
0.26299311 0.38243343 0.25835940
0.38293659 0.38218156 0.25749635
0.50496573 0.38239096 0.25757237
0.62563782 0.38361756 0.25875734
0.74619024 0.38399316 0.25890662
0.86677177 0.38423530 0.25893517
0.98731562 0.38444566 0.25895837
0.02345528 0.50339342 0.25869892
0.14419414 0.50377585 0.25881197
0.26486252 0.50409472 0.25887937
0.38541728 0.50435267 0.25886780
0.50591787 0.50451185 0.25869575
0.62657730 0.50475129 0.25886849
0.74708797 0.50497930 0.25900664
0.86758460 0.50516678 0.25908276
0.98808244 0.50536292 0.25920206
0.02475907 0.62472575 0.25892870
0.14531228 0.62494334 0.25895165
0.26583522 0.62513881 0.25898104
0.38633925 0.62532446 0.25903205
0.50683529 0.62551250 0.25911910
0.62733597 0.62571520 0.25925820
0.74785258 0.62594553 0.25946707
0.86839540 0.62621510 0.25975728
0.98897645 0.62653634 0.26014496
0.02559105 0.74566826 0.25905902
0.14608781 0.74586037 0.25916415
0.26659272 0.74607176 0.25932693
0.38711717 0.74631476 0.25956257
0.50767259 0.74660166 0.25988631
0.62827040 0.74694480 0.26031335
0.74892201 0.74735647 0.26085894
0.86963884 0.74784899 0.26153828
0.99043230 0.74843468 0.26236661
0.02638587 0.86668973 0.25966943
0.14695540 0.86699568 0.26002902
0.26757147 0.86736234 0.26049746
0.38824551 0.86780202 0.26108998
0.50898892 0.86832704 0.26182180
0.62981312 0.86894970 0.26270815
0.75072953 0.86968232 0.26376424
0.87174957 0.87053722 0.26500530
0.99288466 0.87152669 0.26644656
0.02757820 0.98825889 0.26133948
0.14834970 0.98881803 0.26212580
0.26920615 0.98947930 0.26307218
0.39015897 0.99025501 0.26419385
0.51121958 0.99115747 0.26550604
0.63239938 0.99219900 0.26702395
0.75370981 0.99339192 0.26876283
0.87516227 0.99474852 0.27073789
0.99676818 0.99628113 0.27296435
0.00570250 0.00564446 0.36624531
0.12839926 0.00800041 0.36835503
0.25087757 0.01013131 0.37022030
0.37314887 0.01204947 0.37185634
0.49522457 0.01376719 0.37327839
0.61711608 0.01529681 0.37450165
0.73883483 0.01665062 0.37554135
0.86039222 0.01784094 0.37641272
0.98179968 0.01888009 0.37713097
0.01299728 0.13297363 0.37239803
0.13500459 0.13462144 0.37374599
0.25683196 0.13608548 0.37490103
0.37849078 0.13737832 0.37587758
0.49999208 0.13851235 0.37669115
0.62134777 0.13949953 0.37735742
0.74256911 0.14035231 0.37789137
0.86366752 0.14108302 0.37830819
0.98465440 0.14170398 0.37862311
0.01812548 0.25808531 0.37619161
0.13957201 0.25916425 0.37695051
0.26086504 0.26009134 0.37758914
0.38206401 0.26084328 0.37813722
0.50313815 0.26156555 0.37845741
0.62406055 0.26218021 0.37871598
0.74491207 0.26267254 0.37891591
0.86568069 0.26308299 0.37905046
0.98637620 0.26342510 0.37913432
0.02152177 0.38144824 0.37820559
0.14253750 0.38209781 0.37854681
0.26339200 0.38263521 0.37881489
0.38361446 0.38264583 0.37920717
0.50499073 0.38223613 0.37922607
0.62587538 0.38354991 0.37912906
0.74630359 0.38407573 0.37919349
0.86686641 0.38430960 0.37921906
0.98739974 0.38451221 0.37924414
0.02362080 0.50353119 0.37901953
0.14433505 0.50389065 0.37911567
0.26498082 0.50419061 0.37917193
0.38529537 0.50438608 0.37914051
0.50468834 0.50371009 0.37828173
0.62655457 0.50375837 0.37820801
0.74723137 0.50494530 0.37921449
0.86766016 0.50523091 0.37939289
0.98815968 0.50543405 0.37953212
0.02485723 0.62480289 0.37921297
0.14539888 0.62501159 0.37923640
0.26591413 0.62520234 0.37927143
0.38641251 0.62538739 0.37933249
0.50684759 0.62556764 0.37938952
0.62727862 0.62570575 0.37936343
0.74793777 0.62598952 0.37973562
0.86849545 0.62631611 0.38015016
0.98909069 0.62665938 0.38057780
0.02566573 0.74573211 0.37936546
0.14616398 0.74592938 0.37948846
0.26667424 0.74615012 0.37967427
0.38720793 0.74640665 0.37993812
0.50777642 0.74671127 0.38029520
0.62839063 0.74707622 0.38075993
0.74906322 0.74751376 0.38134831
0.86980534 0.74803676 0.38207805
0.99062741 0.74865696 0.38296075
0.02648096 0.86678759 0.38005654
0.14706501 0.86711278 0.38045138
0.26769949 0.86750285 0.38096026
0.38839580 0.86797013 0.38159838
0.50916537 0.86852693 0.38238097
0.63001961 0.86918556 0.38332325
0.75096993 0.86995832 0.38444045
0.87202777 0.87085754 0.38574780
0.99320452 0.87189552 0.38726050
0.02773757 0.98843808 0.38186576
0.14853664 0.98903053 0.38270473
0.26942454 0.98972928 0.38370894
0.39041268 0.99054666 0.38489360
0.51151249 0.99149497 0.38627395
0.63273537 0.99258653 0.38786520
0.75409275 0.99383365 0.38968257
0.87559605 0.99524865 0.39174130
0.99725667 0.99684383 0.39405660
0.00654972 0.00647055 0.48726639
0.12917101 0.00874869 0.48929138
0.25157775 0.01080596 0.49107710
0.37378134 0.01265467 0.49263876
0.49579320 0.01430714 0.49399159
0.61762476 0.01577567 0.49515080
0.73928743 0.01707258 0.49613163
0.86079262 0.01821018 0.49694930
0.98215176 0.01920078 0.49761902
0.01360606 0.13355460 0.49315465
0.13555096 0.13513867 0.49443523
0.25731971 0.13654329 0.49552774
0.37892372 0.13778078 0.49644740
0.50037442 0.13886344 0.49720944
0.62168322 0.13980359 0.49782908
0.74286154 0.14061353 0.49832155
0.86392079 0.14130559 0.49870205
0.98487239 0.14189208 0.49898583
0.01853969 0.25846846 0.49674228
0.13993741 0.25949781 0.49745071
0.26119737 0.26038912 0.49802234
0.38233104 0.26115454 0.49847268
0.50334993 0.26180672 0.49881610
0.62426504 0.26235802 0.49906813
0.74508819 0.26282036 0.49924448
0.86583070 0.26320622 0.49936011
0.98650398 0.26352792 0.49943022
0.02178530 0.38168091 0.49860882
0.14276503 0.38229488 0.49891739
0.26364478 0.38281208 0.49914089
0.38442008 0.38323235 0.49931830
0.50514493 0.38352903 0.49948300
0.62582647 0.38387171 0.49947516
0.74640349 0.38416046 0.49948064
0.86695704 0.38438081 0.49950301
0.98748118 0.38457708 0.49953172
0.02377752 0.50366068 0.49933382
0.14446849 0.50399861 0.49941479
0.26509817 0.50428132 0.49946145
0.38561339 0.50450552 0.49951124
0.50542621 0.50418635 0.49984686
0.62649029 0.50353456 0.49986169
0.74739897 0.50482825 0.49960705
0.86773935 0.50529359 0.49970959
0.98823868 0.50550828 0.49986989
0.02495103 0.62487654 0.49949682
0.14548244 0.62507777 0.49952248
0.26599132 0.62526522 0.49956492
0.38648525 0.62545098 0.49963924
0.50668747 0.62558286 0.49971216
0.62595714 0.62487502 0.49912233
0.74789072 0.62501761 0.49923890
0.86866688 0.62633007 0.50047332
0.98921198 0.62678962 0.50102363
0.02574048 0.74579723 0.49967738
0.14624153 0.74600110 0.49982000
0.26675847 0.74623261 0.50003061
0.38730271 0.74650409 0.50032443
0.50788380 0.74682780 0.50071590
0.62845727 0.74720638 0.50117554
0.74909076 0.74760850 0.50162178
0.86998670 0.74819881 0.50253828
0.99083482 0.74889043 0.50357103
0.02658055 0.86689151 0.50045504
0.14718044 0.86723735 0.50088690
0.26783464 0.86765227 0.50143796
0.38855455 0.86814857 0.50212343
0.50935159 0.86873857 0.50295855
0.63023714 0.86943458 0.50395849
0.75122219 0.87024889 0.50513767
0.87231935 0.87119371 0.50651206
0.99353947 0.87228173 0.50809956
0.02790587 0.98862812 0.50240935
0.14873383 0.98925529 0.50330272
0.26965449 0.98999295 0.50436651
0.39067928 0.99085341 0.50561592
0.51181960 0.99184899 0.50706618
0.63308688 0.99299200 0.50873252
0.75449253 0.99429475 0.51063015
0.87604797 0.99576956 0.51277431
0.99776462 0.99742873 0.51518020
0.00737088 0.00726975 0.60825811
0.12991802 0.00947150 0.61020014
0.25225449 0.01145656 0.61190806
0.37439169 0.01323725 0.61339709
0.49634104 0.01482587 0.61468246
0.61811396 0.01623473 0.61577939
0.73972187 0.01747616 0.61670310
0.86117618 0.01856246 0.61746881
0.98248832 0.01950595 0.61809176
0.01419320 0.13411344 0.61388783
0.13607700 0.13563519 0.61510283
0.25778852 0.13698168 0.61613493
0.37933919 0.13816520 0.61699936
0.50074042 0.13919808 0.61771133
0.62200363 0.14009263 0.61828607
0.74314023 0.14086116 0.61873881
0.86416164 0.14151599 0.61908476
0.98507928 0.14206942 0.61933915
0.01893670 0.25883428 0.61727541
0.14028636 0.25981537 0.61793566
0.26150215 0.26066262 0.61846422
0.38259550 0.26138833 0.61887632
0.50357781 0.26200481 0.61918717
0.62446051 0.26252439 0.61941201
0.74525501 0.26295936 0.61956605
0.86597273 0.26332205 0.61966451
0.98662508 0.26362477 0.61972262
0.02203605 0.38190101 0.61900041
0.14298078 0.38248079 0.61927818
0.26383004 0.38296814 0.61947548
0.38459524 0.38337536 0.61960758
0.50528782 0.38371457 0.61969002
0.62591938 0.38399850 0.61973710
0.74650089 0.38423948 0.61976438
0.86704410 0.38444940 0.61978761
0.98756038 0.38464074 0.61982172
0.02392590 0.50378240 0.61964237
0.14459490 0.50410020 0.61970995
0.26520684 0.50436699 0.61974826
0.38577243 0.50459489 0.61977315
0.50628420 0.50478194 0.61982584
0.62679370 0.50490022 0.61994223
0.74733057 0.50513229 0.61994419
0.86781180 0.50536538 0.62003435
0.98831985 0.50558609 0.62021599
0.02504092 0.62494719 0.61978085
0.14556339 0.62514235 0.61981050
0.26606723 0.62532793 0.61986210
0.38656346 0.62551621 0.61995099
0.50699614 0.62570249 0.62011772
0.62674717 0.62539108 0.62069320
0.74785327 0.62483730 0.62099137
0.86887189 0.62627051 0.62099057
0.98934322 0.62692520 0.62148433
0.02581575 0.74586413 0.61999539
0.14632092 0.74607600 0.62015939
0.26684585 0.74631971 0.62039655
0.38740196 0.74660756 0.62072209
0.50799687 0.74695168 0.62115116
0.62836485 0.74730914 0.62165206
0.74800154 0.74699680 0.62153977
0.87022009 0.74748210 0.62219791
0.99113653 0.74905543 0.62411445
0.02668508 0.86700198 0.62086553
0.14730214 0.86736990 0.62133616
0.26797737 0.86781107 0.62193116
0.38872219 0.86833781 0.62266575
0.50954802 0.86896243 0.62355515
0.63046455 0.86969730 0.62461376
0.75143607 0.87055111 0.62580860
0.87254922 0.87150521 0.62704895
0.99391467 0.87266182 0.62885847
0.02808355 0.98882949 0.62297083
0.14894171 0.98949279 0.62392037
0.26989645 0.99027078 0.62504548
0.39095919 0.99117575 0.62636140
0.51214135 0.99222001 0.62788333
0.63345434 0.99341589 0.62962651
0.75490955 0.99477570 0.63160612
0.87651814 0.99631184 0.63383647
0.99829255 0.99803642 0.63633363
0.00816642 0.00804254 0.72922108
0.13064074 0.01016932 0.73108190
0.25290825 0.01208360 0.73271378
0.37498038 0.01379767 0.73413194
0.49686853 0.01532386 0.73535160
0.61858413 0.01667449 0.73638800
0.74013860 0.01786185 0.73725635
0.86154335 0.01889827 0.73797187
0.98280979 0.01979606 0.73854978
0.01475916 0.13465065 0.73459815
0.13658317 0.13611150 0.73574933
0.25823879 0.13740126 0.73672278
0.37973743 0.13853225 0.73753373
0.50109050 0.13951677 0.73819739
0.62230943 0.14036715 0.73872900
0.74340563 0.14109568 0.73914376
0.86439052 0.14171469 0.73945691
0.98527552 0.14223649 0.73968367
0.01931696 0.25918324 0.73779159
0.14061987 0.26011749 0.73840542
0.26179280 0.26092208 0.73889272
0.38284716 0.26160932 0.73926873
0.50379436 0.26219151 0.73954866
0.62464583 0.26268098 0.73974775
0.74541297 0.26309002 0.73988120
0.86610721 0.26343096 0.73996426
0.98673997 0.26371611 0.74001213
0.02227448 0.38210904 0.73938096
0.14318551 0.38265605 0.73962970
0.26400495 0.38311481 0.73980313
0.38474423 0.38349763 0.73991647
0.50541477 0.38381684 0.73998496
0.62602798 0.38408473 0.74002380
0.74659527 0.38431363 0.74004823
0.86712807 0.38451584 0.74007346
0.98763779 0.38470369 0.74011472
0.02406639 0.50389681 0.73994580
0.14471473 0.50419591 0.74000173
0.26530990 0.50444818 0.74003356
0.38586331 0.50466594 0.74005652
0.50638636 0.50486148 0.74008588
0.62689047 0.50504692 0.74013721
0.74738729 0.50523500 0.74022476
0.86788778 0.50543806 0.74036409
0.98840365 0.50566796 0.74057100
0.02512733 0.62501531 0.74006565
0.14564220 0.62520584 0.74010105
0.26614230 0.62539096 0.74016356
0.38663905 0.62558299 0.74026841
0.50714312 0.62579403 0.74043148
0.62764640 0.62602193 0.74069518
0.74820214 0.62624024 0.74109580
0.86883995 0.62662938 0.74144749
0.98947365 0.62707633 0.74196126
0.02589199 0.74593328 0.74032007
0.14640258 0.74615458 0.74050722
0.26693682 0.74641190 0.74077268
0.38750612 0.74671754 0.74113170
0.50812153 0.74708380 0.74159961
0.62872999 0.74750833 0.74221707
0.74880082 0.74756097 0.74329897
0.87033421 0.74746258 0.74414027
0.99149289 0.74916390 0.74485439
0.02679500 0.86711948 0.74128861
0.14743054 0.86751089 0.74179977
0.26812812 0.86797975 0.74244047
0.38889918 0.86853834 0.74322592
0.50975512 0.86919900 0.74417136
0.63070387 0.86997407 0.74529181
0.75152290 0.87085030 0.74653793
0.87208006 0.87139584 0.74705568
0.99478857 0.87246525 0.74861786
0.02827105 0.98904265 0.74355080
0.14916072 0.98974353 0.74455826
0.27015086 0.99056325 0.74574647
0.39125288 0.99151415 0.74713064
0.51247819 0.99260852 0.74872600
0.63383820 0.99385869 0.75054778
0.75534295 0.99527724 0.75261021
0.87697375 0.99688405 0.75487147
0.99884897 0.99868098 0.75722306
0.00893679 0.00878940 0.85015589
0.13133960 0.01084263 0.85193725
0.25353948 0.01268754 0.85349484
0.37554784 0.01433643 0.85484389
0.49737612 0.01580161 0.85599961
0.61903572 0.01709541 0.85697723
0.74053806 0.01823013 0.85779196
0.86189456 0.01921809 0.85845905
0.98311663 0.02007160 0.85899370
0.01530438 0.13516672 0.85528622
0.13706992 0.13656808 0.85637534
0.25867095 0.13780254 0.85729190
0.38011887 0.13888241 0.85805112
0.50142511 0.13981999 0.85866822
0.62260108 0.14062761 0.85915844
0.74365820 0.14131756 0.85953699
0.86460789 0.14190218 0.85981909
0.98546156 0.14239376 0.86001997
0.01968090 0.25951582 0.85829143
0.14093840 0.26040466 0.85886058
0.26206978 0.26116802 0.85930838
0.38308646 0.26181820 0.85965006
0.50399987 0.26236752 0.85990083
0.62482142 0.26282829 0.86007592
0.74556253 0.26321283 0.86019055
0.86623461 0.26353344 0.86025995
0.98684908 0.26380244 0.86029933
0.02250103 0.38230546 0.85975107
0.14337968 0.38282112 0.85997253
0.26417062 0.38325271 0.86012385
0.38488527 0.38361255 0.86022025
0.50553506 0.38391295 0.86027696
0.62613139 0.38416622 0.86030920
0.74668569 0.38438468 0.86033220
0.86720937 0.38458063 0.86036117
0.98771386 0.38476639 0.86041133
0.02419942 0.50400440 0.86024469
0.14482843 0.50428622 0.86029073
0.26540814 0.50452539 0.86031784
0.38594997 0.50473422 0.86034125
0.50646534 0.50492504 0.86037617
0.62696566 0.50511015 0.86043784
0.74746236 0.50530187 0.86054147
0.86796685 0.50551250 0.86070229
0.98849055 0.50575436 0.86093552
0.02521073 0.62508138 0.86035183
0.14571931 0.62526870 0.86039473
0.26621699 0.62545479 0.86046991
0.38671520 0.62565196 0.86059260
0.50722537 0.62587254 0.86077802
0.62775886 0.62612881 0.86104144
0.74832712 0.62643290 0.86139845
0.86894181 0.62679755 0.86186326
0.98961385 0.62723508 0.86245146
0.02596963 0.74600516 0.86065204
0.14648698 0.74623731 0.86086408
0.26703184 0.74650966 0.86115960
0.38761565 0.74683452 0.86155385
0.50824980 0.74722420 0.86206204
0.62894502 0.74769082 0.86270004
0.74969568 0.74823411 0.86350974
0.87056212 0.74883249 0.86452462
0.99154411 0.74964506 0.86556805
0.02691077 0.86724448 0.86172487
0.14756610 0.86766082 0.86227832
0.26828735 0.86815877 0.86296647
0.38908595 0.86875065 0.86380455
0.50997332 0.86944877 0.86480778
0.63096052 0.87026543 0.86599150
0.75200467 0.87120526 0.86739208
0.87281061 0.87199696 0.86921697
0.99518765 0.87272861 0.87083357
0.02846881 0.98926811 0.86414987
0.14939133 0.99000796 0.86521700
0.27041818 0.99087086 0.86647005
0.39156079 0.99186910 0.86792424
0.51283056 0.99301500 0.86959479
0.63423893 0.99432087 0.87149692
0.75579447 0.99579951 0.87364534
0.87735707 0.99749171 0.87594750
0.99945122 0.99939259 0.87719168
0.00968244 0.00951081 0.97106314
0.13201505 0.01149192 0.97276680
0.25414862 0.01326887 0.97425186
0.37609454 0.01485399 0.97553354
0.49786426 0.01625960 0.97662707
0.61946917 0.01749799 0.97754767
0.74092070 0.01858149 0.97831055
0.86223027 0.01952241 0.97893096
0.98340929 0.02033306 0.97942409
0.01582931 0.13566211 0.97595264
0.13753770 0.13700541 0.97698144
0.25908545 0.13818599 0.97784286
0.38048398 0.13921615 0.97855211
0.50174470 0.14010822 0.97912442
0.62287902 0.14087450 0.97957501
0.74389838 0.14152730 0.97991909
0.86481418 0.14207894 0.98017191
0.98563784 0.14254173 0.98034867
0.02002899 0.25983251 0.97877552
0.14124237 0.26067736 0.97930175
0.26233352 0.26140090 0.97971180
0.38331385 0.26201544 0.98002090
0.50419479 0.26253331 0.98024426
0.62498774 0.26296681 0.98039711
0.74570412 0.26332826 0.98049468
0.86635536 0.26362997 0.98055218
0.98695286 0.26388424 0.98058483
0.02271615 0.38249077 0.98011134
0.14356373 0.38297650 0.98030727
0.26432748 0.38338235 0.98043823
0.38501883 0.38372062 0.98051945
0.50564918 0.38400363 0.98056614
0.62622996 0.38424370 0.98059353
0.74677258 0.38445313 0.98061685
0.86728846 0.38464424 0.98065131
0.98778902 0.38482935 0.98071214
0.02432546 0.50410565 0.98053964
0.14493644 0.50437161 0.98057755
0.26550200 0.50459909 0.98060169
0.38603357 0.50480043 0.98062731
0.50654255 0.50498793 0.98066961
0.62704036 0.50517390 0.98074382
0.74753843 0.50537066 0.98086516
0.86804816 0.50559052 0.98104886
0.98858098 0.50584579 0.98131015
0.02529156 0.62514590 0.98063997
0.14579516 0.62533141 0.98069213
0.26629174 0.62551989 0.98078174
0.38679273 0.62572363 0.98092402
0.50730955 0.62595496 0.98113421
0.62785360 0.62622617 0.98142751
0.74843632 0.62654960 0.98181916
0.86906911 0.62693755 0.98232438
0.98976340 0.62740232 0.98295838
0.02604913 0.74608026 0.98099188
0.14657454 0.74632468 0.98123056
0.26713135 0.74661348 0.98155791
0.38773098 0.74695897 0.98198914
0.50838483 0.74737346 0.98253949
0.62910434 0.74786927 0.98322416
0.74990089 0.74845869 0.98405845
0.87078594 0.74915386 0.98505790
0.99177108 0.74996749 0.98623678
0.02703282 0.86737749 0.98217491
0.14770926 0.86782016 0.98277240
0.26845550 0.86834862 0.98350976
0.38928297 0.86897520 0.98440222
0.51020307 0.86971220 0.98546499
0.63122723 0.87057194 0.98671332
0.75236627 0.87156661 0.98816301
0.87362105 0.87270030 0.98985296
0.99506547 0.87396034 0.99180957
0.02867730 0.98950634 0.98476862
0.14963396 0.99028659 0.98589718
0.27069885 0.99119407 0.98721683
0.39188336 0.99224107 0.98874279
0.51319892 0.99343992 0.99049028
0.63465695 0.99480293 0.99247452
0.75626859 0.99634244 0.99471083
0.87800992 0.99807549 0.99722551
1.00000000 1.00000000 1.00000000
