assets/luts/DB_Studio_Neutral_Rec709_100.cube
TITLE "Studio Neutral Rec709 100"
# Red changes fastest. Full-range normalized input.
LUT_3D_SIZE 5
DOMAIN_MIN 0 0 0
DOMAIN_MAX 1 1 1
0.00000000 0.00000000 0.00000000
0.23307600 0.00000000 0.00000000
0.47185202 0.00000000 0.00000000
0.71565008 0.00000000 0.00000000
0.96379220 0.00000000 0.00000000
0.00000000 0.23944922 0.00000000
0.24176497 0.24176497 0.00000000
0.48770944 0.24385472 0.00000000
0.73597210 0.24597210 0.00097210
0.98368893 0.24868893 0.00368893
0.00191801 0.49191801 0.00191801
0.24975875 0.49475875 0.00475875
0.49784153 0.49784153 0.00784153
0.74602221 0.50102221 0.01102221
0.99415665 0.50415665 0.01415665
0.01217628 0.74717628 0.01217628
0.26025810 0.75025810 0.01525810
0.50809707 0.75309707 0.01809707
0.75554904 0.75554904 0.02054904
1.00000000 0.75746004 0.02984016
0.02462577 1.00000000 0.02462577
0.27474241 1.00000000 0.03298988
0.52112898 1.00000000 0.04225796
0.76310750 1.00000000 0.05243002
1.00000000 1.00000000 0.06350605
0.00000000 0.00000000 0.23106997
0.23406922 0.00000000 0.23406922
0.47368497 0.00000000 0.23684248
0.71816925 0.00000000 0.23938975
0.96684409 0.00000000 0.24171102
0.00000000 0.24026100 0.24026100
0.24250000 0.24250000 0.24250000
0.48964456 0.24434599 0.24434599
0.73685278 0.24685278 0.24685278
0.98468579 0.24968579 0.24968579
0.00284665 0.49284665 0.24784665
0.25078510 0.49578601 0.25078510
0.49893180 0.49893180 0.25373987
0.74710088 0.50209879 0.25709670
0.99518503 0.50518503 0.26018503
0.01324117 0.74824117 0.25824117
0.26125668 0.75125668 0.26125668
0.50898038 0.75398038 0.26398038
0.75626814 0.75626814 0.26626814
1.00000000 0.75819363 0.27458088
0.02736489 1.00000000 0.27052367
0.27702700 1.00000000 0.27702700
0.52280554 1.00000000 0.28420830
0.76402253 1.00000000 0.29206759
1.00000000 1.00000000 0.30060487
0.00000000 0.00000000 0.46422774
0.23503638 0.00000000 0.47007276
0.47546578 0.00000000 0.47546578
0.72061022 0.00000000 0.48040682
0.96979173 0.00000000 0.48489586
0.00000000 0.24104672 0.48209344
0.24307965 0.24307965 0.48807968
0.49018675 0.24518651 0.49018675
0.73777840 0.24777840 0.49277840
0.98571097 0.25071097 0.49571097
0.00381419 0.49381419 0.49381419
0.25183489 0.49683506 0.49683506
0.50000000 0.50000000 0.50000000
0.74840007 0.50310150 0.50310150
0.99618582 0.50618581 0.50618581
0.01428903 0.74928903 0.50428903
0.26222160 0.75222160 0.50722160
0.50981276 0.75481368 0.50981276
0.75693420 0.75693420 0.51174227
1.00000000 0.75895328 0.51790656
0.03020827 1.00000000 0.51510414
0.27938978 1.00000000 0.51959318
0.52453422 1.00000000 0.52453422
0.76496362 1.00000000 0.52992725
1.00000000 1.00000000 0.53577226
0.00000000 0.00000000 0.69939513
0.23597747 0.00000000 0.70793241
0.47719446 0.00000000 0.71579170
0.72297300 0.00000000 0.72297300
0.97263511 0.00000000 0.72947633
0.00000000 0.24180637 0.72541912
0.24373186 0.24373186 0.73373186
0.49101962 0.24601962 0.73601962
0.73874332 0.24874332 0.73874332
0.98675883 0.25175883 0.74175883
0.00481497 0.49481497 0.73981497
0.25290092 0.49790092 0.74290092
0.50108206 0.50108206 0.74608209
0.74921442 0.50421418 0.74921442
0.99715335 0.50715335 0.75215335
0.01531421 0.75031421 0.75031421
0.26314722 0.75314722 0.75314722
0.51059040 0.75559057 0.75559057
0.75750000 0.75750000 0.75750000
1.00000000 0.75973900 0.75973900
0.03315591 1.00000000 0.75828898
0.28183075 1.00000000 0.76061025
0.52631503 1.00000000 0.76315752
0.76593078 1.00000000 0.76593078
1.00000000 1.00000000 0.76893003
0.00000000 0.00000000 0.93649395
0.23689250 0.00000000 0.94756998
0.47887102 0.00000000 0.95774204
0.72525759 0.00000000 0.96701012
0.97537423 0.00000000 0.97537423
0.00000000 0.24253996 0.97015984
0.24445096 0.24445096 0.97945096
0.49190293 0.24690293 0.98190293
0.73974190 0.24974190 0.98474190
0.98782372 0.25282372 0.98782372
0.00584335 0.49584335 0.98584335
0.25397779 0.49897779 0.98897779
0.50215847 0.50215847 0.99215847
0.75024125 0.50524125 0.99524125
0.99808199 0.50808199 0.99808199
0.01631107 0.75131107 0.99631107
0.26402790 0.75402790 0.99902790
0.51229056 0.75614528 1.00000000
0.75823503 0.75823503 1.00000000
1.00000000 0.76055078 1.00000000
0.03620780 1.00000000 1.00000000
0.28434992 1.00000000 1.00000000
0.52814798 1.00000000 1.00000000
0.76692400 1.00000000 1.00000000
1.00000000 1.00000000 1.00000000
