assets/luts/DB_Sodium_Cinema_Rec709_100.cube
TITLE "Sodium Cinema Rec709 100"
# Red changes fastest. Full-range normalized input.
LUT_3D_SIZE 5
DOMAIN_MIN 0 0 0
DOMAIN_MAX 1 1 1
0.00800000 0.00800000 0.00800000
0.21317851 0.00294895 0.00452061
0.42107620 0.00358099 0.00568394
0.63626776 0.00763350 0.00915877
0.85619413 0.01509330 0.01519785
0.00000000 0.22261666 0.01260808
0.22000366 0.23163795 0.01645788
0.44494486 0.24299666 0.02684010
0.67296703 0.25622858 0.03739676
0.90312744 0.27092618 0.04917585
0.03906739 0.47471943 0.04156208
0.26980892 0.48980975 0.05369552
0.50161761 0.50558624 0.06653407
0.73371778 0.52147341 0.07968454
0.96533371 0.53689572 0.09275371
0.10065011 0.74045222 0.08447266
0.33189714 0.75556239 0.09741460
0.56160184 0.76942267 0.10973886
0.78898851 0.78145753 0.12105225
1.00000000 0.79106618 0.17032054
0.15355688 0.99855312 0.12484311
0.39230135 1.00000000 0.15873127
0.61743377 1.00000000 0.20130835
0.82251691 1.00000000 0.24881863
1.00000000 0.99568541 0.35785725
0.00388994 0.00592873 0.21991781
0.20950806 0.00305206 0.21826725
0.42114626 0.00453945 0.21983207
0.63803280 0.00981362 0.22422181
0.85939067 0.01829964 0.23104229
0.00065607 0.22584159 0.22644423
0.22391995 0.23381883 0.23273614
0.45131933 0.24633140 0.24278123
0.67850027 0.26108377 0.25455745
0.90920593 0.27615012 0.26666873
0.04482960 0.47973151 0.25885918
0.27601502 0.49511933 0.27127140
0.50780664 0.51069258 0.28306352
0.74004600 0.52678543 0.29741646
0.97131293 0.54192538 0.31038381
0.10687661 0.74568815 0.30219267
0.33768684 0.76043839 0.31496893
0.56669131 0.77374328 0.32699399
0.79311432 0.78502731 0.33787463
1.00000000 0.79488975 0.38322458
0.16215939 1.00000000 0.34490766
0.40214711 1.00000000 0.37487832
0.62428380 1.00000000 0.40884219
0.82573406 1.00000000 0.44677009
1.00000000 0.99665394 0.53256278
0.00056398 0.00442706 0.43225166
0.20831310 0.00309716 0.43173695
0.42182151 0.00593470 0.43430587
0.64031352 0.01236417 0.43956519
0.86301344 0.02181004 0.44712172
0.00345669 0.22876418 0.44207102
0.22749594 0.23916525 0.45036639
0.45468616 0.25179691 0.46042322
0.68424814 0.26608615 0.47184596
0.91540969 0.28145482 0.48424405
0.05077397 0.48486656 0.47626756
0.28232368 0.50048554 0.48892299
0.51266152 0.51431133 0.50235019
0.74723377 0.53097127 0.51494412
0.97711649 0.54681249 0.52794379
0.11298431 0.75082376 0.51987138
0.34326828 0.76514769 0.53243662
0.57147575 0.77783093 0.54411405
0.79634933 0.78807192 0.55362698
1.00000000 0.79892485 0.58873848
0.17467079 1.00000000 0.56315911
0.41219848 1.00000000 0.58481818
0.63123141 1.00000000 0.60952066
0.82894661 1.00000000 0.63720077
1.00000000 0.99770206 0.69797938
0.00000000 0.00526330 0.62133247
0.20778368 0.00362230 0.64556327
0.42307153 0.00774421 0.64908996
0.64307955 0.01526260 0.65517352
0.86703204 0.02560194 0.66342074
0.00670924 0.23201052 0.65794626
0.23190516 0.24323397 0.66688356
0.45998745 0.25649334 0.67744815
0.69018040 0.27121310 0.68924683
0.92170834 0.28681774 0.70188639
0.05687011 0.49010205 0.69377180
0.28869145 0.50588594 0.70661985
0.52078959 0.52176959 0.71977262
0.75238966 0.53717676 0.73283768
0.98271391 0.55153457 0.74541824
0.11894284 0.75583651 0.73749341
0.34861108 0.76966775 0.74980228
0.57594523 0.78166270 0.76109343
0.79707233 0.78964817 0.77278914
1.00000000 0.80254245 0.78683040
0.18749870 1.00000000 0.77551495
0.42245527 1.00000000 0.78822324
0.63827881 1.00000000 0.80300906
0.83215679 1.00000000 0.81976753
1.00000000 0.99885853 0.85300430
0.00000000 0.00650323 0.81246440
0.20788811 0.00460553 0.85972983
0.42486594 0.00994544 0.86416893
0.64630051 0.01848637 0.87103138
0.87141611 0.02965282 0.87992394
0.01038413 0.23555804 0.87405453
0.23664726 0.24753743 0.88358856
0.46553333 0.26135729 0.89461634
0.69626663 0.27644210 0.90674469
0.92807148 0.29221634 0.91958037
0.06308765 0.49541542 0.91135651
0.29509000 0.51129775 0.92435207
0.52710579 0.52708448 0.93751861
0.75835933 0.54220007 0.95046291
0.98807491 0.55606902 0.96279177
0.12472179 0.76070386 0.95504334
0.35368485 0.77397604 0.96705050
0.58005186 0.78521654 0.97790585
0.80304700 0.79384977 0.98721641
1.00000000 0.80764412 0.97640395
0.20064162 1.00000000 0.98165140
0.43291823 1.00000000 0.98476313
0.64542930 1.00000000 0.98896960
0.83537825 1.00000000 0.99412610
1.00000000 1.00000000 1.00000000
