assets/luts/DB_Soft_Interior_Rec709_100.cube
TITLE "Soft Interior Rec709 100"
# Red changes fastest. Full-range normalized input.
LUT_3D_SIZE 33
DOMAIN_MIN 0 0 0
DOMAIN_MAX 1 1 1
0.00600000 0.00600000 0.00600000
0.03672983 0.00718275 0.00710218
0.06767826 0.00824871 0.00809957
0.09862222 0.00927529 0.00905723
0.12925446 0.01036916 0.01006375
0.15938580 0.01159642 0.01117324
0.18906902 0.01293955 0.01237037
0.21853612 0.01431900 0.01358896
0.24802653 0.01565245 0.01476125
0.27766395 0.01689752 0.01585287
0.30745048 0.01805393 0.01686412
0.33732967 0.01914166 0.01781180
0.36724415 0.02018107 0.01871288
0.39715808 0.02118508 0.01957810
0.42705498 0.02215990 0.02041270
0.45692907 0.02310804 0.02121889
0.48677888 0.02403052 0.02199766
0.51660432 0.02492788 0.02274962
0.54640566 0.02580054 0.02347527
0.57618323 0.02664889 0.02417508
0.60593740 0.02747330 0.02484952
0.63566852 0.02827418 0.02549909
0.66537694 0.02905189 0.02612425
0.69506303 0.02980683 0.02672547
0.72472714 0.03053938 0.02730324
0.75436963 0.03124993 0.02785803
0.78399085 0.03193886 0.02839032
0.81359116 0.03260655 0.02890057
0.84317092 0.03325339 0.02938928
0.87273048 0.03387977 0.02985690
0.90227021 0.03448607 0.03030392
0.93179045 0.03507267 0.03073082
0.96129157 0.03563996 0.03113806
0.01012454 0.03935119 0.00973313
0.04055058 0.04045886 0.01052808
0.07134191 0.04139895 0.01117119
0.10239941 0.04222089 0.01177872
0.13338656 0.04305431 0.01252045
0.16391513 0.04403681 0.01351988
0.19380834 0.04522101 0.01477079
0.22320346 0.04654501 0.01614587
0.25241571 0.04788801 0.01748609
0.28171666 0.04915163 0.01868896
0.31121649 0.05029964 0.01973392
0.34089033 0.05134513 0.02065250
0.37066331 0.05231813 0.02148731
0.40047139 0.05324352 0.02226952
0.43027825 0.05413543 0.02301566
0.46006845 0.05500008 0.02373278
0.48983695 0.05583986 0.02442349
0.51958259 0.05665570 0.02508886
0.54930540 0.05744810 0.02572949
0.57900565 0.05821748 0.02634588
0.60868369 0.05896422 0.02693851
0.63833989 0.05968872 0.02750786
0.66797459 0.06039135 0.02805440
0.69758816 0.06107250 0.02857861
0.72718095 0.06173256 0.02908096
0.75675331 0.06237191 0.02956194
0.78630561 0.06299093 0.03002201
0.81583820 0.06359002 0.03046165
0.84535144 0.06416954 0.03088133
0.87484568 0.06472990 0.03128154
0.90432129 0.06527147 0.03166275
0.93377861 0.06579464 0.03202543
0.96321800 0.06629979 0.03237006
0.01409840 0.07233388 0.01324123
0.04412564 0.07340715 0.01377988
0.07448287 0.07430817 0.01407404
0.10526803 0.07503057 0.01425507
0.13631105 0.07566874 0.01457262
0.16720181 0.07638852 0.01527246
0.19754243 0.07732450 0.01643979
0.22721738 0.07848901 0.01794190
0.25643663 0.07977520 0.01952195
0.28554156 0.08104234 0.02095632
0.31478036 0.08219957 0.02214839
0.34422603 0.08322851 0.02311684
0.37383191 0.08415537 0.02393001
0.40352040 0.08501486 0.02465148
0.43323354 0.08583158 0.02532054
0.46294128 0.08661820 0.02595571
0.49263179 0.08737992 0.02656418
0.52230152 0.08811864 0.02714843
0.55194979 0.08883515 0.02770945
0.58157675 0.08952993 0.02824781
0.61118271 0.09020335 0.02876400
0.64076802 0.09085583 0.02925852
0.67033304 0.09148773 0.02973183
0.69987813 0.09209945 0.03018440
0.72940363 0.09269137 0.03061672
0.75890991 0.09326387 0.03102926
0.78839733 0.09381735 0.03142250
0.81786623 0.09435217 0.03179691
0.84731699 0.09486874 0.03215297
0.87674995 0.09536743 0.03249114
0.90616547 0.09584863 0.03281192
0.93556391 0.09631272 0.03311577
0.96494562 0.09676008 0.03340318
0.01801007 0.10495132 0.01659571
0.04775079 0.10598861 0.01703637
0.07764275 0.10689571 0.01716418
0.10789105 0.10762512 0.01705621
0.13855337 0.10820345 0.01695956
0.16941308 0.10875505 0.01720880
0.20006275 0.10944354 0.01803640
0.23017178 0.11036439 0.01941844
0.25970338 0.11148287 0.02109277
0.28889079 0.11267161 0.02273165
0.31803197 0.11380322 0.02411782
0.34730988 0.11481435 0.02520120
0.37675673 0.11570659 0.02604351
0.40632014 0.11651192 0.02673458
0.43593607 0.11726201 0.02734264
0.46556186 0.11797667 0.02790498
0.49517721 0.11866523 0.02843764
0.52477473 0.11933135 0.02894641
0.55435244 0.11997635 0.02943325
0.58391014 0.12060088 0.02989897
0.61344804 0.12120534 0.03034411
0.64296651 0.12179015 0.03076918
0.67246588 0.12235568 0.03117464
0.70194652 0.12290232 0.03156096
0.73140877 0.12343045 0.03192864
0.76085301 0.12394047 0.03227813
0.79027958 0.12443274 0.03260992
0.81968884 0.12490767 0.03292448
0.84908115 0.12536563 0.03322229
0.87845686 0.12580700 0.03350382
0.90781634 0.12623218 0.03376955
0.93715993 0.12664155 0.03401995
0.96648800 0.12703549 0.03425551
0.02175292 0.13723810 0.01971587
0.05139457 0.13821274 0.02019525
0.08102067 0.13911123 0.02038101
0.11080075 0.13988234 0.02026854
0.14090042 0.14050400 0.02000952
0.17133107 0.14102745 0.01990699
0.20187618 0.14157475 0.02027781
0.23220407 0.14227008 0.02125803
0.26209279 0.14315591 0.02271095
0.29156378 0.14416971 0.02432112
0.32081752 0.14519804 0.02578847
0.35006530 0.14615119 0.02696351
0.37941597 0.14699787 0.02785135
0.40887437 0.14775178 0.02853437
0.43839783 0.14844142 0.02909782
0.46794387 0.14908993 0.02959768
0.49748695 0.14971036 0.03006167
0.52701587 0.15030843 0.03050083
0.55652694 0.15088634 0.03091898
0.58601938 0.15144498 0.03131747
0.61549327 0.15198484 0.03169695
0.64494892 0.15250633 0.03205795
0.67438669 0.15300985 0.03240095
0.70380691 0.15349576 0.03272641
0.73320996 0.15396446 0.03303481
0.76259619 0.15441634 0.03332664
0.79196595 0.15485178 0.03360236
0.82131960 0.15527115 0.03386246
0.85065750 0.15567486 0.03410740
0.87998001 0.15606328 0.03433767
0.90928748 0.15643679 0.03455374
0.93858027 0.15679579 0.03475608
0.96785873 0.15714065 0.03494517
0.02519101 0.16923301 0.02250291
0.05483890 0.17012436 0.02305126
0.08440595 0.17097588 0.02339399
0.11396944 0.17175577 0.02348092
0.14366181 0.17243239 0.02335394
0.17359122 0.17300618 0.02319207
0.20373713 0.17353248 0.02326493
0.23392561 0.17410307 0.02378984
0.26393475 0.17478919 0.02479152
0.29364535 0.17559355 0.02608571
0.32310047 0.17645461 0.02740155
0.35243744 0.17729468 0.02853438
0.38177882 0.17806509 0.02941543
0.41117689 0.17875731 0.03008157
0.44062597 0.17938678 0.03060644
0.47009938 0.17997308 0.03105192
0.49957437 0.18052996 0.03145418
0.52903852 0.18106452 0.03182972
0.55848688 0.18157975 0.03218474
0.58791807 0.18207688 0.03252142
0.61733198 0.18255649 0.03284063
0.64672886 0.18301903 0.03314295
0.67610905 0.18346487 0.03342886
0.70547290 0.18389442 0.03369884
0.73482078 0.18430805 0.03395336
0.76415304 0.18470614 0.03419291
0.79347003 0.18508909 0.03441795
0.82277211 0.18545727 0.03462897
0.85205964 0.18581108 0.03482643
0.88133298 0.18615090 0.03501082
0.91059248 0.18647710 0.03518261
0.93983850 0.18679008 0.03534227
0.96907139 0.18709022 0.03549028
0.02828006 0.20095984 0.02493173
0.05793631 0.20176421 0.02550357
0.08752129 0.20254377 0.02596179
0.11705018 0.20328574 0.02625886
0.14658088 0.20397044 0.02637937
0.17619855 0.20458413 0.02638527
0.20595916 0.20513791 0.02642702
0.23583217 0.20567410 0.02668483
0.26570401 0.20624606 0.02726356
0.29545264 0.20688326 0.02812307
0.32502804 0.20757237 0.02910607
0.35446778 0.20827081 0.03003797
0.38384812 0.20893727 0.03081444
0.41322762 0.20955204 0.03142056
0.44262662 0.21011659 0.03189543
0.47203922 0.21064200 0.03228802
0.50145231 0.21113900 0.03263369
0.53085612 0.21161431 0.03295122
0.56024583 0.21207124 0.03324863
0.58961980 0.21251122 0.03352892
0.61897775 0.21293495 0.03379326
0.64831989 0.21334288 0.03404228
0.67764654 0.21373542 0.03427649
0.70695807 0.21411295 0.03449637
0.73625481 0.21447585 0.03470240
0.76553713 0.21482452 0.03489505
0.79480539 0.21515933 0.03507479
0.82405994 0.21548068 0.03524211
0.85330114 0.21578894 0.03539748
0.88252934 0.21608451 0.03554137
0.91174491 0.21636776 0.03567426
0.94094820 0.21663908 0.03579663
0.97013956 0.21689885 0.03590895
0.03105052 0.23243046 0.02703475
0.06067945 0.23315374 0.02757741
0.09026371 0.23385611 0.02806416
0.11979927 0.23453443 0.02846898
0.14929898 0.23518118 0.02876950
0.17879849 0.23578710 0.02897067
0.20834258 0.23634900 0.02912601
0.23795329 0.23687808 0.02933062
0.26760573 0.23739877 0.02967573
0.29723934 0.23793505 0.03019215
0.32679920 0.23849447 0.03082966
0.35626986 0.23906431 0.03149109
0.38567429 0.23962251 0.03209049
0.41504729 0.24015211 0.03258917
0.44441211 0.24064771 0.03299291
0.47377526 0.24111253 0.03332786
0.50313356 0.24155254 0.03361937
0.53248201 0.24197258 0.03388367
0.56181732 0.24237548 0.03412879
0.59113812 0.24276267 0.03435809
0.62044416 0.24313486 0.03457295
0.64973560 0.24349254 0.03477406
0.67901276 0.24383612 0.03496196
0.70827599 0.24416599 0.03513712
0.73752563 0.24448253 0.03530003
0.76676206 0.24478612 0.03545117
0.79598562 0.24507716 0.03559100
0.82519668 0.24535602 0.03572000
0.85439558 0.24562309 0.03583866
0.88358269 0.24587876 0.03594744
0.91275837 0.24612341 0.03604681
0.94192296 0.24635743 0.03613727
0.97107683 0.24658119 0.03621928
0.03354743 0.26365444 0.02885465
0.06312321 0.26430384 0.02933993
0.09267117 0.26493331 0.02979476
0.12218738 0.26554267 0.03020962
0.15167148 0.26613027 0.03057249
0.18113178 0.26669279 0.03087652
0.21058628 0.26722710 0.03113155
0.24005415 0.26773392 0.03137056
0.26954142 0.26822027 0.03163982
0.29903359 0.26869713 0.03197397
0.32850434 0.26917281 0.03237382
0.35793365 0.26964759 0.03280607
0.38731880 0.27011444 0.03322542
0.41667069 0.27056469 0.03359952
0.44600256 0.27099317 0.03391908
0.47532226 0.27139935 0.03419172
0.50463164 0.27178544 0.03443035
0.53392963 0.27215407 0.03464552
0.56321487 0.27250716 0.03484342
0.59248663 0.27284586 0.03502706
0.62174480 0.27317087 0.03519780
0.65098958 0.27348266 0.03535639
0.68022128 0.27378164 0.03550336
0.70944025 0.27406820 0.03563919
0.73864684 0.27434272 0.03576437
0.76784141 0.27460560 0.03587938
0.79702431 0.27485721 0.03598468
0.82619591 0.27509794 0.03608075
0.85535656 0.27532818 0.03616808
0.88450661 0.27554831 0.03624713
0.91364643 0.27575871 0.03631838
0.94277636 0.27595977 0.03638230
0.97189678 0.27615188 0.03643938
0.03580276 0.29464346 0.03042364
0.06531659 0.29522484 0.03084410
0.09480959 0.29578717 0.03124303
0.12428050 0.29633085 0.03161819
0.15372815 0.29685592 0.03196572
0.18315327 0.29736185 0.03228159
0.21256018 0.29784766 0.03256523
0.24195640 0.29831284 0.03282382
0.27134863 0.29875861 0.03307280
0.30073771 0.29918828 0.03332976
0.33011727 0.29960586 0.03360429
0.35947811 0.30001362 0.03389187
0.38881451 0.30041092 0.03417727
0.41812688 0.30079513 0.03444437
0.44741949 0.30116380 0.03468417
0.47669669 0.30151597 0.03489617
0.50596088 0.30185213 0.03508474
0.53521270 0.30217341 0.03525501
0.56445207 0.30248092 0.03541069
0.59367888 0.30277546 0.03555395
0.62289324 0.30305763 0.03568595
0.65209540 0.30332788 0.03580739
0.68128568 0.30358661 0.03591881
0.71046443 0.30383422 0.03602070
0.73963200 0.30407109 0.03611353
0.76878875 0.30429760 0.03619779
0.79793503 0.30451414 0.03627394
0.82707121 0.30472110 0.03634247
0.85619764 0.30491885 0.03640385
0.88531468 0.30510780 0.03645855
0.91442268 0.30528831 0.03650706
0.94352199 0.30546077 0.03654984
0.97261299 0.30562557 0.03658737
0.03783672 0.32541113 0.03176485
0.06728889 0.32592930 0.03212236
0.09672292 0.32642959 0.03246162
0.12613876 0.32691241 0.03278255
0.15553622 0.32737812 0.03308458
0.18491525 0.32782696 0.03336668
0.21427659 0.32825898 0.03362814
0.24362216 0.32867418 0.03386983
0.27295466 0.32907283 0.03409536
0.30227611 0.32945576 0.03431054
0.33158648 0.32982435 0.03452076
0.36088372 0.33017993 0.03472790
0.39016540 0.33052315 0.03492937
0.41943044 0.33085384 0.03512017
0.44867950 0.33117148 0.03529611
0.47791413 0.33147575 0.03545565
0.50713570 0.33176680 0.03559966
0.53634504 0.33204514 0.03573006
0.56554255 0.33231139 0.03584869
0.59472848 0.33256612 0.03595688
0.62390308 0.33280979 0.03605550
0.65306666 0.33304285 0.03614517
0.68221955 0.33326569 0.03622643
0.71136212 0.33347870 0.03629975
0.74049471 0.33368226 0.03636562
0.76961767 0.33387677 0.03642451
0.79873138 0.33406259 0.03647690
0.82783617 0.33424013 0.03652327
0.85693242 0.33440976 0.03656409
0.88602048 0.33457187 0.03659983
0.91510069 0.33472684 0.03663097
0.94417343 0.33487506 0.03665799
0.97323905 0.33501692 0.03668136
0.03966455 0.35597180 0.03289763
0.06905831 0.35643123 0.03319687
0.09843540 0.35687405 0.03347975
0.12779611 0.35730065 0.03374666
0.15714068 0.35771142 0.03399789
0.18646930 0.35810672 0.03423358
0.21578227 0.35848690 0.03445380
0.24508013 0.35885224 0.03465883
0.27436371 0.35920305 0.03484947
0.30363400 0.35953973 0.03502728
0.33289168 0.35986282 0.03519423
0.36213686 0.36017297 0.03535183
0.39136921 0.36047074 0.03550052
0.42058842 0.36075651 0.03563963
0.44979460 0.36103049 0.03576819
0.47898824 0.36129285 0.03588562
0.50816998 0.36154383 0.03599214
0.53734041 0.36178381 0.03608847
0.56649997 0.36201321 0.03617547
0.59564901 0.36223246 0.03625395
0.62478789 0.36244200 0.03632455
0.65391692 0.36264223 0.03638784
0.68303648 0.36283353 0.03644431
0.71214690 0.36301629 0.03649446
0.74124854 0.36319091 0.03653875
0.77034176 0.36335775 0.03657766
0.79942692 0.36351722 0.03661167
0.82850438 0.36366969 0.03664126
0.85757448 0.36381555 0.03666690
0.88663759 0.36395518 0.03668906
0.91569406 0.36408897 0.03670822
0.94474426 0.36421730 0.03672487
0.97378853 0.36434056 0.03673946
0.04130013 0.38634009 0.03384032
0.07063940 0.38674516 0.03408657
0.09996323 0.38713490 0.03431809
0.12927198 0.38750970 0.03453536
0.15856599 0.38786996 0.03473883
0.18784558 0.38821605 0.03492891
0.21711107 0.38854836 0.03510600
0.24636283 0.38886725 0.03527050
0.27560126 0.38917310 0.03542286
0.30482684 0.38946627 0.03556369
0.33404007 0.38974716 0.03569375
0.36324134 0.39001620 0.03581385
0.39243092 0.39027382 0.03592461
0.42160902 0.39052044 0.03602642
0.45077585 0.39075643 0.03611943
0.47993176 0.39098212 0.03620383
0.50907713 0.39119786 0.03627991
0.53821238 0.39140402 0.03634813
0.56733791 0.39160099 0.03640906
0.59645408 0.39178915 0.03646324
0.62556126 0.39196891 0.03651122
0.65465979 0.39214065 0.03655351
0.68375004 0.39230477 0.03659058
0.71283235 0.39246164 0.03662293
0.74190708 0.39261166 0.03665102
0.77097460 0.39275521 0.03667534
0.80003525 0.39289267 0.03669636
0.82908940 0.39302443 0.03671455
0.85813740 0.39315087 0.03673039
0.88717960 0.39327238 0.03674436
0.91621637 0.39338934 0.03675693
0.94524806 0.39350213 0.03676858
0.97427503 0.39361115 0.03677978
0.04275710 0.41653064 0.03461105
0.07204589 0.41688569 0.03480968
0.10132046 0.41722671 0.03499520
0.13058115 0.41755410 0.03516807
0.15982833 0.41786822 0.03532877
0.18906235 0.41816947 0.03547776
0.21828355 0.41845823 0.03561553
0.24749229 0.41873489 0.03574251
0.27668894 0.41899983 0.03585918
0.30587385 0.41925343 0.03596602
0.33504741 0.41949607 0.03606353
0.36421000 0.41972814 0.03615226
0.39336198 0.41995004 0.03623273
0.42250368 0.42016215 0.03630543
0.45163544 0.42036487 0.03637080
0.48075758 0.42055858 0.03642926
0.50987047 0.42074364 0.03648123
0.53897447 0.42092045 0.03652716
0.56806995 0.42108938 0.03656755
0.59715726 0.42125082 0.03660287
0.62623677 0.42140516 0.03663362
0.65530884 0.42155278 0.03666029
0.68437381 0.42169406 0.03668335
0.71343206 0.42182940 0.03670328
0.74248392 0.42195918 0.03672056
0.77152977 0.42208378 0.03673567
0.80056995 0.42220359 0.03674907
0.82960483 0.42231899 0.03676125
0.85863476 0.42243037 0.03677268
0.88766010 0.42253811 0.03678384
0.91668120 0.42264259 0.03679520
0.94569842 0.42274421 0.03680724
0.97471212 0.42284334 0.03682043
0.04404905 0.44655810 0.03522796
0.07329140 0.44686749 0.03538435
0.10252073 0.44716415 0.03552923
0.13173738 0.44744846 0.03566306
0.16094173 0.44772081 0.03578633
0.19013412 0.44798158 0.03589951
0.21931491 0.44823116 0.03600307
0.24848446 0.44846992 0.03609749
0.27764312 0.44869827 0.03618323
0.30679125 0.44891657 0.03626079
0.33592921 0.44912522 0.03633062
0.36505736 0.44932460 0.03639322
0.39417606 0.44951510 0.03644907
0.42328566 0.44969709 0.03649866
0.45238653 0.44987097 0.03654245
0.48147900 0.45003712 0.03658092
0.51056344 0.45019593 0.03661453
0.53964020 0.45034778 0.03664376
0.56870965 0.45049305 0.03666907
0.59777213 0.45063213 0.03669094
0.62682801 0.45076540 0.03670985
0.65587765 0.45089325 0.03672629
0.68492139 0.45101606 0.03674072
0.71395960 0.45113422 0.03675362
0.74299264 0.45124811 0.03676548
0.77202085 0.45135812 0.03677675
0.80104461 0.45146463 0.03678793
0.83006426 0.45156802 0.03679948
0.85908015 0.45166869 0.03681188
0.88809266 0.45176702 0.03682561
0.91710213 0.45186338 0.03684114
0.94610892 0.45195817 0.03685895
0.97511339 0.45205178 0.03687952
0.04518954 0.47643710 0.03570914
0.07438950 0.47670519 0.03582868
0.10357762 0.47696184 0.03593830
0.13275428 0.47720744 0.03603848
0.16191983 0.47744237 0.03612970
0.19107462 0.47766701 0.03621243
0.22021902 0.47788176 0.03628714
0.24935337 0.47808699 0.03635431
0.27847804 0.47828309 0.03641442
0.30759338 0.47847045 0.03646794
0.33669975 0.47864945 0.03651535
0.36579751 0.47882047 0.03655713
0.39488701 0.47898390 0.03659374
0.42396861 0.47914013 0.03662568
0.45304267 0.47928954 0.03665340
0.48210954 0.47943250 0.03667740
0.51116958 0.47956942 0.03669814
0.54022314 0.47970068 0.03671610
0.56927059 0.47982665 0.03673175
0.59831228 0.47994772 0.03674557
0.62734856 0.48006428 0.03675803
0.65637980 0.48017671 0.03676962
0.68540635 0.48028540 0.03678081
0.71442857 0.48039073 0.03679206
0.74344681 0.48049309 0.03680387
0.77246144 0.48059286 0.03681670
0.80147280 0.48069043 0.03683103
0.83048125 0.48078618 0.03684734
0.85948716 0.48088049 0.03686610
0.88849087 0.48097376 0.03688778
0.91749275 0.48106636 0.03691287
0.94649315 0.48115868 0.03694184
0.97549243 0.48125110 0.03697516
0.04619218 0.50618231 0.03607270
0.07535377 0.50641345 0.03616077
0.10450473 0.50663444 0.03624053
0.13364543 0.50684568 0.03631244
0.16277622 0.50704755 0.03637699
0.19189745 0.50724042 0.03643465
0.22100949 0.50742469 0.03648589
0.25011268 0.50760074 0.03653120
0.27920739 0.50776896 0.03657104
0.30829397 0.50792972 0.03660590
0.33737278 0.50808342 0.03663625
0.36644418 0.50823044 0.03666256
0.39550852 0.50837116 0.03668531
0.42456616 0.50850597 0.03670498
0.45361746 0.50863525 0.03672204
0.48266277 0.50875940 0.03673697
0.51170245 0.50887878 0.03675024
0.54073686 0.50899379 0.03676233
0.56976635 0.50910482 0.03677372
0.59879128 0.50921224 0.03678487
0.62781201 0.50931645 0.03679627
0.65682889 0.50941782 0.03680840
0.68584228 0.50951674 0.03682172
0.71485255 0.50961360 0.03683671
0.74386003 0.50970879 0.03685386
0.77286510 0.50980267 0.03687363
0.80186810 0.50989565 0.03689650
0.83086940 0.50998811 0.03692294
0.85986935 0.51008042 0.03695344
0.88886831 0.51017298 0.03698847
0.91786663 0.51026617 0.03702850
0.94686468 0.51036037 0.03707400
0.97586281 0.51045597 0.03712547
0.04707053 0.53580836 0.03633677
0.07619780 0.53600691 0.03639875
0.10531564 0.53619661 0.03645402
0.13442442 0.53637784 0.03650305
0.16352448 0.53655099 0.03654631
0.19261619 0.53671645 0.03658429
0.22169990 0.53687460 0.03661745
0.25077597 0.53702582 0.03664627
0.27984476 0.53717050 0.03667123
0.30890662 0.53730903 0.03669280
0.33796191 0.53744178 0.03671147
0.36701098 0.53756915 0.03672770
0.39605420 0.53769151 0.03674197
0.42509192 0.53780926 0.03675475
0.45412450 0.53792278 0.03676653
0.48315229 0.53803245 0.03677778
0.51217565 0.53813866 0.03678897
0.54119494 0.53824179 0.03680058
0.57021051 0.53834222 0.03681308
0.59922272 0.53844035 0.03682696
0.62823193 0.53853656 0.03684268
0.65723849 0.53863122 0.03686073
0.68624277 0.53872473 0.03688157
0.71524511 0.53881748 0.03690569
0.74424588 0.53890983 0.03693355
0.77324542 0.53900219 0.03696564
0.80224411 0.53909494 0.03700244
0.83124229 0.53918845 0.03704440
0.86024032 0.53928312 0.03709203
0.88923857 0.53937933 0.03714577
0.91823737 0.53947746 0.03720613
0.94723710 0.53957790 0.03727356
0.97623811 0.53968103 0.03734855
0.04783819 0.56532992 0.03651944
0.07693517 0.56550023 0.03656072
0.10602393 0.56566298 0.03659689
0.13510482 0.56581856 0.03662842
0.16417819 0.56596736 0.03665578
0.19324442 0.56610975 0.03667945
0.22230384 0.56624613 0.03669991
0.25135683 0.56637688 0.03671763
0.28040373 0.56650238 0.03673309
0.30944491 0.56662302 0.03674677
0.33848071 0.56673919 0.03675913
0.36751151 0.56685126 0.03677066
0.39653764 0.56695962 0.03678183
0.42555948 0.56706466 0.03679312
0.45457737 0.56716677 0.03680500
0.48359168 0.56726632 0.03681795
0.51260275 0.56736370 0.03683245
0.54161096 0.56745930 0.03684896
0.57061665 0.56755350 0.03686797
0.59962018 0.56764669 0.03688995
0.62862191 0.56773925 0.03691537
0.65762219 0.56783156 0.03694472
0.68662138 0.56792402 0.03697847
0.71561984 0.56801700 0.03701709
0.74461793 0.56811089 0.03706106
0.77361600 0.56820607 0.03711086
0.80261440 0.56830294 0.03716696
0.83161350 0.56840186 0.03722983
0.86061366 0.56850324 0.03729996
0.88961522 0.56860745 0.03737782
0.91861855 0.56871488 0.03746388
0.94762400 0.56882591 0.03755861
0.97663193 0.56894093 0.03766251
0.04850874 0.59476162 0.03663884
0.07757947 0.59490804 0.03666480
0.10664318 0.59504820 0.03668725
0.13570022 0.59518249 0.03670665
0.16475095 0.59531128 0.03672350
0.19379572 0.59543497 0.03673825
0.22283490 0.59555394 0.03675140
0.25186884 0.59566857 0.03676340
0.28089790 0.59577924 0.03677475
0.30992243 0.59588635 0.03678591
0.33894278 0.59599028 0.03679735
0.36795933 0.59609141 0.03680957
0.39697242 0.59619013 0.03682302
0.42598241 0.59628682 0.03683820
0.45498966 0.59638187 0.03685556
0.48399452 0.59647565 0.03687560
0.51299735 0.59656857 0.03689878
0.54199851 0.59666099 0.03692558
0.57099836 0.59675331 0.03695647
0.59999724 0.59684591 0.03699194
0.62899552 0.59693918 0.03703245
0.65799356 0.59703350 0.03707849
0.68699171 0.59712925 0.03713053
0.71599033 0.59722682 0.03718904
0.74498977 0.59732659 0.03725450
0.77399040 0.59742896 0.03732738
0.80299256 0.59753429 0.03740817
0.83199662 0.59764299 0.03749734
0.86100293 0.59775543 0.03759535
0.89001186 0.59787200 0.03770270
0.91902374 0.59799308 0.03781985
0.94803895 0.59811906 0.03794728
0.97705784 0.59825032 0.03808547
0.04909575 0.62411812 0.03671306
0.07814427 0.62424501 0.03672909
0.10718697 0.62436693 0.03674320
0.13622420 0.62448428 0.03675587
0.16525632 0.62459742 0.03676758
0.19428369 0.62470676 0.03677881
0.22330666 0.62481266 0.03679001
0.25232559 0.62491553 0.03680169
0.28134083 0.62501574 0.03681430
0.31035275 0.62511367 0.03682832
0.33936170 0.62520972 0.03684424
0.36836804 0.62530426 0.03686252
0.39737212 0.62539769 0.03688365
0.42637430 0.62549038 0.03690809
0.45537494 0.62558272 0.03693633
0.48437440 0.62567510 0.03696883
0.51337302 0.62576790 0.03700608
0.54237117 0.62586150 0.03704855
0.57136921 0.62595629 0.03709672
0.60036749 0.62605266 0.03715105
0.62936637 0.62615099 0.03721204
0.65836620 0.62625166 0.03728015
0.68736735 0.62635507 0.03735586
0.71637016 0.62646158 0.03743964
0.74537500 0.62657160 0.03753197
0.77438222 0.62668550 0.03763333
0.80339218 0.62680366 0.03774419
0.83240523 0.62692648 0.03786503
0.86142174 0.62705434 0.03799632
0.89044205 0.62718762 0.03813854
0.91946654 0.62732671 0.03829217
0.94849554 0.62747199 0.03845767
0.97752943 0.62762385 0.03863554
0.04961282 0.65341406 0.03676022
0.07864317 0.65352577 0.03677170
0.10766889 0.65363381 0.03678286
0.13669035 0.65373857 0.03679419
0.16570790 0.65384042 0.03680614
0.19472189 0.65393976 0.03681922
0.22373269 0.65403696 0.03683388
0.25274065 0.65413242 0.03685060
0.28174612 0.65422651 0.03686986
0.31074947 0.65431962 0.03689214
0.33975105 0.65441214 0.03691791
0.36875122 0.65450445 0.03694764
0.39775033 0.65459694 0.03698182
0.42674874 0.65468998 0.03702091
0.45574681 0.65478398 0.03706540
0.48474489 0.65487930 0.03711576
0.51374335 0.65497634 0.03717246
0.54274253 0.65507548 0.03723599
0.57174280 0.65517710 0.03730681
0.60074451 0.65528159 0.03738540
0.62974802 0.65538934 0.03747224
0.65875368 0.65550072 0.03756780
0.68776186 0.65561613 0.03767257
0.71677291 0.65573594 0.03778700
0.74578718 0.65586055 0.03791159
0.77480503 0.65599034 0.03804681
0.80382682 0.65612569 0.03819313
0.83285291 0.65626699 0.03835102
0.86188365 0.65641462 0.03852097
0.89091940 0.65656896 0.03870345
