assets/luts/DB_Sports_Field_Day_Rec709_100.cube
TITLE "Sports Field Day Rec709 100"
# Red changes fastest. Full-range normalized input.
LUT_3D_SIZE 5
DOMAIN_MIN 0 0 0
DOMAIN_MAX 1 1 1
0.00000000 0.00000000 0.00000000
0.20775394 0.00002355 0.00000000
0.42987487 0.00009644 0.00000000
0.66462227 0.00021033 0.00000000
0.91027635 0.00035977 0.00000000
0.00034797 0.22395945 0.00000000
0.23003389 0.22989758 0.00000000
0.47024108 0.23532254 0.00000000
0.71919079 0.24017776 0.00000000
0.97518812 0.24446959 0.00000000
0.00117285 0.48273230 0.00000000
0.24625084 0.49069888 0.00000000
0.49794646 0.49752237 0.00000000
0.75454873 0.50319245 0.00000000
1.00000000 0.51003888 0.01906449
0.00198987 0.75670609 0.00000000
0.25586422 0.76276658 0.00000000
0.51250450 0.76708319 0.00000000
0.77020312 0.76964460 0.00000000
1.00000000 0.77033086 0.08132344
0.06820445 1.00000000 0.06619237
0.31762931 1.00000000 0.08817411
0.55726607 1.00000000 0.11255507
0.78536853 1.00000000 0.13933665
1.00000000 0.99980934 0.17096973
0.00000096 0.00000000 0.20272519
0.21038606 0.00000000 0.21032736
0.43490918 0.00000000 0.21730194
0.67182273 0.00000000 0.22365437
0.91937856 0.00000000 0.22939176
0.00000000 0.22615486 0.22584190
0.23187367 0.23171775 0.23125000
0.49914668 0.23009773 0.22936807
0.76962039 0.22929356 0.22831295
1.00000000 0.24048622 0.23937275
0.00000000 0.48598451 0.24188146
0.23040315 0.49997946 0.22872299
0.50144867 0.50098299 0.23035365
0.77280662 0.50228270 0.23069424
1.00000000 0.51256871 0.26756832
0.00000000 0.75968254 0.25134216
0.23397154 0.77339208 0.23165369
0.50392327 0.77333081 0.23155345
0.77269634 0.77211310 0.23036336
1.00000000 0.77228257 0.31638626
0.07535428 1.00000000 0.30467289
0.32357363 1.00000000 0.32180748
0.56160941 1.00000000 0.34076010
0.78771565 1.00000000 0.36153139
1.00000000 0.99985325 0.38600676
0.00000382 0.00000000 0.41076661
0.21285760 0.00000000 0.42560083
0.43945360 0.00000000 0.43922719
0.67804403 0.00000000 0.45165174
0.92688058 0.00000000 0.46288205
0.00000000 0.22814288 0.45604053
0.23119410 0.23098374 0.50035253
0.49983023 0.22955107 0.49870978
0.76968334 0.22933263 0.49828050
1.00000000 0.24246783 0.49367455
0.00000000 0.48863399 0.48761283
0.23076475 0.50032228 0.49899691
0.50166312 0.50124734 0.50000000
0.77213964 0.50281464 0.50125684
1.00000000 0.51523540 0.51367802
0.00000000 0.76166416 0.50601816
0.23406406 0.77347792 0.50171950
0.50365978 0.77306422 0.50129216
0.77181503 0.77125925 0.50035966
1.00000000 0.77430346 0.54772314
0.08276988 1.00000000 0.53971496
0.32971651 1.00000000 0.55160748
0.56608416 1.00000000 0.56473660
0.79012715 1.00000000 0.57910215
1.00000000 0.99989972 0.59599114
0.00000855 0.00000000 0.62392302
0.21526373 0.00000000 0.64559454
0.44386525 0.00000000 0.66547815
0.68406516 0.00000000 0.68358042
0.93411496 0.00000000 0.69990944
0.00000000 0.23006227 0.69004484
0.23057160 0.23033786 0.76963664
0.49966329 0.22935910 0.76844655
0.76984322 0.22946899 0.76834631
1.00000000 0.24465313 0.74671314
0.00000000 0.49114831 0.73581471
0.23116573 0.50070312 0.76931530
0.50242815 0.50191077 0.77035854
0.77351732 0.50295868 0.77127894
1.00000000 0.51803899 0.75719175
0.00000000 0.76344421 0.76182801
0.23404918 0.77345865 0.77168706
0.50324166 0.77265215 0.77088568
0.77062101 0.77015326 0.76875000
1.00000000 0.77629262 0.77509075
0.09045120 1.00000000 0.77111737
0.33605791 1.00000000 0.77737283
0.57069033 1.00000000 0.78428318
0.79260262 1.00000000 0.79184715
1.00000000 0.99995017 0.80061370
0.00001508 0.00000000 0.84199322
0.21760436 0.00000000 0.87010737
0.44814405 0.00000000 0.89585374
0.68988600 0.00000000 0.91923943
0.94108158 0.00000000 0.94027298
0.00000000 0.23191315 0.92765258
0.23314927 0.23290519 1.00000000
0.49108517 0.23569758 1.00000000
0.74784787 0.24018464 1.00000000
1.00000000 0.24704223 0.99828630
0.00000000 0.49352760 0.98628446
0.24947114 0.49979677 1.00000000
0.50597036 0.50548052 1.00000000
0.75742435 0.51226420 1.00000000
1.00000000 0.52097953 0.99790775
0.02896686 0.75828672 1.00000000
0.28466035 0.76242810 1.00000000
0.53315405 0.76708309 1.00000000
0.77271297 0.77224848 1.00000000
1.00000000 0.77855672 0.99842060
0.09839822 1.00000000 0.99867889
0.34259785 1.00000000 0.99890221
0.57542796 1.00000000 0.99919845
0.79514334 1.00000000 0.99956586
1.00000000 1.00000000 1.00000000
