assets/luts/DB_Sports_Field_Day_Rec709_100.cube
TITLE "Sports Field Day Rec709 100"
# Red changes fastest. Full-range normalized input.
LUT_3D_SIZE 33
DOMAIN_MIN 0 0 0
DOMAIN_MAX 1 1 1
0.00000000 0.00000000 0.00000000
0.02512486 0.00000030 0.00000000
0.05049689 0.00000110 0.00000000
0.07611268 0.00000239 0.00000000
0.10196956 0.00000438 0.00000000
0.12806527 0.00000743 0.00000000
0.15439708 0.00001173 0.00000000
0.18096139 0.00001720 0.00000000
0.20775394 0.00002355 0.00000000
0.23477056 0.00003055 0.00000000
0.26200754 0.00003810 0.00000000
0.28946156 0.00004620 0.00000000
0.31712947 0.00005492 0.00000000
0.34500806 0.00006428 0.00000000
0.37309405 0.00007433 0.00000000
0.40138411 0.00008505 0.00000000
0.42987487 0.00009644 0.00000000
0.45856298 0.00010849 0.00000000
0.48744506 0.00012119 0.00000000
0.51651773 0.00013453 0.00000000
0.54577764 0.00014849 0.00000000
0.57522141 0.00016307 0.00000000
0.60484568 0.00017824 0.00000000
0.63464709 0.00019400 0.00000000
0.66462227 0.00021033 0.00000000
0.69476786 0.00022722 0.00000000
0.72508050 0.00024465 0.00000000
0.75555683 0.00026261 0.00000000
0.78619350 0.00028108 0.00000000
0.81698713 0.00030004 0.00000000
0.84793439 0.00031949 0.00000000
0.87903191 0.00033941 0.00000000
0.91027635 0.00035977 0.00000000
0.00000500 0.02541819 0.00000000
0.02554230 0.02554044 0.00000000
0.05131778 0.02566131 0.00000000
0.07732848 0.02578117 0.00000000
0.10357296 0.02590110 0.00000000
0.13005045 0.02602227 0.00000000
0.15675922 0.02614521 0.00000000
0.18369540 0.02626938 0.00000000
0.21085346 0.02639363 0.00000000
0.23822771 0.02651699 0.00000000
0.26581358 0.02663902 0.00000000
0.29360768 0.02675982 0.00000000
0.32160724 0.02687966 0.00000000
0.34980945 0.02699879 0.00000000
0.37821130 0.02711736 0.00000000
0.40680958 0.02723541 0.00000000
0.43560098 0.02735297 0.00000000
0.46458215 0.02747003 0.00000000
0.49374972 0.02758658 0.00000000
0.52310034 0.02770260 0.00000000
0.55263062 0.02781808 0.00000000
0.58233722 0.02793302 0.00000000
0.61221676 0.02804738 0.00000000
0.64226588 0.02816117 0.00000000
0.67248123 0.02827436 0.00000000
0.70285945 0.02838695 0.00000000
0.73339717 0.02849891 0.00000000
0.76409104 0.02861023 0.00000000
0.79493770 0.02872089 0.00000000
0.82593381 0.02883088 0.00000000
0.85707599 0.02894018 0.00000000
0.88836091 0.02904878 0.00000000
0.91978521 0.02915665 0.00000000
0.00002070 0.05164818 0.00000000
0.02595715 0.05188387 0.00000000
0.05212226 0.05211567 0.00000000
0.07851307 0.05234431 0.00000000
0.10512942 0.05257200 0.00000000
0.13197286 0.05280160 0.00000000
0.15904380 0.05303486 0.00000000
0.18633907 0.05327116 0.00000000
0.21385183 0.05350799 0.00000000
0.24157397 0.05374267 0.00000000
0.26949887 0.05397367 0.00000000
0.29762235 0.05420087 0.00000000
0.32594193 0.05442488 0.00000000
0.35445550 0.05464641 0.00000000
0.38316062 0.05486593 0.00000000
0.41205440 0.05508369 0.00000000
0.44113367 0.05529975 0.00000000
0.47039513 0.05551415 0.00000000
0.49983544 0.05572687 0.00000000
0.52945122 0.05593790 0.00000000
0.55923912 0.05614723 0.00000000
0.58919578 0.05635484 0.00000000
0.61931783 0.05656072 0.00000000
0.64960192 0.05676486 0.00000000
0.68004469 0.05696723 0.00000000
0.71064278 0.05716783 0.00000000
0.74139284 0.05736664 0.00000000
0.77229151 0.05756363 0.00000000
0.80333543 0.05775881 0.00000000
0.83452127 0.05795213 0.00000000
0.86584565 0.05814360 0.00000000
0.89730524 0.05833320 0.00000000
0.92889667 0.05852089 0.00000000
0.00004858 0.07865363 0.00000000
0.02637262 0.07899597 0.00000000
0.05291622 0.07933180 0.00000000
0.07967555 0.07966151 0.00000000
0.10665047 0.07998785 0.00000000
0.13384430 0.08031536 0.00000000
0.16126049 0.08064801 0.00000000
0.18889829 0.08098660 0.00000000
0.21675113 0.08132811 0.00000000
0.24480886 0.08166786 0.00000000
0.27306193 0.08200222 0.00000000
0.30150415 0.08232994 0.00000000
0.33013253 0.08265160 0.00000000
0.35894554 0.08296845 0.00000000
0.38794151 0.08328151 0.00000000
0.41711814 0.08359138 0.00000000
0.44647255 0.08389831 0.00000000
0.47600153 0.08420237 0.00000000
0.50570179 0.08450359 0.00000000
0.53556997 0.08480196 0.00000000
0.56560272 0.08509746 0.00000000
0.59579667 0.08539007 0.00000000
0.62614848 0.08567979 0.00000000
0.65665477 0.08596660 0.00000000
0.68731221 0.08625048 0.00000000
0.71811742 0.08653141 0.00000000
0.74906707 0.08680939 0.00000000
0.78015779 0.08708438 0.00000000
0.81138623 0.08735638 0.00000000
0.84274905 0.08762536 0.00000000
0.87424289 0.08789131 0.00000000
0.90586440 0.08815422 0.00000000
0.93761024 0.08841406 0.00000000
0.00008880 0.10639670 0.00000000
0.02678966 0.10684004 0.00000000
0.05370256 0.10727527 0.00000000
0.08082251 0.10770184 0.00000000
0.10814772 0.10812167 0.00000000
0.13568092 0.10853949 0.00000000
0.16342723 0.10896100 0.00000000
0.19138921 0.10938949 0.00000000
0.21956303 0.10982356 0.00000000
0.24793889 0.11025809 0.00000000
0.27650528 0.11068753 0.00000000
0.30525337 0.11110867 0.00000000
0.33417853 0.11152117 0.00000000
0.36327893 0.11192629 0.00000000
0.39255343 0.11232556 0.00000000
0.42200032 0.11272001 0.00000000
0.45161713 0.11311017 0.00000000
0.48140088 0.11349625 0.00000000
0.51134831 0.11387830 0.00000000
0.54145612 0.11425633 0.00000000
0.57172094 0.11463033 0.00000000
0.60213942 0.11500027 0.00000000
0.63270821 0.11536616 0.00000000
0.66342395 0.11572796 0.00000000
0.69428329 0.11608567 0.00000000
0.72528287 0.11643926 0.00000000
0.75641934 0.11678872 0.00000000
0.78768936 0.11713403 0.00000000
0.81908957 0.11747517 0.00000000
0.85061662 0.11781213 0.00000000
0.88226717 0.11814489 0.00000000
0.91403787 0.11847342 0.00000000
0.94592537 0.11879772 0.00000000
0.00014004 0.13483791 0.00000000
0.02720599 0.13537591 0.00000000
0.05447795 0.13590556 0.00000000
0.08195049 0.13642564 0.00000000
0.10961994 0.13693655 0.00000000
0.13748635 0.13744143 0.00000000
0.16555343 0.13794558 0.00000000
0.19382515 0.13845386 0.00000000
0.22230119 0.13896755 0.00000000
0.25097488 0.13948348 0.00000000
0.27983556 0.13999611 0.00000000
0.30887308 0.14050087 0.00000000
0.33808078 0.14099589 0.00000000
0.36745553 0.14148166 0.00000000
0.39699588 0.14195963 0.00000000
0.42670038 0.14243112 0.00000000
0.45656689 0.14289691 0.00000000
0.48659263 0.14335735 0.00000000
0.51677447 0.14381257 0.00000000
0.54710912 0.14426259 0.00000000
0.57759323 0.14470741 0.00000000
0.60822346 0.14514702 0.00000000
0.63899646 0.14558139 0.00000000
0.66990888 0.14601052 0.00000000
0.70095735 0.14643437 0.00000000
0.73213853 0.14685295 0.00000000
0.76344908 0.14726622 0.00000000
0.79488563 0.14767417 0.00000000
0.82644485 0.14807678 0.00000000
0.85812339 0.14847404 0.00000000
0.88991789 0.14886592 0.00000000
0.92182502 0.14925241 0.00000000
0.95384143 0.14963348 0.00000000
0.00020082 0.16393778 0.00000000
0.02761877 0.16456270 0.00000000
0.05523701 0.16517958 0.00000000
0.08305059 0.16578728 0.00000000
0.11105502 0.16638523 0.00000000
0.13924781 0.16697455 0.00000000
0.16762946 0.16755848 0.00000000
0.19620235 0.16814124 0.00000000
0.22496755 0.16872566 0.00000000
0.25392196 0.16931126 0.00000000
0.28305811 0.16989458 0.00000000
0.31236696 0.17047142 0.00000000
0.34184104 0.17103903 0.00000000
0.37147574 0.17159681 0.00000000
0.40126860 0.17214554 0.00000000
0.43121780 0.17268636 0.00000000
0.46132122 0.17322011 0.00000000
0.49157618 0.17374727 0.00000000
0.52197964 0.17426799 0.00000000
0.55252835 0.17478234 0.00000000
0.58321897 0.17529032 0.00000000
0.61404818 0.17579191 0.00000000
0.64501261 0.17628710 0.00000000
0.67610892 0.17677587 0.00000000
0.70733376 0.17725821 0.00000000
0.73868378 0.17773409 0.00000000
0.77015562 0.17820350 0.00000000
0.80174595 0.17866641 0.00000000
0.83345142 0.17912282 0.00000000
0.86526867 0.17957270 0.00000000
0.89719438 0.18001602 0.00000000
0.92922518 0.18045278 0.00000000
0.96135775 0.18088295 0.00000000
0.00027030 0.19365768 0.00000000
0.02802660 0.19436114 0.00000000
0.05597690 0.19505653 0.00000000
0.08411700 0.19574317 0.00000000
0.11244259 0.19642040 0.00000000
0.14095006 0.19708821 0.00000000
0.16963730 0.19774782 0.00000000
0.19850390 0.19840161 0.00000000
0.22754991 0.19905202 0.00000000
0.25677377 0.19970007 0.00000000
0.28617108 0.20034463 0.00000000
0.31573536 0.20098321 0.00000000
0.34546000 0.20161341 0.00000000
0.37533984 0.20223407 0.00000000
0.40537139 0.20284520 0.00000000
0.43555210 0.20344744 0.00000000
0.46587951 0.20404144 0.00000000
0.49635087 0.20462762 0.00000000
0.52696316 0.20520618 0.00000000
0.55771314 0.20577719 0.00000000
0.58859749 0.20634065 0.00000000
0.61961288 0.20689656 0.00000000
0.65075597 0.20744490 0.00000000
0.68202340 0.20798565 0.00000000
0.71341182 0.20851879 0.00000000
0.74491790 0.20904431 0.00000000
0.77653827 0.20956218 0.00000000
0.80826961 0.21007238 0.00000000
0.84010855 0.21057491 0.00000000
0.87205176 0.21106973 0.00000000
0.90409590 0.21155682 0.00000000
0.93623762 0.21203618 0.00000000
0.96847358 0.21250777 0.00000000
0.00034797 0.22395945 0.00000000
0.02842915 0.22473322 0.00000000
0.05669737 0.22549831 0.00000000
0.08514893 0.22625443 0.00000000
0.11378001 0.22700123 0.00000000
0.14258686 0.22773844 0.00000000
0.17156626 0.22846625 0.00000000
0.20071584 0.22918554 0.00000000
0.23003389 0.22989758 0.00000000
0.25951855 0.23060342 0.00000000
0.28916681 0.23130315 0.00000000
0.31897430 0.23199585 0.00000000
0.34893596 0.23268019 0.00000000
0.37904706 0.23335516 0.00000000
0.40930369 0.23402040 0.00000000
0.43970266 0.23467608 0.00000000
0.47024108 0.23532254 0.00000000
0.50091600 0.23596005 0.00000000
0.53172430 0.23658877 0.00000000
0.56266275 0.23720877 0.00000000
0.59372804 0.23782005 0.00000000
0.62491683 0.23842261 0.00000000
0.65622579 0.23901643 0.00000000
0.68765155 0.23960148 0.00000000
0.71919079 0.24017776 0.00000000
0.75084014 0.24074523 0.00000000
0.78259627 0.24130390 0.00000000
0.81445583 0.24185372 0.00000000
0.84641548 0.24239469 0.00000000
0.87847187 0.24292678 0.00000000
0.91062168 0.24344997 0.00000000
0.94286154 0.24396425 0.00000000
0.97518812 0.24446959 0.00000000
0.00043327 0.25480496 0.00000000
0.02882620 0.25564111 0.00000000
0.05739879 0.25646761 0.00000000
0.08614760 0.25728438 0.00000000
0.11506909 0.25809126 0.00000000
0.14415971 0.25888810 0.00000000
0.17341601 0.25967485 0.00000000
0.20283482 0.26045166 0.00000000
0.23241330 0.26121898 0.00000000
0.26214881 0.26197732 0.00000000
0.29203844 0.26272699 0.00000000
0.32207876 0.26346784 0.00000000
0.35226586 0.26419939 0.00000000
0.38259568 0.26492110 0.00000000
0.41306443 0.26563263 0.00000000
0.44366867 0.26633392 0.00000000
0.47440517 0.26702507 0.00000000
0.50527078 0.26770620 0.00000000
0.53626228 0.26837741 0.00000000
0.56737640 0.26903873 0.00000000
0.59860983 0.26969017 0.00000000
0.62995924 0.27033170 0.00000000
0.66142127 0.27096333 0.00000000
0.69299258 0.27158502 0.00000000
0.72466984 0.27219676 0.00000000
0.75644969 0.27279853 0.00000000
0.78832879 0.27339031 0.00000000
0.82030380 0.27397208 0.00000000
0.85237138 0.27454382 0.00000000
0.88452818 0.27510551 0.00000000
0.91677087 0.27565712 0.00000000
0.94909611 0.27619865 0.00000000
0.98150055 0.27673006 0.00000000
0.00052547 0.28615595 0.00000000
0.02921720 0.28704675 0.00000000
0.05808108 0.28792680 0.00000000
0.08711372 0.28879605 0.00000000
0.11631172 0.28965447 0.00000000
0.14567167 0.29050199 0.00000000
0.17519014 0.29133856 0.00000000
0.20486378 0.29216416 0.00000000
0.23468933 0.29297888 0.00000000
0.26466366 0.29378287 0.00000000
0.29478363 0.29457629 0.00000000
0.32504599 0.29535918 0.00000000
0.35544728 0.29613143 0.00000000
0.38598392 0.29689284 0.00000000
0.41665236 0.29764322 0.00000000
0.44744913 0.29838250 0.00000000
0.47837090 0.29911067 0.00000000
0.50941437 0.29982775 0.00000000
0.54057626 0.30053377 0.00000000
0.57185325 0.30122874 0.00000000
0.60324202 0.30191266 0.00000000
0.63473924 0.30258551 0.00000000
0.66634156 0.30324727 0.00000000
0.69804563 0.30389793 0.00000000
0.72984812 0.30453747 0.00000000
0.76174568 0.30516586 0.00000000
0.79373497 0.30578309 0.00000000
0.82581265 0.30638914 0.00000000
0.85797538 0.30698398 0.00000000
0.89021981 0.30756759 0.00000000
0.92254261 0.30813996 0.00000000
0.95494044 0.30870106 0.00000000
0.98740996 0.30925087 0.00000000
0.00062374 0.31797413 0.00000000
0.02960139 0.31891192 0.00000000
0.05874363 0.31983780 0.00000000
0.08804710 0.32075175 0.00000000
0.11750843 0.32165376 0.00000000
0.14712424 0.32254379 0.00000000
0.17689117 0.32342181 0.00000000
0.20680585 0.32428781 0.00000000
0.23686492 0.32514178 0.00000000
0.26706509 0.32598373 0.00000000
0.29740307 0.32681370 0.00000000
0.32787554 0.32763171 0.00000000
0.35847918 0.32843775 0.00000000
0.38921058 0.32923176 0.00000000
0.42006634 0.33001366 0.00000000
0.45104304 0.33078341 0.00000000
0.48213734 0.33154098 0.00000000
0.51334588 0.33228634 0.00000000
0.54466535 0.33301951 0.00000000
0.57609241 0.33374047 0.00000000
0.60762373 0.33444920 0.00000000
0.63925596 0.33514570 0.00000000
0.67098577 0.33582994 0.00000000
0.70280981 0.33650190 0.00000000
0.73472474 0.33716156 0.00000000
0.76672722 0.33780891 0.00000000
0.79881391 0.33844392 0.00000000
0.83098147 0.33906657 0.00000000
0.86322656 0.33967684 0.00000000
0.89554584 0.34027471 0.00000000
0.92793597 0.34086016 0.00000000
0.96039361 0.34143317 0.00000000
0.99291543 0.34199371 0.00000000
0.00072718 0.35022119 0.00000000
0.02997788 0.35119831 0.00000000
0.05938562 0.35216237 0.00000000
0.08894702 0.35311334 0.00000000
0.11865874 0.35405120 0.00000000
0.14851741 0.35497595 0.00000000
0.17851968 0.35588756 0.00000000
0.20866220 0.35678602 0.00000000
0.23894160 0.35767129 0.00000000
0.26935454 0.35854338 0.00000000
0.29989768 0.35940226 0.00000000
0.33056769 0.36024795 0.00000000
0.36136123 0.36108042 0.00000000
0.39227494 0.36189966 0.00000000
0.42330547 0.36270563 0.00000000
0.45444946 0.36349830 0.00000000
0.48570354 0.36427766 0.00000000
0.51706438 0.36504367 0.00000000
0.54852863 0.36579632 0.00000000
0.58009296 0.36653560 0.00000000
0.61175401 0.36726149 0.00000000
0.64350846 0.36797397 0.00000000
0.67535296 0.36867302 0.00000000
0.70728418 0.36935861 0.00000000
0.73929876 0.37003074 0.00000000
0.77139336 0.37068937 0.00000000
0.80356466 0.37133450 0.00000000
0.83580931 0.37196608 0.00000000
0.86812397 0.37258412 0.00000000
0.90050531 0.37318858 0.00000000
0.93294998 0.37377944 0.00000000
0.96545465 0.37435668 0.00000000
0.99801598 0.37492028 0.00000000
0.00083482 0.38285881 0.00000000
0.03034572 0.38386763 0.00000000
0.06000608 0.38486221 0.00000000
0.08981257 0.38584255 0.00000000
0.11976181 0.38680861 0.00000000
0.14985047 0.38776040 0.00000000
0.18007518 0.38869789 0.00000000
0.21043259 0.38962106 0.00000000
0.24091936 0.39052990 0.00000000
0.27153213 0.39142438 0.00000000
0.30226755 0.39230449 0.00000000
0.33312229 0.39317022 0.00000000
0.36409299 0.39402154 0.00000000
0.39517632 0.39485844 0.00000000
0.42636892 0.39568090 0.00000000
0.45766745 0.39648890 0.00000000
0.48906856 0.39728241 0.00000000
0.52056890 0.39806142 0.00000000
0.55216513 0.39882591 0.00000000
0.58385392 0.39957585 0.00000000
0.61563191 0.40031122 0.00000000
0.64749578 0.40103202 0.00000000
0.67944217 0.40173821 0.00000000
0.71146775 0.40242978 0.00000000
0.74356919 0.40310670 0.00000000
0.77574313 0.40376895 0.00000000
0.80798624 0.40441652 0.00000000
0.84029519 0.40504938 0.00000000
0.87266663 0.40566751 0.00000000
0.90509723 0.40627088 0.00000000
0.93758366 0.40685949 0.00000000
0.97012257 0.40743330 0.00000000
1.00000000 0.40852043 0.00275002
0.00094568 0.41584873 0.00000000
0.03070390 0.41688159 0.00000000
0.06060404 0.41789905 0.00000000
0.09064275 0.41890109 0.00000000
0.12081667 0.41988771 0.00000000
0.15112245 0.42085888 0.00000000
0.18155675 0.42181459 0.00000000
0.21211621 0.42275481 0.00000000
0.24279748 0.42367952 0.00000000
0.27359721 0.42458872 0.00000000
0.30451207 0.42548238 0.00000000
0.33553870 0.42636049 0.00000000
0.36667376 0.42722301 0.00000000
0.39791390 0.42806994 0.00000000
0.42925579 0.42890126 0.00000000
0.46069607 0.42971694 0.00000000
0.49223140 0.43051697 0.00000000
0.52385844 0.43130132 0.00000000
0.55557385 0.43206997 0.00000000
0.58737429 0.43282291 0.00000000
0.61925642 0.43356012 0.00000000
0.65121690 0.43428156 0.00000000
0.68325238 0.43498723 0.00000000
0.71535954 0.43567710 0.00000000
0.74753502 0.43635115 0.00000000
0.77977550 0.43700936 0.00000000
0.81207763 0.43765171 0.00000000
0.84443808 0.43827817 0.00000000
0.87685351 0.43888872 0.00000000
0.90932059 0.43948335 0.00000000
0.94183597 0.44006203 0.00000000
0.97439633 0.44062474 0.00000000
1.00000000 0.44246800 0.00776398
0.00105871 0.44915265 0.00000000
0.03105140 0.45020190 0.00000000
0.06117846 0.45123459 0.00000000
0.09143654 0.45225070 0.00000000
0.12182229 0.45325022 0.00000000
0.15233236 0.45423312 0.00000000
0.18296339 0.45519938 0.00000000
0.21371205 0.45614900 0.00000000
0.24457499 0.45708194 0.00000000
0.27554885 0.45799820 0.00000000
0.30663031 0.45889774 0.00000000
0.33781600 0.45978056 0.00000000
0.36910259 0.46064663 0.00000000
0.40048673 0.46149593 0.00000000
0.43196508 0.46232845 0.00000000
0.46353430 0.46314416 0.00000000
0.49519105 0.46394304 0.00000000
0.52693199 0.46472508 0.00000000
0.55875377 0.46549024 0.00000000
0.59065306 0.46623852 0.00000000
0.62262651 0.46696988 0.00000000
0.65467079 0.46768432 0.00000000
0.68678257 0.46838180 0.00000000
0.71895849 0.46906231 0.00000000
0.75119523 0.46972582 0.00000000
0.78348944 0.47037232 0.00000000
0.81583779 0.47100178 0.00000000
0.84823695 0.47161418 0.00000000
0.88068357 0.47220950 0.00000000
0.91317432 0.47278771 0.00000000
0.94570587 0.47334880 0.00000000
0.97827487 0.47389275 0.00000000
1.00000000 0.47632037 0.01320189
0.00117285 0.48273230 0.00000000
0.03138715 0.48379030 0.00000000
0.06172828 0.48483058 0.00000000
0.09219288 0.48585310 0.00000000
0.12277761 0.48685786 0.00000000
0.15347911 0.48784484 0.00000000
0.18429405 0.48881401 0.00000000
0.21521907 0.48976537 0.00000000
0.24625084 0.49069888 0.00000000
0.27738600 0.49161453 0.00000000
0.30862122 0.49251231 0.00000000
0.33995315 0.49339218 0.00000000
0.37137844 0.49425414 0.00000000
0.40289376 0.49509816 0.00000000
0.43449576 0.49592422 0.00000000
0.46618111 0.49673229 0.00000000
0.49794646 0.49752237 0.00000000
0.52978848 0.49829443 0.00000000
0.56170382 0.49904844 0.00000000
0.59368915 0.49978439 0.00000000
0.62574112 0.50050226 0.00000000
0.65785640 0.50120202 0.00000000
0.69003166 0.50188365 0.00000000
0.72226355 0.50254713 0.00000000
0.75454873 0.50319245 0.00000000
0.78688388 0.50381957 0.00000000
0.81926565 0.50442847 0.00000000
0.85169072 0.50501915 0.00000000
0.88415573 0.50559156 0.00000000
0.91665736 0.50614569 0.00000000
0.94919227 0.50668153 0.00000000
0.98175713 0.50719904 0.00000000
1.00000000 0.51003888 0.01906449
0.00128699 0.51654944 0.00000000
0.03171005 0.51760854 0.00000000
0.06225239 0.51864874 0.00000000
0.09291067 0.51967003 0.00000000
0.12368153 0.52067238 0.00000000
0.15456163 0.52165578 0.00000000
0.18554763 0.52262021 0.00000000
0.21663619 0.52356565 0.00000000
0.24782395 0.52449208 0.00000000
0.27910758 0.52539947 0.00000000
0.31048373 0.52628782 0.00000000
0.34194907 0.52715710 0.00000000
0.37350024 0.52800728 0.00000000
0.40513392 0.52883835 0.00000000
0.43684676 0.52965029 0.00000000
0.46863542 0.53044308 0.00000000
0.50049656 0.53121669 0.00000000
0.53242684 0.53197110 0.00000000
0.56442293 0.53270630 0.00000000
0.59648148 0.53342227 0.00000000
0.62859917 0.53411897 0.00000000
0.66077265 0.53479639 0.00000000
0.69299858 0.53545451 0.00000000
0.72527363 0.53609330 0.00000000
0.75759446 0.53671275 0.00000000
0.78995774 0.53731283 0.00000000
0.82236013 0.53789352 0.00000000
0.85479830 0.53845480 0.00000000
0.88726890 0.53899665 0.00000000
0.91976861 0.53951904 0.00000000
0.95229409 0.54002195 0.00000000
0.98484201 0.54050536 0.00000000
1.00000000 0.54358489 0.02535247
0.00140003 0.55056579 0.00000000
0.03201899 0.55161834 0.00000000
0.06274970 0.55265082 0.00000000
0.09358880 0.55366322 0.00000000
0.12453295 0.55465552 0.00000000
0.15557881 0.55562769 0.00000000
0.18672304 0.55657972 0.00000000
0.21796228 0.55751159 0.00000000
0.24929321 0.55842327 0.00000000
0.28071248 0.55931476 0.00000000
0.31221674 0.56018602 0.00000000
0.34380266 0.56103703 0.00000000
0.37546690 0.56186779 0.00000000
0.40720611 0.56267825 0.00000000
0.43901696 0.56346842 0.00000000
0.47089612 0.56423825 0.00000000
0.50284023 0.56498773 0.00000000
0.53484597 0.56571685 0.00000000
0.56691000 0.56642557 0.00000000
0.59902897 0.56711388 0.00000000
0.63119956 0.56778176 0.00000000
0.66341842 0.56842918 0.00000000
0.69568223 0.56905612 0.00000000
0.72798763 0.56966256 0.00000000
0.76033131 0.57024848 0.00000000
0.79270992 0.57081386 0.00000000
0.82512012 0.57135867 0.00000000
0.85755859 0.57188289 0.00000000
0.89002199 0.57238650 0.00000000
0.92250698 0.57286948 0.00000000
0.95501022 0.57333180 0.00000000
0.98752839 0.57377345 0.00000000
1.00000000 0.57691973 0.03206647
0.00151081 0.58474313 0.00000000
0.03231282 0.58578147 0.00000000
0.06321905 0.58679858 0.00000000
0.09422613 0.58779444 0.00000000
0.12533073 0.58876902 0.00000000
0.15652951 0.58972231 0.00000000
0.18781913 0.59065429 0.00000000
0.21919624 0.59156493 0.00000000
0.25065750 0.59245422 0.00000000
0.28219957 0.59332213 0.00000000
0.31381912 0.59416865 0.00000000
0.34551280 0.59499375 0.00000000
0.37727728 0.59579741 0.00000000
0.40910921 0.59657961 0.00000000
0.44100527 0.59734034 0.00000000
0.47296210 0.59807956 0.00000000
0.50497637 0.59879725 0.00000000
0.53704476 0.59949341 0.00000000
0.56916391 0.60016799 0.00000000
0.60133049 0.60082099 0.00000000
0.63354118 0.60145237 0.00000000
0.66579262 0.60206213 0.00000000
0.69808149 0.60265023 0.00000000
0.73040445 0.60321666 0.00000000
0.76275816 0.60376138 0.00000000
0.79513930 0.60428439 0.00000000
0.82754451 0.60478565 0.00000000
0.85997048 0.60526515 0.00000000
0.89241386 0.60572286 0.00000000
0.92487133 0.60615877 0.00000000
0.95733953 0.60657284 0.00000000
0.98981515 0.60696506 0.00000000
1.00000000 0.61000477 0.03920704
0.00161817 0.61904319 0.00000000
0.03259039 0.62005969 0.00000000
0.06365929 0.62105377 0.00000000
0.09482151 0.62202544 0.00000000
0.12607373 0.62297466 0.00000000
0.15741259 0.62390141 0.00000000
0.18883477 0.62480567 0.00000000
0.22033691 0.62568743 0.00000000
0.25191568 0.62654667 0.00000000
0.28356774 0.62738335 0.00000000
0.31528975 0.62819747 0.00000000
0.34707837 0.62898899 0.00000000
0.37893027 0.62975790 0.00000000
0.41084210 0.63050418 0.00000000
0.44281054 0.63122780 0.00000000
0.47483223 0.63192875 0.00000000
0.50690386 0.63260699 0.00000000
0.53902207 0.63326252 0.00000000
0.57118354 0.63389531 0.00000000
0.60338493 0.63450533 0.00000000
0.63562290 0.63509256 0.00000000
0.66789411 0.63565699 0.00000000
0.70019524 0.63619858 0.00000000
0.73252295 0.63671733 0.00000000
0.76487390 0.63721320 0.00000000
0.79724475 0.63768617 0.00000000
0.82963218 0.63813622 0.00000000
0.86203284 0.63856334 0.00000000
0.89444341 0.63896749 0.00000000
0.92686054 0.63934865 0.00000000
0.95928091 0.63970681 0.00000000
0.99170117 0.64004193 0.00000000
1.00000000 0.64280137 0.04677470
0.00172095 0.65342776 0.00000000
0.03285053 0.65441475 0.00000000
0.06406926 0.65537816 0.00000000
0.09537379 0.65631797 0.00000000
0.12676078 0.65723417 0.00000000
0.15822690 0.65812673 0.00000000
0.18976880 0.65899563 0.00000000
0.22138314 0.65984085 0.00000000
0.25306659 0.66066237 0.00000000
0.28481582 0.66146016 0.00000000
0.31662747 0.66223422 0.00000000
0.34849821 0.66298451 0.00000000
0.38042471 0.66371101 0.00000000
0.41240363 0.66441370 0.00000000
0.44443164 0.66509256 0.00000000
0.47650539 0.66574757 0.00000000
0.50862155 0.66637871 0.00000000
0.54077679 0.66698595 0.00000000
0.57296776 0.66756927 0.00000000
0.60519114 0.66812865 0.00000000
0.63744359 0.66866407 0.00000000
0.66972178 0.66917550 0.00000000
0.70202236 0.66966293 0.00000000
0.73434201 0.67012633 0.00000000
0.76667739 0.67056568 0.00000000
0.79902516 0.67098095 0.00000000
0.83138199 0.67137213 0.00000000
0.86374455 0.67173920 0.00000000
0.89610949 0.67208212 0.00000000
0.92847349 0.67240088 0.00000000
