assets/luts/DB_Sports_Highlight_Reel_Rec709_50.cube
TITLE "Sports Highlight Reel Rec709 50"
# Red changes fastest. Full-range normalized input.
LUT_3D_SIZE 5
DOMAIN_MIN 0 0 0
DOMAIN_MAX 1 1 1
0.00000000 0.00000000 0.00000000
0.20153335 0.00000000 0.00031705
0.41972025 0.00000000 0.00058384
0.65254341 0.00000000 0.00072843
0.89802426 0.00000000 0.00075127
0.00000000 0.22000129 0.00209110
0.22574455 0.22727365 0.00000000
0.46537198 0.23320152 0.00000000
0.71476989 0.23854859 0.00000000
0.97195578 0.24333631 0.00000000
0.00000000 0.48025629 0.00166852
0.24369908 0.48971367 0.00000000
0.49636616 0.49728426 0.00000000
0.75437637 0.50362121 0.00000000
1.00000000 0.51127498 0.02107042
0.00079463 0.75783193 0.00000000
0.25592752 0.76455215 0.00000000
0.51395218 0.76936600 0.00000000
0.77296770 0.77224574 0.00000000
1.00000000 0.77304718 0.09265134
0.07740013 1.00000000 0.07494893
0.32691842 1.00000000 0.09981818
0.56525631 1.00000000 0.12748559
0.79042048 1.00000000 0.15794841
1.00000000 0.99958613 0.19653340
0.00000000 0.00016753 0.19415004
0.20427565 0.00000000 0.20536149
0.42491237 0.00000000 0.21363708
0.65974968 0.00000000 0.22112562
0.90679598 0.00000000 0.22781942
0.00000000 0.22250468 0.22324809
0.22750200 0.22929505 0.23007463
0.49212527 0.22878977 0.22940887
0.76002906 0.22933770 0.22960677
1.00000000 0.23879340 0.23862970
0.00000000 0.48355086 0.24256385
0.23064028 0.49821482 0.23161593
0.49984702 0.50071996 0.23428445
0.76932314 0.50352919 0.23597703
1.00000000 0.51412949 0.26974286
0.00000000 0.76070667 0.25240167
0.24053681 0.77287983 0.23850259
0.50846470 0.77416204 0.23946819
0.77500768 0.77413502 0.23924525
1.00000000 0.77527976 0.32565722
0.08557136 1.00000000 0.31186546
0.33369797 1.00000000 0.33126100
0.57019291 1.00000000 0.35278927
0.79306481 1.00000000 0.37644180
1.00000000 0.99967988 0.40633020
0.00000000 0.00033263 0.39441041
0.20693771 0.00000000 0.41600477
0.42996143 0.00000000 0.43184335
0.66673822 0.00000000 0.44621850
0.91527436 0.00000000 0.45912867
0.00000000 0.22492008 0.44908422
0.22685736 0.22899323 0.49609664
0.49300167 0.22873190 0.49551241
0.76063972 0.22984294 0.49621552
1.00000000 0.24099828 0.49409489
0.00000000 0.48667836 0.48664391
0.23162520 0.49906280 0.49854706
0.50083156 0.50145523 0.50062367
0.76951208 0.50451237 0.50312458
1.00000000 0.51714823 0.51560911
0.00000000 0.76302350 0.50724138
0.24123397 0.77343603 0.50518975
0.50874380 0.77431958 0.50579736
0.77458259 0.77365505 0.50568443
1.00000000 0.77760026 0.55432705
0.09403621 1.00000000 0.54489045
0.34069441 1.00000000 0.55836099
0.57527049 1.00000000 0.57329637
0.79577514 1.00000000 0.58968212
1.00000000 0.99978114 0.61031670
0.00000000 0.00049329 0.60057117
0.20953190 0.00000000 0.63202692
0.43486854 0.00000000 0.65496946
0.67350971 0.00000000 0.67577509
0.92345970 0.00000000 0.69444814
0.00000000 0.22724672 0.67937748
0.22662629 0.22872444 0.76198023
0.49332857 0.22897619 0.76187677
0.76137057 0.23045808 0.76292795
1.00000000 0.24344031 0.74807987
0.00000000 0.48963896 0.73367692
0.23266069 0.49995388 0.76552315
0.50207876 0.50267455 0.76776353
0.77132063 0.50521326 0.76985503
1.00000000 0.52033170 0.75843428
0.00000000 0.76509993 0.76348383
0.24180572 0.77387321 0.77176934
0.50884241 0.77431174 0.77196977
0.77374534 0.77288780 0.77086087
1.00000000 0.77990983 0.77840409
0.10279457 1.00000000 0.77379424
0.34790794 1.00000000 0.78088750
0.58048965 1.00000000 0.78877514
0.79855209 1.00000000 0.79743608
1.00000000 0.99989135 0.80815934
0.00000000 0.00064767 0.81242044
0.21205958 0.00000000 0.85319400
0.43963460 0.00000000 0.88278272
0.68006466 0.00000000 0.90956388
0.93135215 0.00000000 0.93354737
0.00000000 0.22948397 0.91390418
0.22889595 0.23079477 1.00000000
0.48763265 0.23406299 1.00000000
0.74519028 0.23922532 1.00000000
0.99965539 0.24625774 1.00000000
0.00000000 0.49243295 0.98342995
0.24848436 0.49976942 1.00000000
0.50588751 0.50626963 1.00000000
0.75772734 0.51397297 1.00000000
1.00000000 0.52368030 0.99798449
0.03272127 0.75931903 1.00000000
0.28917738 0.76407965 1.00000000
0.53760039 0.76937614 1.00000000
0.77599249 0.77520955 1.00000000
1.00000000 0.78250726 0.99776060
0.11184644 1.00000000 0.99834679
0.35533895 1.00000000 0.99860943
0.58585114 1.00000000 0.99899331
0.80139803 1.00000000 0.99947098
1.00000000 1.00000000 1.00000000
