assets/luts/DB_Silver_Street_Rec709_100.cube
TITLE "Silver Street Rec709 100"
# Red changes fastest. Full-range normalized input.
LUT_3D_SIZE 9
DOMAIN_MIN 0 0 0
DOMAIN_MAX 1 1 1
0.00700000 0.00700000 0.00700000
0.06759163 0.01201864 0.01235291
0.07572261 0.03340660 0.03426477
0.09725085 0.05305846 0.05430561
0.13007855 0.07142961 0.07295532
0.16446996 0.09106386 0.09280482
0.20012449 0.11192712 0.11382493
0.23694878 0.13392869 0.13592894
0.27484981 0.15697775 0.15903009
0.05558564 0.07575917 0.05769198
0.09534112 0.09599583 0.03883702
0.15761652 0.10796586 0.05881814
0.16735701 0.13379333 0.11832574
0.20055522 0.15709001 0.14420497
0.23878964 0.18050641 0.16767098
0.27800937 0.20483794 0.19199239
0.31808590 0.23000232 0.21710579
0.35892620 0.25590875 0.24292442
0.12658264 0.15764065 0.12978794
0.16358184 0.18073948 0.15098973
0.20341814 0.20467802 0.16849605
0.24377887 0.22866688 0.19788491
0.28284097 0.25423387 0.22632243
0.32385868 0.28040177 0.25248189
0.36559048 0.30717407 0.27912289
0.40786640 0.33447370 0.30626368
0.45059310 0.36220994 0.33381779
0.20689524 0.25287357 0.21020471
0.24753643 0.27858755 0.23583902
0.28886869 0.30498116 0.26208981
0.33081972 0.33195532 0.28889491
0.37326966 0.35942063 0.31624250
0.41613442 0.38729334 0.34393477
0.45932594 0.41547874 0.37191290
0.50274837 0.44388608 0.40009908
0.54630862 0.47242457 0.42840668
0.29610877 0.35679467 0.29884030
0.33872213 0.38442119 0.32629063
0.38171852 0.41241821 0.35409110
0.42500492 0.44069492 0.38215492
0.46848830 0.46916052 0.41039535
0.51207562 0.49772421 0.43872562
0.55567383 0.52629520 0.46705893
0.59918992 0.55478269 0.49530850
0.64253085 0.58309589 0.52338759
0.39071002 0.46593613 0.39242039
0.43424200 0.49444795 0.42070356
0.47784406 0.52302481 0.44904497
0.52142315 0.55157592 0.47735784
0.56488623 0.58001046 0.50555539
0.60814028 0.60823765 0.53355086
0.65109227 0.63616669 0.56125747
0.69364914 0.66370678 0.58858844
0.73571788 0.69076712 0.61545702
0.48715708 0.57684118 0.48764147
0.53055484 0.60521075 0.51577549
0.57370968 0.63333990 0.54367584
0.61652859 0.66113785 0.57125574
0.65891853 0.68851379 0.59842842
0.70078645 0.71537693 0.62510710
0.74203934 0.74163646 0.65120502
0.78258414 0.76720159 0.67663539
0.82232783 0.79198152 0.70131146
0.58190806 0.68605308 0.58120004
0.62411872 0.71325283 0.60820292
0.66577350 0.73990673 0.63468021
0.70677937 0.76592396 0.66054514
0.74704329 0.79121374 0.68571095
0.78647222 0.81568526 0.71009085
0.82497314 0.83924773 0.73359807
0.86245301 0.86181035 0.75614585
0.89881879 0.88328232 0.77764741
0.67142106 0.79011505 0.66979260
0.71139177 0.81511744 0.69468233
0.75049361 0.83926852 0.71875457
0.78863357 0.86247749 0.74192254
0.82571861 0.88465355 0.76409947
0.86165569 0.90570591 0.78519859
0.89635179 0.92554376 0.80513313
0.92971385 0.94407631 0.82381631
0.96164886 0.96121276 0.84116137
0.01136246 0.01146699 0.02706574
0.04200770 0.02520911 0.04301260
0.07220823 0.04136896 0.05811977
0.10310447 0.05916282 0.07543299
0.13655225 0.07795403 0.09445471
0.17138305 0.09801585 0.11471142
0.20744527 0.11927586 0.13610936
0.24464566 0.14164334 0.15856173
0.28289118 0.16502749 0.18198177
0.06420197 0.08095576 0.08239484
0.09890345 0.09976144 0.10116133
0.16625886 0.11126716 0.11253622
0.18098372 0.13931342 0.14118894
0.20855356 0.16488083 0.16692135
0.24694889 0.18867041 0.19073137
0.28646972 0.21329504 0.21533156
0.32681607 0.23872160 0.24069419
0.36789457 0.26485938 0.26673258
0.13414971 0.16526672 0.15233710
0.16893455 0.18955631 0.17216246
0.21378624 0.21465261 0.15778995
0.28106863 0.23155086 0.18255745
0.29562531 0.26211924 0.24665077
0.33294102 0.28942037 0.27633952
0.37483288 0.31639056 0.30318328
0.41727229 0.34384865 0.33047418
0.46013092 0.37171251 0.35814892
0.21555511 0.26152465 0.23372823
0.25641495 0.28748890 0.25956215
0.29734024 0.31440423 0.28439438
0.34064229 0.34171427 0.30511508
0.38409011 0.36869791 0.33734130
0.42578972 0.39682046 0.36819662
0.46899306 0.42510561 0.39636076
0.51247244 0.45356773 0.42459821
0.55605832 0.48213011 0.45292730
0.30547333 0.36612959 0.32301292
0.34822720 0.39389212 0.35059189
0.39133184 0.42199460 0.37849035
0.43468985 0.45034957 0.40659715
0.47822905 0.47885803 0.43485013
0.52182980 0.50743069 0.46323741
0.56540764 0.53598359 0.49156122
0.60887460 0.56442208 0.51976276
0.65213487 0.59265543 0.54776421
0.40042165 0.47560595 0.41690858
0.44398786 0.50415005 0.44522126
0.48759255 0.53272834 0.47356271
0.53114267 0.56125004 0.50184614
0.57454520 0.58962436 0.52998478
0.61770711 0.61776047 0.55789188
0.66053534 0.64556760 0.58548067
0.70293688 0.67295495 0.61266434
0.74481868 0.69983171 0.63935614
0.49685822 0.58649695 0.51211174
0.54018392 0.61479505 0.54017614
0.58323511 0.64282191 0.56797739
0.62591877 0.67048672 0.59542872
0.66814186 0.69769869 0.62244337
0.70981135 0.72436702 0.64893455
0.75083420 0.75040091 0.67481550
0.79111737 0.77570957 0.69999944
0.83056784 0.80020219 0.72439959
0.59124116 0.69534582 0.60531890
0.63327347 0.72237038 0.63215302
0.67471831 0.74881825 0.65843208
0.71548264 0.77459862 0.68406932
0.75547342 0.79962069 0.70897795
0.79459763 0.82379368 0.73307122
0.83276223 0.84702678 0.75626234
0.86987418 0.86922918 0.77846455
0.90584045 0.89031011 0.79959107
0.68002855 0.79869581 0.69322656
0.71971462 0.82341928 0.71784840
0.75850024 0.84726059 0.74162327
0.79629237 0.87012896 0.76446441
0.83299799 0.89193359 0.78628504
0.86852406 0.91258368 0.80699840
0.90277754 0.93198843 0.82651770
0.93566541 0.95005704 0.84475618
0.96709461 0.96669871 0.86162706
0.01599698 0.01620183 0.04633365
0.04553183 0.03110087 0.06168189
0.07663780 0.04753191 0.07847726
0.10921246 0.06540623 0.09664057
0.14317858 0.08462716 0.11609563
0.17843814 0.10510603 0.13674964
0.21489732 0.12675233 0.15851539
0.25246307 0.14947526 0.18130612
0.29104236 0.17318402 0.20503506
0.07130554 0.08714904 0.10359064
0.10572256 0.10679222 0.12395870
0.14308956 0.12706855 0.14611486
0.17959009 0.14937132 0.16709093
0.21634726 0.17287356 0.18984754
0.25521363 0.19693748 0.21388989
0.29502525 0.22184464 0.23875867
0.33563067 0.24752291 0.26436052
0.37693666 0.27388157 0.29060867
0.14192435 0.17298767 0.17501493
0.17946099 0.19662532 0.19866969
0.21925111 0.22033489 0.22203797
0.29124503 0.23634893 0.23771244
0.31065353 0.26900107 0.27081087
0.34222975 0.29846526 0.30024822
0.38413462 0.32566424 0.32729790
0.42672653 0.35327040 0.35472896
0.46970635 0.38125140 0.38251432
0.22430241 0.27026057 0.25733247
0.26536745 0.29646176 0.28339214
0.30389553 0.32439231 0.30668797
0.35170501 0.35242144 0.29523702
0.42197444 0.37223102 0.32278254
0.43934071 0.40545541 0.38924847
0.47871781 0.43474588 0.42080633
0.52220877 0.46326095 0.44910793
0.56580954 0.49183675 0.47744852
0.31488916 0.37551416 0.34723253
0.35777274 0.40340224 0.37493009
0.40094723 0.43160982 0.40288954
0.44374022 0.46033556 0.42943994
0.48845202 0.48901836 0.45147807
0.53292805 0.51697995 0.48460156
0.57520517 0.54564439 0.51594493
0.61853572 0.57403775 0.54419366
0.66170432 0.60218084 0.57210776
0.41014844 0.48529020 0.44141009
0.45373815 0.51385609 0.46974227
0.49733474 0.54242535 0.49807374
0.54084449 0.57090747 0.52631657
0.58416995 0.59921498 0.55435964
0.62723901 0.62724892 0.58214075
0.66993218 0.65492000 0.60964783
0.71216474 0.68214422 0.63668338
0.75384880 0.70882694 0.66318853
0.50653843 0.59613191 0.53656167
0.54978134 0.62434807 0.56454643
0.59271815 0.65226216 0.59223858
0.63525583 0.67978337 0.61955134
0.67730134 0.70682090 0.64639795
0.71876166 0.73328395 0.67269160
0.75954375 0.75908173 0.69834557
0.79955456 0.78412344 0.72327308
0.83870108 0.80831827 0.74738733
0.60051722 0.70458253 0.62938376
0.64236046 0.73142142 0.65603910
0.68358463 0.75765278 0.68210993
0.72409669 0.78318582 0.70750946
0.76380362 0.80792972 0.73215092
0.80261237 0.83179369 0.75594755
0.84042991 0.85468695 0.77881256
0.87716322 0.87651868 0.80065919
0.91271925 0.89719808 0.82140066
0.68854292 0.80718531 0.71657285
0.72793362 0.83161937 0.74091678
0.76639228 0.85514045 0.76438429
0.80382586 0.87765775 0.78688859
0.84014133 0.89908048 0.80834291
0.87524566 0.91931782 0.82866049
0.90904580 0.93827899 0.84775455
0.94144873 0.95587319 0.86553831
0.97236141 0.97200962 0.88192501
0.02078543 0.02108516 0.06626781
0.05086043 0.03651633 0.08211228
0.08247557 0.05344728 0.09938611
0.11553784 0.07178721 0.11800253
0.14995418 0.09144534 0.13787478
0.18563158 0.11233085 0.15891607
0.22247699 0.13435296 0.18103965
0.26039738 0.15742087 0.20415872
0.29929971 0.18144376 0.22818653
0.07780800 0.09369121 0.12509650
0.11269413 0.11380660 0.14540554
0.14881156 0.13511422 0.16685972
0.18606252 0.15752683 0.18935303
0.22434462 0.18095567 0.21280619
0.26358054 0.20530400 0.23714286
0.30367230 0.23048317 0.26227033
0.34452607 0.25640269 0.28810139
0.38604881 0.28297176 0.31454928
0.14977129 0.18084102 0.19777973
0.18840682 0.20461452 0.22158057
0.22792995 0.22922433 0.24667525
0.26995373 0.25402856 0.27313937
0.31070218 0.28046358 0.29804870
0.35126469 0.30766403 0.32432063
0.39349138 0.33499174 0.35146356
0.43622547 0.36273539 0.37902461
0.47931575 0.39082307 0.40691058
0.23313348 0.27907780 0.28101395
0.27447758 0.30548076 0.30730418
0.31564287 0.33264510 0.33431332
0.35842395 0.35929485 0.36055281
0.43298632 0.37785914 0.37876305
0.45506913 0.41302757 0.41408634
0.48859790 0.44436282 0.44525595
0.53195398 0.47296210 0.47362479
0.57555864 0.50154092 0.50196694
0.32435260 0.38494481 0.37149573
0.36735524 0.41294795 0.39930195
0.41058613 0.44124731 0.42734854
0.45079974 0.47082301 0.45222872
0.49954071 0.49990019 0.44205440
0.57075477 0.52059579 0.47038636
0.58882861 0.55435551 0.53708339
0.62820390 0.58361753 0.56857527
0.67123558 0.61166857 0.59641482
0.41988676 0.49498530 0.46592153
0.46348924 0.52356251 0.49426320
0.50706693 0.55211229 0.52257466
0.55049777 0.58055442 0.55073997
0.59310287 0.60908554 0.57709417
0.63717767 0.63714581 0.59854585
0.68061526 0.66406562 0.63063233
0.72140570 0.69125668 0.66053715
0.76280490 0.71774919 0.68695048
0.51619407 0.60574249 0.56098786
0.55934346 0.63386626 0.58888298
0.60215515 0.66165710 0.61645602
0.64453612 0.68902423 0.64362020
0.68639265 0.71587715 0.67028758
0.72762727 0.74212839 0.69634716
0.76816791 0.76767898 0.72173663
0.80789506 0.79243955 0.74644365
0.84672398 0.81632621 0.77027113
0.60973262 0.71375964 0.65339120
0.65137605 0.74040239 0.67985777
0.69236882 0.76640678 0.70571035
0.73261789 0.79168200 0.73086217
0.77203022 0.81613726 0.75522645
0.81051279 0.83968176 0.77871643
0.84797255 0.86222469 0.80124530
0.88431648 0.88367527 0.82272635
0.91945154 0.90394269 0.84307278
0.69696052 0.81557998 0.73982806
0.73604513 0.83971417 0.76388409
0.77416610 0.86290455 0.78703421
0.81123040 0.88506030 0.80919167
0.84714499 0.90609065 0.83026968
0.88181684 0.92590478 0.85018147
0.91515292 0.94441190 0.86884028
0.94706018 0.96152121 0.88615932
0.97744560 0.97714192 0.90205184
0.02576215 0.02615184 0.08637800
0.05637062 0.04210252 0.10271761
0.08848765 0.05952216 0.12045713
0.12202020 0.07831994 0.13950976
0.15687523 0.09840507 0.15978876
0.19295972 0.11968676 0.18120733
0.23018064 0.14207421 0.20367871
0.26844493 0.16547662 0.22711613
0.30765958 0.18980318 0.25143281
0.08445373 0.10038297 0.14675522
0.11976714 0.12091423 0.16745913
0.15627613 0.14260900 0.18927104
0.19388767 0.16537647 0.21210417
0.23250872 0.18912584 0.23587174
0.27204625 0.21376632 0.26048698
0.31240723 0.23920710 0.28586313
0.35349862 0.26535739 0.31191340
0.39522739 0.29212639 0.33855103
0.15772850 0.18880887 0.22065348
0.19669398 0.21289317 0.24473971
0.23654198 0.23783542 0.26964315
0.27718362 0.26354276 0.29528354
0.31852126 0.28992809 0.32155497
0.36045247 0.31690258 0.34837813
0.40289985 0.34436944 0.37567661
0.44576546 0.37224006 0.40335773
0.48895549 0.40042394 0.43133431
0.24204457 0.28797280 0.30476928
0.28360923 0.31458259 0.33125584
0.32573440 0.34174612 0.35827799
0.36830442 0.36931488 0.38618415
0.41292501 0.39664261 0.41505112
0.45586516 0.42519762 0.44196119
0.49817507 0.45408524 0.46982211
0.54170375 0.48266781 0.49814563
0.58530196 0.51123908 0.52647915
0.33386002 0.39441800 0.39579912
0.37697105 0.42252570 0.42370397
0.42033273 0.45088203 0.45184252
0.46306867 0.47956715 0.48029351
0.50680295 0.50721582 0.50762869
0.58191890 0.52639301 0.52656949
0.60456756 0.56195097 0.56197115
0.63797654 0.59312461 0.59291424
0.68072524 0.62111497 0.62068196
0.42963296 0.50468771 0.49043950
0.47323748 0.53326578 0.51878066
0.51678562 0.56178556 0.54706216
0.56012410 0.59017438 0.57517612
0.59997838 0.61940423 0.59974492
0.64773656 0.64768671 0.58911822
0.71783046 0.66723462 0.61626189
0.73441440 0.69937321 0.68112007
0.77171756 0.72658634 0.71061622
0.52582149 0.61532516 0.58538691
0.56886663 0.64334604 0.61318238
0.61154248 0.67100317 0.64062630
0.65375594 0.69820578 0.66763185
0.69538489 0.72487369 0.69408329
0.73574933 0.75120624 0.71832481
0.77714959 0.77665215 0.73727924
0.81747432 0.80050752 0.76640029
0.85470968 0.82420837 0.79294309
0.61888371 0.72287360 0.67733784
0.66031660 0.74930974 0.70360563
0.70106724 0.77507668 0.72922996
0.74104258 0.80008362 0.75412406
0.78014959 0.82423976 0.77820115
0.81829456 0.84745461 0.80137330
0.85538008 0.86964078 0.82352960
0.89133406 0.89069924 0.84460763
0.92603670 0.91054032 0.86459479
0.70527772 0.82387627 0.76298880
0.74404550 0.84770012 0.78674691
0.78181805 0.87054931 0.80956965
0.81850234 0.89233306 0.83137025
0.85400532 0.91296055 0.85206194
0.88823397 0.93234100 0.87155794
0.92109525 0.95038360 0.88977149
0.95249612 0.96699756 0.90661579
0.98234355 0.98209207 0.92200411
0.03092358 0.03139841 0.10665965
0.06205480 0.04785814 0.12348440
0.09466298 0.06575598 0.14167959
0.12865508 0.08500114 0.16115843
0.16393808 0.10550281 0.18183416
0.20041894 0.12717020 0.20362001
0.23800462 0.14991251 0.22642919
0.27660209 0.17363895 0.25017494
0.31611832 0.19825871 0.27477049
0.09124808 0.10721938 0.16855174
0.12697795 0.12815596 0.18964166
0.16387180 0.15022520 0.21181011
0.20183661 0.17333631 0.23497031
0.24077933 0.19739849 0.25903549
0.28060695 0.22232093 0.28391887
0.32122641 0.24801285 0.30953368
0.36254469 0.27438344 0.33579315
0.40446875 0.30134190 0.36261051
0.16579821 0.19688617 0.24363138
0.20507386 0.22127204 0.26800448
0.24520053 0.24648514 0.29316419
0.28608517 0.27243464 0.31902375
0.32763477 0.29902977 0.34549637
0.36975627 0.32617971 0.37249529
0.41235665 0.35379368 0.39993374
0.45534287 0.38178086 0.42772493
0.49862190 0.41005048 0.45578211
0.25103207 0.29694201 0.32859507
0.29280065 0.32374964 0.35526935
0.33510726 0.35107903 0.38243834
0.37785878 0.37883927 0.41001638
0.42096630 0.40693749 0.43792322
0.46433227 0.43528666 0.46605298
0.50785425 0.46379794 0.49432629
0.55145475 0.49237447 0.52266678
0.59503588 0.52092767 0.55098177
0.34340777 0.40393016 0.42013931
0.38661640 0.43213198 0.44813277
0.43005007 0.46055011 0.47632904
0.47360655 0.48909486 0.50465278
0.51716573 0.51761542 0.53345415
0.56232825 0.54546413 0.56281506
0.60539969 0.57412533 0.58979649
0.64739675 0.60268821 0.61732183
0.69016899 0.63051668 0.64490600
0.43938339 0.51439386 0.51496060
0.48297922 0.54296231 0.54329123
0.52648714 0.57144163 0.57153275
0.56980807 0.59974247 0.59959986
0.61205949 0.62794353 0.62757805
0.65476909 0.65467232 0.65418849
0.72847894 0.67254574 0.67201325
0.74948590 0.70632931 0.70542110
0.78068415 0.73530170 0.73419282
0.53541705 0.62487634 0.60975542
0.57834721 0.65278388 0.63744124
0.62087649 0.68029682 0.66474603
0.66291179 0.70732440 0.69158302
0.70429973 0.73379400 0.71784469
0.74176261 0.76069182 0.74019679
0.78673584 0.78637886 0.72730466
0.85362233 0.80273697 0.75130210
0.86642347 0.83106217 0.81232307
0.62796684 0.73192085 0.70122028
0.66917847 0.75813991 0.72727928
0.70967624 0.78365893 0.75266535
0.74936713 0.80838712 0.77729172
0.78815801 0.83223369 0.80107157
0.82592689 0.85511864 0.82388938
0.86200070 0.87724970 0.84409962
0.89869813 0.89809289 0.85863910
0.93382783 0.91685827 0.88287208
0.71349086 0.83207063 0.78605168
0.75193109 0.85557366 0.80950186
0.78934449 0.87807120 0.83198721
0.82563804 0.89947246 0.85342094
0.86071868 0.91968663 0.87371630
0.89449339 0.93862292 0.89278651
0.92686847 0.95619084 0.91054363
0.95774666 0.97230315 0.92687685
0.98705575 0.98686068 0.94172363
0.03626609 0.03682132 0.12710936
0.06790932 0.05377962 0.14440925
0.10099792 0.07214519 0.16305010
0.13543885 0.09182725 0.18294514
0.17113908 0.11273499 0.20400760
0.20800557 0.13477761 0.22615071
0.24594529 0.15786432 0.24928768
0.28486521 0.18190432 0.27333176
0.32467229 0.20680680 0.29819616
0.09818740 0.11419690 0.19048265
0.13432300 0.13552832 0.21194858
0.17159098 0.15796156 0.23446356
0.20989833 0.18140584 0.25794083
0.24915200 0.20577035 0.28229360
0.28925896 0.23096429 0.30743511
0.33012618 0.25689687 0.33327858
0.37166062 0.28347729 0.35973724
0.41376924 0.31061474 0.38672433
0.17397679 0.20506933 0.26671001
0.21355189 0.22974632 0.29135998
0.25394640 0.25521968 0.31676709
0.29506730 0.28139863 0.34284458
0.33682155 0.30819235 0.36950566
0.37911611 0.33551006 0.39666358
0.42185796 0.36326096 0.42423155
0.46495405 0.39135424 0.45212280
0.50831136 0.41969911 0.48025057
0.26009236 0.30598187 0.35248793
0.30205409 0.33297687 0.37933994
0.34452226 0.36046280 0.40665718
0.38740385 0.38834885 0.43435290
0.43060581 0.41654424 0.46234030
0.47403512 0.44495816 0.49053263
0.51759873 0.47349981 0.51884310
0.56120362 0.50207841 0.54718494
0.60475674 0.53060314 0.57547139
0.35299220 0.41347775 0.44451290
0.39628770 0.44176321 0.47258495
0.43977667 0.47023414 0.50083034
0.48336608 0.49879975 0.52916229
0.52696279 0.52736914 0.55749514
0.57047785 0.55584940 0.58574867
0.61381382 0.58415355 0.61381694
0.65686821 0.61219273 0.64162058
0.69956350 0.63987007 0.66908329
0.44913442 0.52410021 0.53948143
0.49271083 0.55264857 0.56779153
0.53616773 0.58107696 0.59598305
0.57941207 0.60929458 0.62396924
0.62234156 0.63721172 0.65167483
0.66483367 0.66467751 0.67945402
0.70848828 0.69104659 0.70739617
0.74962642 0.71779860 0.73252272
0.78924803 0.74402395 0.75778965
0.54497711 0.63439249 0.63409000
0.58778156 0.66217620 0.66165615
0.63015354 0.68953449 0.68881181
0.67200000 0.71637655 0.71547021
0.71322187 0.74261307 0.74154608
0.75293641 0.76832626 0.76713471
0.79270332 0.79223884 0.79115506
0.86310260 0.80691254 0.80597578
0.88016121 0.83672063 0.83539198
0.63697837 0.74089784 0.72503512
0.67795800 0.76688934 0.75087532
0.71819219 0.79214997 0.77601312
0.75758789 0.81658893 0.80036175
0.79605200 0.84011544 0.82383444
0.83343139 0.86265721 0.84632408
0.86648361 0.88524160 0.86454454
0.90698179 0.90657452 0.84748986
0.96855121 0.91769228 0.86639997
0.72159631 0.84015949 0.80901328
0.75969825 0.86333123 0.83214553
0.79674178 0.88546666 0.85428348
0.83263385 0.90647496 0.87534035
0.86728143 0.92626533 0.89522937
0.90059140 0.94474702 0.91386373
0.93244209 0.96184028 0.93112810
0.96217810 0.97776800 0.94538637
0.99215363 0.99202355 0.95358625
0.04178602 0.04241700 0.14772373
0.07393053 0.05986339 0.16548875
0.10748882 0.07868624 0.18456526
0.14236785 0.09879472 0.20486649
0.17847458 0.12009805 0.22630567
0.21571598 0.14250543 0.24879603
0.25399902 0.16592607 0.27225079
0.29323065 0.19026915 0.29658319
0.33331785 0.21544389 0.32170644
0.10526805 0.12131196 0.21254456
0.14179865 0.14302775 0.23437649
0.17943004 0.16581453 0.25722799
0.21806919 0.18958150 0.28101231
0.25762308 0.21423787 0.30564268
0.29799866 0.23969284 0.33103231
0.33910290 0.26585561 0.35709443
0.38084277 0.29263538 0.38374228
0.42312523 0.31994136 0.41088908
0.18226061 0.21335482 0.28988597
0.22212442 0.23831244 0.31480280
0.26277605 0.26403561 0.34044730
0.30412247 0.29043352 0.36673272
0.34607064 0.31741537 0.39357226
0.38852754 0.34489037 0.42087916
0.43140012 0.37276772 0.44856665
0.47459536 0.40095663 0.47654795
0.51802021 0.42936629 0.50473630
0.26922179 0.31508882 0.37644445
0.31136594 0.34226072 0.40346418
0.35398494 0.36989271 0.43091969
0.39698576 0.39789400 0.45872419
0.44027537 0.42617379 0.48679092
0.48376071 0.45464127 0.51503309
0.52734878 0.48320565 0.54336395
0.57094652 0.51177613 0.57169671
0.61446091 0.54026192 0.59994461
0.36260968 0.42305719 0.46891649
0.40598132 0.45141582 0.49705713
0.44951483 0.47992909 0.52534164
0.49311719 0.50850620 0.55368324
0.53669535 0.53705636 0.58199515
0.58015629 0.56548877 0.61019061
0.62340697 0.59371262 0.63818283
0.66635435 0.62163713 0.66588505
0.70890541 0.64917149 0.69321050
0.45888239 0.53380319 0.56399859
0.50242865 0.56232099 0.59227815
0.54582381 0.59068798 0.62040966
0.58897484 0.61881336 0.64830635
0.63178870 0.64660634 0.67588146
0.67417225 0.67397601 0.70304933
0.71603655 0.70082947 0.72972977
0.75728418 0.72707975 0.75581675
0.79781262 0.75263795 0.78123092
0.55449802 0.64387004 0.65838724
0.59716603 0.67151946 0.68582372
0.63936997 0.69871262 0.71282024
0.68101681 0.72535872 0.73929003
0.72201348 0.75136697 0.76514634
0.76225770 0.77664769 0.79031401
0.80162801 0.80105272 0.81515251
0.84172993 0.82394344 0.83975941
0.87886601 0.84676930 0.86110796
0.64591466 0.74980100 0.74877896
0.68665156 0.77555448 0.77439035
0.72661143 0.80054625 0.79926987
0.76570121 0.82468551 0.82333076
0.80382788 0.84788147 0.84648625
0.84089237 0.87004483 0.86865109
0.87602050 0.89126742 0.88993128
0.91098664 0.91048990 0.90945128
0.97622607 0.92008860 0.91933855
0.72959041 0.84813930 0.83187022
0.76734335 0.87096929 0.85467453
0.80400627 0.89273212 0.87645507
0.83948613 0.91333698 0.89712506
0.87368991 0.93269310 0.91659774
0.90652450 0.95070968 0.93478631
0.93783744 0.96731502 0.95158411
0.96447257 0.98360940 0.96374836
0.99891766 0.99887153 0.94054997
0.04747973 0.04818189 0.16849936
0.08011480 0.06610592 0.18671950
0.11413205 0.08537555 0.20622167
0.14943845 0.10590000 0.22691908
0.18594095 0.12758845 0.24872498
0.22354653 0.15035012 0.27155258
0.26216214 0.17409420 0.29531512
0.30169476 0.19872990 0.31992583
0.34205136 0.22416642 0.34529792
0.11248639 0.12856101 0.23473407
0.14940126 0.15065070 0.25692198
0.18738532 0.17378054 0.28010001
0.22634556 0.19785974 0.30418138
0.26618893 0.22279750 0.32907932
0.30682239 0.24850302 0.35470706
0.34815293 0.27488551 0.38097783
0.39008750 0.30185417 0.40780486
0.43253306 0.32931819 0.43510136
0.19064602 0.22173907 0.31315586
0.23078781 0.24696686 0.33832954
0.27168582 0.27292935 0.36420143
0.31324704 0.29953575 0.39068476
0.35537841 0.32669526 0.41769275
0.39798691 0.35431709 0.44513863
0.44097950 0.38231042 0.47293564
0.48426315 0.41058448 0.50099698
0.52774482 0.43904845 0.52923590
0.27841671 0.32425930 0.40046123
0.32073256 0.35159763 0.42763869
0.36349166 0.37936522 0.45522244
0.40660098 0.40747127 0.48312573
0.44996750 0.43582498 0.51126177
0.49349816 0.46433555 0.53954379
0.53709994 0.49291219 0.56788503
0.58067981 0.52146409 0.59619870
0.62414472 0.54990046 0.62439804
0.37225656 0.43266495 0.49334667
0.41569360 0.46108627 0.52154590
0.45926093 0.48963141 0.54985953
0.50286550 0.51820955 0.57820077
0.54641429 0.54672990 0.60648287
0.58981425 0.57510166 0.63461903
0.63297236 0.60323404 0.66252251
0.67579559 0.63103623 0.69010651
0.71819088 0.65841744 0.71728426
0.46862367 0.54349925 0.58850868
0.51212904 0.57197601 0.61674769
0.55545173 0.60027114 0.64480919
0.59849869 0.62829382 0.67260640
0.64117689 0.65595325 0.70005254
0.68339329 0.68315866 0.72706086
0.72505486 0.70981922 0.75354457
0.76606858 0.73584415 0.77941690
0.80634139 0.76114265 0.80459108
0.56397613 0.65330545 0.68264376
0.60649698 0.68081010 0.70994055
0.64852216 0.70782766 0.73676792
0.68995864 0.73426732 0.76303909
0.73071339 0.76003829 0.78866729
0.77069336 0.78504978 0.81356577
0.80980543 0.80921086 0.83764886
0.84796066 0.83242871 0.86083643
0.88506160 0.85461624 0.88302231
0.65477206 0.75862679 0.77244839
0.69525551 0.78413177 0.79782097
0.73493032 0.80884421 0.82243221
0.77370346 0.83267330 0.84619535
0.81148189 0.85552825 0.86902362
0.84817255 0.87731827 0.89083025
0.88367325 0.89795378 0.91154021
0.91786853 0.91729259 0.93151839
0.95237803 0.93470812 0.95086977
0.73746954 0.85600651 0.85461909
0.77486273 0.87848427 0.87708545
0.81113431 0.89986403 0.89849857
0.84619124 0.92005499 0.91877168
0.87994050 0.93896637 0.93781801
0.91228903 0.95650736 0.95555077
0.94313785 0.97258872 0.97188479
0.97163284 0.98731903 0.98693554
1.00000000 1.00000000 1.00000000
