assets/luts/DB_Sodium_Cinema_Rec709_100.cube
TITLE "Sodium Cinema Rec709 100"
# Red changes fastest. Full-range normalized input.
LUT_3D_SIZE 9
DOMAIN_MIN 0 0 0
DOMAIN_MAX 1 1 1
0.00800000 0.00800000 0.00800000
0.11451483 0.00337772 0.00405421
0.21317851 0.00294895 0.00452061
0.31553412 0.00300099 0.00501830
0.42107620 0.00358099 0.00568394
0.52803162 0.00514537 0.00707626
0.63626776 0.00763350 0.00915877
0.74568758 0.01097346 0.01188235
0.85619413 0.01509330 0.01519785
0.00000000 0.10774452 0.00917153
0.10308997 0.10927966 0.00000000
0.21414351 0.11026410 0.00000000
0.31796555 0.11512552 0.00939059
0.42706070 0.11902467 0.01301889
0.53793267 0.12341276 0.01654226
0.64976524 0.12848042 0.02058592
0.76245532 0.13415790 0.02510530
0.87590595 0.14037325 0.03005125
0.00000000 0.22261666 0.01260808
0.10849073 0.22717568 0.01391781
0.22000366 0.23163795 0.01645788
0.33220499 0.23699582 0.02159598
0.44494486 0.24299666 0.02684010
0.55863537 0.24939550 0.03194814
0.67296703 0.25622858 0.03739676
0.78783006 0.26342945 0.04315570
0.90312744 0.27092618 0.04917585
0.01425113 0.34583809 0.02383233
0.12750448 0.35191435 0.02866696
0.24144698 0.35847592 0.03388792
0.35598476 0.36545035 0.03945056
0.47101714 0.37276800 0.04531820
0.58644817 0.38035485 0.05142280
0.70218169 0.38813918 0.05772004
0.81812035 0.39604930 0.06416229
0.93416717 0.40401327 0.07070041
0.03906739 0.47471943 0.04156208
0.15425628 0.48214285 0.04751609
0.26980892 0.48980975 0.05369552
0.38562835 0.49764819 0.06005123
0.50161761 0.50558624 0.06653407
0.61767974 0.51355196 0.07309490
0.73371778 0.52147341 0.07968454
0.84963475 0.52927864 0.08625386
0.96533371 0.53689572 0.09275371
0.06909753 0.60717041 0.06239927
0.18512454 0.61512686 0.06891620
0.30118912 0.62308479 0.07549320
0.41719431 0.63097225 0.08208114
0.53304313 0.63871731 0.08863085
0.64863864 0.64624803 0.09509320
0.76388386 0.65349246 0.10141902
0.87868184 0.66037867 0.10755917
0.99293561 0.66683472 0.11346450
0.10065011 0.74045222 0.08447266
0.21641794 0.74812757 0.09099626
0.33189714 0.75556239 0.09741460
0.44699076 0.76268474 0.10367851
0.56160184 0.76942267 0.10973886
0.67563341 0.77570425 0.11554649
0.78898851 0.78145753 0.12105225
0.90157018 0.78661058 0.12620699
1.00000000 0.79106618 0.17032054
0.13003371 0.87182606 0.10591102
0.24444503 0.87840618 0.11188505
0.35824155 0.88450375 0.11758847
0.47132629 0.89004684 0.12297213
0.58360231 0.89496351 0.12798687
0.69497262 0.89918181 0.13258354
0.80534028 0.90262981 0.13671299
0.91460833 0.90523557 0.14032607
1.00000000 0.90219503 0.25703197
0.15355688 0.99855312 0.12484311
0.27310557 1.00000000 0.13929343
0.39230135 1.00000000 0.15873127
0.50719629 1.00000000 0.17940199
0.61743377 1.00000000 0.20130835
0.72265857 1.00000000 0.22444909
0.82251691 1.00000000 0.24881863
0.91665658 1.00000000 0.27440679
1.00000000 0.99568541 0.35785725
0.00584154 0.00688395 0.11398063
0.10758362 0.00432893 0.11256064
0.21058293 0.00313373 0.11170600
0.31498733 0.00308565 0.11180681
0.42103369 0.00400421 0.11271634
0.52843493 0.00589037 0.11434855
0.63708392 0.00867585 0.11665429
0.74688367 0.01228872 0.11958440
0.85773722 0.01665705 0.12308973
0.00000000 0.10849776 0.11046330
0.10203525 0.11033587 0.11200502
0.21573526 0.11009927 0.11123938
0.32004893 0.11574092 0.11679690
0.42841674 0.12042106 0.12078197
0.53959397 0.12506089 0.12449909
0.65172858 0.13034374 0.12870984
0.76468782 0.13621195 0.13337960
0.87837467 0.14259361 0.13845923
0.00000000 0.22432246 0.11889271
0.10963758 0.22859820 0.12128824
0.22310896 0.23106683 0.11691789
0.33946594 0.23563493 0.12185311
0.44792197 0.24478639 0.13452043
0.56118750 0.25166783 0.14039637
0.67570489 0.25863639 0.14596018
0.79072630 0.26594580 0.15181334
0.90614913 0.27352665 0.15791103
0.01641369 0.34784271 0.13206738
0.12990788 0.35409211 0.13703490
0.24396083 0.36077521 0.14208440
0.35881048 0.36763218 0.14667071
0.47414271 0.37516664 0.15347217
0.58951799 0.38297363 0.16016468
0.70532145 0.39081497 0.16653401
0.82130768 0.39875146 0.17301438
0.93736918 0.40671736 0.17957388
0.04192382 0.47720869 0.15019576
0.15724712 0.48472286 0.15623183
0.27290111 0.49245609 0.16247645
0.38878764 0.50033615 0.16887662
0.50481343 0.50829074 0.17538726
0.62087916 0.51625040 0.18197058
0.73688672 0.52414073 0.18856024
0.85274052 0.53189014 0.19511150
0.96834338 0.53942696 0.20157657
0.07227517 0.60986783 0.17124266
0.18832582 0.61783285 0.17778550
0.30438110 0.62577491 0.18437173
0.42034406 0.63362208 0.19095220
0.53611773 0.64130242 0.19747775
0.65160515 0.64874398 0.20389925
0.76670936 0.65587482 0.21016753
0.88133339 0.66262302 0.21623345
0.99538029 0.66891661 0.22204784
0.10377631 0.74308132 0.19333686
0.21945699 0.75068305 0.19983022
0.33481613 0.75801982 0.20620163
0.44975675 0.76501968 0.21240193
0.56418189 0.77161070 0.21838196
0.67799460 0.77772093 0.22409259
0.79109791 0.78327844 0.22948465
0.90339486 0.78821129 0.23450900
1.00000000 0.79295092 0.27767616
0.13273581 0.87411035 0.21460713
0.24694922 0.88053466 0.22049477
0.36051489 0.88645199 0.22609511
0.47333585 0.89179041 0.23135899
0.58531516 0.89647798 0.23623726
0.69635584 0.90044275 0.24068077
0.80636094 0.90361279 0.24464038
0.91523349 0.90591615 0.24806692
1.00000000 0.90351014 0.35562596
0.15602308 1.00000000 0.23367158
0.27862323 1.00000000 0.25005998
0.39719848 1.00000000 0.26756033
0.51139160 1.00000000 0.28617723
0.62084669 1.00000000 0.30591139
0.72520925 1.00000000 0.32675935
0.82412632 1.00000000 0.34871318
0.91724653 1.00000000 0.37176022
1.00000000 0.99615921 0.44635581
0.00388994 0.00592873 0.21991781
0.10589778 0.00390892 0.21866668
0.20950806 0.00305206 0.21826725
0.31462228 0.00328661 0.21867166
0.42114626 0.00453945 0.21983207
0.52898213 0.00673908 0.22169852
0.63803280 0.00981362 0.22422181
0.74820130 0.01369112 0.22735278
0.85939067 0.01829964 0.23104229
0.00000000 0.10933752 0.21203984
0.10152838 0.11184543 0.22047975
0.21014722 0.11418267 0.22266153
0.31950087 0.11766265 0.22530734
0.42983468 0.12192353 0.22863348
0.54136148 0.12678486 0.23251457
0.65378701 0.13227457 0.23688670
0.76700422 0.13832522 0.24170117
0.88091612 0.14486488 0.24690881
0.00065607 0.22584159 0.22644423
0.11148303 0.23022764 0.22995798
0.22391995 0.23381883 0.23273614
0.34185268 0.23658849 0.23490382
0.45131933 0.24633140 0.24278123
0.56382975 0.25397673 0.24887988
0.67850027 0.26108377 0.25455745
0.79366883 0.26849346 0.26049918
0.90920593 0.27615012 0.26666873
0.01866323 0.34990880 0.24035127
0.13238651 0.35632254 0.24545183
0.24620159 0.36299483 0.25022423
0.36124951 0.36706347 0.24884824
0.48066810 0.37387263 0.25539739
0.59313667 0.38525578 0.26839138
0.70848583 0.39349979 0.27535916
0.82450369 0.40145702 0.28187560
0.94056868 0.40941655 0.28845081
0.04482960 0.47973151 0.25885918
0.16027610 0.48732814 0.26497165
0.27601502 0.49511933 0.27127140
0.39180409 0.50299537 0.27746242
0.50780664 0.51069258 0.28306352
0.62416718 0.51878090 0.29038484
0.74004600 0.52678543 0.29741646
0.85581738 0.53447710 0.30395915
0.97131293 0.54192538 0.31038381
0.07546453 0.61257090 0.28009673
0.19152763 0.62053619 0.28665981
0.30756243 0.62845409 0.29324960
0.42347182 0.63625268 0.29981676
0.53915717 0.64385970 0.30630874
0.65452580 0.65120294 0.31267992
0.76947958 0.65821278 0.31889142
0.88391839 0.66481493 0.32487869
0.99774723 0.67093778 0.33059651
0.10687661 0.74568815 0.30219267
0.22245897 0.75320797 0.30865012
0.33768684 0.76043839 0.31496893
0.45246328 0.76730747 0.32109993
0.56669131 0.77374328 0.32699399
0.68027398 0.77967387 0.33260194
0.79311432 0.78502731 0.33787463
0.90511537 0.78973166 0.34276293
1.00000000 0.79488975 0.38322458
0.13537440 0.87634446 0.32327576
0.24937870 0.88260467 0.32907135
0.36270234 0.88833347 0.33456294
0.47524834 0.89345892 0.33970137
0.58691976 0.89790909 0.34443751
0.69761963 0.90161203 0.34872220
0.80725098 0.90449581 0.35250628
0.91571686 0.90648849 0.35574061
1.00000000 0.90486397 0.45215854
0.16215939 1.00000000 0.34490766
0.28420653 1.00000000 0.35939464
0.40214711 1.00000000 0.37487832
0.51562459 1.00000000 0.39136131
0.62428380 1.00000000 0.40884219
0.72777100 1.00000000 0.42731523
0.82573406 1.00000000 0.44677009
0.91782245 1.00000000 0.46719158
1.00000000 0.99665394 0.53256278
0.00213085 0.00510812 0.32603356
0.10469307 0.00349165 0.32507651
0.20882499 0.00301342 0.32495620
0.31442967 0.00360148 0.32562349
0.42141014 0.00518388 0.32702922
0.52966944 0.00768870 0.32912425
0.63911060 0.01104400 0.33185942
0.74963667 0.01517782 0.33518559
0.86115067 0.02001824 0.33905359
0.00000000 0.11023385 0.31447618
0.10193674 0.11263276 0.32771489
0.21063838 0.11545490 0.33004974
0.32048624 0.11910186 0.33300538
0.43138200 0.12350197 0.33653370
0.54323146 0.12858184 0.34058672
0.65593675 0.13427010 0.34511458
0.76940075 0.14049489 0.35006808
0.88352651 0.14718425 0.35539807
0.00199829 0.22726099 0.33422561
0.11325216 0.23191596 0.33795240
0.22542970 0.23718169 0.34222948
0.33870236 0.24283892 0.34700585
0.45233485 0.24938654 0.35199348
0.56648633 0.25635578 0.35742251
0.68134927 0.26356797 0.36318670
0.79665386 0.27106960 0.36921130
0.91229405 0.27879378 0.37544705
0.02099593 0.35203354 0.34868203
0.13495042 0.35860366 0.35391462
0.24936238 0.36553469 0.35948269
0.36401006 0.37097021 0.36468674
0.48361594 0.37537360 0.36919628
0.59703314 0.38723623 0.37724112
0.71168446 0.39618153 0.38419544
0.82770461 0.40416314 0.39074402
0.94376188 0.41210802 0.39732928
0.04778091 0.48228507 0.36755042
0.16333946 0.48995587 0.37373363
0.27915153 0.49779626 0.38008872
0.39435485 0.50551185 0.38607507
0.50839019 0.51004071 0.38726447
0.62897310 0.51741168 0.39406874
0.74357000 0.52904811 0.40584384
0.85886549 0.53703406 0.41279199
0.97423855 0.54438817 0.41917353
0.07866182 0.61527680 0.38895954
0.19472618 0.62323406 0.39553720
0.31072930 0.63111951 0.40212487
0.42656767 0.63886111 0.40866957
0.54195039 0.64635000 0.41491897
0.65698773 0.65333416 0.42044578
0.77221872 0.66035265 0.42719194
0.88643931 0.66694558 0.43347964
1.00000000 0.67290166 0.43914262
0.10994721 0.74826990 0.41103815
0.22542006 0.75569951 0.41745403
0.34050550 0.76281528 0.42371457
0.45510656 0.76954529 0.42977062
0.56912613 0.77581760 0.43557287
0.68246526 0.78156010 0.44106908
0.79503179 0.78670046 0.44621317
0.90672795 0.79116864 0.45096565
1.00000000 0.79688248 0.48692647
0.13794566 0.87852558 0.43191501
0.25172968 0.88461339 0.43761287
0.36480010 0.89014536 0.44299004
0.47705997 0.89504955 0.44799736
0.58841232 0.89925402 0.45258570
0.69876018 0.90268684 0.45670589
0.80800661 0.90527606 0.46030878
0.91605463 0.90694975 0.46334523
1.00000000 0.90625594 0.54659456
0.16837540 1.00000000 0.45475020
0.28985521 1.00000000 0.46725710
0.40714713 1.00000000 0.48064456
0.51989530 1.00000000 0.49491313
0.62774529 1.00000000 0.51005919
0.73034417 1.00000000 0.52607470
0.82734063 1.00000000 0.54294686
0.91838504 1.00000000 0.56065786
1.00000000 0.99716859 0.61644737
0.00056398 0.00442706 0.43225166
0.10367014 0.00320521 0.43158428
0.20831310 0.00309716 0.43173695
0.31439587 0.00403097 0.43266054
0.42182151 0.00593470 0.43430587
0.53049305 0.00873641 0.43662381
0.64031352 0.01236417 0.43956519
0.75118597 0.01674602 0.44308088
0.86301344 0.02181004 0.44712172
0.00000000 0.11118272 0.41803326
0.10250200 0.11349454 0.43507447
0.21160305 0.11660531 0.43762508
0.32181773 0.12051593 0.44078124
0.43304909 0.12515447 0.44449380
0.54520017 0.13044897 0.44871362
0.65817399 0.13632751 0.45339154
0.77187360 0.14271813 0.45847841
0.88620203 0.14954891 0.46392509
0.00345669 0.22876418 0.44207102
0.11503411 0.23364985 0.44597395
0.22749594 0.23916525 0.45036639
0.34074590 0.24523777 0.45520002
0.45468616 0.25179691 0.46042322
0.56921841 0.25877089 0.46598780
0.68424814 0.26608615 0.47184596
0.79967760 0.27367141 0.47794778
0.91540969 0.28145482 0.48424405
0.02340798 0.35421412 0.45705776
0.13757505 0.36093235 0.46241148
0.25229875 0.36803768 0.46809072
0.36746585 0.37540642 0.47410528
0.48320539 0.38281201 0.48043752
0.59901150 0.39081922 0.48663438
0.71485230 0.39889591 0.49305845
0.83090656 0.40686704 0.49961774
0.94694498 0.41478895 0.50620736
0.05077397 0.48486656 0.47626756
0.16643338 0.49260322 0.48251582
0.28232368 0.50048554 0.48892299
0.39816094 0.50838122 0.49547741
0.51266152 0.51431133 0.50235019
0.63177386 0.51898283 0.50826549
0.74723377 0.53097127 0.51494412
0.86189219 0.53954898 0.52161207
0.97711649 0.54681249 0.52794379
0.08186322 0.61798271 0.49782917
0.19791766 0.62592366 0.50441575
0.31387794 0.63376835 0.51099564
0.42963355 0.64144423 0.51751808
0.54409888 0.64866438 0.52364504
0.65533023 0.65252766 0.52627110
0.77502055 0.65877841 0.53211171
0.88918232 0.66867774 0.54171820
1.00000000 0.67529027 0.54915105
0.11298431 0.75082376 0.51987138
0.22833647 0.75815485 0.52624002
0.34326828 0.76514769 0.53243662
0.45768279 0.77173033 0.53841204
0.57147575 0.77783093 0.54411405
0.68432964 0.78335298 0.54932117
0.79634933 0.78807192 0.55362698
0.90823767 0.79239594 0.55875141
1.00000000 0.79892485 0.58873848
0.14044580 0.88065090 0.54052294
0.25399836 0.88655800 0.54611740
0.36680438 0.89188484 0.55137448
0.47876693 0.89655947 0.55624503
0.58978902 0.90050996 0.56067989
0.69977353 0.90366437 0.56462978
0.80862166 0.90595083 0.56804246
0.91624131 0.90729680 0.57087166
1.00000000 0.90768525 0.63889875
0.17467079 1.00000000 0.56315911
0.29556909 1.00000000 0.57360690
0.41219848 1.00000000 0.58481818
0.52420381 1.00000000 0.59679138
0.63123141 1.00000000 0.60952066
0.73292916 1.00000000 0.62299556
0.82894661 1.00000000 0.63720077
0.91893504 1.00000000 0.65211580
1.00000000 0.99770206 0.69797938
0.00000000 0.00460679 0.52899948
0.10282446 0.00304722 0.53818663
0.20796726 0.00330106 0.53860662
0.31451695 0.00457232 0.53978083
0.42237658 0.00678908 0.54166009
0.53144917 0.00987939 0.54419527
0.64163777 0.01377130 0.54733720
0.75284542 0.01839289 0.55103674
0.86497516 0.02367221 0.55524474
0.00000000 0.11216498 0.52286302
0.10320689 0.11445681 0.54250971
0.21269700 0.11784729 0.54527148
0.32326783 0.12201318 0.54862211
0.43482240 0.12688255 0.55251245
0.54726376 0.13238346 0.55689336
0.66049493 0.13844397 0.56171567
0.77441897 0.14499214 0.56693025
0.88893890 0.15195604 0.57248793
0.00502827 0.23034829 0.54997855
0.11691691 0.23545591 0.55405318
0.22965704 0.24116888 0.55860048
0.34315169 0.24741526 0.56357129
0.45730389 0.25412311 0.56891647
0.57201669 0.26122049 0.57458686
0.68719313 0.26863546 0.58053331
0.80273624 0.27629608 0.58670668
0.91854905 0.28413041 0.59305780
0.02589559 0.35644771 0.56547653
0.14026312 0.36330570 0.57094579
0.25515593 0.37052703 0.57672238
0.37047705 0.37803969 0.58275730
0.48612997 0.38577103 0.58900242
0.60201743 0.39365071 0.59540569
0.71804103 0.40160688 0.60191896
0.83410579 0.40956589 0.60849480
0.95011418 0.41745653 0.61508313
0.05380497 0.48747316 0.58500866
0.16955405 0.49526739 0.59131632
0.28550225 0.50318294 0.59776595
0.40155041 0.51114712 0.60431039
0.51755722 0.51903330 0.61098261
0.63361266 0.52661624 0.61780045
0.74945744 0.53447447 0.62410003
0.86484261 0.54205744 0.63042582
0.97994286 0.54919556 0.63669268
0.08506495 0.62068582 0.60670371
0.20109829 0.62860215 0.61329352
0.31700455 0.63639779 0.61985996
0.43268542 0.64400072 0.62635428
0.54780835 0.65128110 0.63280945
0.66023029 0.65636354 0.64021986
0.77707529 0.65994441 0.64626019
0.89196466 0.67005237 0.65065773
1.00000000 0.67773926 0.65750579
0.11598412 0.75334690 0.62869044
0.23120440 0.76057119 0.63500617
0.34597141 0.76743278 0.64113317
0.46018818 0.77385975 0.64702230
0.57374289 0.77977997 0.65262421
0.68543520 0.78496753 0.65773842
0.79286888 0.78705344 0.65997266
0.90945011 0.79049912 0.66377083
1.00000000 0.80079760 0.68855701
0.14287104 0.88271758 0.64909763
0.25618094 0.88843569 0.65458303
0.36871139 0.89354911 0.65971435
0.48036542 0.89798588 0.66444245
0.59104606 0.90167408 0.66871817
0.70064916 0.90454232 0.67248949
0.80887173 0.90651815 0.67553611
0.91588705 0.90742089 0.67741659
1.00000000 0.90907882 0.72880193
0.18104529 1.00000000 0.67009416
0.30134805 1.00000000 0.67840341
0.41730117 1.00000000 0.68735814
0.52855027 1.00000000 0.69695461
0.63474246 1.00000000 0.70718466
0.73552644 1.00000000 0.71803538
0.83055258 1.00000000 0.72948885
0.91947244 1.00000000 0.74152095
1.00000000 0.99825345 0.77712324
0.00000000 0.00526330 0.62133247
0.10215222 0.00301487 0.64488164
0.20778368 0.00362230 0.64556327
0.31478910 0.00522272 0.64698243
0.42307153 0.00774421 0.64908996
0.53253400 0.01111481 0.65183670
0.64307955 0.01526260 0.65517352
0.75461122 0.02011562 0.65905124
0.86703204 0.02560194 0.66342074
0.00000000 0.11316593 0.62907005
0.10404759 0.11551682 0.65001854
0.21391560 0.11917869 0.65298580
0.32483138 0.12359156 0.65652523
0.43669798 0.12868347 0.66058768
0.54941844 0.13438249 0.66512400
0.66289579 0.14061668 0.67008504
0.77703307 0.14731410 0.67542165
0.89173331 0.15440281 0.68108467
0.00670924 0.23201052 0.65794626
0.11889792 0.23733178 0.66218692
0.23190516 0.24323397 0.66688356
0.34563399 0.24964513 0.67198702
0.45998745 0.25649334 0.67744815
0.57486857 0.26370664 0.68321781
0.69018040 0.27121310 0.68924683
0.80582598 0.27894078 0.69548608
0.92170834 0.28681774 0.70188639
0.02845498 0.35873151 0.67393640
0.14301176 0.36572096 0.67951555
0.25806092 0.37304932 0.68538532
0.37350548 0.38064465 0.69149657
0.48924848 0.38843500 0.69780014
0.60519297 0.39634845 0.70424689
0.72124197 0.40431305 0.71078766
0.83729853 0.41225685 0.71737330
0.95326568 0.42010793 0.72395466
0.05687011 0.49010205 0.69377180
0.17269769 0.49794554 0.70013319
0.28869145 0.50588594 0.70661985
0.40475443 0.51385129 0.71318265
0.52078959 0.52176959 0.71977262
0.63670021 0.52956818 0.72634183
0.75238966 0.53717676 0.73283768
0.86775936 0.54452343 0.73921217
0.98271391 0.55153457 0.74541824
0.08826321 0.62338331 0.71558121
0.20426427 0.63126672 0.72216860
0.32010532 0.63900502 0.72871592
0.43568939 0.64652626 0.73517402
0.55091685 0.65375779 0.74149620
0.66562419 0.66057603 0.74773693
0.77988050 0.66676595 0.75393854
0.89359930 0.67286610 0.75926040
1.00000000 0.68027238 0.76415387
0.11894284 0.75583651 0.73749341
0.23402005 0.76294569 0.74375055
0.34861108 0.76966775 0.74980228
0.46261895 0.77593075 0.75559944
0.57594523 0.78166270 0.76109343
0.68823427 0.78674817 0.76634613
0.79707233 0.78964817 0.77278914
0.91026908 0.79078655 0.77732911
1.00000000 0.80254245 0.78683040
0.14521755 0.88472283 0.75763715
0.25827362 0.89024365 0.76300782
0.37051731 0.89513534 0.76800771
0.48185165 0.89932596 0.77258769
0.59217968 0.90274357 0.77669861
0.70138986 0.90531698 0.78029140
0.80836532 0.90693642 0.78315949
0.91180537 0.90614716 0.78247367
1.00000000 0.90876471 0.81442513
0.18749870 1.00000000 0.77551495
0.30719198 1.00000000 0.78160585
0.42245527 1.00000000 0.78822324
0.53293490 1.00000000 0.79536116
0.63827881 1.00000000 0.80300906
0.73813656 1.00000000 0.81115155
0.83215679 1.00000000 0.81976753
0.91992577 1.00000000 0.82877862
1.00000000 0.99885853 0.85300430
0.00000000 0.00589577 0.71583121
0.10164963 0.00310534 0.75166737
0.20775856 0.00405806 0.75260498
0.31520854 0.00597935 0.75426343
0.42390259 0.00879727 0.75659355
0.53374375 0.01243987 0.75954619
0.64463506 0.01683523 0.76307222
0.75647956 0.02191139 0.76712246
0.86918029 0.02759642 0.77164778
0.00000000 0.11417424 0.73672543
0.10502033 0.11667173 0.75759902
0.21525504 0.12059671 0.76076610
0.32650460 0.12524825 0.76448867
0.43867204 0.13055441 0.76871756
0.55166042 0.13644324 0.77340363
0.66537275 0.14284281 0.77849772
0.77971209 0.14968119 0.78395070
0.89458147 0.15688642 0.78971339
0.00849579 0.23374804 0.76597223
0.12097333 0.23927465 0.77037325
0.23423650 0.24535776 0.77521356
0.34818833 0.25192541 0.78044400
0.46273186 0.25890567 0.78601542
0.57777013 0.26622660 0.79187867
0.69320617 0.27381625 0.79798460
0.80894303 0.28160270 0.80428406
0.92488375 0.28951399 0.81072789
0.03108233 0.36106269 0.78243547
0.14581720 0.36817531 0.78811882
0.26101151 0.37560240 0.79407611
0.37656829 0.38327202 0.80025819
0.49239059 0.39111225 0.80661590
0.60838145 0.39905113 0.81310009
0.72444389 0.40701674 0.81966161
0.84048096 0.41493712 0.82625130
0.95639569 0.42274034 0.83282003
0.05996561 0.49275041 0.80255506
0.17586049 0.50063488 0.80896450
0.29188863 0.50859182 0.81548253
0.40795306 0.51654928 0.82206000
0.52395682 0.52443534 0.82864775
0.63980294 0.53217804 0.83519664
0.75539446 0.53970546 0.84165751
0.87063442 0.54694564 0.84798121
0.98542586 0.55382665 0.85411858
0.09145419 0.62607237 0.82445976
0.20741179 0.63391456 0.83103905
0.32317644 0.64158721 0.83756159
0.43865120 0.64901838 0.84397820
0.55373909 0.65613613 0.85023976
0.66834307 0.66286845 0.85629732
0.78236624 0.66914273 0.86210313
0.89571245 0.67488856 0.86760410
1.00000000 0.68286898 0.86905995
0.12185666 0.75828977 0.84627835
0.23677964 0.76527555 0.85247125
0.35118349 0.77184978 0.85844203
0.46497126 0.77794052 0.86414156
0.57804598 0.78347582 0.86952068
0.69030778 0.78838319 0.87453298
0.80158712 0.79254831 0.87924371
0.91196527 0.79577546 0.88369569
1.00000000 0.80530119 0.88259996
0.14748156 0.88666381 0.86613958
0.26027262 0.89197904 0.87138984
0.37221836 0.89664071 0.87625265
0.48322183 0.90057688 0.88067884
0.59318607 0.90371561 0.88461927
0.70201268 0.90598499 0.88802536
0.80936835 0.90729630 0.89095478
0.91354358 0.90668654 0.89455139
1.00000000 0.90982334 0.90339500
0.19403084 1.00000000 0.87938093
0.31310089 1.00000000 0.88317326
0.42766089 1.00000000 0.88737209
0.53735799 1.00000000 0.89196918
0.64184092 1.00000000 0.89695156
0.74076013 1.00000000 0.90230123
0.83376272 1.00000000 0.90799539
0.92020035 1.00000000 0.91393692
1.00000000 0.99960113 0.92364275
0.00000000 0.00650323 0.81246440
0.10131288 0.00331581 0.85854191
0.20788811 0.00460553 0.85972983
0.31577145 0.00683939 0.86162189
0.42486594 0.00994544 0.86416893
0.53507461 0.01385175 0.86732181
0.64630051 0.01848637 0.87103138
0.75844666 0.02377738 0.87524847
0.87141611 0.02965282 0.87992394
0.00000000 0.11518106 0.84587595
0.10612129 0.11791873 0.86524924
0.21671152 0.12209853 0.86861048
0.32828367 0.12698044 0.87251050
0.44074078 0.13249255 0.87690017
0.55398589 0.13856290 0.88173031
0.66792203 0.14511956 0.88695180
0.78245225 0.15209058 0.89251547
0.89747957 0.15940404 0.89837217
0.01038413 0.23555804 0.87405453
0.12313935 0.24128171 0.87861025
0.23664726 0.24753743 0.88358856
0.35081091 0.25425327 0.88894031
0.46553333 0.26135729 0.89461634
0.58071756 0.26877755 0.90056752
0.69626663 0.27644210 0.90674469
0.81208360 0.28427901 0.91309868
0.92807148 0.29221634 0.91958037
0.03377385 0.36343844 0.89097179
0.14867562 0.37066592 0.89675369
0.26400390 0.37818344 0.90279283
0.37966173 0.38591907 0.90904006
0.49555214 0.39380087 0.91544624
0.61157818 0.40175690 0.92196220
0.72764288 0.40971521 0.92853880
0.84364927 0.41760387 0.93512689
0.95950041 0.42535094 0.94167731
0.06308765 0.49541542 0.91135651
0.17903866 0.50333257 0.91780834
0.29509000 0.51129775 0.92435207
0.41114470 0.51923904 0.93093854
0.52710579 0.52708448 0.93751861
0.64287632 0.53476213 0.94404311
0.75835933 0.54220007 0.95046291
0.87345784 0.54932634 0.95672884
0.98807491 0.55606902 0.96279177
0.09463411 0.62875016 0.93333744
0.21053705 0.63654284 0.93990296
0.32621413 0.64414156 0.94639504
0.44156838 0.65147435 0.95276451
0.55650284 0.65846930 0.95896222
0.67092055 0.66505445 0.96493903
0.78472455 0.67115788 0.97064578
0.89781787 0.67670763 0.97603332
1.00000000 0.68553009 0.97218731
0.12472179 0.76070386 0.95504334
0.23947935 0.76755794 0.96116632
0.35368485 0.77397604 0.96705050
0.46724134 0.77988622 0.97264673
0.58005186 0.78521654 0.97790585
0.69201943 0.78989505 0.98277872
0.80304700 0.79384977 0.98721641
0.91303770 0.79700817 0.99117121
1.00000000 0.80764412 0.97640395
0.14965926 0.88853771 0.97460299
0.26217412 0.89363906 0.97972718
0.37381073 0.89806241 0.98444722
0.48447215 0.90173583 0.98871396
0.59406140 0.90458738 0.99247825
0.70248152 0.90654512 0.99569094
0.80963293 0.90753683 0.99830553
0.91536858 0.90750137 1.00000000
1.00000000 0.91361900 0.98639091
0.20064162 1.00000000 0.98165140
0.31907479 1.00000000 0.98306451
0.43291823 1.00000000 0.98476313
0.54181987 1.00000000 0.98673665
0.64542930 1.00000000 0.98896960
0.74339785 1.00000000 0.99144137
0.83537825 1.00000000 0.99412610
0.92096189 1.00000000 0.99701683
1.00000000 1.00000000 1.00000000
