assets/luts/DB_Sports_Floodlight_Rec709_100.cube
TITLE "Sports Floodlight Rec709 100"
# Red changes fastest. Full-range normalized input.
LUT_3D_SIZE 33
DOMAIN_MIN 0 0 0
DOMAIN_MAX 1 1 1
0.00500000 0.00500000 0.00500000
0.03407125 0.00439288 0.00449065
0.06342392 0.00375698 0.00393254
0.09283980 0.00315030 0.00339940
0.12201966 0.00265300 0.00299168
0.15077974 0.00231436 0.00277004
0.17917138 0.00212024 0.00271555
0.20741933 0.00200945 0.00275131
0.23575488 0.00191877 0.00279889
0.26429662 0.00181532 0.00281815
0.29304529 0.00169809 0.00280860
0.32194511 0.00158149 0.00278854
0.35093955 0.00148014 0.00277633
0.37999304 0.00140307 0.00278327
0.40908877 0.00135418 0.00281431
0.43822025 0.00133460 0.00287100
0.46738517 0.00134431 0.00295347
0.49658257 0.00138292 0.00306140
0.52581181 0.00144997 0.00319439
0.55507232 0.00154496 0.00335198
0.58436357 0.00166740 0.00353373
0.61368500 0.00181679 0.00373920
0.64303606 0.00199262 0.00396793
0.67241622 0.00219441 0.00421947
0.70182492 0.00242165 0.00449339
0.73126162 0.00267386 0.00478922
0.76072578 0.00295052 0.00510652
0.79021683 0.00325115 0.00544485
0.81973425 0.00357525 0.00580375
0.84927749 0.00392232 0.00618277
0.87884599 0.00429186 0.00658148
0.90843921 0.00468337 0.00699941
0.93805661 0.00509637 0.00743613
0.00289193 0.03283125 0.00359740
0.03199704 0.03239170 0.00297228
0.06152443 0.03188316 0.00224189
0.09134240 0.03133339 0.00153844
0.12109567 0.03083221 0.00105473
0.15040375 0.03048161 0.00093007
0.17911828 0.03032636 0.00115548
0.20740665 0.03032782 0.00158418
0.23560003 0.03040100 0.00203383
0.26396947 0.03047339 0.00238704
0.29261597 0.03051582 0.00261986
0.32150493 0.03053500 0.00276744
0.35055503 0.03055073 0.00287740
0.37969875 0.03057975 0.00298419
0.40889801 0.03063138 0.00310562
0.43813625 0.03070931 0.00324867
0.46740751 0.03081448 0.00341533
0.49670971 0.03094681 0.00360581
0.52604198 0.03110589 0.00381980
0.55540370 0.03129123 0.00405689
0.58479431 0.03150235 0.00431663
0.61421327 0.03173873 0.00459857
0.64366003 0.03199990 0.00490227
0.67313404 0.03228535 0.00522728
0.70263476 0.03259458 0.00557315
0.73216164 0.03292710 0.00593943
0.76171413 0.03328240 0.00632567
0.79129170 0.03366000 0.00673143
0.82089378 0.03405939 0.00715625
0.85051985 0.03448008 0.00759970
0.88016934 0.03492157 0.00806131
0.90984171 0.03538337 0.00854065
0.93953643 0.03586497 0.00903726
0.00131995 0.06101896 0.00271639
0.03034789 0.06076748 0.00202362
0.05979988 0.06045201 0.00111744
0.08970768 0.06005049 0.00014716
0.11937378 0.05968689 0.00000000
0.14885443 0.05941952 0.00000000
0.17836946 0.05920060 0.00000000
0.20764241 0.05908281 0.00025505
0.23590649 0.05924469 0.00117556
0.26417396 0.05945594 0.00198647
0.29269205 0.05965005 0.00257795
0.32151457 0.05980837 0.00297087
0.35057463 0.05994424 0.00324204
0.37978109 0.06007876 0.00346261
0.40906895 0.06022741 0.00367607
0.43840493 0.06039794 0.00390239
0.46777556 0.06059315 0.00414865
0.49717622 0.06081361 0.00441670
0.52660531 0.06105910 0.00470664
0.55606205 0.06132916 0.00501815
0.58554584 0.06162333 0.00535081
0.61505615 0.06194109 0.00570416
0.64459242 0.06228196 0.00607776
0.67415410 0.06264544 0.00647116
0.70374066 0.06303103 0.00688391
0.73335154 0.06343824 0.00731556
0.76298619 0.06386656 0.00776567
0.79264408 0.06431550 0.00823379
0.82232465 0.06478456 0.00871947
0.85202736 0.06527324 0.00922225
0.88175166 0.06578106 0.00974171
0.91149701 0.06630750 0.01027737
0.94126286 0.06685208 0.01082880
0.00030975 0.08952706 0.00239919
0.02928735 0.08943440 0.00180858
0.05855781 0.08931994 0.00092440
0.08825411 0.08911958 0.00000000
0.11797456 0.08886182 0.00000000
0.14757515 0.08869265 0.00000000
0.17717082 0.08858541 0.00000000
0.20686646 0.08850860 0.00000000
0.23622747 0.08853826 0.00044406
0.26463825 0.08881216 0.00166865
0.29314643 0.08911305 0.00265884
0.32192489 0.08939233 0.00335816
0.35097675 0.08964302 0.00383602
0.38022303 0.08988057 0.00419313
0.40958315 0.09012285 0.00450550
0.43900637 0.09038136 0.00481415
0.46846880 0.09066132 0.00513613
0.49796137 0.09096438 0.00547695
0.52748102 0.09129066 0.00583783
0.55702657 0.09163983 0.00621871
0.58659737 0.09201141 0.00661921
0.61619284 0.09240493 0.00703889
0.64581244 0.09281988 0.00747732
0.67545562 0.09325576 0.00793404
0.70512183 0.09371209 0.00840860
0.73481052 0.09418835 0.00890056
0.76452115 0.09468406 0.00940946
0.79425318 0.09519871 0.00993487
0.82400606 0.09573182 0.01047633
0.85377923 0.09628287 0.01103339
0.88357217 0.09685138 0.01160560
0.91338431 0.09743685 0.01219252
0.94321511 0.09803878 0.01279370
0.00000000 0.11827759 0.00272896
0.02880789 0.11838259 0.00216973
0.05797629 0.11841983 0.00155072
0.08742839 0.11843293 0.00065222
0.11722336 0.11835499 0.00000000
0.14702929 0.11825293 0.00000000
0.17679538 0.11821817 0.00000000
0.20660516 0.11823082 0.00000000
0.23624338 0.11831206 0.00038073
0.26505059 0.11858606 0.00174285
0.29376585 0.11893229 0.00299133
0.32262172 0.11929208 0.00395809
0.35170738 0.11963731 0.00464894
0.38099584 0.11996869 0.00515606
0.41041912 0.12029910 0.00557439
0.43992018 0.12064058 0.00596580
0.46946667 0.12100001 0.00636036
0.49904443 0.12138016 0.00676943
0.52864832 0.12178165 0.00719630
0.55827648 0.12220429 0.00764149
0.58792810 0.12264768 0.00810476
0.61760255 0.12311132 0.00858571
0.64729930 0.12359472 0.00908389
0.67701778 0.12409738 0.00959886
0.70675747 0.12461881 0.01013016
0.73651779 0.12515851 0.01067735
0.76629823 0.12571598 0.01123998
0.79609821 0.12629072 0.01181760
0.82591721 0.12688224 0.01240977
0.85575467 0.12749004 0.01301603
0.88561005 0.12811362 0.01363593
0.91548280 0.12875248 0.01426904
0.94537238 0.12940614 0.01491490
0.00000000 0.14739988 0.00327800
0.02877678 0.14764627 0.00283491
0.05797878 0.14778077 0.00258047
0.08731068 0.14793110 0.00209164
0.11686882 0.14806421 0.00141548
0.14667993 0.14815718 0.00075303
0.17662953 0.14822261 0.00040614
0.20649247 0.14831076 0.00061658
0.23607211 0.14847859 0.00140916
0.26533325 0.14875084 0.00257467
0.29440838 0.14910826 0.00380813
0.32348557 0.14950948 0.00487993
0.35269177 0.14992083 0.00571309
0.38205705 0.15032961 0.00634864
0.41154959 0.15073896 0.00686830
0.44112422 0.15115707 0.00734030
0.47074822 0.15159035 0.00780407
0.50040464 0.15204202 0.00827698
0.53008644 0.15251312 0.00876495
0.55979099 0.15300364 0.00926943
0.58951723 0.15351319 0.00979041
0.61926449 0.15404133 0.01032755
0.64903220 0.15458756 0.01088042
0.67881981 0.15515137 0.01144856
0.70862678 0.15573228 0.01203153
0.73845257 0.15632978 0.01262887
0.76829661 0.15694338 0.01324016
0.79815838 0.15757259 0.01386492
0.82803732 0.15821690 0.01450272
0.85793288 0.15887581 0.01515311
0.88784453 0.15954883 0.01581564
0.91777171 0.16023547 0.01648986
0.94771387 0.16093522 0.01717533
0.00000000 0.17698911 0.00373347
0.02907822 0.17724405 0.00365295
0.05839019 0.17745047 0.00370347
0.08775021 0.17768742 0.00362304
0.11721179 0.17793925 0.00339398
0.14682454 0.17818561 0.00308530
0.17658267 0.17841616 0.00286469
0.20639726 0.17864347 0.00293224
0.23613567 0.17889913 0.00340296
0.26570862 0.17921267 0.00422969
0.29512799 0.17959186 0.00523511
0.32448521 0.18002165 0.00622363
0.35387977 0.18047917 0.00707857
0.38336521 0.18094866 0.00778304
0.41294434 0.18142566 0.00838000
0.44259452 0.18191266 0.00892309
0.47229188 0.18241360 0.00945066
0.50202106 0.18293109 0.00998257
0.53177456 0.18346617 0.01052672
0.56154930 0.18401892 0.01108546
0.59134397 0.18458903 0.01165909
0.62115785 0.18517604 0.01224736
0.65099034 0.18577946 0.01284983
0.68084090 0.18639880 0.01346607
0.71070898 0.18703356 0.01409564
0.74059404 0.18768324 0.01473807
0.77049552 0.18834735 0.01539293
0.80041288 0.18902539 0.01605977
0.83034558 0.18971686 0.01673814
0.86029307 0.19042126 0.01742758
0.89025480 0.19113810 0.01812766
0.92023022 0.19186688 0.01883792
0.95021879 0.19260711 0.01955792
0.00025665 0.20691605 0.00435521
0.02966869 0.20716233 0.00461606
0.05910000 0.20743828 0.00486149
0.08855527 0.20774373 0.00506160
0.11805216 0.20807437 0.00519066
0.14761827 0.20842083 0.00525359
0.17727255 0.20877282 0.00530935
0.20700082 0.20912705 0.00546284
0.23675083 0.20949206 0.00581413
0.26646078 0.20988372 0.00639568
0.29610086 0.21031414 0.00715005
0.32569011 0.21078403 0.00796815
0.35527595 0.21128466 0.00875383
0.38489976 0.21180566 0.00946366
0.41457833 0.21234087 0.01010341
0.44430764 0.21288897 0.01070124
0.47407583 0.21345107 0.01128424
0.50387260 0.21402849 0.01186940
0.53369184 0.21462187 0.01246458
0.56353060 0.21523123 0.01307252
0.59338753 0.21585626 0.01369374
0.62326184 0.21649651 0.01432806
0.65315294 0.21715150 0.01497507
0.68306026 0.21782074 0.01563434
0.71298327 0.21850373 0.01630543
0.74292142 0.21919996 0.01698788
0.77287415 0.21990895 0.01768125
0.80284093 0.22063020 0.01838509
0.83282120 0.22136320 0.01909895
0.86281443 0.22210747 0.01982238
0.89282006 0.22286250 0.02055493
0.92283755 0.22362779 0.02129616
0.95286635 0.22440286 0.02204562
0.00103168 0.23704958 0.00541202
0.03054368 0.23737296 0.00576324
0.06007821 0.23772102 0.00612424
0.08963437 0.23809408 0.00648348
0.11921506 0.23849146 0.00682674
0.14882882 0.23891044 0.00714554
0.17848682 0.23934630 0.00745003
0.20819370 0.23979468 0.00777586
0.23793876 0.24025495 0.00817322
0.26769792 0.24073133 0.00867915
0.29744826 0.24123011 0.00929317
0.32718318 0.24175501 0.00997729
0.35691446 0.24230501 0.01068047
0.38666098 0.24287604 0.01136623
0.41643610 0.24346404 0.01202355
0.44624319 0.24406683 0.01265999
0.47607890 0.24468388 0.01328885
0.50593825 0.24531534 0.01392076
0.53581740 0.24596130 0.01456156
0.56571409 0.24662162 0.01521356
0.59562710 0.24729595 0.01587729
0.62555567 0.24798382 0.01655259
0.65549919 0.24868475 0.01723907
0.68545710 0.24939826 0.01793630
0.71542885 0.25012385 0.01864384
0.74541390 0.25086101 0.01936124
0.77541171 0.25160925 0.02008804
0.80542172 0.25236808 0.02082381
0.83544339 0.25313699 0.02156808
0.86547618 0.25391549 0.02232043
0.89551953 0.25470308 0.02308039
0.92557290 0.25549927 0.02384752
0.95563575 0.25630356 0.02462136
0.00210049 0.26745120 0.00669478
0.03169984 0.26784895 0.00711689
0.06132234 0.26826845 0.00755544
0.09096692 0.26870953 0.00800696
0.12063316 0.26917197 0.00846625
0.15032221 0.26965504 0.00892790
0.18003718 0.27015722 0.00939040
0.20978139 0.27067638 0.00986073
0.23955489 0.27121082 0.01035497
0.26935216 0.27176040 0.01089144
0.29916420 0.27232656 0.01147956
0.32898409 0.27291110 0.01211325
0.35881113 0.27351462 0.01277474
0.38865002 0.27413615 0.01344542
0.41850644 0.27477396 0.01411449
0.44838346 0.27542651 0.01478053
0.47828100 0.27609290 0.01544741
0.50819730 0.27677268 0.01611975
0.53813044 0.27746555 0.01680067
0.56807896 0.27817119 0.01749155
0.59804190 0.27888917 0.01819270
0.62801854 0.27961903 0.01890390
0.65800830 0.28036028 0.01962477
0.68801061 0.28111244 0.02035489
0.71802493 0.28187499 0.02109381
0.74805071 0.28264745 0.02184108
0.77808740 0.28342932 0.02259624
0.80813447 0.28422010 0.02335886
0.83819135 0.28501930 0.02412849
0.86825752 0.28582641 0.02490467
0.89833241 0.28664094 0.02568697
0.92841548 0.28746239 0.02647492
0.95850620 0.28829027 0.02726809
0.00344616 0.29810042 0.00819208
0.03312467 0.29856778 0.00867609
0.06282521 0.29905488 0.00917689
0.09254706 0.29956130 0.00969341
0.12228953 0.30008668 0.01022406
0.15205219 0.30063055 0.01076675
0.18183518 0.30119232 0.01131974
0.21163913 0.30177109 0.01188303
0.24146448 0.30236585 0.01245965
0.27131048 0.30297584 0.01305497
0.30117477 0.30360077 0.01367388
0.33105438 0.30424079 0.01431741
0.36094737 0.30489604 0.01498175
0.39085367 0.30556622 0.01566045
0.42077439 0.30625065 0.01634799
0.45071056 0.30694848 0.01704175
0.48066238 0.30765896 0.01774173
0.51062924 0.30838151 0.01844908
0.54061021 0.30911567 0.01916482
0.57060442 0.30986099 0.01988943
0.60061111 0.31061700 0.02062289
0.63062966 0.31138322 0.02136491
0.66065947 0.31215917 0.02211511
0.69070000 0.31294434 0.02287305
0.72075071 0.31373824 0.02363827
0.75081103 0.31454037 0.02441034
0.78088044 0.31535024 0.02518880
0.81095837 0.31616735 0.02597320
0.84104429 0.31699120 0.02676310
0.87113765 0.31782129 0.02755806
0.90123790 0.31865713 0.02835761
0.93134449 0.31949822 0.02916131
0.96145689 0.32034406 0.02996873
0.00504888 0.32897794 0.00988825
0.03479994 0.32950946 0.01042830
0.06457133 0.33005898 0.01098396
0.09436247 0.33062602 0.01155466
0.12417275 0.33121011 0.01213977
0.15400162 0.33181079 0.01273847
0.18384858 0.33242757 0.01334988
0.21371330 0.33305989 0.01397332
0.24359553 0.33370715 0.01460872
0.27349493 0.33436872 0.01525682
0.30341080 0.33504405 0.01591877
0.33334208 0.33573275 0.01659527
0.36328766 0.33643447 0.01728579
0.39324679 0.33714886 0.01798864
0.42321913 0.33787546 0.01870180
0.45320455 0.33861371 0.01942370
0.48320281 0.33936303 0.02015360
0.51321349 0.34012286 0.02089133
0.54323600 0.34089272 0.02163686
0.57326969 0.34167209 0.02239011
0.60331396 0.34246051 0.02315080
0.63336822 0.34325746 0.02391858
0.66343192 0.34406247 0.02469303
0.69350449 0.34487503 0.02547370
0.72358539 0.34569465 0.02626016
0.75367408 0.34652083 0.02705196
0.78377001 0.34735307 0.02784863
0.81387264 0.34819088 0.02864975
0.84398141 0.34903376 0.02945486
0.87409578 0.34988121 0.03026351
0.90421521 0.35073273 0.03107525
0.93433914 0.35158783 0.03188964
0.96446704 0.35244600 0.03270622
0.00688804 0.36006476 0.01176648
0.03670540 0.36065483 0.01235739
0.06654126 0.36126123 0.01296243
0.09639508 0.36188345 0.01358114
0.12626631 0.36252101 0.01421304
0.15615438 0.36317342 0.01485764
0.18605875 0.36384018 0.01551439
0.21597889 0.36452079 0.01618275
0.24591431 0.36521475 0.01686227
0.27586452 0.36592153 0.01755264
0.30582901 0.36664060 0.01825372
0.33580718 0.36737147 0.01896540
0.36579836 0.36811366 0.01968742
0.39580191 0.36886671 0.02041920
0.42581727 0.36963015 0.02115998
0.45584394 0.37040349 0.02190896
0.48588146 0.37118621 0.02266553
0.51592934 0.37197780 0.02342922
0.54598703 0.37277775 0.02419967
0.57605399 0.37358557 0.02497651
0.60612965 0.37440076 0.02575937
0.63621345 0.37522283 0.02654783
0.66630484 0.37605127 0.02734146
0.69640327 0.37688560 0.02813980
0.72650819 0.37772531 0.02894242
0.75661906 0.37856991 0.02974887
0.78673534 0.37941889 0.03055870
0.81685647 0.38027177 0.03137145
0.84698191 0.38112805 0.03218669
0.87711111 0.38198723 0.03300397
0.90724354 0.38284881 0.03382282
0.93737863 0.38371229 0.03464282
0.96751585 0.38457718 0.03546351
0.00894288 0.39134193 0.01380974
0.03882033 0.39198494 0.01444641
0.06871446 0.39264259 0.01509572
0.09862472 0.39331440 0.01575720
0.12855056 0.39399987 0.01643041
0.15849143 0.39469850 0.01711489
0.18844678 0.39540979 0.01781019
0.21841608 0.39613325 0.01851582
0.24839876 0.39686838 0.01923134
0.27839431 0.39761468 0.01995631
0.30840218 0.39837165 0.02069030
0.33842184 0.39913878 0.02143294
0.36845271 0.39991559 0.02218383
0.39849425 0.40070157 0.02294255
0.42854587 0.40149623 0.02370860
0.45860705 0.40229909 0.02448147
0.48867724 0.40310965 0.02526066
0.51875591 0.40392740 0.02604570
0.54884252 0.40475184 0.02683615
0.57893653 0.40558249 0.02763157
0.60903738 0.40641883 0.02843153
0.63914453 0.40726038 0.02923560
0.66925744 0.40810663 0.03004333
0.69937554 0.40895710 0.03085428
0.72949831 0.40981127 0.03166799
0.75962518 0.41066866 0.03248402
0.78975562 0.41152877 0.03330192
0.81988907 0.41239110 0.03412125
0.85002500 0.41325515 0.03494155
0.88016286 0.41412043 0.03576237
0.91030209 0.41498643 0.03658327
0.94044216 0.41585267 0.03740381
0.97058252 0.41671864 0.03822352
0.01119259 0.42279053 0.01600096
0.04112397 0.42348084 0.01667834
0.07107018 0.42418413 0.01736683
0.10103068 0.42489990 0.01806600
0.13100493 0.42562766 0.01877539
0.16099238 0.42636690 0.01949455
0.19099247 0.42711714 0.02022304
0.22100467 0.42787786 0.02096040
0.25102843 0.42864858 0.02170618
0.28106321 0.42942880 0.02245994
0.31110845 0.43021801 0.02322122
0.34116361 0.43101573 0.02398960
0.37122815 0.43182146 0.02476462
0.40130152 0.43263469 0.02554585
0.43138317 0.43345493 0.02633284
0.46147255 0.43428169 0.02712513
0.49156912 0.43511446 0.02792226
0.52167233 0.43595276 0.02872379
0.55178164 0.43679608 0.02952926
0.58189650 0.43764392 0.03033822
0.61201636 0.43849579 0.03115022
0.64214069 0.43935120 0.03196483
0.67226892 0.44020963 0.03278160
0.70240052 0.44107061 0.03360007
0.73253494 0.44193362 0.03441980
0.76267163 0.44279818 0.03524034
0.79281005 0.44366378 0.03606125
0.82294966 0.44452992 0.03688207
0.85308989 0.44539612 0.03770235
0.88323022 0.44626187 0.03852166
0.91337008 0.44712668 0.03933953
0.94350895 0.44799005 0.04015553
0.97364626 0.44885148 0.04096920
0.01361638 0.45439162 0.01832310
0.04359550 0.45512361 0.01903610
0.07358762 0.45586691 0.01975871
0.10359218 0.45662102 0.02049049
0.13360866 0.45738544 0.02123098
0.16363649 0.45815968 0.02197974
0.19367514 0.45894323 0.02273631
0.22372406 0.45973559 0.02350026
0.25378269 0.46053629 0.02427112
0.28385051 0.46134480 0.02504847
0.31392695 0.46216065 0.02583183
0.34401147 0.46298332 0.02662078
0.37410353 0.46381233 0.02741485
0.40420259 0.46464717 0.02821361
0.43430808 0.46548735 0.02901660
0.46441948 0.46633237 0.02982338
0.49453622 0.46718174 0.03063350
0.52465777 0.46803496 0.03144651
0.55478358 0.46889152 0.03226196
0.58491311 0.46975094 0.03307940
0.61504580 0.47061271 0.03389838
0.64518111 0.47147635 0.03471846
0.67531849 0.47234134 0.03553918
0.70545741 0.47320720 0.03636011
0.73559730 0.47407342 0.03718079
0.76573763 0.47493951 0.03800077
0.79587786 0.47580498 0.03881961
0.82601742 0.47666932 0.03963685
0.85615578 0.47753204 0.04045205
0.88629239 0.47839264 0.04126477
0.91642671 0.47925063 0.04207454
0.94655818 0.48010550 0.04288093
0.97668627 0.48095676 0.04368349
0.01619347 0.48612628 0.02075909
0.04621414 0.48689433 0.02150264
0.07624598 0.48767201 0.02225430
0.10628843 0.48845883 0.02301361
0.13634094 0.48925428 0.02378013
0.16640299 0.49005788 0.02455340
0.19647400 0.49086912 0.02533299
0.22655345 0.49168751 0.02611845
0.25664078 0.49251255 0.02690931
0.28673545 0.49334374 0.02770515
0.31683691 0.49418058 0.02850550
0.34694462 0.49502258 0.02930992
0.37705803 0.49586925 0.03011797
0.40717658 0.49672007 0.03092918
0.43729975 0.49757457 0.03174313
0.46742697 0.49843223 0.03255935
0.49755771 0.49929256 0.03337740
0.52769142 0.50015507 0.03419684
0.55782755 0.50101925 0.03501720
0.58796556 0.50188462 0.03583805
0.61810489 0.50275067 0.03665894
0.64824501 0.50361690 0.03747942
0.67838536 0.50448282 0.03829903
0.70852541 0.50534794 0.03911734
0.73866460 0.50621175 0.03993390
0.76880238 0.50707375 0.04074824
0.79893822 0.50793346 0.04155994
0.82907157 0.50879036 0.04236853
0.85920187 0.50964398 0.04317358
0.88932859 0.51049380 0.04397463
0.91945118 0.51133933 0.04477123
0.94956908 0.51218008 0.04556295
0.97968177 0.51301554 0.04634932
0.01890305 0.51797558 0.02329186
0.04895909 0.51877405 0.02406089
0.07902447 0.51958049 0.02483652
0.10909862 0.52039439 0.02561829
0.13918100 0.52121526 0.02640577
0.16927106 0.52204259 0.02719850
0.19936827 0.52287590 0.02799603
0.22947207 0.52371468 0.02879791
0.25958191 0.52455843 0.02960371
0.28969726 0.52540667 0.03041296
0.31981756 0.52625889 0.03122522
0.34994226 0.52711459 0.03204005
0.38007083 0.52797328 0.03285699
0.41020271 0.52883447 0.03367559
0.44033737 0.52969764 0.03449542
0.47047424 0.53056232 0.03531601
0.50061279 0.53142799 0.03613693
0.53075248 0.53229416 0.03695772
0.56089274 0.53316034 0.03777793
0.59103305 0.53402603 0.03859713
0.62117285 0.53489072 0.03941485
0.65131159 0.53575393 0.04023065
0.68144873 0.53661516 0.04104408
0.71158372 0.53747390 0.04185470
0.74171603 0.53832967 0.04266206
0.77184509 0.53918196 0.04346570
0.80197037 0.54003027 0.04426518
0.83209131 0.54087412 0.04506006
0.86220738 0.54171300 0.04584988
0.89231802 0.54254642 0.04663419
0.92242269 0.54337387 0.04741255
0.95252085 0.54419487 0.04818451
0.98261194 0.54500891 0.04894962
0.02172432 0.54992059 0.02590435
0.05180956 0.55074386 0.02669379
0.08190229 0.55157343 0.02748832
0.11200196 0.55240879 0.02828748
0.14210802 0.55324943 0.02909085
0.17221993 0.55409488 0.02989795
0.20233715 0.55494462 0.03070835
0.23245911 0.55579817 0.03152160
0.26258529 0.55665502 0.03233725
0.29271513 0.55751467 0.03315484
0.32284808 0.55837664 0.03397395
0.35298361 0.55924042 0.03479410
0.38312116 0.56010551 0.03561487
0.41326018 0.56097142 0.03643579
0.44340014 0.56183766 0.03725642
0.47354049 0.56270371 0.03807631
0.50368067 0.56356910 0.03889502
0.53382014 0.56443331 0.03971210
0.56395837 0.56529585 0.04052709
0.59409479 0.56615623 0.04133955
0.62422887 0.56701395 0.04214903
0.65436005 0.56786851 0.04295509
0.68448780 0.56871941 0.04375727
0.71461156 0.56956616 0.04455513
0.74473080 0.57040825 0.04534821
0.77484495 0.57124520 0.04613608
0.80495349 0.57207651 0.04691828
0.83505585 0.57290167 0.04769436
0.86515150 0.57372019 0.04846388
0.89523988 0.57453157 0.04922638
0.92532046 0.57533532 0.04998143
0.95539269 0.57613094 0.05072856
0.98545601 0.57691793 0.05146734
0.02463650 0.58194237 0.02857950
0.05474476 0.58278483 0.02938427
0.08485866 0.58363189 0.03019263
0.11497766 0.58448308 0.03100412
0.14510123 0.58533788 0.03181829
0.17522880 0.58619581 0.03263470
0.20535984 0.58705637 0.03345290
0.23549379 0.58791905 0.03427244
0.26563011 0.58878337 0.03509287
0.29576826 0.58964881 0.03591374
0.32590769 0.59051490 0.03673461
0.35604786 0.59138113 0.03755502
0.38618821 0.59224700 0.03837454
0.41632819 0.59311201 0.03919270
0.44646728 0.59397567 0.04000907
0.47660491 0.59483749 0.04082319
0.50674054 0.59569696 0.04163462
0.53687363 0.59655358 0.04244291
0.56700363 0.59740687 0.04324761
0.59712999 0.59825631 0.04404826
0.62725216 0.59910142 0.04484444
0.65736961 0.59994170 0.04563567
0.68748178 0.60077665 0.04642153
0.71758813 0.60160578 0.04720155
0.74768811 0.60242858 0.04797530
0.77778118 0.60324456 0.04874231
0.80786679 0.60405322 0.04950215
0.83794439 0.60485407 0.05025437
0.86801344 0.60564660 0.05099852
0.89807338 0.60643033 0.05173414
0.92812369 0.60720474 0.05246080
0.95816380 0.60796936 0.05317804
0.98819317 0.60872367 0.05388542
0.02761879 0.61402201 0.03130024
0.05774387 0.61487801 0.03211528
0.08787277 0.61573696 0.03293239
0.11800493 0.61659834 0.03375113
0.14813981 0.61746168 0.03457105
0.17827686 0.61832646 0.03539169
0.20841554 0.61919220 0.03621261
0.23855530 0.62005840 0.03703337
0.26869560 0.62092455 0.03785351
0.29883588 0.62179017 0.03867258
0.32897560 0.62265475 0.03949014
0.35911422 0.62351779 0.04030575
0.38925118 0.62437881 0.04111894
0.41938595 0.62523730 0.04192928
0.44951798 0.62609277 0.04273631
0.47964672 0.62694471 0.04353959
0.50977162 0.62779264 0.04433866
0.53989213 0.62863605 0.04513309
0.57000772 0.62947445 0.04592242
0.60011784 0.63030733 0.04670620
0.63022193 0.63113421 0.04748399
0.66031946 0.63195459 0.04825534
0.69040988 0.63276796 0.04901980
0.72049263 0.63357384 0.04977692
0.75056718 0.63437171 0.05052625
0.78063298 0.63516110 0.05126734
0.81068948 0.63594149 0.05199975
0.84073613 0.63671240 0.05272304
0.87077240 0.63747332 0.05343674
0.90079773 0.63822376 0.05414041
0.93081157 0.63896321 0.05483361
0.96081339 0.63969120 0.05551588
0.99080263 0.64040720 0.05618678
0.03065039 0.64614058 0.03404952
0.06078612 0.64700450 0.03486975
0.09092383 0.64786969 0.03569055
0.12106297 0.64873565 0.03651146
0.15120298 0.64960189 0.03733205
0.18134333 0.65046790 0.03815185
0.21148348 0.65133320 0.03897043
0.24162286 0.65219728 0.03978733
0.27176094 0.65305965 0.04060210
0.30189717 0.65391980 0.04141431
0.33203100 0.65477725 0.04222349
0.36216189 0.65563149 0.04302921
0.39228930 0.65648203 0.04383101
0.42241267 0.65732837 0.04462845
0.45253145 0.65817001 0.04542107
0.48264511 0.65900646 0.04620843
0.51275310 0.65983722 0.04699009
0.54285487 0.66066179 0.04776558
0.57294987 0.66147967 0.04853447
0.60303756 0.66229037 0.04929631
0.63311739 0.66309339 0.05005064
0.66318881 0.66388823 0.05079703
0.69325129 0.66467440 0.05153502
0.72330427 0.66545140 0.05226416
0.75334720 0.66621873 0.05298400
0.78337955 0.66697589 0.05369410
0.81340076 0.66772239 0.05439401
0.84341029 0.66845773 0.05508329
0.87340759 0.66918141 0.05576147
0.90339212 0.66989293 0.05642812
