assets/luts/DB_Soft_Interior_Rec709_50.cube
TITLE "Soft Interior Rec709 50"
# Red changes fastest. Full-range normalized input.
LUT_3D_SIZE 5
DOMAIN_MIN 0 0 0
DOMAIN_MAX 1 1 1
0.00300000 0.00300000 0.00300000
0.24901326 0.00782622 0.00738062
0.49338944 0.01201526 0.01099883
0.73736357 0.01526969 0.01365162
0.98064578 0.01781998 0.01556903
0.01677372 0.25682722 0.01442733
0.25977071 0.25911014 0.01581991
0.50231582 0.26089272 0.01721517
0.74432342 0.26217136 0.01788219
0.98594839 0.26307594 0.01821969
0.02309609 0.50309115 0.01803635
0.26460370 0.50388448 0.01828552
0.50585123 0.50443939 0.01837512
0.74693002 0.50485439 0.01842693
0.98793140 0.50522799 0.01856273
0.02544009 0.74554251 0.01846024
0.26643598 0.74592549 0.01865686
0.50747905 0.74640142 0.01910360
0.74866065 0.74706880 0.01992223
0.99007211 0.74802614 0.02123454
0.02728445 0.98793108 0.02033644
0.26880227 0.98901844 0.02185872
0.51067455 0.99053011 0.02404080
0.75299261 0.99256460 0.02700447
0.99584779 0.99522040 0.03087150
0.00482877 0.00479099 0.24519433
0.25015379 0.00943198 0.24933736
0.49463470 0.01320556 0.25254226
0.73836361 0.01620981 0.25493165
0.98143162 0.01854338 0.25662702
0.01769332 0.25768435 0.25562288
0.26008849 0.25946856 0.25722132
0.50310238 0.26114826 0.25798184
0.74472621 0.26251542 0.25857973
0.98624131 0.26331582 0.25883433
0.02345528 0.50339342 0.25869892
0.26486252 0.50409472 0.25887937
0.50591787 0.50451185 0.25869575
0.74708797 0.50497930 0.25900664
0.98808244 0.50536292 0.25920206
0.02559105 0.74566826 0.25905902
0.26659272 0.74607176 0.25932693
0.50767259 0.74660166 0.25988631
0.74892201 0.74735647 0.26085894
0.99043230 0.74843468 0.26236661
0.02757820 0.98825889 0.26133948
0.26920615 0.98947930 0.26307218
0.51121958 0.99115747 0.26550604
0.75370981 0.99339192 0.26876283
0.99676818 0.99628113 0.27296435
0.00654972 0.00647055 0.48726639
0.25157775 0.01080596 0.49107710
0.49579320 0.01430714 0.49399159
0.73928743 0.01707258 0.49613163
0.98215176 0.01920078 0.49761902
0.01853969 0.25846846 0.49674228
0.26119737 0.26038912 0.49802234
0.50334993 0.26180672 0.49881610
0.74508819 0.26282036 0.49924448
0.98650398 0.26352792 0.49943022
0.02377752 0.50366068 0.49933382
0.26509817 0.50428132 0.49946145
0.50542621 0.50418635 0.49984686
0.74739897 0.50482825 0.49960705
0.98823868 0.50550828 0.49986989
0.02574048 0.74579723 0.49967738
0.26675847 0.74623261 0.50003061
0.50788380 0.74682780 0.50071590
0.74909076 0.74760850 0.50162178
0.99083482 0.74889043 0.50357103
0.02790587 0.98862812 0.50240935
0.26965449 0.98999295 0.50436651
0.51181960 0.99184899 0.50706618
0.75449253 0.99429475 0.51063015
0.99776462 0.99742873 0.51518020
0.00816642 0.00804254 0.72922108
0.25290825 0.01208360 0.73271378
0.49686853 0.01532386 0.73535160
0.74013860 0.01786185 0.73725635
0.98280979 0.01979606 0.73854978
0.01931696 0.25918324 0.73779159
0.26179280 0.26092208 0.73889272
0.50379436 0.26219151 0.73954866
0.74541297 0.26309002 0.73988120
0.98673997 0.26371611 0.74001213
0.02406639 0.50389681 0.73994580
0.26530990 0.50444818 0.74003356
0.50638636 0.50486148 0.74008588
0.74738729 0.50523500 0.74022476
0.98840365 0.50566796 0.74057100
0.02589199 0.74593328 0.74032007
0.26693682 0.74641190 0.74077268
0.50812153 0.74708380 0.74159961
0.74880082 0.74756097 0.74329897
0.99149289 0.74916390 0.74485439
0.02827105 0.98904265 0.74355080
0.27015086 0.99056325 0.74574647
0.51247819 0.99260852 0.74872600
0.75534295 0.99527724 0.75261021
0.99884897 0.99868098 0.75722306
0.00968244 0.00951081 0.97106314
0.25414862 0.01326887 0.97425186
0.49786426 0.01625960 0.97662707
0.74092070 0.01858149 0.97831055
0.98340929 0.02033306 0.97942409
0.02002899 0.25983251 0.97877552
0.26233352 0.26140090 0.97971180
0.50419479 0.26253331 0.98024426
0.74570412 0.26332826 0.98049468
0.98695286 0.26388424 0.98058483
0.02432546 0.50410565 0.98053964
0.26550200 0.50459909 0.98060169
0.50654255 0.50498793 0.98066961
0.74753843 0.50537066 0.98086516
0.98858098 0.50584579 0.98131015
0.02604913 0.74608026 0.98099188
0.26713135 0.74661348 0.98155791
0.50838483 0.74737346 0.98253949
0.74990089 0.74845869 0.98405845
0.99177108 0.74996749 0.98623678
0.02867730 0.98950634 0.98476862
0.27069885 0.99119407 0.98721683
0.51319892 0.99343992 0.99049028
0.75626859 0.99634244 0.99471083
1.00000000 1.00000000 1.00000000
