assets/luts/DB_Sports_Floodlight_Rec709_50.cube
TITLE "Sports Floodlight Rec709 50"
# Red changes fastest. Full-range normalized input.
LUT_3D_SIZE 9
DOMAIN_MIN 0 0 0
DOMAIN_MAX 1 1 1
0.00250000 0.00250000 0.00250000
0.12350983 0.00132650 0.00149584
0.24287744 0.00095939 0.00139944
0.36296978 0.00074007 0.00138817
0.48369259 0.00067215 0.00147673
0.60468178 0.00083370 0.00176687
0.72591246 0.00121083 0.00224669
0.84736713 0.00178762 0.00290187
0.96902830 0.00254818 0.00371806
0.00000000 0.12163879 0.00136448
0.12111168 0.12167750 0.00000000
0.24312169 0.12165603 0.00019037
0.36335369 0.12231866 0.00232447
0.48473333 0.12300001 0.00318018
0.60646405 0.12382384 0.00405238
0.72837873 0.12480941 0.00506508
0.85045861 0.12594112 0.00620488
0.97268619 0.12720307 0.00745745
0.00051584 0.24352479 0.00270601
0.12210753 0.24424573 0.00341337
0.24396938 0.24512747 0.00408661
0.36595723 0.24615251 0.00534023
0.48803945 0.24734194 0.00664443
0.61031355 0.24864797 0.00793865
0.73271443 0.25006192 0.00932192
0.85522170 0.25156849 0.01078404
0.97781788 0.25315178 0.01231068
0.00344402 0.36753238 0.00588324
0.12563316 0.36876051 0.00710652
0.24795715 0.37010738 0.00843114
0.37039918 0.37155683 0.00984371
0.49294073 0.37309310 0.01133277
0.61556482 0.37470038 0.01287969
0.73825410 0.37636265 0.01447121
0.86099096 0.37806403 0.01609335
0.98375792 0.37978859 0.01773175
0.00809673 0.49306314 0.01037954
0.13067047 0.49462714 0.01189006
0.25332039 0.49625627 0.01345466
0.37602901 0.49793462 0.01505898
0.49877886 0.49964628 0.01668870
0.62155245 0.50137533 0.01832947
0.74433230 0.50310587 0.01996695
0.86710094 0.50482199 0.02158679
0.98984088 0.50650777 0.02317466
0.01380939 0.61951101 0.01565012
0.13656991 0.62123084 0.01728552
0.25934780 0.62296228 0.01892675
0.38212559 0.62468941 0.02055947
0.50488581 0.62639632 0.02216933
0.62761097 0.62806711 0.02374200
0.75028359 0.62968586 0.02526312
0.87288620 0.63123666 0.02671837
0.99540131 0.63270360 0.02809339
0.01991656 0.74627026 0.02114896
0.14266603 0.74796586 0.02274694
0.26537409 0.74961955 0.02430251
0.38802325 0.75121540 0.02580131
0.51059602 0.75273751 0.02722901
0.63307494 0.75416998 0.02857126
0.75544253 0.75549688 0.02981373
0.87768130 0.75670231 0.03094208
0.99977377 0.75777036 0.03194195
0.02575278 0.87273517 0.02633007
0.14829341 0.87422649 0.02772832
0.27073382 0.87562236 0.02903591
0.39305653 0.87690688 0.03023849
0.51524406 0.87806414 0.03132172
0.63727893 0.87907822 0.03227126
0.75914367 0.87993322 0.03307277
0.88082079 0.88061322 0.03371191
1.00000000 0.88058540 0.04604616
0.03065261 0.99830002 0.03064742
0.15278659 0.99940699 0.03168364
0.27557803 1.00000000 0.03379233
0.39893019 1.00000000 0.03781794
0.52135048 1.00000000 0.04205790
0.64276258 1.00000000 0.04651352
0.76309018 1.00000000 0.05118607
0.88225702 1.00000000 0.05607671
1.00000000 0.99981423 0.06357698
0.00208680 0.00217430 0.12323615
0.12210430 0.00138896 0.12274199
0.24235121 0.00090798 0.12241897
0.36285757 0.00069074 0.12235244
0.48367561 0.00070185 0.12250935
0.60474878 0.00093840 0.12286551
0.72605748 0.00138512 0.12340650
0.84758424 0.00202610 0.12411797
0.96931157 0.00284545 0.12498558
0.00000000 0.12159897 0.12235259
0.12093104 0.12167764 0.12242424
0.24330743 0.12164358 0.12233241
0.36376089 0.12244100 0.12347921
0.48498157 0.12325865 0.12441353
0.60676994 0.12414116 0.12533740
0.72874267 0.12517815 0.12639488
0.85087467 0.12635588 0.12757458
0.97314844 0.12765844 0.12886218
0.00071301 0.24374658 0.12390736
0.12230643 0.24454792 0.12457072
0.24461178 0.24541290 0.12377749
0.36752840 0.24624100 0.12495360
0.48862247 0.24773261 0.12788359
0.61079242 0.24911644 0.12935395
0.73323011 0.25056397 0.13076659
0.85576953 0.25209838 0.13225223
0.97839193 0.25370410 0.13379752
0.00384650 0.36793516 0.12724257
0.12608258 0.36920566 0.12850101
0.24843223 0.37059641 0.12979003
0.37096469 0.37207014 0.13097663
0.49355158 0.37362072 0.13268231
0.61614975 0.37525885 0.13436795
0.73885435 0.37693686 0.13597562
0.86160338 0.37864789 0.13760490
0.98437660 0.38037671 0.13924557
0.00863641 0.49358599 0.13184182
0.13123798 0.49517390 0.13337231
0.25390978 0.49682154 0.13495196
0.37663419 0.49851307 0.13656549
0.49939441 0.50023235 0.13819953
0.62217203 0.50196365 0.13984255
0.74494993 0.50369109 0.14147599
0.86771078 0.50539869 0.14308659
0.99043701 0.50707055 0.14466034
0.01441910 0.62009278 0.13716022
0.13718747 0.62181834 0.13879921
0.25996729 0.62355010 0.14043915
0.38274107 0.62527215 0.14206572
0.50549134 0.62696858 0.14366456
0.62820062 0.62862347 0.14522133
0.75085143 0.63022093 0.14672169
0.87342628 0.63174504 0.14815130
0.99590771 0.63317989 0.14949581
0.02052910 0.74684981 0.14265176
0.14326647 0.74853296 0.14423694
0.26595649 0.75016879 0.14577484
0.38858167 0.75174138 0.14725110
0.51112453 0.75323484 0.14865139
0.63356760 0.75463323 0.14996137
0.75589340 0.75592067 0.15116669
0.87808444 0.75708123 0.15225301
1.00000000 0.75810310 0.15352831
0.02630099 0.87325135 0.14777045
0.14880955 0.87471203 0.14913952
0.27121195 0.87607188 0.15041305
0.39349071 0.87731496 0.15157671
0.51562836 0.87842538 0.15261615
0.63760741 0.87938722 0.15351703
0.75941039 0.88018457 0.15426500
0.88101982 0.88080152 0.15484573
1.00000000 0.88078752 0.16667110
0.03106932 0.99869167 0.15197027
0.15315125 0.99974984 0.15296092
0.27661612 1.00000000 0.15572467
0.39983616 1.00000000 0.15930530
0.52210692 1.00000000 0.16307566
0.64335208 1.00000000 0.16703704
0.76349538 1.00000000 0.17119066
0.88246055 1.00000000 0.17553761
1.00000000 0.99982967 0.18227081
0.00171287 0.00188477 0.24396921
0.12177497 0.00121619 0.24352680
0.24213655 0.00081608 0.24332132
0.36277980 0.00066860 0.24333871
0.48368782 0.00075763 0.24356494
0.60484294 0.00106733 0.24398548
0.72622765 0.00158181 0.24458597
0.84782449 0.00228515 0.24535207
0.96961596 0.00316145 0.24626944
0.00000000 0.12160846 0.24321692
0.12086526 0.12179954 0.24370817
0.24217313 0.12216032 0.24421588
0.36361619 0.12275660 0.24485124
0.48524038 0.12354054 0.24566924
0.60709620 0.12447656 0.24663818
0.72912498 0.12556313 0.24773877
0.85130708 0.12678503 0.24895673
0.97362502 0.12812637 0.25027771
0.00093640 0.24398869 0.24512823
0.12265627 0.24482342 0.24600078
0.24472476 0.24573316 0.24674155
0.36801060 0.24649156 0.24732519
0.48930359 0.24809421 0.24924293
0.61128986 0.24959516 0.25077827
0.73375738 0.25107608 0.25221979
0.85632693 0.25263649 0.25372730
0.97897353 0.25426281 0.25528958
0.00426588 0.36835284 0.24861480
0.12654679 0.36966378 0.24990798
0.24886488 0.37110442 0.25112528
0.37173902 0.37248693 0.25079831
0.49522212 0.37382545 0.25242879
0.61688123 0.37578134 0.25572229
0.73946063 0.37751459 0.25748205
0.86221860 0.37923381 0.25911777
0.98499605 0.38096505 0.26075905
0.00918621 0.49411757 0.25331142
0.13181359 0.49572754 0.25486023
0.25450436 0.49739211 0.25645214
0.37722335 0.49910113 0.25800834
0.50003470 0.50081651 0.25939936
0.62283885 0.50253931 0.26123223
0.74556821 0.50427331 0.26297841
0.86831664 0.50597126 0.26458213
0.99102712 0.50762737 0.26614011
0.01503213 0.62067711 0.25867208
0.13780636 0.62240655 0.26031300
0.26058609 0.62413680 0.26195001
0.38335382 0.62585194 0.26356872
0.50609192 0.62753613 0.26515389
0.62878362 0.62917325 0.26669210
0.75141060 0.63074753 0.26817175
0.87395559 0.63224313 0.26957441
0.99640131 0.63364404 0.27088677
0.02113821 0.74742573 0.26415076
0.14386145 0.74909460 0.26572149
0.26653141 0.75071074 0.26724006
0.38913059 0.75225824 0.26869213
0.51164153 0.75372119 0.27006336
0.63404673 0.75508369 0.27133940
0.75632873 0.75632982 0.27250592
0.87847003 0.75744368 0.27354857
1.00000000 0.75844255 0.27545844
0.02683898 0.87375772 0.26920146
0.14931345 0.87518595 0.27053970
0.27167582 0.87650792 0.27177753
0.39390862 0.87770774 0.27290061
0.51599437 0.87876948 0.27389460
0.63791559 0.87967725 0.27474516
0.75965479 0.88041512 0.27543794
0.88119451 0.88096719 0.27595861
1.00000000 0.88099454 0.28690474
0.03146902 0.99906735 0.27327818
0.15369477 1.00000000 0.27438067
0.27767003 1.00000000 0.27733567
0.40075493 1.00000000 0.28045444
0.52287314 1.00000000 0.28373833
0.64394837 1.00000000 0.28718858
0.76390435 1.00000000 0.29080634
0.88266486 1.00000000 0.29459266
1.00000000 0.99984730 0.30051371
0.00137449 0.00162666 0.36474758
0.12154012 0.00105110 0.36438709
0.24199931 0.00073855 0.36425904
0.36273461 0.00067311 0.36434911
0.48372852 0.00083886 0.36464294
0.60496358 0.00121989 0.36512620
0.72642229 0.00180029 0.36578454
0.84808718 0.00256415 0.36660362
0.96994078 0.00349557 0.36756910
0.00000000 0.12165266 0.36410332
0.12093428 0.12190974 0.36479774
0.24225295 0.12236511 0.36534664
0.36378887 0.12301412 0.36606508
0.48552423 0.12384093 0.36693894
0.60744215 0.12482940 0.36795415
0.72952497 0.12596371 0.36909620
0.85175516 0.12722796 0.37035076
0.97411526 0.12860623 0.37170346
0.00118136 0.24425173 0.36636584
0.12298514 0.24513918 0.36729322
0.24496710 0.24617929 0.36836582
0.36717192 0.24733460 0.36956565
0.48943034 0.24865583 0.37083554
0.61178857 0.25008872 0.37221740
0.73429554 0.25159762 0.37368096
0.85689322 0.25318220 0.37520868
0.97956201 0.25482728 0.37678630
0.00470147 0.36878479 0.36999936
0.12702779 0.37013368 0.37132680
0.24944943 0.37158743 0.37273565
0.37209360 0.37301473 0.37393586
0.49585942 0.37422207 0.37493738
0.61769599 0.37626446 0.37719104
0.74007580 0.37809389 0.37898979
0.86283593 0.37982115 0.38063139
0.98561558 0.38155298 0.38227163
0.00974544 0.49465724 0.37478780
0.13239662 0.49628745 0.37635327
0.25510424 0.49796702 0.37795703
0.37775204 0.49969714 0.37942355
0.50074943 0.50126589 0.37934581
0.62443526 0.50276008 0.38108490
0.74631456 0.50480955 0.38434539
0.86891899 0.50653872 0.38607196
0.99161054 0.50817761 0.38761342
0.01564782 0.62126336 0.38018514
0.13842588 0.62299486 0.38182635
0.26120350 0.62472176 0.38345876
0.38396221 0.62642841 0.38506688
0.50666333 0.62810431 0.38657474
0.62936651 0.62971162 0.38785776
0.75200220 0.63125280 0.38949585
0.87447592 0.63272960 0.39098327
0.99688145 0.63409544 0.39226568
0.02174318 0.74799741 0.38564540
0.14445029 0.74965016 0.38720002
0.26709817 0.75124477 0.38869762
0.38966934 0.75276534 0.39012384
0.51214631 0.75419598 0.39146431
0.63451139 0.75552083 0.39270381
0.75674787 0.75672376 0.39382889
0.87883747 0.75778902 0.39482786
1.00000000 0.75878963 0.39704831
0.02736606 0.87425368 0.39062255
0.14980442 0.87564761 0.39192830
0.27212475 0.87692988 0.39312876
0.39430957 0.87808459 0.39420961
0.51634140 0.87909583 0.39515650
0.63820277 0.87994768 0.39595509
0.75987619 0.88062423 0.39659103
0.88134418 0.88110959 0.39704999
1.00000000 0.88120651 0.40673801
0.03185103 0.99942644 0.39457060
0.15488522 1.00000000 0.39611583
0.27873972 1.00000000 0.39861671
0.40168646 1.00000000 0.40125677
0.52364910 1.00000000 0.40403730
0.64455139 1.00000000 0.40695949
0.76431706 1.00000000 0.41002445
0.88286992 1.00000000 0.41323317
1.00000000 0.99986713 0.41829670
0.00107199 0.00140072 0.48555445
0.12133927 0.00091626 0.48527450
0.24189419 0.00068941 0.48522214
0.36271928 0.00070427 0.48538301
0.48379704 0.00094491 0.48574278
0.60511001 0.00139543 0.48628711
0.72664070 0.00203992 0.48700165
0.84837164 0.00286247 0.48787205
0.97028534 0.00384717 0.48888399
0.00000000 0.12172307 0.48509603
0.12103185 0.12204172 0.48592034
0.24242611 0.12256470 0.48652830
0.36403173 0.12327586 0.48730124
0.48583123 0.12415928 0.48822484
0.60780713 0.12519906 0.48928474
0.72994195 0.12637928 0.49046661
0.85221822 0.12768404 0.49175610
0.97461846 0.12909742 0.49313888
0.00144845 0.24453463 0.48762080
0.12331419 0.24547681 0.48859568
0.24534998 0.24656956 0.48970168
0.36753849 0.24779687 0.49092463
0.48986202 0.24914299 0.49224966
0.61230280 0.25059207 0.49366266
0.73484392 0.25212798 0.49514955
0.85746771 0.25373489 0.49669582
0.98015666 0.25539690 0.49828713
0.00515259 0.36923039 0.49139569
0.12752085 0.37061581 0.49275453
0.25000009 0.37209828 0.49419646
0.37257410 0.37365789 0.49571602
0.49528498 0.37525647 0.49729634
0.61797589 0.37695007 0.49887848
0.74068320 0.37867953 0.50050440
0.86345466 0.38040930 0.50214521
0.98623452 0.38213988 0.50378274
0.01031342 0.49520440 0.49627037
0.13298639 0.49685300 0.49785086
0.25571160 0.49854515 0.49946594
0.37844656 0.50026640 0.50109647
0.50125000 0.50187055 0.50249110
0.62509398 0.50318675 0.50363218
0.74712851 0.50529719 0.50582397
0.86952053 0.50709911 0.50755549
0.99218659 0.50872064 0.50907970
0.01626548 0.62185091 0.50169885
0.13904535 0.62358264 0.50333868
0.26181885 0.62530435 0.50496485
0.38456642 0.62700058 0.50656196
0.50715540 0.62867114 0.50796819
0.62988665 0.63010185 0.50788053
0.75340024 0.63139556 0.50939087
0.87510704 0.63316195 0.51225771
0.99734855 0.63453310 0.51363116
0.02234334 0.74856422 0.50713511
0.14503229 0.75019901 0.50867198
0.26765608 0.75177026 0.51014694
0.39019723 0.75326207 0.51154567
0.51263718 0.75465881 0.51285270
0.63493463 0.75595041 0.51399564
0.75714717 0.75710046 0.51485479
0.87922484 0.75810572 0.51597906
1.00000000 0.75914411 0.51828823
0.02788154 0.87473860 0.51203316
0.15028178 0.87609639 0.51330476
0.27255805 0.87733713 0.51446621
0.39469287 0.87844490 0.51550317
0.51666877 0.87940379 0.51640130
0.63846825 0.88019790 0.51714622
0.76007362 0.88081141 0.51772275
0.88146818 0.88122817 0.51811739
1.00000000 0.88142345 0.52616177
0.03221466 0.99976832 0.51584698
0.15609443 1.00000000 0.51752928
0.27982516 1.00000000 0.51955918
0.40263070 1.00000000 0.52170364
0.52443478 1.00000000 0.52396391
0.64516111 1.00000000 0.52634113
0.76473349 1.00000000 0.52883634
0.88307570 1.00000000 0.53145049
1.00000000 0.99988918 0.53561082
0.00080467 0.00120632 0.60638922
0.12117160 0.00081113 0.60618817
0.24182023 0.00066815 0.60620983
0.36273308 0.00076147 0.60643986
0.48389268 0.00107517 0.60686391
0.60528155 0.00159335 0.60746765
0.72688221 0.00230010 0.60823673
0.84867718 0.00317949 0.60915681
0.97064897 0.00421564 0.61021355
0.00000000 0.12181331 0.60624966
0.12115582 0.12219724 0.60706366
0.24262381 0.12278591 0.60772926
0.36429723 0.12355735 0.60855497
0.48615860 0.12449566 0.60952647
0.60819043 0.12558492 0.61062940
0.73037525 0.12680921 0.61184943
0.85269558 0.12815264 0.61317221
0.97513394 0.12959929 0.61458340
0.00173717 0.24483673 0.60889254
0.12366262 0.24583183 0.60991354
0.24575217 0.24697209 0.61106077
0.36798835 0.24824161 0.61231986
0.49035367 0.24962446 0.61367649
0.61283066 0.25110473 0.61511631
0.73540183 0.25266653 0.61662498
0.85804971 0.25429393 0.61818816
0.98075682 0.25597103 0.61979150
0.00561856 0.36968902 0.61280323
0.12802656 0.37110918 0.61419180
0.25053986 0.37262098 0.61565835
0.37314098 0.37420850 0.61718855
0.49581260 0.37585573 0.61876825
0.61853704 0.37754695 0.62038257
0.74129653 0.37926631 0.62201740
0.86407412 0.38099764 0.62365865
0.98685218 0.38272513 0.62529183
0.01088946 0.49575840 0.61775859
0.13358220 0.49742356 0.61935243
0.25632143 0.49912684 0.62097600
0.37908939 0.50085231 0.62261522
0.50186804 0.50257970 0.62426570
0.62469662 0.50427060 0.62591297
0.74743505 0.50598374 0.62748664
0.87010533 0.50765725 0.62903770
0.99275457 0.50925585 0.63053840
0.01688442 0.62243915 0.62321263
0.13966408 0.62416926 0.62484943
0.26243145 0.62588395 0.62646771
0.38516883 0.62756736 0.62805313
0.50783010 0.62920478 0.62958968
0.63040640 0.63064880 0.63089120
0.75395440 0.63173724 0.63187276
0.87579162 0.63353782 0.63364214
0.99780519 0.63495509 0.63498278
0.02293799 0.74912554 0.62861934
0.14560678 0.75074054 0.63013679
0.26820446 0.75228659 0.63158748
0.39071357 0.75374781 0.63295704
0.51311440 0.75510871 0.63423024
0.63526246 0.75637149 0.63526183
0.75739432 0.75734692 0.63486300
0.88034945 0.75808256 0.63581568
1.00000000 0.75949247 0.63915087
0.02838474 0.87521185 0.63343271
0.15074484 0.87653167 0.63466851
0.27297503 0.87772904 0.63578929
0.39505785 0.87878803 0.63678072
0.51697580 0.87969275 0.63762844
0.63871032 0.88042757 0.63831709
0.76021969 0.88098386 0.63877746
0.88156377 0.88132807 0.63889341
1.00000000 0.88164040 0.64514919
0.03285216 1.00000000 0.63715900
0.15732235 1.00000000 0.63861240
0.28092628 1.00000000 0.64015445
0.40358763 1.00000000 0.64178643
0.52523012 1.00000000 0.64350953
0.64577751 1.00000000 0.64532484
0.76515358 1.00000000 0.64723335
0.88328213 1.00000000 0.64923583
1.00000000 0.99991349 0.65244674
0.00057186 0.00104284 0.72725133
0.12103641 0.00073509 0.72712752
0.24177674 0.00067414 0.72722155
0.36277535 0.00084409 0.72751908
0.48401477 0.00122902 0.72800576
0.60547752 0.00181302 0.72866726
0.72714613 0.00258018 0.72948923
0.84900311 0.00351459 0.73045733
0.97103098 0.00460035 0.73155722
0.00000000 0.12191860 0.72760280
0.12130549 0.12237567 0.72822711
0.24284521 0.12302820 0.72894869
0.36458441 0.12385809 0.72982552
0.48650563 0.12484945 0.73084326
0.60859138 0.12598635 0.73198756
0.73082418 0.12725289 0.73324409
0.85318655 0.12863316 0.73459851
0.97566102 0.13011124 0.73603647
0.00204683 0.24515740 0.73018048
0.12402997 0.24620359 0.73124596
0.24617127 0.24738953 0.73243279
0.36845327 0.24869932 0.73372661
0.49085847 0.25011704 0.73511310
0.61336941 0.25162678 0.73657791
0.73596859 0.25321264 0.73810670
0.85863855 0.25485871 0.73968512
0.98136179 0.25654907 0.74129884
0.00609869 0.37016005 0.73422141
0.12854441 0.37161312 0.73563807
0.25108949 0.37315241 0.73712784
0.37371647 0.37476203 0.73867635
0.49640785 0.37642607 0.74026929
0.61914616 0.37812860 0.74189229
0.74191391 0.37985372 0.74353103
0.86469364 0.38158553 0.74517116
0.98746787 0.38330810 0.74679834
0.01147288 0.49631864 0.73925190
0.13418337 0.49799853 0.74085744
0.25693442 0.49971113 0.74248783
0.37970856 0.50144053 0.74412874
0.50248831 0.50317080 0.74576584
0.62525631 0.50488596 0.74738499
0.74799495 0.50657027 0.74897130
0.87068643 0.50820788 0.75051063
0.99331379 0.50978262 0.75198895
0.01750395 0.62302744 0.74472594
0.14028140 0.62475410 0.74635805
0.26304062 0.62645994 0.74796677
0.38576411 0.62812906 0.74953776
0.50843408 0.62974553 0.75105698
0.63103071 0.63128907 0.75252178
0.75359114 0.63272166 0.75392056
0.87599005 0.63410123 0.75516663
0.99823601 0.63536613 0.75632479
0.02352647 0.74968074 0.75009752
0.14617307 0.75127411 0.75159391
0.26874263 0.75279314 0.75301865
0.39121768 0.75422192 0.75435741
0.51358051 0.75554457 0.75559588
0.63578250 0.75674700 0.75672172
0.75777524 0.75769767 0.75762010
0.88068075 0.75822520 0.75812233
1.00000000 0.75983792 0.75965586
0.02887498 0.87567281 0.75482065
0.15119292 0.87695283 0.75601900
0.27337502 0.87810499 0.75709746
0.39540381 0.87911337 0.75804169
0.51726180 0.87996208 0.75883735
0.63892927 0.88063568 0.75946932
0.76026070 0.88114325 0.75980712
0.88151609 0.88135317 0.75875373
1.00000000 0.88174595 0.76349190
0.03421116 1.00000000 0.75838328
0.15856895 1.00000000 0.75935658
0.28204306 1.00000000 0.76039392
0.40455719 1.00000000 0.76149652
0.52603510 1.00000000 0.76266553
0.64640054 1.00000000 0.76390198
0.76557717 1.00000000 0.76520670
0.88348467 1.00000000 0.76657476
1.00000000 0.99994209 0.76874069
0.00037287 0.00090967 0.84814021
0.12093304 0.00068751 0.84809199
0.24176303 0.00070676 0.84825674
0.36284539 0.00095150 0.84862012
0.48416261 0.00140582 0.84916778
0.60569723 0.00205381 0.84988538
0.72743177 0.00287955 0.85075858
0.84934875 0.00386715 0.85177305
0.97143068 0.00500068 0.85291443
0.00008179 0.12204973 0.84879892
0.12148018 0.12257640 0.84941011
0.24308961 0.12329094 0.85018602
0.36489259 0.12417745 0.85111231
0.48687164 0.12522002 0.85217465
0.60900929 0.12640273 0.85335867
0.73128805 0.12770968 0.85465005
0.85369045 0.12912495 0.85603445
0.97619901 0.13063263 0.85749751
0.00237674 0.24549603 0.85148408
0.12441556 0.24659146 0.85259237
0.24660660 0.24782125 0.85381714
0.36893240 0.24916947 0.85514405
0.49137547 0.25062023 0.85655874
0.61391833 0.25215761 0.85804689
0.73654351 0.25376570 0.85959414
0.85923353 0.25542859 0.86118616
0.98197090 0.25713037 0.86280860
0.00659229 0.37064286 0.85564968
0.12907372 0.37212700 0.85709278
0.25164857 0.37369196 0.85860410
0.37429938 0.37532184 0.86016931
0.49700866 0.37700073 0.86177406
0.61975893 0.37871272 0.86340402
0.74253271 0.38044190 0.86504484
0.86531253 0.38217235 0.86668218
0.98808090 0.38388817 0.86830169
0.01206299 0.49688448 0.86074972
0.13478922 0.49857726 0.86236531
0.25755007 0.50029735 0.86400088
0.38032808 0.50202884 0.86564209
0.50310575 0.50375580 0.86727460
0.62586562 0.50546234 0.86888407
0.74859020 0.50713255 0.87045615
0.87126202 0.50875051 0.87197650
0.99386359 0.51030031 0.87343078
0.01812340 0.62361517 0.86623819
0.14089662 0.62533655 0.86786397
0.26364566 0.62703170 0.86946149
0.38635306 0.62868473 0.87101640
0.50900132 0.63027971 0.87251435
0.63157297 0.63180074 0.87394106
0.75405065 0.63323181 0.87528236
0.87641677 0.63455720 0.87652334
0.99865353 0.63576104 0.87764987
0.02410807 0.75022921 0.87156910
0.14673047 0.75179911 0.87304276
0.26926989 0.75328928 0.87443991
0.39170887 0.75468379 0.87574621
0.51402991 0.75596674 0.87694731
0.63621518 0.75712221 0.87802923
0.75824389 0.75813037 0.87899119
0.88015288 0.75895432 0.87982415
1.00000000 0.76024984 0.87982134
0.02935156 0.87612087 0.87619642
0.15162533 0.87735925 0.87735566
0.27375733 0.87846436 0.87839015
0.39573007 0.87942030 0.87928553
0.51752608 0.88021115 0.88002747
0.63912766 0.88082105 0.88060167
0.76048617 0.88123749 0.88099902
0.88156896 0.88136534 0.88116172
1.00000000 0.88194974 0.88180330
0.03559182 1.00000000 0.87927686
0.15983417 1.00000000 0.87975320
0.28317544 1.00000000 0.88026893
0.40553936 1.00000000 0.88082525
0.52684967 1.00000000 0.88142324
0.64703018 1.00000000 0.88206388
0.76600438 1.00000000 0.88274797
0.88367667 1.00000000 0.88346418
1.00000000 0.99997971 0.88435599
0.00020701 0.00080616 0.96905531
0.12086078 0.00066778 0.96908103
0.24177844 0.00076539 0.96931484
0.36294251 0.00108308 0.96974241
0.48433553 0.00160496 0.97034939
0.60594000 0.00231510 0.97112144
0.72773846 0.00319759 0.97204423
0.84971341 0.00423653 0.97310340
0.97184739 0.00541600 0.97428462
0.00020719 0.12220653 0.96994337
0.12167921 0.12279879 0.97061211
0.24335633 0.12357352 0.97144070
0.36522107 0.12451481 0.97241480
0.48725594 0.12560675 0.97352007
0.60944347 0.12683344 0.97474216
0.73176618 0.12817896 0.97606674
0.85420659 0.12962740 0.97747946
0.97674722 0.13116285 0.97896598
0.00272623 0.24585199 0.97280276
0.12481870 0.24699484 0.97395222
0.24705747 0.24826663 0.97521328
0.36942506 0.24965146 0.97657161
0.49190398 0.25113342 0.97801286
0.61447675 0.25269659 0.97952268
0.73712591 0.25432508 0.98108675
0.85983397 0.25600296 0.98269070
0.98258344 0.25771433 0.98432022
0.00709869 0.37113683 0.97708747
0.12961380 0.37265020 0.97855535
0.25221641 0.37423899 0.98008658
0.37488903 0.37588730 0.98166683
0.49761419 0.37757922 0.98328175
0.62037441 0.37929883 0.98491700
0.74315220 0.38103022 0.98655825
0.86593009 0.38275749 0.98819114
0.98869061 0.38446472 0.98980134
0.01265912 0.49745531 0.98225150
0.13539906 0.49915915 0.98387549
0.25816770 0.50088489 0.98551458
0.38094755 0.50261663 0.98715445
0.50372114 0.50433844 0.98878074
0.62647099 0.50603443 0.99037911
0.74917961 0.50768867 0.99193523
0.87182953 0.50928527 0.99343476
0.99440327 0.51080830 0.99486334
0.01874208 0.62420171 0.98774885
0.14150904 0.62591596 0.98936663
0.26424590 0.62759860 0.99095129
0.38693518 0.62923370 0.99248846
0.50955939 0.63080535 0.99396382
0.63210105 0.63229766 0.99536301
0.75454269 0.63369470 0.99667170
0.87686682 0.63498056 0.99787555
0.99905598 0.63613934 0.99896021
0.02468212 0.75077031 0.99303350
0.14727830 0.75231492 0.99448279
0.26978557 0.75377438 0.99585069
0.39218646 0.75513279 0.99712287
0.51446348 0.75637423 0.99828499
0.63659915 0.75748280 0.99932270
0.75859303 0.75845988 1.00000000
0.87999546 0.75944856 1.00000000
1.00000000 0.76064082 0.99957301
0.02981381 0.87655538 0.99755945
0.15204139 0.87775029 0.99867794
0.27412127 0.87880653 0.99966679
0.39696392 0.87948399 1.00000000
0.51963352 0.88000577 1.00000000
0.64138666 0.88053664 1.00000000
0.76215101 0.88107551 1.00000000
0.88185154 0.88161988 1.00000000
1.00000000 0.88233241 0.99958932
0.03699408 1.00000000 0.99983114
0.16111797 1.00000000 0.99979364
0.28432339 1.00000000 0.99977088
0.40653408 1.00000000 0.99976399
0.52767381 1.00000000 0.99977402
0.64766640 1.00000000 0.99980188
0.76643565 1.00000000 0.99984840
0.88390124 1.00000000 0.99991494
1.00000000 1.00000000 1.00000000
