assets/luts/DB_Sports_Arena_Clean_Rec709_50.cube
TITLE "Sports Arena Clean Rec709 50"
# Red changes fastest. Full-range normalized input.
LUT_3D_SIZE 9
DOMAIN_MIN 0 0 0
DOMAIN_MAX 1 1 1
0.00150000 0.00150000 0.00150000
0.12491236 0.00081108 0.00087970
0.24789061 0.00042884 0.00060927
0.37111309 0.00014223 0.00041132
0.49436641 0.00000000 0.00033826
0.61763097 0.00000000 0.00039766
0.74139696 0.00000000 0.00044872
0.86549199 0.00003671 0.00052824
0.98931761 0.00026195 0.00078761
0.00030731 0.12363933 0.00030731
0.12372541 0.12348661 0.00000000
0.24743760 0.12341722 0.00000000
0.37114326 0.12349756 0.00035974
0.49487860 0.12367453 0.00061293
0.61873288 0.12393171 0.00090163
0.74266213 0.12427093 0.00126463
0.86665859 0.12468442 0.00169484
0.99071485 0.12516432 0.00218485
0.00047166 0.24712383 0.00047166
0.12426411 0.24732852 0.00068653
0.24814722 0.24761928 0.00091904
0.37212198 0.24797837 0.00137183
0.49613239 0.24841796 0.00186531
0.62020790 0.24892024 0.00237664
0.74433378 0.24947806 0.00293628
0.86850195 0.25008372 0.00353820
0.99270500 0.25072935 0.00417500
0.00157165 0.37169760 0.00157165
0.12561237 0.37216023 0.00204612
0.24970741 0.37268359 0.00257466
0.37384962 0.37325973 0.00315020
0.49803141 0.37388080 0.00376627
0.62224529 0.37453904 0.00441404
0.74648396 0.37522652 0.00508646
0.87073998 0.37593541 0.00577623
0.99500596 0.37665783 0.00647596
0.00337079 0.49704727 0.00337079
0.12756509 0.49768281 0.00399884
0.25178887 0.49835260 0.00465637
0.37603471 0.49904879 0.00533596
0.50029522 0.49976351 0.00603022
0.62456297 0.50048891 0.00673172
0.74883056 0.50121712 0.00743306
0.87309059 0.50194029 0.00812684
0.99733563 0.50265056 0.00880563
0.00558741 0.62287351 0.00558741
0.12985141 0.62359303 0.00628516
0.25411996 0.62432036 0.00698746
0.37838566 0.62504765 0.00768691
0.50264108 0.62576704 0.00837608
0.62687883 0.62647066 0.00904758
0.75109149 0.62715066 0.00969399
0.87527166 0.62779918 0.01030791
0.99941191 0.62840836 0.01088191
0.00793939 0.74887713 0.00793939
0.13218924 0.74959169 0.00862299
0.25641871 0.75028762 0.00928621
0.38062040 0.75095707 0.00992165
0.50478689 0.75159218 0.01052189
0.62891078 0.75218509 0.01107953
0.75298465 0.75272794 0.01158715
0.87700110 0.75321287 0.01203735
1.00000000 0.75362865 0.01526148
0.01014464 0.87475893 0.01014464
0.13429648 0.87537958 0.01073023
0.25840301 0.87595518 0.01127051
0.38245684 0.87647785 0.01175809
0.50645054 0.87693974 0.01218554
0.63037670 0.87733300 0.01254545
0.75422793 0.87764976 0.01283043
0.87799680 0.87788216 0.01303305
1.00000000 0.87764361 0.02183256
0.01247280 1.00000000 0.01247280
0.13746150 1.00000000 0.01421368
0.26208164 1.00000000 0.01605454
0.38629671 1.00000000 0.01799580
0.51007022 1.00000000 0.02003786
0.63336565 1.00000000 0.02218112
0.75614651 1.00000000 0.02442597
0.87837632 1.00000000 0.02677278
1.00000000 0.99998142 0.02946066
0.00131829 0.00128309 0.12489058
0.12445677 0.00073478 0.12445677
0.24770167 0.00033346 0.12412590
0.37105694 0.00006347 0.12392385
0.49423825 0.00000000 0.12382910
0.61768274 0.00000000 0.12386928
0.74158787 0.00000000 0.12398482
0.86557094 0.00010319 0.12417344
0.98942365 0.00035816 0.12445990
0.00030216 0.12356298 0.12387961
0.12376740 0.12345002 0.12376740
0.24768117 0.12335118 0.12364851
0.37125902 0.12352206 0.12397768
0.49496938 0.12375160 0.12426761
0.61884816 0.12403810 0.12458316
0.74280106 0.12440342 0.12496981
0.86681866 0.12484034 0.12542116
0.99089355 0.12534101 0.12592980
0.00054239 0.24718185 0.12410909
0.12431942 0.24742743 0.12431942
0.24813206 0.24776426 0.12407139
0.37245061 0.24806390 0.12450667
0.49633417 0.24857193 0.12555065
0.62039309 0.24910373 0.12612742
0.74453383 0.24967878 0.12670258
0.86871467 0.25029889 0.12731717
0.99292787 0.25095631 0.12796412
0.00172622 0.37184742 0.12529247
0.12578585 0.37233166 0.12578585
0.24988637 0.37287772 0.12630878
0.37404240 0.37347288 0.12681422
0.49825730 0.37409941 0.12750715
0.62247194 0.37476948 0.12820485
0.74671664 0.37546526 0.12888538
0.87097687 0.37617962 0.12957937
0.99524453 0.37690485 0.13028078
0.00358032 0.49725877 0.12714657
0.12778546 0.49790683 0.12778546
0.25201755 0.49858647 0.12845129
0.37626910 0.49928988 0.12913635
0.50053298 0.50000911 0.12983355
0.62480156 0.50073629 0.13053642
0.74906739 0.50146367 0.13123614
0.87332316 0.50218335 0.13192566
0.99756143 0.50288745 0.13259768
0.00582340 0.62311650 0.12938965
0.13008978 0.62383955 0.13008978
0.25435819 0.62456775 0.13079194
0.37862123 0.62529324 0.13148873
0.50287148 0.62600815 0.13217273
0.62710154 0.62670463 0.13283654
0.75130400 0.62737482 0.13347275
0.87547144 0.62801087 0.13407394
0.99959645 0.62860490 0.13463270
0.00817337 0.74912140 0.13173962
0.13241713 0.74983051 0.13241713
0.25663800 0.75051833 0.13307175
0.38082856 0.75117700 0.13369606
0.50498142 0.75179866 0.13428267
0.62908915 0.75237545 0.13482415
0.75314435 0.75289951 0.13531310
0.87713961 0.75336298 0.13574211
1.00000000 0.75379383 0.13889234
0.01034813 0.87497427 0.13391438
0.13448541 0.87558050 0.13448541
0.25857488 0.87613901 0.13500863
0.38260911 0.87664192 0.13547661
0.50658071 0.87708139 0.13588196
0.63048226 0.87744955 0.13621726
0.75430635 0.87773854 0.13647510
0.87804557 0.87794050 0.13664807
1.00000000 0.87774244 0.14473528
0.01305283 1.00000000 0.13644860
0.13799726 1.00000000 0.13799726
0.26256491 1.00000000 0.13963371
0.38671927 1.00000000 0.14135840
0.51042385 1.00000000 0.14317172
0.63364213 1.00000000 0.14507408
0.75633764 1.00000000 0.14706586
0.87847387 1.00000000 0.14914743
1.00000000 0.99998566 0.15150339
0.00115321 0.00108380 0.24828572
0.12431871 0.00058996 0.24788503
0.24760837 0.00023081 0.24760837
0.37101043 0.00000000 0.24744608
0.49418342 0.00000000 0.24728147
0.61778004 0.00000000 0.24737195
0.74180775 0.00000000 0.24758844
0.86565938 0.00018006 0.24782813
0.98953832 0.00046388 0.24814082
0.00028511 0.12351014 0.24741785
0.12383683 0.12343765 0.24740912
0.24750244 0.12346687 0.24750244
0.37124763 0.12360611 0.24767186
0.49506621 0.12383971 0.24793312
0.61897176 0.12415364 0.24827300
0.74294746 0.12454417 0.24868246
0.86698535 0.12500362 0.24915410
0.99107800 0.12552415 0.24968050
0.00062400 0.24725021 0.24775659
0.12446919 0.24751338 0.24804664
0.24831994 0.24785359 0.24831994
0.37259806 0.24817096 0.24856540
0.49655982 0.24872108 0.24927848
0.62058502 0.24929289 0.24988325
0.74473846 0.24988470 0.25047346
0.86893112 0.25051836 0.25109987
0.99315363 0.25118666 0.25175613
0.00188764 0.37200483 0.24902014
0.12596528 0.37250976 0.24953198
0.25003693 0.37308415 0.25003693
0.37410259 0.37371283 0.25004192
0.49865786 0.37426736 0.25071392
0.62273548 0.37499330 0.25195196
0.74695137 0.37570606 0.25268570
0.87121461 0.37642509 0.25338336
0.99548311 0.37715222 0.25408561
0.00379380 0.49747483 0.25092630
0.12800893 0.49813449 0.25157518
0.25224809 0.49882319 0.25224809
0.37649368 0.49953674 0.25291609
0.50076150 0.50026243 0.25353332
0.62505007 0.50098252 0.25429991
0.74930379 0.50170919 0.25503671
0.87355372 0.50242460 0.25572246
0.99778435 0.50312163 0.25638685
0.00606048 0.62336099 0.25319298
0.13032838 0.62408667 0.25389463
0.25459580 0.62481483 0.25459580
0.37885531 0.62553761 0.25528906
0.50309945 0.62624719 0.25596670
0.62732106 0.62693562 0.25662163
0.75151249 0.62759505 0.25724735
0.87566633 0.62821771 0.25783507
0.99977525 0.62879569 0.25837775
0.00840556 0.74936412 0.25553806
0.13264238 0.75006688 0.25620863
0.25685379 0.75074568 0.25685379
0.38103238 0.75139266 0.25746613
0.50517074 0.75199996 0.25803824
0.62926146 0.75255973 0.25856271
0.75329713 0.75306410 0.25903213
0.87727035 0.75350521 0.25943910
1.00000000 0.75396151 0.26237738
0.01054696 0.87518502 0.25767946
0.13466883 0.87577592 0.25823508
0.25874037 0.87631643 0.25874037
0.38275417 0.87679867 0.25918792
0.50670281 0.87721480 0.25957031
0.63057888 0.87755696 0.25988013
0.75437498 0.87781728 0.26010998
0.87808369 0.87798790 0.26025244
1.00000000 0.87784225 0.26746556
0.01364435 1.00000000 0.26028507
0.13854314 1.00000000 0.26163318
0.26305692 1.00000000 0.26305692
0.38714921 1.00000000 0.26455673
0.51078349 1.00000000 0.26613301
0.63392326 1.00000000 0.26778616
0.75653203 1.00000000 0.26951655
0.87857331 1.00000000 0.27132457
1.00000000 0.99998938 0.27334699
0.00100272 0.00090051 0.37170147
0.12421118 0.00045331 0.37134368
0.24754128 0.00013812 0.37110753
0.37085265 0.00000000 0.37085265
0.49418571 0.00000000 0.37073896
0.61791382 0.00000000 0.37092813
0.74192986 0.00004012 0.37123111
0.86575701 0.00026702 0.37149201
0.98966133 0.00057877 0.37183008
0.00026938 0.12347303 0.37096813
0.12385757 0.12343863 0.37099009
0.24754251 0.12350977 0.37110883
0.37131676 0.12367863 0.37131676
0.49517280 0.12393736 0.37160655
0.61910337 0.12427805 0.37197087
0.74310103 0.12469286 0.37240228
0.86715834 0.12517394 0.37289334
0.99126791 0.12571342 0.37343666
0.00071438 0.24732911 0.37141313
0.12459830 0.24761858 0.37173104
0.24855155 0.24798671 0.37212384
0.37258288 0.24841958 0.37258288
0.49666223 0.24892551 0.37308646
0.62077905 0.24948883 0.37364596
0.74494739 0.25009552 0.37424863
0.86915101 0.25074183 0.37488601
0.99338197 0.25142010 0.37555072
0.00205560 0.37216954 0.37275435
0.12615161 0.37269393 0.37328420
0.25028135 0.37327336 0.37385880
0.37437865 0.37389287 0.37437865
0.49887712 0.37445257 0.37484446
0.62301953 0.37520805 0.37573820
0.74718884 0.37594826 0.37648707
0.87145292 0.37667150 0.37718792
0.99572141 0.37739963 0.37789016
0.00401096 0.49769512 0.37470971
0.12823522 0.49836548 0.37536772
0.25248057 0.49906231 0.37604727
0.37668711 0.49979165 0.37668711
0.50087533 0.50053831 0.37681467
0.62549388 0.50117384 0.37754994
0.74957515 0.50194383 0.37879164
0.87378232 0.50266366 0.37951665
0.99800412 0.50335280 0.38017287
0.00629835 0.62360667 0.37699710
0.13056692 0.62433407 0.37769942
0.25483249 0.62506128 0.37839874
0.37908726 0.62578057 0.37908726
0.50331457 0.62648774 0.37973699
0.62753188 0.62717008 0.38030370
0.75172862 0.62780986 0.38097846
0.87585682 0.62841925 0.38158974
0.99994801 0.62898042 0.38211675
0.00863568 0.74960498 0.37933443
0.13286470 0.75030048 0.37999720
0.25706579 0.75096936 0.38063204
0.38123155 0.75160375 0.38123155
0.50535455 0.75219579 0.38178830
0.62942733 0.75273767 0.38229459
0.75344273 0.75322143 0.38274331
0.87739307 0.75363923 0.38312793
1.00000000 0.75413165 0.38571259
0.01074083 0.87539085 0.38143958
0.13484645 0.87596552 0.38197895
0.25889921 0.87648713 0.38246546
0.38289171 0.87694780 0.38289171
0.50681653 0.87733969 0.38325028
0.63066628 0.87765494 0.38353378
0.75443353 0.87788568 0.38373478
0.87811088 0.87802405 0.38384588
1.00000000 0.87794302 0.39001938
0.01424739 1.00000000 0.38397796
0.13909916 1.00000000 0.38511721
0.26355772 1.00000000 0.38631993
0.38758655 1.00000000 0.38758655
0.51114916 1.00000000 0.38891747
0.63420904 1.00000000 0.39031310
0.75672971 1.00000000 0.39177381
0.87867467 1.00000000 0.39329998
1.00000000 0.99999257 0.39498742
0.00086711 0.00073335 0.49513211
0.12411771 0.00033186 0.49481646
0.24748743 0.00005970 0.49461993
0.37076523 0.00000000 0.49423346
0.49423300 0.00000000 0.49423300
0.61807697 0.00000000 0.49455458
0.74200935 0.00010717 0.49487685
0.86586353 0.00036378 0.49516478
0.98979238 0.00070255 0.49552738
0.00026553 0.12344903 0.49453053
0.12388740 0.12345136 0.49458615
0.24760346 0.12355658 0.49473596
0.37140632 0.12375684 0.49497257
0.49528854 0.12404426 0.49528854
0.61924273 0.12441100 0.49567648
0.74326148 0.12484920 0.49612898
0.86733737 0.12535099 0.49663862
0.99146300 0.12590852 0.49719800
0.00081380 0.24741805 0.49507880
0.12472308 0.24773526 0.49542184
0.24870163 0.24812893 0.49583415
0.37274206 0.24859116 0.49630838
0.49683696 0.24911415 0.49683696
0.62097880 0.24969005 0.49741255
0.74516032 0.25031094 0.49802782
0.86937406 0.25096898 0.49867531
0.99361261 0.25165633 0.49934761
0.00222983 0.37234122 0.49649483
0.12634267 0.37288438 0.49704142
0.25049970 0.37347756 0.49763243
0.37469114 0.37411243 0.49826343
0.49892615 0.37477508 0.49892615
0.62317406 0.37547382 0.49959829
0.74742434 0.37619298 0.50029125
0.87169151 0.37691855 0.50099275
0.99595912 0.37764677 0.50169412
0.00423151 0.49791935 0.49849651
0.12846405 0.49859951 0.49916280
0.25271591 0.49930326 0.49984850
0.37696715 0.50002507 0.50054460
0.50116453 0.50075000 0.50116453
0.62573243 0.50137815 0.50169977
0.74986467 0.50216512 0.50258334
0.87400971 0.50289985 0.50330793
0.99822043 0.50358065 0.50395543
0.00653674 0.62385323 0.50080174
0.13080512 0.62458145 0.50150387
0.25506799 0.62530681 0.50220049
0.37931713 0.62602167 0.50288382
0.50349721 0.62673207 0.50349721
0.62766349 0.62742283 0.50360282
0.75217468 0.62796549 0.50423074
0.87608120 0.62860565 0.50529768
1.00000000 0.62918538 0.50592275
0.00886343 0.74984367 0.50312843
0.13308380 0.75053102 0.50378255
0.25727372 0.75118906 0.50440622
0.38142579 0.75180995 0.50499204
0.50553224 0.75238595 0.50553224
0.62957758 0.75291286 0.50599999
0.75358090 0.75337798 0.50635272
0.87752129 0.75376357 0.50677114
1.00000000 0.75430423 0.50889381
0.01092947 0.87559148 0.50519447
0.13501797 0.87614901 0.50571672
0.25905109 0.87665080 0.50618359
0.38302144 0.87708900 0.50658769
0.50692160 0.87745574 0.50692160
0.63074415 0.87774317 0.50717789
0.75448163 0.87794347 0.50734889
0.87812688 0.87804869 0.50742746
1.00000000 0.87804474 0.51239269
0.01486197 1.00000000 0.50752303
0.13966535 1.00000000 0.50844511
0.26406730 1.00000000 0.50941849
0.38803131 1.00000000 0.51044361
0.51152087 1.00000000 0.51152087
0.63449950 1.00000000 0.51265067
0.75693068 1.00000000 0.51383339
0.87877794 1.00000000 0.51506940
1.00000000 0.99999521 0.51642063
0.00074610 0.00058201 0.61857735
0.12403798 0.00022533 0.61830298
0.24743921 0.00000000 0.61812006
0.37073179 0.00000000 0.61763257
0.49431609 0.00000000 0.61778657
0.61826381 0.00000000 0.61826381
0.74209830 0.00018461 0.61853205
0.86597867 0.00047000 0.61884617
0.98993119 0.00083490 0.61923244
0.00027340 0.12343779 0.61810465
0.12392809 0.12347595 0.61819309
0.24767445 0.12361432 0.61837320
0.37150509 0.12384506 0.61863759
0.49541259 0.12416031 0.61897884
0.61938953 0.12455220 0.61938953
0.74342852 0.12501287 0.61986227
0.86752213 0.12553448 0.62038963
0.99166296 0.12610915 0.62096421
0.00092207 0.24751672 0.61875332
0.12485571 0.24786077 0.61912071
0.24885610 0.24827861 0.61955485
0.37291583 0.24876238 0.62004833
0.49702749 0.24930421 0.62059374
0.62118367 0.24989625 0.62118367
0.74537697 0.25053064 0.62181072
0.86959996 0.25119952 0.62246746
0.99384525 0.25189502 0.62314650
0.00241002 0.37251958 0.62024127
0.12653875 0.37308060 0.62080375
0.25070930 0.37368897 0.62140805
0.37491426 0.37433682 0.62204678
0.49914626 0.37501628 0.62271258
0.62339786 0.37571952 0.62339786
0.74766156 0.37643871 0.62409531
0.87193008 0.37716593 0.62479758
0.99619596 0.37789333 0.62549721
0.00445515 0.49814720 0.62228640
0.12869511 0.49883625 0.62296011
0.25295197 0.49954620 0.62365072
0.37721817 0.50026922 0.62435091
0.50148429 0.50099696 0.62505658
0.62576030 0.50171550 0.62576030
0.75001169 0.50243318 0.62643593
0.87423096 0.50313431 0.62709787
0.99843300 0.50380488 0.62773425
0.00677535 0.62410037 0.62460660
0.13104269 0.62482850 0.62530769
0.25530199 0.62555110 0.62600074
0.37954578 0.62626033 0.62667837
0.50375513 0.62695065 0.62733258
0.62789860 0.62760713 0.62789860
0.75237808 0.62812986 0.62834542
0.87632177 0.62877444 0.62904043
1.00000000 0.62940451 0.62964891
0.00908852 0.75007990 0.62691977
0.13329938 0.75075817 0.62756438
0.25747728 0.75140448 0.62817603
0.38161482 0.75201096 0.62874732
0.50570382 0.75256998 0.62927052
0.62969450 0.75308757 0.62969450
0.75368025 0.75354855 0.62961959
0.87791627 0.75382447 0.62997233
1.00000000 0.75447872 0.63191266
0.01111258 0.87578658 0.62894383
0.13518310 0.87632606 0.62944810
0.25919574 0.87680714 0.62989449
0.38314308 0.87722195 0.63027558
0.50701771 0.87756264 0.63058396
0.63081189 0.87782147 0.63081189
0.75451121 0.87799425 0.63093363
0.87813594 0.87806827 0.63090776
1.00000000 0.87814735 0.63457968
0.01548809 1.00000000 0.63091604
0.14024171 1.00000000 0.63161263
0.26458568 1.00000000 0.63234837
0.38848350 1.00000000 0.63312368
0.51189865 1.00000000 0.63393897
0.63479464 1.00000000 0.63479464
0.75713497 1.00000000 0.63569106
0.87888316 1.00000000 0.63662861
1.00000000 0.99999729 0.63764254
0.00063939 0.00044619 0.74203689
0.12397170 0.00013340 0.74180295
0.24734431 0.00000000 0.74135163
0.37074037 0.00000000 0.74108101
0.49442782 0.00000000 0.74141648
0.61836776 0.00004356 0.74193401
0.74219643 0.00027213 0.74219643
0.86610213 0.00058540 0.74253588
0.99007747 0.00097551 0.74294497
0.00029269 0.12343902 0.74169019
0.12397935 0.12351210 0.74181060
0.24775516 0.12368272 0.74202016
0.37161273 0.12394304 0.74231148
0.49554465 0.12428520 0.74267715
0.61954349 0.12470133 0.74310974
0.74360186 0.12518357 0.74360186
0.86771234 0.12572408 0.74414609
0.99186752 0.12631498 0.74473502
0.00103889 0.24762480 0.74243639
0.12499603 0.24799479 0.74282728
0.24901740 0.24843590 0.74328240
0.37309560 0.24894027 0.74379435
0.49722321 0.24950004 0.74435571
0.62139283 0.25010734 0.74495908
0.74559704 0.25075432 0.74559704
0.86982844 0.25143312 0.74626219
0.99407961 0.25213588 0.74694711
0.00259589 0.37270431 0.74399339
0.12673965 0.37328229 0.74457090
0.25092272 0.37390495 0.74518772
0.37513769 0.37456443 0.74583644
0.49937715 0.37525286 0.74650965
0.62363368 0.37596240 0.74719993
0.74789988 0.37668517 0.74789988
0.87216834 0.37741333 0.74860209
0.99643165 0.37813901 0.74929915
0.00468159 0.49837837 0.74607909
0.12892812 0.49907540 0.74675937
0.25318903 0.49979066 0.74745403
0.37745691 0.50051631 0.74815566
0.50172435 0.50124447 0.74885686
0.62598397 0.50196728 0.74955029
0.75022835 0.50267690 0.75022835
0.87444995 0.50336551 0.75088370
0.99864153 0.50402517 0.75150903
0.00701388 0.62434778 0.74841138
0.13127932 0.62507491 0.74911057
0.25553422 0.62579385 0.74979922
0.37977116 0.62649672 0.75046991
0.50398260 0.62717570 0.75111534
0.62815970 0.62782243 0.75173199
0.75231339 0.62842300 0.75231339
0.87640371 0.62898573 0.75282795
1.00000000 0.62962764 0.75324007
0.00931067 0.75031334 0.75070817
0.13351117 0.75098164 0.75134242
0.25767619 0.75161530 0.75194119
0.38179833 0.75220647 0.75249708
0.50587010 0.75274730 0.75300269
0.62987382 0.75323226 0.75345127
0.75380186 0.75364641 0.75380186
0.87802814 0.75388984 0.75399548
1.00000000 0.75465503 0.75477089
0.01128986 0.87597585 0.75268736
0.13534156 0.87649638 0.75317281
0.25933285 0.87695583 0.75359785
0.38325633 0.87734635 0.75395508
0.50710459 0.87766008 0.75423709
0.63086951 0.87788938 0.75443621
0.75450624 0.87804028 0.75450624
0.87813882 0.87809761 0.75407815
1.00000000 0.87824909 0.75655555
0.01612577 1.00000000 0.75415273
0.14082826 1.00000000 0.75461553
0.26511289 1.00000000 0.75510532
0.38894313 1.00000000 0.75562252
0.51228250 1.00000000 0.75616753
0.63509448 1.00000000 0.75674076
0.75734258 1.00000000 0.75734258
0.87899027 1.00000000 0.75797332
1.00000000 0.99999882 0.75864855
0.00054669 0.00032557 0.86551044
0.12391858 0.00005577 0.86531608
0.24729528 0.00000000 0.86462933
0.37078203 0.00000000 0.86460089
0.49456257 0.00000000 0.86513510
0.61844778 0.00011120 0.86558028
0.74230344 0.00036942 0.86586969
0.86623362 0.00070966 0.86623362
0.99023092 0.00112408 0.86666467
0.00032312 0.12345241 0.86528687
0.12404089 0.12355950 0.86543839
0.24784530 0.12376146 0.86567655
0.37172895 0.12405045 0.86599395
0.49568442 0.12441861 0.86638317
0.61970431 0.12485808 0.86683681
0.74378121 0.12536099 0.86734746
0.86790770 0.12591950 0.86790770
0.99207638 0.12652573 0.86851013
0.00116398 0.24774199 0.86612773
0.12514376 0.24813702 0.86654126
0.24918526 0.24860049 0.86701651
0.37328107 0.24912455 0.86754607
0.49742378 0.24970134 0.86812253
0.62160598 0.25032300 0.86873848
0.74582025 0.25098167 0.86938650
0.87005920 0.25166949 0.87005920
0.99431540 0.25237860 0.87074915
0.00278715 0.37289510 0.86775090
0.12694509 0.37348913 0.86834259
0.25113983 0.37412518 0.86897108
0.37536394 0.37479537 0.86962894
0.49961003 0.37549185 0.87030878
0.62387068 0.37620676 0.87100318
0.74813847 0.37693225 0.87170472
0.87240602 0.37766045 0.87240602
0.99666589 0.37838350 0.87309964
0.00491054 0.49861255 0.86987429
0.12916279 0.49931665 0.87056029
0.25342690 0.50003633 0.87125815
0.37769546 0.50076371 0.87196046
0.50196107 0.50149094 0.87265982
0.62621631 0.50221017 0.87334881
0.75045378 0.50291353 0.87402003
0.87466606 0.50359317 0.87466606
0.99884574 0.50424123 0.87527949
0.00725205 0.62459515 0.87221580
0.13151474 0.62532038 0.87291224
0.25576437 0.62603474 0.87359562
0.37999353 0.62673038 0.87425853
0.50419480 0.62739942 0.87489355
0.62836078 0.62803403 0.87549329
0.75248409 0.62862630 0.87605041
0.87655729 0.62916843 0.87655729
1.00000000 0.62985466 0.87669175
0.00952958 0.75054369 0.87449333
0.13371886 0.75120111 0.87511636
0.25787015 0.75182122 0.87570140
0.38197604 0.75239617 0.87624104
0.50602912 0.75291810 0.87672787
0.63002186 0.75337915 0.87715460
0.75394605 0.75377100 0.87751835
0.87781347 0.75407972 0.87781347
1.00000000 0.75483633 0.87747395
0.01146103 0.87615899 0.87642478
0.13549305 0.87665966 0.87689055
0.25946214 0.87709658 0.87729339
0.38336091 0.87746190 0.87762591
0.50718194 0.87774776 0.87788069
0.63091775 0.87794632 0.87805034
0.75455174 0.87805204 0.87812919
0.87809532 0.87804998 0.87809532
1.00000000 0.87835245 0.87837531
0.01677503 1.00000000 0.87722888
0.14142503 1.00000000 0.87744958
0.26564893 1.00000000 0.87768510
0.38941023 1.00000000 0.87793588
0.51267243 1.00000000 0.87820231
0.63539903 1.00000000 0.87848479
0.75755353 1.00000000 0.87878372
0.87909929 1.00000000 0.87909929
1.00000000 0.99999980 0.87943483
0.00046771 0.00021985 0.98899771
0.12387620 0.00000000 0.98877042
0.24728141 0.00000000 0.98798053
0.37084996 0.00000000 0.98820808
0.49471588 0.00000000 0.98895141
0.61853725 0.00018920 0.98923600
0.74241905 0.00047616 0.98955155
0.86637285 0.00084248 0.98993910
0.99039126 0.00128029 0.99039126
0.00036440 0.12347765 0.98889440
0.12411242 0.12361784 0.98907617
0.24794458 0.12385024 0.98934208
0.37185345 0.12416700 0.98968470
0.49583163 0.12456026 0.99009663
0.61987171 0.12502215 0.99057046
0.74396628 0.12554482 0.99109878
0.86810793 0.12612042 0.99167418
0.99228925 0.12674107 0.99228925
0.00129703 0.24786798 0.98982703
0.12529861 0.24828713 0.99026236
0.24935938 0.24877206 0.99075688
0.37347195 0.24931491 0.99130320
0.49762890 0.24990782 0.99189390
0.62182282 0.25054293 0.99252157
0.74604631 0.25121238 0.99317881
0.87029195 0.25190831 0.99385820
0.99455233 0.25262287 0.99455233
0.00298351 0.37309164 0.99151351
0.12715477 0.37370082 0.99211852
0.25136032 0.37434934 0.99275782
0.37559272 0.37502934 0.99342397
0.49984459 0.37573296 0.99410959
0.62410849 0.37645235 0.99480724
0.74837704 0.37717964 0.99550954
0.87264281 0.37790697 0.99620906
0.99689839 0.37862649 0.99689839
0.00514172 0.49884944 0.99367172
0.12939882 0.49955971 0.99436257
0.25366528 0.50028288 0.99506278
0.37793367 0.50101109 0.99576492
0.50219659 0.50173649 0.99646159
0.62644662 0.50245121 0.99714537
0.75067637 0.50314740 0.99780887
0.87487841 0.50381719 0.99844466
0.99904534 0.50445273 0.99904534
0.00748957 0.62484217 0.99601957
0.13174866 0.62556459 0.99671241
0.25599217 0.62627348 0.99738967
0.38021268 0.62696096 0.99804393
0.50440280 0.62761920 0.99866780
0.62855511 0.62824031 0.99925386
0.75266219 0.62881646 0.99979469
0.87655357 0.62941681 1.00000000
1.00000000 0.63008556 1.00000000
0.00974497 0.75077065 0.99827497
0.13392218 0.75141628 0.99888593
0.25805888 0.75202194 0.99945638
0.38214767 0.75257976 0.99997892
0.50651647 0.75302724 1.00000000
0.63053369 0.75349283 1.00000000
0.75414330 0.75398024 1.00000000
0.87731039 0.75448904 1.00000000
1.00000000 0.75501881 1.00000000
0.01198528 0.87624455 1.00000000
0.13694345 0.87648798 1.00000000
0.26155535 0.87674188 1.00000000
0.38578610 0.87700580 1.00000000
0.50960080 0.87727930 1.00000000
0.63296453 0.87756196 1.00000000
0.75584231 0.87785337 1.00000000
0.87819895 0.87815309 1.00000000
1.00000000 0.87846060 1.00000000
0.01795465 0.99985995 1.00000000
0.14244090 0.99988961 1.00000000
0.26650269 0.99991661 1.00000000
0.39010508 0.99994053 1.00000000
0.51321308 0.99996096 1.00000000
0.63579166 0.99997750 1.00000000
0.75780576 0.99998976 1.00000000
0.87922016 0.99999740 1.00000000
1.00000000 1.00000000 1.00000000
