assets/luts/DB_Sodium_Cinema_Rec709_50.cube
TITLE "Sodium Cinema Rec709 50"
# Red changes fastest. Full-range normalized input.
LUT_3D_SIZE 5
DOMAIN_MIN 0 0 0
DOMAIN_MAX 1 1 1
0.00400000 0.00400000 0.00400000
0.23158926 0.00147448 0.00226031
0.46053810 0.00179050 0.00284197
0.69313388 0.00381675 0.00457939
0.92809706 0.00754665 0.00759893
0.00000000 0.23630833 0.00630404
0.23500183 0.24081898 0.00822894
0.47247243 0.24649833 0.01342005
0.71148352 0.25311429 0.01869838
0.95156372 0.26046309 0.02458793
0.01953369 0.48735971 0.02078104
0.25990446 0.49490487 0.02684776
0.50080881 0.50279312 0.03326704
0.74185889 0.51073670 0.03984227
0.98266685 0.51844786 0.04637685
0.05032506 0.74522611 0.04223633
0.29094857 0.75278120 0.04870730
0.53080092 0.75971133 0.05486943
0.76949425 0.76572877 0.06052613
1.00000000 0.77053309 0.08516027
0.07677844 0.99927656 0.06242155
0.32115068 1.00000000 0.07936564
0.55871689 1.00000000 0.10065417
0.78625845 1.00000000 0.12440931
1.00000000 0.99784271 0.17892863
0.00194497 0.00296437 0.23495891
0.22975403 0.00152603 0.23413362
0.46057313 0.00226973 0.23491604
0.69401640 0.00490681 0.23711091
0.92969534 0.00914982 0.24052114
0.00032803 0.23792080 0.23822211
0.23695998 0.24190941 0.24136807
0.47565967 0.24816570 0.24639061
0.71425014 0.25554189 0.25227873
0.95460297 0.26307506 0.25833437
0.02241480 0.48986575 0.25442959
0.26300751 0.49755967 0.26063570
0.50390332 0.50534629 0.26653176
0.74502300 0.51339272 0.27370823
0.98565646 0.52096269 0.28019191
0.05343831 0.74784407 0.27609633
0.29384342 0.75521919 0.28248446
0.53334566 0.76187164 0.28849699
0.77155716 0.76751366 0.29393732
1.00000000 0.77244487 0.31661229
0.08107970 1.00000000 0.29745383
0.32607355 1.00000000 0.31243916
0.56214190 1.00000000 0.32942110
0.78786703 1.00000000 0.34838505
1.00000000 0.99832697 0.39128139
0.00028199 0.00221353 0.46612583
0.22915655 0.00154858 0.46586848
0.46091076 0.00296735 0.46715293
0.69515676 0.00618208 0.46978260
0.93150672 0.01090502 0.47356086
0.00172835 0.23938209 0.47103551
0.23874797 0.24458263 0.47518319
0.47734308 0.25089846 0.48021161
0.71712407 0.25804307 0.48592298
0.95770485 0.26572741 0.49212202
0.02538698 0.49243328 0.48813378
0.26616184 0.50024277 0.49446149
0.50633076 0.50715567 0.50117509
0.74861689 0.51548564 0.50747206
0.98855825 0.52340624 0.51397189
0.05649216 0.75041188 0.50993569
0.29663414 0.75757384 0.51621831
0.53573787 0.76391547 0.52205703
0.77317467 0.76903596 0.52681349
1.00000000 0.77446242 0.54436924
0.08733540 1.00000000 0.53157955
0.33109924 1.00000000 0.54240909
0.56561570 1.00000000 0.55476033
0.78947330 1.00000000 0.56860038
1.00000000 0.99885103 0.59898969
0.00000000 0.00263165 0.68566623
0.22889184 0.00181115 0.69778164
0.46153577 0.00387210 0.69954498
0.69653978 0.00763130 0.70258676
0.93351602 0.01280097 0.70671037
0.00335462 0.24100526 0.70397313
0.24095258 0.24661698 0.70844178
0.47999372 0.25324667 0.71372408
0.72009020 0.26060655 0.71962342
0.96085417 0.26840887 0.72594320
0.02843506 0.49505102 0.72188590
0.26934573 0.50294297 0.72830993
0.51039480 0.51088480 0.73488631
0.75119483 0.51858838 0.74141884
0.99135695 0.52576728 0.74770912
0.05947142 0.75291825 0.74374670
0.29930554 0.75983388 0.74990114
0.53797261 0.76583135 0.75554671
0.77353616 0.76982408 0.76139457
1.00000000 0.77627123 0.76841520
0.09374935 1.00000000 0.76275747
0.33622763 1.00000000 0.76911162
0.56913941 1.00000000 0.77650453
0.79107839 1.00000000 0.78488376
1.00000000 0.99942926 0.80150215
0.00000000 0.00325162 0.90623220
0.22894406 0.00230276 0.92986491
0.46243297 0.00497272 0.93208447
0.69815025 0.00924319 0.93551569
0.93570805 0.01482641 0.93996197
0.00519207 0.24277902 0.93702726
0.24332363 0.24876872 0.94179428
0.48276666 0.25567865 0.94730817
0.72313332 0.26322105 0.95337234
0.96403574 0.27110817 0.95979018
0.03154383 0.49770771 0.95567825
0.27254500 0.50564888 0.96217604
0.51355290 0.51354224 0.96875930
0.75417966 0.52110004 0.97523145
0.99403745 0.52803451 0.98139588
0.06236090 0.75535193 0.97752167
0.30184243 0.76198802 0.98352525
0.54002593 0.76760827 0.98895292
0.77652350 0.77192488 0.99360821
1.00000000 0.77882206 0.98820197
0.10032081 1.00000000 0.99082570
0.34145911 1.00000000 0.99238157
0.57271465 1.00000000 0.99448480
0.79268912 1.00000000 0.99706305
1.00000000 1.00000000 1.00000000
