assets/luts/DB_Sports_Field_Day_Rec709_50.cube
TITLE "Sports Field Day Rec709 50"
# Red changes fastest. Full-range normalized input.
LUT_3D_SIZE 5
DOMAIN_MIN 0 0 0
DOMAIN_MAX 1 1 1
0.00000000 0.00000000 0.00000000
0.22887697 0.00001178 0.00000000
0.46493744 0.00004822 0.00000000
0.70731113 0.00010516 0.00000000
0.95513817 0.00017988 0.00000000
0.00017399 0.23697973 0.00000000
0.24001695 0.23994879 0.00000000
0.48512054 0.24266127 0.00000000
0.73459539 0.24508888 0.00000000
0.98759406 0.24723479 0.00000000
0.00058642 0.49136615 0.00000000
0.24812542 0.49534944 0.00000000
0.49897323 0.49876119 0.00000000
0.75227437 0.50159622 0.00000000
1.00000000 0.50501944 0.00953224
0.00099494 0.75335305 0.00000000
0.25293211 0.75638329 0.00000000
0.50625225 0.75854159 0.00000000
0.76010156 0.75982230 0.00000000
1.00000000 0.76016543 0.04066172
0.03410223 1.00000000 0.03309618
0.28381465 1.00000000 0.04408705
0.52863303 1.00000000 0.05627754
0.76768426 1.00000000 0.06966832
1.00000000 0.99990467 0.08548487
0.00000048 0.00000000 0.22636260
0.23019303 0.00000000 0.23016368
0.46745459 0.00000000 0.23365097
0.71091137 0.00000000 0.23682719
0.95968928 0.00000000 0.23969588
0.00000000 0.23807743 0.23792095
0.24093683 0.24085888 0.24062500
0.49957334 0.24004886 0.23968403
0.75981020 0.23964678 0.23915648
1.00000000 0.24524311 0.24468638
0.00000000 0.49299225 0.24594073
0.24020158 0.49998973 0.23936150
0.50072434 0.50049149 0.24017683
0.76140331 0.50114135 0.24034712
1.00000000 0.50628436 0.25878416
0.00000000 0.75484127 0.25067108
0.24198577 0.76169604 0.24082685
0.50196163 0.76166541 0.24077673
0.76134817 0.76105655 0.24018168
1.00000000 0.76114128 0.28319313
0.03767714 1.00000000 0.27733645
0.28678681 1.00000000 0.28590374
0.53080470 1.00000000 0.29538005
0.76885783 1.00000000 0.30576569
1.00000000 0.99992663 0.31800338
0.00000191 0.00000000 0.45538330
0.23142880 0.00000000 0.46280042
0.46972680 0.00000000 0.46961360
0.71402202 0.00000000 0.47582587
0.96344029 0.00000000 0.48144103
0.00000000 0.23907144 0.47802026
0.24059705 0.24049187 0.50017627
0.49991512 0.23977553 0.49935489
0.75984167 0.23966631 0.49914025
1.00000000 0.24623391 0.49683727
0.00000000 0.49431699 0.49380642
0.24038238 0.50016114 0.49949846
0.50083156 0.50062367 0.50000000
0.76106982 0.50140732 0.50062842
1.00000000 0.50761770 0.50683901
0.00000000 0.75583208 0.50300908
0.24203203 0.76173896 0.50085975
0.50182989 0.76153211 0.50064608
0.76090751 0.76062963 0.50017983
1.00000000 0.76215173 0.52386157
0.04138494 1.00000000 0.51985748
0.28985825 1.00000000 0.52580374
0.53304208 1.00000000 0.53236830
0.77006357 1.00000000 0.53955107
1.00000000 0.99994986 0.54799557
0.00000427 0.00000000 0.68696151
0.23263186 0.00000000 0.69779727
0.47193263 0.00000000 0.70773907
0.71703258 0.00000000 0.71679021
0.96705748 0.00000000 0.72495472
0.00000000 0.24003113 0.72002242
0.24028580 0.24016893 0.75981832
0.49983164 0.23967955 0.75922327
0.75992161 0.23973449 0.75917315
1.00000000 0.24732657 0.74835657
0.00000000 0.49557415 0.74290735
0.24058287 0.50035156 0.75965765
0.50121407 0.50095539 0.76017927
0.76175866 0.50147934 0.76063947
1.00000000 0.50901949 0.75359588
0.00000000 0.75672210 0.75591401
0.24202459 0.76172932 0.76084353
0.50162083 0.76132607 0.76044284
0.76031050 0.76007663 0.75937500
1.00000000 0.76314631 0.76254538
0.04522560 1.00000000 0.76055868
0.29302896 1.00000000 0.76368641
0.53534517 1.00000000 0.76714159
0.77130131 1.00000000 0.77092358
1.00000000 0.99997508 0.77530685
0.00000754 0.00000000 0.92099661
0.23380218 0.00000000 0.93505369
0.47407202 0.00000000 0.94792687
0.71994300 0.00000000 0.95961972
0.97054079 0.00000000 0.97013649
0.00000000 0.24095657 0.96382629
0.24157464 0.24145260 1.00000000
0.49554258 0.24284879 1.00000000
0.74892393 0.24509232 1.00000000
1.00000000 0.24852112 0.99914315
0.00000000 0.49676380 0.99314223
0.24973557 0.49989839 1.00000000
0.50298518 0.50274026 1.00000000
0.75371217 0.50613210 1.00000000
1.00000000 0.51048977 0.99895387
0.01448343 0.75414336 1.00000000
0.26733018 0.75621405 1.00000000
0.51657702 0.75854155 1.00000000
0.76135649 0.76112424 1.00000000
1.00000000 0.76427836 0.99921030
0.04919911 1.00000000 0.99933945
0.29629892 1.00000000 0.99945110
0.53771398 1.00000000 0.99959923
0.77257167 1.00000000 0.99978293
1.00000000 1.00000000 1.00000000
