assets/luts/DB_Sports_Highlight_Reel_Rec709_50.cube
TITLE "Sports Highlight Reel Rec709 50"
# Red changes fastest. Full-range normalized input.
LUT_3D_SIZE 33
DOMAIN_MIN 0 0 0
DOMAIN_MAX 1 1 1
0.00000000 0.00000000 0.00000000
0.02421273 0.00000000 0.00003455
0.04870957 0.00000000 0.00006311
0.07348771 0.00000000 0.00009055
0.09854609 0.00000000 0.00012359
0.12388383 0.00000000 0.00016593
0.14949812 0.00000000 0.00021575
0.17538351 0.00000000 0.00026776
0.20153335 0.00000000 0.00031705
0.22794166 0.00000000 0.00036135
0.25460395 0.00000000 0.00040077
0.28151675 0.00000000 0.00043648
0.30867688 0.00000000 0.00046956
0.33608099 0.00000000 0.00050066
0.36372544 0.00000000 0.00053005
0.39160648 0.00000000 0.00055778
0.41972025 0.00000000 0.00058384
0.44806289 0.00000000 0.00060821
0.47663051 0.00000000 0.00063084
0.50541924 0.00000000 0.00065170
0.53442518 0.00000000 0.00067076
0.56364446 0.00000000 0.00068799
0.59307318 0.00000000 0.00070335
0.62270746 0.00000000 0.00071684
0.65254341 0.00000000 0.00072843
0.68257714 0.00000000 0.00073810
0.71280477 0.00000000 0.00074583
0.74322239 0.00000000 0.00075163
0.77382612 0.00000000 0.00075547
0.80461207 0.00000000 0.00075736
0.83557634 0.00000000 0.00075728
0.86671503 0.00000000 0.00075525
0.89802426 0.00000000 0.00075127
0.00000000 0.02453244 0.00030007
0.02453434 0.02474842 0.00000000
0.04962245 0.02484785 0.00000000
0.07494874 0.02495561 0.00000000
0.10053676 0.02506712 0.00000000
0.12641923 0.02517474 0.00000000
0.15261160 0.02527351 0.00000000
0.17910031 0.02536407 0.00000000
0.20585497 0.02545073 0.00000000
0.23284820 0.02553775 0.00000000
0.26006599 0.02562721 0.00000000
0.28750568 0.02571923 0.00000000
0.31516905 0.02581307 0.00000000
0.34305721 0.02590799 0.00000000
0.37116911 0.02600357 0.00000000
0.39950202 0.02609965 0.00000000
0.42805237 0.02619620 0.00000000
0.45681628 0.02629323 0.00000000
0.48578978 0.02639076 0.00000000
0.51496889 0.02648882 0.00000000
0.54434965 0.02658743 0.00000000
0.57392808 0.02668662 0.00000000
0.60370023 0.02678640 0.00000000
0.63366216 0.02688678 0.00000000
0.66380993 0.02698779 0.00000000
0.69413963 0.02708942 0.00000000
0.72464733 0.02719168 0.00000000
0.75532913 0.02729458 0.00000000
0.78618113 0.02739811 0.00000000
0.81719945 0.02750228 0.00000000
0.84838021 0.02760707 0.00000000
0.87971953 0.02771249 0.00000000
0.91121355 0.02781852 0.00000000
0.00000000 0.04999806 0.00061175
0.02470623 0.05045886 0.00000000
0.05029218 0.05066802 0.00000000
0.07609480 0.05088567 0.00000000
0.10211474 0.05111635 0.00000000
0.12838081 0.05135715 0.00000000
0.15492960 0.05159955 0.00000000
0.18177609 0.05183577 0.00000000
0.20890446 0.05206303 0.00000000
0.23628393 0.05228301 0.00000000
0.26388893 0.05249881 0.00000000
0.29170747 0.05271278 0.00000000
0.31973761 0.05292596 0.00000000
0.34798064 0.05313857 0.00000000
0.37643681 0.05335049 0.00000000
0.40510440 0.05356165 0.00000000
0.43398037 0.05377201 0.00000000
0.46306103 0.05398157 0.00000000
0.49234250 0.05419035 0.00000000
0.52182081 0.05439837 0.00000000
0.55149202 0.05460564 0.00000000
0.58135218 0.05481219 0.00000000
0.61139737 0.05501802 0.00000000
0.64162366 0.05522314 0.00000000
0.67202712 0.05542756 0.00000000
0.70260386 0.05563129 0.00000000
0.73334997 0.05583431 0.00000000
0.76426157 0.05603664 0.00000000
0.79533477 0.05623826 0.00000000
0.82656571 0.05643917 0.00000000
0.85795052 0.05663937 0.00000000
0.88948534 0.05683883 0.00000000
0.92116634 0.05703754 0.00000000
0.00000000 0.07635561 0.00093626
0.02483025 0.07706668 0.00000000
0.05089104 0.07738267 0.00000000
0.07717379 0.07769797 0.00000000
0.10365634 0.07802432 0.00000000
0.13034187 0.07836943 0.00000000
0.15726055 0.07873123 0.00000000
0.18444655 0.07909940 0.00000000
0.21191111 0.07946270 0.00000000
0.23963802 0.07981495 0.00000000
0.26760009 0.08015567 0.00000000
0.29577639 0.08048754 0.00000000
0.32415746 0.08081363 0.00000000
0.35274135 0.08113600 0.00000000
0.38152801 0.08145570 0.00000000
0.41051638 0.08177311 0.00000000
0.43970394 0.08208839 0.00000000
0.46908729 0.08240158 0.00000000
0.49866264 0.08271269 0.00000000
0.52842609 0.08302174 0.00000000
0.55837372 0.08332875 0.00000000
0.58850160 0.08363373 0.00000000
0.61880581 0.08393667 0.00000000
0.64928246 0.08423759 0.00000000
0.67992763 0.08453648 0.00000000
0.71073744 0.08483334 0.00000000
0.74170801 0.08512818 0.00000000
0.77283546 0.08542097 0.00000000
0.80411593 0.08571172 0.00000000
0.83554557 0.08600042 0.00000000
0.86712052 0.08628704 0.00000000
0.89883694 0.08657157 0.00000000
0.93069100 0.08685400 0.00000000
0.00000000 0.10356280 0.00124981
0.02492869 0.10452145 0.00000000
0.05141888 0.10495096 0.00000000
0.07814451 0.10536962 0.00000000
0.10507880 0.10578821 0.00000000
0.13220445 0.10622013 0.00000000
0.15952764 0.10667336 0.00000000
0.18707495 0.10714484 0.00000000
0.21487179 0.10762278 0.00000000
0.24292317 0.10809454 0.00000000
0.27121402 0.10855291 0.00000000
0.29972331 0.10899702 0.00000000
0.32843585 0.10942971 0.00000000
0.35734463 0.10985442 0.00000000
0.38644726 0.11027363 0.00000000
0.41574222 0.11068865 0.00000000
0.44522722 0.11110004 0.00000000
0.47489908 0.11150798 0.00000000
0.50475416 0.11191253 0.00000000
0.53478859 0.11231373 0.00000000
0.56499850 0.11271157 0.00000000
0.59537997 0.11310606 0.00000000
0.62592910 0.11349721 0.00000000
0.65664200 0.11388501 0.00000000
0.68751480 0.11426945 0.00000000
0.71854361 0.11465054 0.00000000
0.74972458 0.11502826 0.00000000
0.78105384 0.11540260 0.00000000
0.81252754 0.11577355 0.00000000
0.84414185 0.11614109 0.00000000
0.87589293 0.11650520 0.00000000
0.90777694 0.11686587 0.00000000
0.93979008 0.11722307 0.00000000
0.00000000 0.13157539 0.00152821
0.02504248 0.13276209 0.00000000
0.05192592 0.13330687 0.00000000
0.07904843 0.13383684 0.00000000
0.10639165 0.13435712 0.00000000
0.13393537 0.13487835 0.00000000
0.16166938 0.13541212 0.00000000
0.18960088 0.13596380 0.00000000
0.21774831 0.13652889 0.00000000
0.24612554 0.13709621 0.00000000
0.27473170 0.13765497 0.00000000
0.30355428 0.13819956 0.00000000
0.33257881 0.13872987 0.00000000
0.36179528 0.13924871 0.00000000
0.39119846 0.13975910 0.00000000
0.42078542 0.14026313 0.00000000
0.45055352 0.14076186 0.00000000
0.48049962 0.14125572 0.00000000
0.51062016 0.14174487 0.00000000
0.54091133 0.14222934 0.00000000
0.57136928 0.14270915 0.00000000
0.60199012 0.14318428 0.00000000
0.63276996 0.14365475 0.00000000
0.66370494 0.14412055 0.00000000
0.69479118 0.14458166 0.00000000
0.72602484 0.14503807 0.00000000
0.75740205 0.14548978 0.00000000
0.78891897 0.14593676 0.00000000
0.82057178 0.14637901 0.00000000
0.85235664 0.14681649 0.00000000
0.88426973 0.14724919 0.00000000
0.91630723 0.14767708 0.00000000
0.94846535 0.14810014 0.00000000
0.00000000 0.16034866 0.00176118
0.02519479 0.16173348 0.00000000
0.05245430 0.16238531 0.00000000
0.07994539 0.16302375 0.00000000
0.10765869 0.16364948 0.00000000
0.13558061 0.16426735 0.00000000
0.16369846 0.16488560 0.00000000
0.19200738 0.16551179 0.00000000
0.22051244 0.16614805 0.00000000
0.24922270 0.16678966 0.00000000
0.27814246 0.16742825 0.00000000
0.30726755 0.16805675 0.00000000
0.33658866 0.16867212 0.00000000
0.36609654 0.16927497 0.00000000
0.39578464 0.16986748 0.00000000
0.42564870 0.17045174 0.00000000
0.45568537 0.17102904 0.00000000
0.48589131 0.17160003 0.00000000
0.51626295 0.17216494 0.00000000
0.54679652 0.17272384 0.00000000
0.57748819 0.17327676 0.00000000
0.60833409 0.17382370 0.00000000
0.63933036 0.17436464 0.00000000
0.67047313 0.17489957 0.00000000
0.70175855 0.17542848 0.00000000
0.73318279 0.17595136 0.00000000
0.76474201 0.17646818 0.00000000
0.79643237 0.17697894 0.00000000
0.82825006 0.17748360 0.00000000
0.86019127 0.17798214 0.00000000
0.89225217 0.17847454 0.00000000
0.92442897 0.17896077 0.00000000
0.95671788 0.17944080 0.00000000
0.00000000 0.18983852 0.00194832
0.02538795 0.19139002 0.00000000
0.05301546 0.19213576 0.00000000
0.08086283 0.19287053 0.00000000
0.10892512 0.19359358 0.00000000
0.13719487 0.19430598 0.00000000
0.16566315 0.19501125 0.00000000
0.19432264 0.19571435 0.00000000
0.22317058 0.19641900 0.00000000
0.25220842 0.19712530 0.00000000
0.28143811 0.19782966 0.00000000
0.31085846 0.19852716 0.00000000
0.34046449 0.19921427 0.00000000
0.37024958 0.19988986 0.00000000
0.40020765 0.20055467 0.00000000
0.43033393 0.20121003 0.00000000
0.46062452 0.20185703 0.00000000
0.49107579 0.20249633 0.00000000
0.52168409 0.20312819 0.00000000
0.55244564 0.20375272 0.00000000
0.58335663 0.20436993 0.00000000
0.61441321 0.20497984 0.00000000
0.64561152 0.20558241 0.00000000
0.67694772 0.20617765 0.00000000
0.70841799 0.20676552 0.00000000
0.74001848 0.20734602 0.00000000
0.77174538 0.20791912 0.00000000
0.80359487 0.20848480 0.00000000
0.83556314 0.20904302 0.00000000
0.86764639 0.20959377 0.00000000
0.89984083 0.21013702 0.00000000
0.93214266 0.21067273 0.00000000
0.96454810 0.21120087 0.00000000
0.00000000 0.22000129 0.00209110
0.02561707 0.22169011 0.00000000
0.05360373 0.22251714 0.00000000
0.08179906 0.22333422 0.00000000
0.11019922 0.22414077 0.00000000
0.13879949 0.22493664 0.00000000
0.16759421 0.22572269 0.00000000
0.19657748 0.22650092 0.00000000
0.22574455 0.22727365 0.00000000
0.25509267 0.22804223 0.00000000
0.28462032 0.22880611 0.00000000
0.31432562 0.22956326 0.00000000
0.34420519 0.23031144 0.00000000
0.37425438 0.23104927 0.00000000
0.40446821 0.23177655 0.00000000
0.43484211 0.23249375 0.00000000
0.46537198 0.23320152 0.00000000
0.49605401 0.23390029 0.00000000
0.52688444 0.23459030 0.00000000
0.55785948 0.23527165 0.00000000
0.58897531 0.23594437 0.00000000
0.62022809 0.23660843 0.00000000
0.65161400 0.23726384 0.00000000
0.68312921 0.23791056 0.00000000
0.71476989 0.23854859 0.00000000
0.74653223 0.23917788 0.00000000
0.77841241 0.23979843 0.00000000
0.81040664 0.24041021 0.00000000
0.84251112 0.24101317 0.00000000
0.87472205 0.24160730 0.00000000
0.90703566 0.24219255 0.00000000
0.93944816 0.24276890 0.00000000
0.97195578 0.24333631 0.00000000
0.00000000 0.25079326 0.00218993
0.02587864 0.25259177 0.00000000
0.05421235 0.25348950 0.00000000
0.08274487 0.25437693 0.00000000
0.11147237 0.25525385 0.00000000
0.14039084 0.25612006 0.00000000
0.16949596 0.25697561 0.00000000
0.19878316 0.25782100 0.00000000
0.22824795 0.25865710 0.00000000
0.25788638 0.25948476 0.00000000
0.28769514 0.26030429 0.00000000
0.31767115 0.26111526 0.00000000
0.34781102 0.26191679 0.00000000
0.37811084 0.26270808 0.00000000
0.40856639 0.26348871 0.00000000
0.43917347 0.26425872 0.00000000
0.46992803 0.26501833 0.00000000
0.50082621 0.26576776 0.00000000
0.53186419 0.26650714 0.00000000
0.56303814 0.26723653 0.00000000
0.59434427 0.26795596 0.00000000
0.62577874 0.26866541 0.00000000
0.65733774 0.26936485 0.00000000
0.68901744 0.27005428 0.00000000
0.72081404 0.27073365 0.00000000
0.75272375 0.27140296 0.00000000
0.78474275 0.27206215 0.00000000
0.81686726 0.27271121 0.00000000
0.84909349 0.27335011 0.00000000
0.88141767 0.27397880 0.00000000
0.91383602 0.27459725 0.00000000
0.94634477 0.27520543 0.00000000
0.97894016 0.27580329 0.00000000
0.00000000 0.28217056 0.00224444
0.02617135 0.28405178 0.00000000
0.05483799 0.28501094 0.00000000
0.08369430 0.28595880 0.00000000
0.11273635 0.28689532 0.00000000
0.14196023 0.28782042 0.00000000
0.17136196 0.28873407 0.00000000
0.20093748 0.28963633 0.00000000
0.23068269 0.29052741 0.00000000
0.26059360 0.29140761 0.00000000
0.29066636 0.29227715 0.00000000
0.32089731 0.29313607 0.00000000
0.35128277 0.29398415 0.00000000
0.38181894 0.29482110 0.00000000
0.41250189 0.29564667 0.00000000
0.44332767 0.29646078 0.00000000
0.47429234 0.29726346 0.00000000
0.50539203 0.29805476 0.00000000
0.53662291 0.29883474 0.00000000
0.56798117 0.29960343 0.00000000
0.59946298 0.30036081 0.00000000
0.63106454 0.30110687 0.00000000
0.66278204 0.30184159 0.00000000
0.69461167 0.30256494 0.00000000
0.72654965 0.30327689 0.00000000
0.75859217 0.30397741 0.00000000
0.79073546 0.30466647 0.00000000
0.82297573 0.30534404 0.00000000
0.85530921 0.30601007 0.00000000
0.88773213 0.30666453 0.00000000
0.92024073 0.30730739 0.00000000
0.95283124 0.30793860 0.00000000
0.98549993 0.30855811 0.00000000
0.00000000 0.31408918 0.00225447
0.02649459 0.31602642 0.00000000
0.05547933 0.31703822 0.00000000
0.08464481 0.31803752 0.00000000
0.11398709 0.31902432 0.00000000
0.14350227 0.31999860 0.00000000
0.17318642 0.32096034 0.00000000
0.20303563 0.32190956 0.00000000
0.23304595 0.32284626 0.00000000
0.26321347 0.32377053 0.00000000
0.29353429 0.32468242 0.00000000
0.32400457 0.32558199 0.00000000
0.35462051 0.32646921 0.00000000
0.38537828 0.32734399 0.00000000
0.41627402 0.32820626 0.00000000
0.44730388 0.32905595 0.00000000
0.47846399 0.32989302 0.00000000
0.50975051 0.33071748 0.00000000
0.54115961 0.33152933 0.00000000
0.57268749 0.33232856 0.00000000
0.60433032 0.33311515 0.00000000
0.63608432 0.33388908 0.00000000
0.66794569 0.33465032 0.00000000
0.69991064 0.33539884 0.00000000
0.73197537 0.33613460 0.00000000
0.76413612 0.33685758 0.00000000
0.79638910 0.33756774 0.00000000
0.82873055 0.33826504 0.00000000
0.86115671 0.33894944 0.00000000
0.89366381 0.33962091 0.00000000
0.92624810 0.34027939 0.00000000
0.95890583 0.34092484 0.00000000
0.99163326 0.34155723 0.00000000
0.00000000 0.34650502 0.00222030
0.02684754 0.34847187 0.00000000
0.05613533 0.34952767 0.00000000
0.08559501 0.35056972 0.00000000
0.11522264 0.35159801 0.00000000
0.14501433 0.35261253 0.00000000
0.17496619 0.35361330 0.00000000
0.20507432 0.35460030 0.00000000
0.23533483 0.35557353 0.00000000
0.26574385 0.35653299 0.00000000
0.29629751 0.35747869 0.00000000
0.32699195 0.35841064 0.00000000
0.35782332 0.35932882 0.00000000
0.38878781 0.36023322 0.00000000
0.41988156 0.36112379 0.00000000
0.45110076 0.36200051 0.00000000
0.48244157 0.36286335 0.00000000
0.51390018 0.36371228 0.00000000
0.54547277 0.36454728 0.00000000
0.57715553 0.36536832 0.00000000
0.60894468 0.36617539 0.00000000
0.64083642 0.36696845 0.00000000
0.67282697 0.36774748 0.00000000
0.70491255 0.36851243 0.00000000
0.73708938 0.36926327 0.00000000
0.76935369 0.36999996 0.00000000
0.80170173 0.37072247 0.00000000
0.83412973 0.37143075 0.00000000
0.86663393 0.37212476 0.00000000
0.89921060 0.37280446 0.00000000
0.93185597 0.37346981 0.00000000
0.96456633 0.37412075 0.00000000
0.99733792 0.37475724 0.00000000
0.00000000 0.37937391 0.00214287
0.02722889 0.38134445 0.00000000
0.05680462 0.38243565 0.00000000
0.08654340 0.38351181 0.00000000
0.11644134 0.38457294 0.00000000
0.14649455 0.38561903 0.00000000
0.17669915 0.38665009 0.00000000
0.20705126 0.38766609 0.00000000
0.23754702 0.38866704 0.00000000
0.26818257 0.38965292 0.00000000
0.29895407 0.39062372 0.00000000
0.32985767 0.39157943 0.00000000
0.36088953 0.39252004 0.00000000
0.39204583 0.39344551 0.00000000
0.42332274 0.39435584 0.00000000
0.45471646 0.39525099 0.00000000
0.48622317 0.39613093 0.00000000
0.51783907 0.39699565 0.00000000
0.54956035 0.39784510 0.00000000
0.58138324 0.39867925 0.00000000
0.61330394 0.39949809 0.00000000
0.64531867 0.40030156 0.00000000
0.67742367 0.40108964 0.00000000
0.70961516 0.40186230 0.00000000
0.74188937 0.40261948 0.00000000
0.77424256 0.40336115 0.00000000
0.80667096 0.40408727 0.00000000
0.83917082 0.40479779 0.00000000
0.87173841 0.40549267 0.00000000
0.90436998 0.40617187 0.00000000
0.93706179 0.40683533 0.00000000
0.96981011 0.40748301 0.00000000
1.00000000 0.40862290 0.00265645
0.00000000 0.41265161 0.00202365
0.02763679 0.41460064 0.00000000
0.05748530 0.41571863 0.00000000
0.08748807 0.41682030 0.00000000
0.11764122 0.41790565 0.00000000
0.14794087 0.41897468 0.00000000
0.17838316 0.42002738 0.00000000
0.20896424 0.42106373 0.00000000
0.23968024 0.42208372 0.00000000
0.27052735 0.42308734 0.00000000
0.30150171 0.42407456 0.00000000
0.33259950 0.42504537 0.00000000
0.36381690 0.42599975 0.00000000
0.39515010 0.42693767 0.00000000
0.42659528 0.42785911 0.00000000
0.45814864 0.42876403 0.00000000
0.48980640 0.42965242 0.00000000
0.52156475 0.43052423 0.00000000
0.55341991 0.43137944 0.00000000
0.58536810 0.43221801 0.00000000
0.61740555 0.43303991 0.00000000
0.64952850 0.43384509 0.00000000
0.68173317 0.43463352 0.00000000
0.71401580 0.43540516 0.00000000
0.74637265 0.43615996 0.00000000
0.77879996 0.43689789 0.00000000
0.81129400 0.43761890 0.00000000
0.84385101 0.43832293 0.00000000
0.87646726 0.43900996 0.00000000
0.90913902 0.43967992 0.00000000
0.94186257 0.44033277 0.00000000
0.97463417 0.44096845 0.00000000
1.00000000 0.44296470 0.00828953
0.00000000 0.44629385 0.00186469
0.02806888 0.44819706 0.00000000
0.05817500 0.44933324 0.00000000
0.08842661 0.45045182 0.00000000
0.11881983 0.45155280 0.00000000
0.14935082 0.45263615 0.00000000
0.18001573 0.45370186 0.00000000
0.21081071 0.45474993 0.00000000
0.24173193 0.45578032 0.00000000
0.27277556 0.45679303 0.00000000
0.30393779 0.45778802 0.00000000
0.33521479 0.45876528 0.00000000
0.36660277 0.45972478 0.00000000
0.39809792 0.46066649 0.00000000
0.42969644 0.46159038 0.00000000
0.46139455 0.46249641 0.00000000
0.49318846 0.46338457 0.00000000
0.52507438 0.46425481 0.00000000
0.55704856 0.46510709 0.00000000
0.58910721 0.46594139 0.00000000
0.62124658 0.46675765 0.00000000
0.65346291 0.46755584 0.00000000
0.68575244 0.46833592 0.00000000
0.71811143 0.46909784 0.00000000
0.75053613 0.46984156 0.00000000
0.78302279 0.47056704 0.00000000
0.81556769 0.47127422 0.00000000
0.84816709 0.47196305 0.00000000
0.88081725 0.47263350 0.00000000
0.91351447 0.47328550 0.00000000
0.94625501 0.47391902 0.00000000
0.97903515 0.47453398 0.00000000
1.00000000 0.47719685 0.01442656
0.00000000 0.48025629 0.00166852
0.02852236 0.48209046 0.00000000
0.05887089 0.48323625 0.00000000
0.08935616 0.48436315 0.00000000
0.11997431 0.48547114 0.00000000
0.15072151 0.48656021 0.00000000
0.18159392 0.48763033 0.00000000
0.21258772 0.48868149 0.00000000
0.24369908 0.48971367 0.00000000
0.27492421 0.49072683 0.00000000
0.30625928 0.49172096 0.00000000
0.33770049 0.49269602 0.00000000
0.36924406 0.49365199 0.00000000
0.40088619 0.49458883 0.00000000
0.43262311 0.49550651 0.00000000
0.46445102 0.49640500 0.00000000
0.49636616 0.49728426 0.00000000
0.52836476 0.49814425 0.00000000
0.56044306 0.49898493 0.00000000
0.59259730 0.49980627 0.00000000
0.62482372 0.50060822 0.00000000
0.65711858 0.50139073 0.00000000
0.68947814 0.50215376 0.00000000
0.72189865 0.50289727 0.00000000
0.75437637 0.50362121 0.00000000
0.78690758 0.50432553 0.00000000
0.81948854 0.50501019 0.00000000
0.85211553 0.50567512 0.00000000
0.88478483 0.50632028 0.00000000
0.91749273 0.50694561 0.00000000
0.95023549 0.50755107 0.00000000
0.98300942 0.50813660 0.00000000
1.00000000 0.51127498 0.02107042
0.00000000 0.51449453 0.00143816
0.02899401 0.51623771 0.00000000
0.05956973 0.51738454 0.00000000
0.09027346 0.51851117 0.00000000
0.12110137 0.51961759 0.00000000
0.15204962 0.52070377 0.00000000
0.18311442 0.52176970 0.00000000
0.21429193 0.52281534 0.00000000
0.24557836 0.52384067 0.00000000
0.27696991 0.52484567 0.00000000
0.30846278 0.52583030 0.00000000
0.34005318 0.52679453 0.00000000
0.37173733 0.52773832 0.00000000
0.40351145 0.52866165 0.00000000
0.43537178 0.52956448 0.00000000
0.46731454 0.53044676 0.00000000
0.49933597 0.53130846 0.00000000
0.53143232 0.53214954 0.00000000
0.56359983 0.53296995 0.00000000
0.59583475 0.53376966 0.00000000
0.62813334 0.53454861 0.00000000
0.66049186 0.53530676 0.00000000
0.69290657 0.53604407 0.00000000
0.72537375 0.53676048 0.00000000
0.75788965 0.53745595 0.00000000
0.79045057 0.53813042 0.00000000
0.82305277 0.53878385 0.00000000
0.85569254 0.53941617 0.00000000
0.88836616 0.54002735 0.00000000
0.92106993 0.54061731 0.00000000
0.95380013 0.54118602 0.00000000
0.98437500 0.54204290 0.00334765
1.00000000 0.54515476 0.02822354
0.00000000 0.54896417 0.00117706
0.02948021 0.55059582 0.00000000
0.06026789 0.55173511 0.00000000
0.09117488 0.55285289 0.00000000
0.12219736 0.55394914 0.00000000
0.15333152 0.55502385 0.00000000
0.18457355 0.55607697 0.00000000
0.21591966 0.55710848 0.00000000
0.24736606 0.55811836 0.00000000
0.27890895 0.55910657 0.00000000
0.31054455 0.56007307 0.00000000
0.34226910 0.56101784 0.00000000
0.37407881 0.56194082 0.00000000
0.40596992 0.56284200 0.00000000
0.43793867 0.56372132 0.00000000
0.46998130 0.56457874 0.00000000
0.50209406 0.56541423 0.00000000
0.53427320 0.56622774 0.00000000
0.56651499 0.56701922 0.00000000
0.59881567 0.56778862 0.00000000
0.63117152 0.56853591 0.00000000
0.66357880 0.56926103 0.00000000
0.69603378 0.56996393 0.00000000
0.72853275 0.57064456 0.00000000
0.76107198 0.57130287 0.00000000
0.79364774 0.57193881 0.00000000
0.82625634 0.57255232 0.00000000
0.85889404 0.57314335 0.00000000
0.89155716 0.57371185 0.00000000
0.92424197 0.57425775 0.00000000
0.95694478 0.57478100 0.00000000
0.98437500 0.57594909 0.00895511
1.00000000 0.57879192 0.03588789
0.00000000 0.58362072 0.00088907
0.02997702 0.58512187 0.00000000
0.06096142 0.58624505 0.00000000
0.09205645 0.58734540 0.00000000
0.12325831 0.58842290 0.00000000
0.15456320 0.58947753 0.00000000
0.18596733 0.59050925 0.00000000
0.21746691 0.59151804 0.00000000
0.24905816 0.59250384 0.00000000
0.28073730 0.59346665 0.00000000
0.31250057 0.59440640 0.00000000
0.34434421 0.59532307 0.00000000
0.37626444 0.59621662 0.00000000
0.40825751 0.59708700 0.00000000
0.44031968 0.59793417 0.00000000
0.47244720 0.59875809 0.00000000
0.50463631 0.59955871 0.00000000
0.53688329 0.60033599 0.00000000
0.56918441 0.60108988 0.00000000
0.60153592 0.60182033 0.00000000
0.63393410 0.60252728 0.00000000
0.66637523 0.60321069 0.00000000
0.69885559 0.60387052 0.00000000
0.73137145 0.60450669 0.00000000
0.76391912 0.60511917 0.00000000
0.79649486 0.60570789 0.00000000
0.82909498 0.60627280 0.00000000
0.86171577 0.60681385 0.00000000
0.89435353 0.60733097 0.00000000
0.92700454 0.60782411 0.00000000
0.95966513 0.60829322 0.00000000
0.98437500 0.60960048 0.01488757
1.00000000 0.61214224 0.04406493
0.00000000 0.61841969 0.00057839
0.03048018 0.61977306 0.00000000
0.06164607 0.62087154 0.00000000
0.09291393 0.62194589 0.00000000
0.12427997 0.62299605 0.00000000
0.15574041 0.62402202 0.00000000
0.18729148 0.62502374 0.00000000
0.21892939 0.62600118 0.00000000
0.25065038 0.62695432 0.00000000
0.28245069 0.62788310 0.00000000
0.31432655 0.62878748 0.00000000
0.34627421 0.62966743 0.00000000
0.37828992 0.63052291 0.00000000
0.41036993 0.63135386 0.00000000
0.44251051 0.63216025 0.00000000
0.47470790 0.63294202 0.00000000
0.50695839 0.63369912 0.00000000
0.53925824 0.63443152 0.00000000
0.57160373 0.63513916 0.00000000
0.60399112 0.63582198 0.00000000
0.63641671 0.63647994 0.00000000
0.66887676 0.63711298 0.00000000
0.70136758 0.63772105 0.00000000
0.73388545 0.63830410 0.00000000
0.76642665 0.63886206 0.00000000
0.79898749 0.63939489 0.00000000
0.83156427 0.63990252 0.00000000
0.86415327 0.64038490 0.00000000
0.89675080 0.64084197 0.00000000
0.92935317 0.64127367 0.00000000
0.96195668 0.64167994 0.00000000
0.98437500 0.64295658 0.02110954
1.00000000 0.64516153 0.05275559
0.00000000 0.65331653 0.00024954
0.03098519 0.65450664 0.00000000
0.06231731 0.65557186 0.00000000
0.09374278 0.65661162 0.00000000
0.12525781 0.65762586 0.00000000
0.15685864 0.65861457 0.00000000
0.18854149 0.65957769 0.00000000
0.22030260 0.66051519 0.00000000
0.25213822 0.66142704 0.00000000
0.28404459 0.66231318 0.00000000
0.31601796 0.66317358 0.00000000
0.34805458 0.66400819 0.00000000
0.38015072 0.66481696 0.00000000
0.41230264 0.66559984 0.00000000
0.44450661 0.66635680 0.00000000
0.47675890 0.66708778 0.00000000
0.50905577 0.66779272 0.00000000
0.54139352 0.66847159 0.00000000
0.57376841 0.66912432 0.00000000
0.60617674 0.66975086 0.00000000
0.63861479 0.67035116 0.00000000
0.67107884 0.67092516 0.00000000
0.70356520 0.67147282 0.00000000
0.73607016 0.67199406 0.00000000
0.76859001 0.67248884 0.00000000
0.80112106 0.67295709 0.00000000
0.83365960 0.67339876 0.00000000
0.86620194 0.67381380 0.00000000
0.89874438 0.67420213 0.00000000
0.93128323 0.67456370 0.00000000
