assets/luts/DB_Studio_Neutral_Rec709_50.cube
TITLE "Studio Neutral Rec709 50"
# Red changes fastest. Full-range normalized input.
LUT_3D_SIZE 9
DOMAIN_MIN 0 0 0
DOMAIN_MAX 1 1 1
0.00000000 0.00000000 0.00000000
0.12039156 0.00000000 0.00000000
0.24153800 0.00000000 0.00000000
0.36339694 0.00000000 0.00000000
0.48592601 0.00000000 0.00000000
0.60908284 0.00000000 0.00000000
0.73282504 0.00000000 0.00000000
0.85711025 0.00000000 0.00000000
0.98189610 0.00000000 0.00000000
0.00000000 0.12126108 0.00000000
0.12160512 0.12160512 0.00000000
0.24387009 0.12193504 0.00000000
0.36675253 0.12225084 0.00000000
0.49021006 0.12255252 0.00000000
0.61420032 0.12284006 0.00000000
0.73868092 0.12311349 0.00000000
0.86360950 0.12337279 0.00000000
0.98894368 0.12361796 0.00000000
0.00000000 0.24472461 0.00000000
0.12265884 0.24531767 0.00000000
0.24588248 0.24588248 0.00000000
0.36962857 0.24641905 0.00000000
0.49385472 0.24692736 0.00000000
0.61851856 0.24740742 0.00000000
0.74298605 0.24798605 0.00048605
0.86739235 0.24864235 0.00114235
0.99184447 0.24934447 0.00184447
0.00000000 0.36991106 0.00000000
0.12355270 0.37065811 0.00000000
0.24759657 0.37134669 0.00009633
0.37196916 0.37196916 0.00071848
0.49639317 0.37264313 0.00139303
0.62085970 0.37335970 0.00210970
0.74535980 0.37410980 0.00285980
0.86988442 0.37488442 0.00363442
0.99442457 0.37567457 0.00442457
0.00095900 0.49595900 0.00095900
0.12539956 0.49664956 0.00164956
0.24987937 0.49737937 0.00237937
0.37438945 0.49813945 0.00313945
0.49892076 0.49892076 0.00392076
0.62346432 0.49971432 0.00471432
0.74801110 0.50051110 0.00551110
0.87255211 0.50130211 0.00630211
0.99707832 0.50207832 0.00707832
0.00342191 0.62217191 0.00342191
0.12795873 0.62295873 0.00420873
0.25250450 0.62375450 0.00500450
0.37705022 0.62455022 0.00580022
0.50158689 0.62533689 0.00658689
0.62610548 0.62610548 0.00735548
0.75059700 0.62684700 0.00809700
0.87505243 0.62755243 0.00880243
0.99946277 0.62821277 0.00946277
0.00608814 0.74858814 0.00608814
0.13061927 0.74936927 0.00686927
0.25512905 0.75012905 0.00762905
0.37960847 0.75085847 0.00835847
0.50404853 0.75154853 0.00904853
0.62844022 0.75219022 0.00969022
0.75277452 0.75277452 0.01027452
0.87704243 0.75329243 0.01079243
1.00000000 0.75373002 0.01492008
0.00861473 0.87486473 0.00861473
0.13303822 0.87553822 0.00928822
0.25741006 0.87616006 0.00991006
0.38172123 0.87672123 0.01047123
0.50596273 0.87721273 0.01096273
0.63012556 0.87762556 0.01137556
0.75420069 0.87795069 0.01170069
0.87817913 0.87817913 0.01192913
1.00000000 0.87783715 0.02269716
0.01231288 1.00000000 0.01231288
0.13755399 1.00000000 0.01434741
0.26237120 1.00000000 0.01649494
0.38672216 1.00000000 0.01875546
0.51056449 1.00000000 0.02112898
0.63385581 1.00000000 0.02361550
0.75655375 1.00000000 0.02621501
0.87861594 1.00000000 0.02892752
1.00000000 1.00000000 0.03175303
0.00000000 0.00000000 0.12013456
0.12052133 0.00000000 0.12052133
0.24178794 0.00000000 0.12089397
0.36375745 0.00000000 0.12125248
0.48638751 0.00000000 0.12159688
0.60963572 0.00000000 0.12192714
0.73345972 0.00000000 0.12224329
0.85781713 0.00000000 0.12254530
0.98266559 0.00000000 0.12283320
0.00000000 0.12137950 0.12137950
0.12171875 0.12171875 0.12171875
0.24579951 0.12158170 0.12158170
0.36937921 0.12172993 0.12172993
0.49320368 0.12195064 0.12195064
0.61724101 0.12224100 0.12224100
0.74137181 0.12262181 0.12262181
0.86558469 0.12308469 0.12308469
0.98987064 0.12362064 0.12362064
0.00000000 0.24492919 0.12246459
0.12200897 0.24581026 0.12200897
0.24615538 0.24615538 0.12190947
0.37063111 0.24647416 0.12231722
0.49456850 0.24701182 0.12323348
0.61883255 0.24758204 0.12383188
0.74320323 0.24820323 0.12445323
0.86762610 0.24887610 0.12512610
0.99209173 0.24959173 0.12584173
0.00000000 0.37016951 0.12338984
0.12346788 0.37096834 0.12346788
0.24779438 0.37155575 0.12403302
0.37219961 0.37219961 0.12460364
0.49664818 0.37288099 0.12534662
0.62111202 0.37361098 0.12610993
0.74562057 0.37437056 0.12687056
0.87015147 0.37515147 0.12765147
0.99469483 0.37594483 0.12844483
0.00118856 0.49618856 0.12493856
0.12564345 0.49689345 0.12564345
0.25013455 0.49763456 0.12638454
0.37465278 0.49840291 0.12715254
0.49918939 0.49918939 0.12793871
0.62373504 0.49998500 0.12873489
0.74828083 0.50078083 0.12953083
0.87281782 0.50156782 0.13031782
0.99733697 0.50233697 0.13108697
0.00368755 0.62243755 0.12743755
0.12822842 0.62322842 0.12822842
0.25277519 0.62402519 0.12902519
0.37731884 0.62481884 0.12981884
0.50185038 0.62560038 0.13060038
0.62636079 0.62636079 0.13136079
0.75084107 0.62709107 0.13209107
0.87528219 0.62778219 0.13278219
0.99967517 0.62842517 0.13342517
0.00635525 0.74885525 0.13010525
0.13088014 0.74963014 0.13088014
0.25538062 0.75038062 0.13163062
0.37984769 0.75109769 0.13234769
0.50427233 0.75177233 0.13302233
0.62864553 0.75239553 0.13364553
0.75295830 0.75295830 0.13420830
0.87720161 0.75345161 0.13470161
1.00000000 0.75391179 0.13869126
0.00884868 0.87509868 0.13259868
0.13325564 0.87575564 0.13325564
0.25760789 0.87635789 0.13385789
0.38189641 0.87689641 0.13439641
0.50611220 0.87736220 0.13486220
0.63024626 0.87774626 0.13524626
0.75428957 0.87803957 0.13553957
0.87823311 0.87823311 0.13573311
1.00000000 0.87794417 0.14560916
0.01299115 1.00000000 0.13636725
0.13818104 1.00000000 0.13818104
0.26293746 1.00000000 0.14009371
0.38721803 1.00000000 0.14210524
0.51098037 1.00000000 0.14421565
0.63418211 1.00000000 0.14642493
0.75678088 1.00000000 0.14873308
0.87873430 1.00000000 0.15114010
1.00000000 1.00000000 0.15364600
0.00000000 0.00000000 0.24053498
0.12064946 0.00000000 0.24129892
0.24203461 0.00000000 0.24203461
0.36411308 0.00000000 0.24274205
0.48684248 0.00000000 0.24342124
0.61018046 0.00000000 0.24407218
0.73408462 0.00000000 0.24469487
0.85851261 0.00000000 0.24528932
0.98342205 0.00000000 0.24585551
0.00000000 0.12149629 0.24299259
0.12169174 0.12169174 0.24544780
0.24546438 0.12168827 0.24546438
0.36932862 0.12180953 0.24556908
0.49328958 0.12203869 0.24578899
0.61736057 0.12236056 0.24611056
0.74152025 0.12277025 0.24652025
0.86575896 0.12325896 0.24700896
0.99006767 0.12381767 0.24756767
0.00000000 0.24513050 0.24513050
0.12213641 0.24589764 0.24589764
0.24625000 0.24625000 0.24625000
0.37080785 0.24659004 0.24659004
0.49482228 0.24717300 0.24717300
0.61903909 0.24778606 0.24778606
0.74342639 0.24842639 0.24842639
0.86786479 0.24911479 0.24911479
0.99234290 0.24984290 0.24984290
0.00000000 0.37042308 0.24694872
0.12365868 0.37115958 0.24740913
0.24797670 0.37177799 0.24797670
0.37245765 0.37245765 0.24821175
0.49722555 0.37306861 0.24891167
0.62141275 0.37385606 0.25007772
0.74588422 0.37463371 0.25088355
0.87041996 0.37541995 0.25166995
0.99496550 0.37621550 0.25246550
0.00142333 0.49642333 0.24892333
0.12589153 0.49714153 0.24964153
0.25039255 0.49789301 0.25039255
0.37491105 0.49867242 0.25114968
0.49946590 0.49946590 0.25186993
0.62402172 0.50025453 0.25272015
0.74855044 0.50104939 0.25354835
0.87308149 0.50183148 0.25433148
0.99759252 0.50259252 0.25509252
0.00395492 0.62270492 0.25145492
0.12849880 0.62349880 0.25224880
0.25304552 0.62429552 0.25304552
0.37758606 0.62508607 0.25383606
0.50211137 0.62586149 0.25461113
0.62661268 0.62661268 0.25536200
0.75108065 0.62733062 0.25608051
0.87550640 0.62800640 0.25675640
0.99988098 0.62863098 0.25738098
0.00662059 0.74912059 0.25412059
0.13113820 0.74988820 0.25488820
0.25562834 0.75062834 0.25562834
0.38008201 0.75133201 0.25633201
0.50449019 0.75199019 0.25699019
0.62884388 0.75259388 0.25759388
0.75313407 0.75313407 0.25813407
0.87735175 0.75360175 0.25860175
1.00000000 0.75409681 0.26229044
0.00907737 0.87532737 0.25657737
0.13346675 0.87596675 0.25721675
0.25779837 0.87654837 0.25779837
0.38206320 0.87706320 0.25831320
0.50625225 0.87750225 0.25875225
0.63035649 0.87785649 0.25910649
0.75436693 0.87811693 0.25936693
0.87827456 0.87827456 0.25952456
1.00000000 0.87805282 0.26831690
0.01368244 1.00000000 0.26026183
0.13881951 1.00000000 0.26184529
0.26351350 1.00000000 0.26351350
0.38772204 1.00000000 0.26526645
0.51140277 1.00000000 0.26710415
0.63451330 1.00000000 0.26902660
0.75701127 1.00000000 0.27103380
0.87885429 1.00000000 0.27312574
1.00000000 1.00000000 0.27530243
0.00000000 0.00000000 0.36119638
0.12077597 0.00000000 0.36232790
0.24227803 0.00000000 0.36341704
0.36446381 0.00000000 0.36446381
0.48729094 0.00000000 0.36546821
0.61071705 0.00000000 0.36643023
0.73469976 0.00000000 0.36734988
0.85919669 0.00000000 0.36822715
0.98416547 0.00000000 0.36906205
0.00000000 0.12161146 0.36483438
0.12167991 0.12167991 0.36917993
0.24547357 0.12172350 0.36922364
0.36937921 0.12187909 0.36937921
0.49338772 0.12213771 0.36963772
0.61749028 0.12249028 0.36999028
0.74167781 0.12292781 0.37042781
0.86594130 0.12344130 0.37094130
0.99027174 0.12402174 0.37152174
0.00000000 0.24532856 0.36799284
0.12225556 0.24600568 0.36975580
0.24638977 0.24638977 0.37014583
0.37062511 0.24684900 0.37062511
0.49490968 0.24739059 0.37115014
0.61924860 0.24799771 0.37174801
0.74365516 0.24865516 0.37240516
0.86810806 0.24935806 0.37310806
0.99259760 0.25009760 0.37384760
0.00000000 0.37067176 0.37067176
0.12385775 0.37135784 0.37135784
0.24822250 0.37198373 0.37198373
0.37265625 0.37265625 0.37265625
0.49749188 0.37327407 0.37327407
0.62174172 0.37409244 0.37409244
0.74615156 0.37489853 0.37489853
0.87068953 0.37568952 0.37568952
0.99523621 0.37648621 0.37648621
0.00166295 0.49666295 0.37291295
0.12614342 0.49739342 0.37364342
0.25065330 0.49815420 0.37440375
0.37514893 0.49895022 0.37514893
0.49976511 0.49976511 0.37551921
0.62462587 0.50046893 0.37631199
0.74886355 0.50130687 0.37752853
0.87334314 0.50209263 0.37834247
0.99784461 0.50284461 0.37909461
0.00422364 0.62297364 0.37547364
0.12876950 0.62376950 0.37626950
0.25331513 0.62456514 0.37706514
0.37785122 0.62535167 0.37785122
0.50236240 0.62612377 0.37860103
0.62686756 0.62686756 0.37927160
0.75133132 0.62756413 0.38002976
0.87572560 0.62822456 0.38072351
1.00000000 0.62884555 0.38140925
0.00688379 0.74938379 0.37813379
0.13139308 0.75014308 0.37889308
0.25587185 0.75087185 0.37962185
0.38031108 0.75156108 0.38031108
0.50470176 0.75220177 0.38095176
0.62903483 0.75278496 0.38153459
0.75330153 0.75330153 0.38205085
0.87749252 0.75374249 0.38249238
1.00000000 0.75428510 0.38571275
0.00930043 0.87555043 0.38055043
0.13367120 0.87617120 0.38117120
0.25798115 0.87673115 0.38173115
0.38222126 0.87722126 0.38222126
0.50638251 0.87763251 0.38263251
0.63045591 0.87795591 0.38295591
0.75443244 0.87818244 0.38318244
0.87830310 0.87830310 0.38330310
1.00000000 0.87816309 0.39081547
0.01438677 1.00000000 0.38399173
0.13946937 1.00000000 0.38533527
0.26409931 1.00000000 0.38674942
0.38823420 1.00000000 0.38823420
0.51183168 1.00000000 0.38978960
0.63484938 1.00000000 0.39141563
0.75724491 1.00000000 0.39311227
0.87897591 1.00000000 0.39487954
1.00000000 1.00000000 0.39671744
0.00000000 0.00000000 0.48211387
0.12090084 0.00000000 0.48360337
0.24251819 0.00000000 0.48503638
0.36480966 0.00000000 0.48641288
0.48773289 0.00000000 0.48773289
0.61124550 0.00000000 0.48899640
0.73530511 0.00000000 0.49020341
0.85986936 0.00000000 0.49135392
0.98489586 0.00000000 0.49244793
0.00000000 0.12172500 0.48689999
0.12168161 0.12168161 0.49293161
0.24551426 0.12176426 0.49301426
0.36945584 0.12195584 0.49320584
0.49349736 0.12224736 0.49349736
0.61762979 0.12262979 0.49387979
0.74184412 0.12309412 0.49434412
0.86613136 0.12363136 0.49488136
0.99048249 0.12423249 0.49548249
0.00000000 0.24552336 0.49104672
0.12237654 0.24612654 0.49362654
0.24653983 0.24653983 0.49403984
0.37078179 0.24703172 0.49453187
0.49509338 0.24759326 0.49509338
0.61946545 0.24821544 0.49571545
0.74388920 0.24888920 0.49638920
0.86835555 0.24960555 0.49710555
0.99285549 0.25035549 0.49785549
0.00000000 0.37091555 0.49455406
0.12406325 0.37156325 0.49531325
0.24845513 0.37220525 0.49595537
0.37289510 0.37289510 0.49665117
0.49739384 0.37361773 0.49739384
0.62189943 0.37438034 0.49813988
0.74641699 0.37516610 0.49891640
0.87095982 0.37595982 0.49970982
0.99550661 0.37675661 0.50050661
0.00190709 0.49690709 0.49690709
0.12639879 0.49764879 0.49764879
0.25091744 0.49841753 0.49841753
0.37544541 0.49920664 0.49920664
0.50000000 0.50000000 0.50000000
0.62491410 0.50069629 0.50069629
0.74920003 0.50155075 0.50155075
0.87360360 0.50235057 0.50235057
0.99809291 0.50309291 0.50309291
0.00449339 0.62324339 0.49949339
0.12904018 0.62404018 0.50029018
0.25358369 0.62483369 0.50108369
0.37811424 0.62561514 0.50186469
0.50258816 0.62638945 0.50258816
0.62714026 0.62714026 0.50289436
0.75189457 0.62773763 0.50358069
0.87598343 0.62842674 0.50464840
1.00000000 0.62908445 0.50544594
0.00714451 0.74964451 0.50214451
0.13164445 0.75039445 0.50289445
0.25611080 0.75111080 0.50361080
0.38053456 0.75178456 0.50428456
0.50490638 0.75240684 0.50490638
0.62921094 0.75297231 0.50544957
0.75346710 0.75346710 0.50587113
0.87763948 0.75387229 0.50633792
1.00000000 0.75447664 0.50895328
0.00951751 0.87576751 0.50451751
0.13386864 0.87636864 0.50511864
0.25815588 0.87690588 0.50565588
0.38237021 0.87737021 0.50612021
0.50650264 0.87775264 0.50650264
0.63054415 0.87804416 0.50679414
0.75448567 0.87823579 0.50698543
0.87831844 0.87831844 0.50706777
1.00000000 0.87827500 0.51310001
0.01510414 1.00000000 0.50755207
0.14013064 1.00000000 0.50864608
0.26469489 1.00000000 0.50979659
0.38875450 1.00000000 0.51100360
0.51226711 1.00000000 0.51226711
0.63519034 1.00000000 0.51358712
0.75748181 1.00000000 0.51496362
0.87909916 1.00000000 0.51639663
1.00000000 1.00000000 0.51788613
0.00000000 0.00000000 0.60328256
0.12102409 0.00000000 0.60512046
0.24275509 0.00000000 0.60688773
0.36515062 0.00000000 0.60858437
0.48816832 0.00000000 0.61021040
0.61176580 0.00000000 0.61176580
0.73590069 0.00000000 0.61325058
0.86053063 0.00000000 0.61466473
0.98561323 0.00000000 0.61600827
0.00000000 0.12183691 0.60918453
0.12169690 0.12169690 0.61669690
0.24556756 0.12181756 0.61681756
0.36954409 0.12204409 0.61704409
0.49361749 0.12236749 0.61736749
0.61777874 0.12277874 0.61777874
0.74201885 0.12326885 0.61826885
0.86632880 0.12382880 0.61882880
0.99069957 0.12444957 0.61944957
0.00000000 0.24571490 0.61428725
0.12250751 0.24625751 0.61750751
0.24669852 0.24669852 0.61794852
0.37096510 0.24721510 0.61846510
0.49529823 0.24779823 0.61904823
0.61968892 0.24843892 0.61968892
0.74412815 0.24912815 0.62037815
0.86860692 0.24985692 0.62110692
0.99311621 0.25061621 0.62186621
0.00000000 0.37115445 0.61859075
0.12427529 0.37177529 0.61927529
0.24868470 0.37243470 0.61993470
0.37313937 0.37313937 0.62063938
0.49763033 0.37388026 0.62138040
0.62214854 0.37464842 0.62214854
0.74668487 0.37543486 0.62293487
0.87123050 0.37623050 0.62373050
0.99577636 0.37702636 0.62452636
0.00215539 0.49715539 0.62090539
0.12665727 0.49790727 0.62165727
0.25118312 0.49868312 0.62243312
0.37572383 0.49947395 0.62322407
0.50027025 0.50027025 0.62402632
0.62483306 0.50105695 0.62483306
0.74936036 0.50184127 0.62560082
0.87385725 0.50260637 0.62635666
0.99833705 0.50333704 0.62708705
0.00476379 0.62351379 0.62351379
0.12931048 0.62431048 0.62431048
0.25385083 0.62510083 0.62510083
0.37837576 0.62587584 0.62587584
0.50286763 0.62662886 0.62662886
0.62734375 0.62734375 0.62734375
0.75213701 0.62791920 0.62791920
0.87625972 0.62861044 0.62861044
1.00000000 0.62932824 0.62932824
0.00740240 0.74990240 0.62615240
0.13189194 0.75064194 0.62689194
0.25634484 0.75134484 0.62759484
0.38075208 0.75200208 0.62825208
0.50510398 0.75260488 0.62885443
0.62935689 0.75315817 0.62935689
0.75364560 0.75364560 0.62939970
0.87809414 0.75393720 0.62978026
1.00000000 0.75467144 0.63200716
0.00972826 0.87597826 0.62847826
0.13405870 0.87655870 0.62905870
0.25832219 0.87707219 0.62957219
0.38250972 0.87750972 0.63000972
0.50661229 0.87786229 0.63036229
0.63062055 0.87812101 0.63062055
0.75451917 0.87828054 0.63075780
0.87832701 0.87832701 0.63073105
1.00000000 0.87838854 0.63516562
0.01583453 1.00000000 0.63093795
0.14080331 1.00000000 0.63177285
0.26530024 1.00000000 0.63265012
0.38928295 1.00000000 0.63356977
0.51270906 1.00000000 0.63453179
0.63553619 1.00000000 0.63553619
0.75772197 1.00000000 0.63658296
0.87922403 1.00000000 0.63767210
1.00000000 1.00000000 0.63880362
0.00000000 0.00000000 0.72469757
0.12114571 0.00000000 0.72687426
0.24298873 0.00000000 0.72896620
0.36548670 0.00000000 0.73097340
0.48859723 0.00000000 0.73289585
0.61227796 0.00000000 0.73473355
0.73648650 0.00000000 0.73648650
0.86118049 0.00000000 0.73815471
0.98631755 0.00000000 0.73973817
0.00000000 0.12194718 0.73168310
0.12172544 0.12172544 0.74047544
0.24563307 0.12188307 0.74063307
0.36964351 0.12214351 0.74089351
0.49374775 0.12249775 0.74124775
0.61793680 0.12293680 0.74168680
0.74220163 0.12345163 0.74220163
0.86653325 0.12403325 0.74278325
0.99092263 0.12467263 0.74342263
0.00000000 0.24590319 0.73770956
0.12264825 0.24639825 0.74139825
0.24686593 0.24686593 0.74186593
0.37115612 0.24740612 0.74240612
0.49550981 0.24800981 0.74300981
0.61991799 0.24866799 0.74366799
0.74437166 0.24937166 0.74437166
0.86886180 0.25011180 0.74511180
0.99337941 0.25087941 0.74587941
0.00011902 0.37136902 0.74261902
0.12449360 0.37199360 0.74324360
0.24891938 0.37266938 0.74391938
0.37338737 0.37338737 0.74463737
0.49788856 0.37413856 0.74538856
0.62241393 0.37491393 0.74616393
0.74695448 0.37570448 0.74695448
0.87150120 0.37650120 0.74775120
0.99604508 0.37729508 0.74854508
0.00240748 0.49740748 0.74490748
0.12691852 0.49816852 0.74566852
0.25145046 0.49895046 0.74645046
0.37599430 0.49974430 0.74724430
0.50054103 0.50054103 0.74804104
0.62508169 0.50133162 0.74883176
0.74960721 0.50210709 0.74960721
0.87410848 0.50285847 0.75035848
0.99857667 0.50357667 0.75107667
0.00503450 0.62378450 0.74753450
0.12958005 0.62458005 0.74833005
0.25411619 0.62536619 0.74911619
0.37863393 0.62613393 0.74988393
0.50312415 0.62687427 0.75062439
0.62757772 0.62757772 0.75133378
0.75200529 0.62822918 0.75200529
0.87635499 0.62883590 0.75259544
1.00000000 0.62957692 0.75305128
0.00765710 0.75015710 0.75015710
0.13213521 0.75088521 0.75088521
0.25657361 0.75157361 0.75157361
0.38096330 0.75221330 0.75221330
0.50529520 0.75279528 0.75279528
0.62955166 0.75331289 0.75331289
0.75375000 0.75375000 0.75375000
0.87822310 0.75400529 0.75400529
1.00000000 0.75486950 0.75486950
0.00993233 0.87618233 0.75243233
0.13424104 0.87674104 0.75299104
0.25847975 0.87722975 0.75347975
0.38263944 0.87763944 0.75388944
0.50671109 0.87796110 0.75421110
0.63068504 0.87818594 0.75443549
0.75451762 0.87831890 0.75451762
0.87834363 0.87834363 0.75409772
1.00000000 0.87850371 0.75700741
0.01657795 1.00000000 0.75414449
0.14148739 1.00000000 0.75471068
0.26591537 1.00000000 0.75530513
0.38981954 1.00000000 0.75592782
0.51315752 1.00000000 0.75657876
0.63588692 1.00000000 0.75725795
0.75796539 1.00000000 0.75796539
0.87935054 1.00000000 0.75870108
1.00000000 1.00000000 0.75946502
0.00000000 0.00000000 0.84635400
0.12126570 0.00000000 0.84885990
0.24321912 0.00000000 0.85126692
0.36581789 0.00000000 0.85357507
0.48901963 0.00000000 0.85578435
0.61278197 0.00000000 0.85789476
0.73706254 0.00000000 0.85990629
0.86181896 0.00000000 0.86181896
0.98700885 0.00000000 0.86363275
0.00000000 0.12205583 0.85439084
0.12176689 0.12176689 0.86426689
0.24571043 0.12196043 0.86446043
0.36975374 0.12225374 0.86475374
0.49388780 0.12263780 0.86513780
0.61810359 0.12310359 0.86560359
0.74239211 0.12364211 0.86614211
0.86674436 0.12424436 0.86674436
0.99115132 0.12490132 0.86740132
0.00000000 0.24608821 0.86130874
0.12279839 0.24654839 0.86529839
0.24704170 0.24704170 0.86579170
0.37135447 0.24760447 0.86635447
0.49572767 0.24822767 0.86697767
0.62015231 0.24890231 0.86765231
0.74461938 0.24961938 0.86836938
0.86911986 0.25036986 0.86911986
0.99364475 0.25114475 0.86989475
0.00032483 0.37157483 0.86657483
0.12471781 0.37221781 0.86721781
0.24915893 0.37290893 0.86790893
0.37363921 0.37363921 0.86863921
0.49814962 0.37439962 0.86939962
0.62268116 0.37518116 0.87018116
0.74722481 0.37597481 0.87097481
0.87177158 0.37677158 0.87177158
0.99631245 0.37756245 0.87256245
0.00266303 0.49766303 0.86891303
0.12718218 0.49843218 0.86968218
0.25171917 0.49921917 0.87046917
0.37626500 0.50001500 0.87126500
0.50081066 0.50081066 0.87206066
0.62534715 0.50159715 0.87284715
0.74986544 0.50236544 0.87361544
0.87435655 0.50310655 0.87435655
0.99881144 0.50381144 0.87506144
0.00530517 0.62405517 0.87155517
0.12984853 0.62484853 0.87234853
0.25437944 0.62562944 0.87312944
0.37888887 0.62638887 0.87388887
0.50336784 0.62711784 0.87461784
0.62780732 0.62780732 0.87530733
0.75219835 0.62844828 0.87594842
0.87653188 0.62903176 0.87653188
1.00000000 0.62983049 0.87661016
0.00790827 0.75040827 0.87415827
0.13237390 0.75112390 0.87487390
0.25679677 0.75179677 0.87554677
0.38116786 0.75241786 0.87616786
0.50547818 0.75297818 0.87672818
0.62971860 0.75346872 0.87721884
0.75387999 0.75387999 0.87763605
0.87797302 0.75419691 0.87797302
1.00000000 0.75507081 0.87753541
0.01012936 0.87637936 0.87637936
0.13441531 0.87691531 0.87691531
0.25862819 0.87737819 0.87737819
0.38275900 0.87775900 0.87775900
0.50679871 0.87804871 0.87804871
0.63073826 0.87823835 0.87823835
0.75456000 0.87832124 0.87832124
0.87828125 0.87828125 0.87828125
1.00000000 0.87862050 0.87862050
0.01733441 1.00000000 0.87716680
0.14218287 1.00000000 0.87745470
0.26654028 1.00000000 0.87775671
0.39036428 1.00000000 0.87807286
0.51361249 1.00000000 0.87840312
0.63624255 1.00000000 0.87874752
0.75821206 1.00000000 0.87910603
0.87947867 1.00000000 0.87947867
1.00000000 1.00000000 0.87986544
0.00000000 0.00000000 0.96824697
0.12138406 0.00000000 0.97107248
0.24344625 0.00000000 0.97378499
0.36614419 0.00000000 0.97638450
0.48943551 0.00000000 0.97887102
0.61327784 0.00000000 0.98124454
0.73762880 0.00000000 0.98350506
0.86244601 0.00000000 0.98565259
0.98768712 0.00000000 0.98768712
0.00000000 0.12216285 0.97730284
0.12182087 0.12182087 0.98807087
0.24579931 0.12204931 0.98829931
0.36987444 0.12237444 0.98862444
0.49403727 0.12278727 0.98903727
0.61827877 0.12327877 0.98952877
0.74258994 0.12383994 0.99008994
0.86696178 0.12446178 0.99071178
0.99138527 0.12513527 0.99138527
0.00000000 0.24626998 0.98507992
0.12295757 0.24670757 0.98920757
0.24722548 0.24722548 0.98972548
0.37155978 0.24780978 0.99030978
0.49595147 0.24845147 0.99095147
0.62039153 0.24914153 0.99164153
0.74487095 0.24987095 0.99237095
0.86938073 0.25063073 0.99313073
0.99391186 0.25141186 0.99391186
0.00053723 0.37178723 0.99053723
0.12494757 0.37244757 0.99119757
0.24940300 0.37315300 0.99190300
0.37389452 0.37389452 0.99264452
0.49841311 0.37466311 0.99341311
0.62294978 0.37544978 0.99419978
0.74749550 0.37624550 0.99499550
0.87204127 0.37704127 0.99579127
0.99657809 0.37782809 0.99657809
0.00292168 0.49792168 0.99292168
0.12744789 0.49869789 0.99369789
0.25198890 0.49948890 0.99448890
0.37653568 0.50028568 0.99528568
0.50107924 0.50107924 0.99607924
0.62561055 0.50186055 0.99686055
0.75012063 0.50262063 0.99762063
0.87460044 0.50335044 0.99835044
0.99904100 0.50404100 0.99904100
0.00557543 0.62432543 0.99557543
0.13011558 0.62511558 0.99636558
0.25464020 0.62589020 0.99714020
0.37914030 0.62664030 0.99789030
0.50360687 0.62735687 0.99860687
0.62803089 0.62803089 0.99928089
0.75240336 0.62865336 0.99990336
0.87644730 0.62934189 1.00000000
1.00000000 0.63008894 1.00000000
0.00815553 0.75065553 0.99815553
0.13260765 0.75135765 0.99885765
0.25701395 0.75201395 0.99951395
0.38148144 0.75259258 1.00000000
0.50614528 0.75307264 1.00000000
0.63037143 0.75358095 1.00000000
0.75411752 0.75411752 1.00000000
0.87734116 0.75468233 1.00000000
1.00000000 0.75527539 1.00000000
0.01105632 0.87638204 1.00000000
0.13639050 0.87662721 1.00000000
0.26131908 0.87688651 1.00000000
0.38579968 0.87715994 1.00000000
0.50978994 0.87744748 1.00000000
0.63324747 0.87774916 1.00000000
0.75612991 0.87806496 1.00000000
0.87839488 0.87839488 1.00000000
1.00000000 0.87873892 1.00000000
0.01810390 1.00000000 1.00000000
0.14288975 1.00000000 1.00000000
0.26717496 1.00000000 1.00000000
0.39091716 1.00000000 1.00000000
0.51407399 1.00000000 1.00000000
0.63660306 1.00000000 1.00000000
0.75846200 1.00000000 1.00000000
0.87960844 1.00000000 1.00000000
1.00000000 1.00000000 1.00000000
