assets/luts/DB_Studio_Neutral_Rec709_50.cube
TITLE "Studio Neutral Rec709 50"
# Red changes fastest. Full-range normalized input.
LUT_3D_SIZE 5
DOMAIN_MIN 0 0 0
DOMAIN_MAX 1 1 1
0.00000000 0.00000000 0.00000000
0.24153800 0.00000000 0.00000000
0.48592601 0.00000000 0.00000000
0.73282504 0.00000000 0.00000000
0.98189610 0.00000000 0.00000000
0.00000000 0.24472461 0.00000000
0.24588248 0.24588248 0.00000000
0.49385472 0.24692736 0.00000000
0.74298605 0.24798605 0.00048605
0.99184447 0.24934447 0.00184447
0.00095900 0.49595900 0.00095900
0.24987937 0.49737937 0.00237937
0.49892076 0.49892076 0.00392076
0.74801110 0.50051110 0.00551110
0.99707832 0.50207832 0.00707832
0.00608814 0.74858814 0.00608814
0.25512905 0.75012905 0.00762905
0.50404853 0.75154853 0.00904853
0.75277452 0.75277452 0.01027452
1.00000000 0.75373002 0.01492008
0.01231288 1.00000000 0.01231288
0.26237120 1.00000000 0.01649494
0.51056449 1.00000000 0.02112898
0.75655375 1.00000000 0.02621501
1.00000000 1.00000000 0.03175303
0.00000000 0.00000000 0.24053498
0.24203461 0.00000000 0.24203461
0.48684248 0.00000000 0.24342124
0.73408462 0.00000000 0.24469487
0.98342205 0.00000000 0.24585551
0.00000000 0.24513050 0.24513050
0.24625000 0.24625000 0.24625000
0.49482228 0.24717300 0.24717300
0.74342639 0.24842639 0.24842639
0.99234290 0.24984290 0.24984290
0.00142333 0.49642333 0.24892333
0.25039255 0.49789301 0.25039255
0.49946590 0.49946590 0.25186993
0.74855044 0.50104939 0.25354835
0.99759252 0.50259252 0.25509252
0.00662059 0.74912059 0.25412059
0.25562834 0.75062834 0.25562834
0.50449019 0.75199019 0.25699019
0.75313407 0.75313407 0.25813407
1.00000000 0.75409681 0.26229044
0.01368244 1.00000000 0.26026183
0.26351350 1.00000000 0.26351350
0.51140277 1.00000000 0.26710415
0.75701127 1.00000000 0.27103380
1.00000000 1.00000000 0.27530243
0.00000000 0.00000000 0.48211387
0.24251819 0.00000000 0.48503638
0.48773289 0.00000000 0.48773289
0.73530511 0.00000000 0.49020341
0.98489586 0.00000000 0.49244793
0.00000000 0.24552336 0.49104672
0.24653983 0.24653983 0.49403984
0.49509338 0.24759326 0.49509338
0.74388920 0.24888920 0.49638920
0.99285549 0.25035549 0.49785549
0.00190709 0.49690709 0.49690709
0.25091744 0.49841753 0.49841753
0.50000000 0.50000000 0.50000000
0.74920003 0.50155075 0.50155075
0.99809291 0.50309291 0.50309291
0.00714451 0.74964451 0.50214451
0.25611080 0.75111080 0.50361080
0.50490638 0.75240684 0.50490638
0.75346710 0.75346710 0.50587113
1.00000000 0.75447664 0.50895328
0.01510414 1.00000000 0.50755207
0.26469489 1.00000000 0.50979659
0.51226711 1.00000000 0.51226711
0.75748181 1.00000000 0.51496362
1.00000000 1.00000000 0.51788613
0.00000000 0.00000000 0.72469757
0.24298873 0.00000000 0.72896620
0.48859723 0.00000000 0.73289585
0.73648650 0.00000000 0.73648650
0.98631755 0.00000000 0.73973817
0.00000000 0.24590319 0.73770956
0.24686593 0.24686593 0.74186593
0.49550981 0.24800981 0.74300981
0.74437166 0.24937166 0.74437166
0.99337941 0.25087941 0.74587941
0.00240748 0.49740748 0.74490748
0.25145046 0.49895046 0.74645046
0.50054103 0.50054103 0.74804104
0.74960721 0.50210709 0.74960721
0.99857667 0.50357667 0.75107667
0.00765710 0.75015710 0.75015710
0.25657361 0.75157361 0.75157361
0.50529520 0.75279528 0.75279528
0.75375000 0.75375000 0.75375000
1.00000000 0.75486950 0.75486950
0.01657795 1.00000000 0.75414449
0.26591537 1.00000000 0.75530513
0.51315752 1.00000000 0.75657876
0.75796539 1.00000000 0.75796539
1.00000000 1.00000000 0.75946502
0.00000000 0.00000000 0.96824697
0.24344625 0.00000000 0.97378499
0.48943551 0.00000000 0.97887102
0.73762880 0.00000000 0.98350506
0.98768712 0.00000000 0.98768712
0.00000000 0.24626998 0.98507992
0.24722548 0.24722548 0.98972548
0.49595147 0.24845147 0.99095147
0.74487095 0.24987095 0.99237095
0.99391186 0.25141186 0.99391186
0.00292168 0.49792168 0.99292168
0.25198890 0.49948890 0.99448890
0.50107924 0.50107924 0.99607924
0.75012063 0.50262063 0.99762063
0.99904100 0.50404100 0.99904100
0.00815553 0.75065553 0.99815553
0.25701395 0.75201395 0.99951395
0.50614528 0.75307264 1.00000000
0.75411752 0.75411752 1.00000000
1.00000000 0.75527539 1.00000000
0.01810390 1.00000000 1.00000000
0.26717496 1.00000000 1.00000000
0.51407399 1.00000000 1.00000000
0.75846200 1.00000000 1.00000000
1.00000000 1.00000000 1.00000000
