assets/luts/DB_Studio_Neutral_Rec709_100.cube
TITLE "Studio Neutral Rec709 100"
# Red changes fastest. Full-range normalized input.
LUT_3D_SIZE 9
DOMAIN_MIN 0 0 0
DOMAIN_MAX 1 1 1
0.00000000 0.00000000 0.00000000
0.11578313 0.00000000 0.00000000
0.23307600 0.00000000 0.00000000
0.35179389 0.00000000 0.00000000
0.47185202 0.00000000 0.00000000
0.59316567 0.00000000 0.00000000
0.71565008 0.00000000 0.00000000
0.83922051 0.00000000 0.00000000
0.96379220 0.00000000 0.00000000
0.00000000 0.11752215 0.00000000
0.11821025 0.11821025 0.00000000
0.23774018 0.11887009 0.00000000
0.35850505 0.11950168 0.00000000
0.48042012 0.12010503 0.00000000
0.60340063 0.12068013 0.00000000
0.72736184 0.12122697 0.00000000
0.85221900 0.12174557 0.00000000
0.97788736 0.12223592 0.00000000
0.00000000 0.23944922 0.00000000
0.12031767 0.24063534 0.00000000
0.24176497 0.24176497 0.00000000
0.36425714 0.24283809 0.00000000
0.48770944 0.24385472 0.00000000
0.61203712 0.24481485 0.00000000
0.73597210 0.24597210 0.00097210
0.85978469 0.24728469 0.00228469
0.98368893 0.24868893 0.00368893
0.00000000 0.36482213 0.00000000
0.12210540 0.36631621 0.00000000
0.24519314 0.36769339 0.00019265
0.36893832 0.36893832 0.00143697
0.49278634 0.37028627 0.00278605
0.61671940 0.37171940 0.00421939
0.74071959 0.37321959 0.00571959
0.86476885 0.37476885 0.00726885
0.98884913 0.37634913 0.00884913
0.00191801 0.49191801 0.00191801
0.12579911 0.49329911 0.00329911
0.24975875 0.49475875 0.00475875
0.37377889 0.49627889 0.00627889
0.49784153 0.49784153 0.00784153
0.62192864 0.49942864 0.00942864
0.74602221 0.50102221 0.01102221
0.87010422 0.50260422 0.01260422
0.99415665 0.50415665 0.01415665
0.00684382 0.61934382 0.00684382
0.13091745 0.62091745 0.00841745
0.25500900 0.62250900 0.01000900
0.37910045 0.62410045 0.01160045
0.50317377 0.62567377 0.01317377
0.62721096 0.62721096 0.01471096
0.75119400 0.62869400 0.01619400
0.87510487 0.63010487 0.01760487
0.99892554 0.63142554 0.01892554
0.01217628 0.74717628 0.01217628
0.13623854 0.74873854 0.01373854
0.26025810 0.75025810 0.01525810
0.38421695 0.75171695 0.01671695
0.50809707 0.75309707 0.01809707
0.63188043 0.75438043 0.01938043
0.75554904 0.75554904 0.02054904
0.87908486 0.75658486 0.02158486
1.00000000 0.75746004 0.02984016
0.01722946 0.87472946 0.01722946
0.14107644 0.87607644 0.01857644
0.26482011 0.87732011 0.01982011
0.38844246 0.87844246 0.02094246
0.51192547 0.87942547 0.02192547
0.63525111 0.88025111 0.02275111
0.75840138 0.88090138 0.02340138
0.88135826 0.88135826 0.02385826
1.00000000 0.88067429 0.04539433
0.02462577 1.00000000 0.02462577
0.15010797 1.00000000 0.02869482
0.27474241 1.00000000 0.03298988
0.39844433 1.00000000 0.03751092
0.52112898 1.00000000 0.04225796
0.64271162 1.00000000 0.04723099
0.76310750 1.00000000 0.05243002
0.88223188 1.00000000 0.05785504
1.00000000 1.00000000 0.06350605
0.00000000 0.00000000 0.11526912
0.11604265 0.00000000 0.11604265
0.23357587 0.00000000 0.11678794
0.35251491 0.00000000 0.11750497
0.47277501 0.00000000 0.11819375
0.59427144 0.00000000 0.11885429
0.71691944 0.00000000 0.11948657
0.84063427 0.00000000 0.12009061
0.96533118 0.00000000 0.12066640
0.00000000 0.11775900 0.11775900
0.11843750 0.11843750 0.11843750
0.24159902 0.11816339 0.11816339
0.36375843 0.11845986 0.11845986
0.48640735 0.11890129 0.11890129
0.60948202 0.11948201 0.11948201
0.73274361 0.12024361 0.12024361
0.85616937 0.12116937 0.12116937
0.97974127 0.12224127 0.12224127
0.00000000 0.23985837 0.11992919
0.11901794 0.24162052 0.11901794
0.24231075 0.24231075 0.11881894
0.36626221 0.24294833 0.11963444
0.48913700 0.24402364 0.12146696
0.61266509 0.24516409 0.12266375
0.73640647 0.24640647 0.12390647
0.86025220 0.24775220 0.12525220
0.98418347 0.24918347 0.12668347
0.00000000 0.36533903 0.12177968
0.12193576 0.36693668 0.12193576
0.24558877 0.36811151 0.12306603
0.36939922 0.36939922 0.12420729
0.49329635 0.37076198 0.12569323
0.61722405 0.37222196 0.12721987
0.74124114 0.37374113 0.12874112
0.86530294 0.37530294 0.13030294
0.98938967 0.37688967 0.13188967
0.00237711 0.49237711 0.12487711
0.12628691 0.49378691 0.12628691
0.25026910 0.49526912 0.12776909
0.37430557 0.49680581 0.12930508
0.49837877 0.49837877 0.13087742
0.62247007 0.49997000 0.13246979
0.74656167 0.50156166 0.13406166
0.87063565 0.50313565 0.13563565
0.99467394 0.50467394 0.13717394
0.00737511 0.61987511 0.12987511
0.13145684 0.62145684 0.13145684
0.25555038 0.62305038 0.13305038
0.37963769 0.62463769 0.13463769
0.50370076 0.62620076 0.13620076
0.62772158 0.62772158 0.13772158
0.75168213 0.62918213 0.13918213
0.87556439 0.63056439 0.14056439
0.99935034 0.63185034 0.14185034
0.01271050 0.74771050 0.13521050
0.13676028 0.74926028 0.13676028
0.26076124 0.75076124 0.13826124
0.38469537 0.75219537 0.13969537
0.50854465 0.75354465 0.14104465
0.63229107 0.75479107 0.14229107
0.75591660 0.75591660 0.14341660
0.87940323 0.75690323 0.14440323
1.00000000 0.75782358 0.15238252
0.01769737 0.87519737 0.14019737
0.14151129 0.87651129 0.14151129
0.26521578 0.87771578 0.14271578
0.38879282 0.87879282 0.14379282
0.51222441 0.87972441 0.14472441
0.63549252 0.88049252 0.14549252
0.75857913 0.88107913 0.14607913
0.88146623 0.88146623 0.14646623
1.00000000 0.88088833 0.16621833
0.02598230 1.00000000 0.14773451
0.15136209 1.00000000 0.15136209
0.27587493 1.00000000 0.15518741
0.39943606 1.00000000 0.15921048
0.52196074 1.00000000 0.16343130
0.64336422 1.00000000 0.16784986
0.76356176 1.00000000 0.17246616
0.88246860 1.00000000 0.17728021
1.00000000 1.00000000 0.18229200
0.00000000 0.00000000 0.23106997
0.11629892 0.00000000 0.23259784
0.23406922 0.00000000 0.23406922
0.35322615 0.00000000 0.23548410
0.47368497 0.00000000 0.23684248
0.59536091 0.00000000 0.23814437
0.71816925 0.00000000 0.23938975
0.84202523 0.00000000 0.24057864
0.96684409 0.00000000 0.24171102
0.00000000 0.11799259 0.23598518
0.11838348 0.11838348 0.24089560
0.24092875 0.11837653 0.24092875
0.36365725 0.11861907 0.24113816
0.48657917 0.11907739 0.24157798
0.60972113 0.11972113 0.24222113
0.73304050 0.12054050 0.24304050
0.85651791 0.12151791 0.24401791
0.98013534 0.12263534 0.24513534
0.00000000 0.24026100 0.24026100
0.11927281 0.24179528 0.24179528
0.24250000 0.24250000 0.24250000
0.36661571 0.24318008 0.24318008
0.48964456 0.24434599 0.24434599
0.61307818 0.24557211 0.24557211
0.73685278 0.24685278 0.24685278
0.86072958 0.24822958 0.24822958
0.98468579 0.24968579 0.24968579
0.00000000 0.36584616 0.24389744
0.12231736 0.36731916 0.24481826
0.24595340 0.36855597 0.24595340
0.36991530 0.36991530 0.24642349
0.49445110 0.37113722 0.24782334
0.61782549 0.37271213 0.25015545
0.74176843 0.37426743 0.25176709
0.86583991 0.37583991 0.25333991
0.98993100 0.37743100 0.25493100
0.00284665 0.49284665 0.24784665
0.12678305 0.49428306 0.24928305
0.25078510 0.49578601 0.25078510
0.37482210 0.49734484 0.25229936
0.49893180 0.49893180 0.25373987
0.62304343 0.50050906 0.25544031
0.74710088 0.50209879 0.25709670
0.87116297 0.50366296 0.25866296
0.99518503 0.50518503 0.26018503
0.00790983 0.62040983 0.25290983
0.13199759 0.62199759 0.25449759
0.25609104 0.62359104 0.25609104
0.38017212 0.62517214 0.25767211
0.50422274 0.62672299 0.25922225
0.62822535 0.62822535 0.26072400
0.75216131 0.62966124 0.26216102
0.87601281 0.63101281 0.26351280
0.99976195 0.63226195 0.26476195
0.01324117 0.74824117 0.25824117
0.13727639 0.74977639 0.25977639
0.26125668 0.75125668 0.26125668
0.38516401 0.75266401 0.26266401
0.50898038 0.75398038 0.26398038
0.63268776 0.75518776 0.26518776
0.75626814 0.75626814 0.26626814
0.87970350 0.75720350 0.26720350
1.00000000 0.75819363 0.27458088
0.01815473 0.87565473 0.26315473
0.14193351 0.87693351 0.26443351
0.26559674 0.87809674 0.26559674
0.38912641 0.87912641 0.26662641
0.51250450 0.88000450 0.26750450
0.63571299 0.88071299 0.26821299
0.75873387 0.88123387 0.26873387
0.88154911 0.88154911 0.26904911
1.00000000 0.88110563 0.28663379
0.02736489 1.00000000 0.27052367
0.15263901 1.00000000 0.27369058
0.27702700 1.00000000 0.27702700
0.40044409 1.00000000 0.28053290
0.52280554 1.00000000 0.28420830
0.64402660 1.00000000 0.28805320
0.76402253 1.00000000 0.29206759
0.88270858 1.00000000 0.29625148
1.00000000 1.00000000 0.30060487
0.00000000 0.00000000 0.34739277
0.11655193 0.00000000 0.34965580
0.23455606 0.00000000 0.35183409
0.35392763 0.00000000 0.35392763
0.47458189 0.00000000 0.35593642
0.59643410 0.00000000 0.35786046
0.71939951 0.00000000 0.35969976
0.84339337 0.00000000 0.36145430
0.96833094 0.00000000 0.36312410
0.00000000 0.11822292 0.35466876
0.11835983 0.11835983 0.36335986
0.24094714 0.11844699 0.36344728
0.36375842 0.11875818 0.36375842
0.48677544 0.11927542 0.36427543
0.60998055 0.11998055 0.36498055
0.73335561 0.12085561 0.36585561
0.85688260 0.12188260 0.36688260
0.98054348 0.12304348 0.36804348
0.00000000 0.24065712 0.36098568
0.11951112 0.24201136 0.36451160
0.24277953 0.24277953 0.36529166
0.36625021 0.24369799 0.36625021
0.48981936 0.24478119 0.36730028
0.61349720 0.24599542 0.36849601
0.73731033 0.24731032 0.36981032
0.86121611 0.24871611 0.37121611
0.98519519 0.25019519 0.37269519
0.00000000 0.36634351 0.36634351
0.12271551 0.36771568 0.36771568
0.24644500 0.36896747 0.36896747
0.37031250 0.37031250 0.37031250
0.49498377 0.37154814 0.37154814
0.61848344 0.37318487 0.37318487
0.74230312 0.37479706 0.37479706
0.86637905 0.37637904 0.37637904
0.99047242 0.37797242 0.37797242
0.00332591 0.49332591 0.37082591
0.12728685 0.49478685 0.37228685
0.25130660 0.49630840 0.37380750
0.37529786 0.49790043 0.37529786
0.49953023 0.49953023 0.37603842
0.62425175 0.50093787 0.37762398
0.74772711 0.50261375 0.38005706
0.87168627 0.50418527 0.38168493
0.99568923 0.50568923 0.38318923
0.00844729 0.62094729 0.37594729
0.13253900 0.62253900 0.37753900
0.25663027 0.62413027 0.37913027
0.38070243 0.62570335 0.38070243
0.50472480 0.62724754 0.38220206
0.62873513 0.62873513 0.38354319
0.75266263 0.63012826 0.38505951
0.87645121 0.63144912 0.38644703
1.00000000 0.63269110 0.38781851
0.01376758 0.74876758 0.38126758
0.13778617 0.75028617 0.38278617
0.26174370 0.75174370 0.38424370
0.38562216 0.75312216 0.38562216
0.50940352 0.75440354 0.38690351
0.63306967 0.75556991 0.38806918
0.75660306 0.75660306 0.38910170
0.87998504 0.75748497 0.38998476
1.00000000 0.75857020 0.39642549
0.01860085 0.87610085 0.38610085
0.14234241 0.87734241 0.38734241
0.26596230 0.87846230 0.38846230
0.38944251 0.87944251 0.38944251
0.51276502 0.88026502 0.39026502
0.63591182 0.88091182 0.39091182
0.75886489 0.88136489 0.39136489
0.88160620 0.88160620 0.39160620
1.00000000 0.88132619 0.40663095
0.02877355 1.00000000 0.39298347
0.15393875 1.00000000 0.39567053
0.27819861 1.00000000 0.39849884
0.40146840 1.00000000 0.40146840
0.52366336 1.00000000 0.40457920
0.64469875 1.00000000 0.40783125
0.76448982 1.00000000 0.41122455
0.88295182 1.00000000 0.41475909
1.00000000 1.00000000 0.41843488
0.00000000 0.00000000 0.46422774
0.11680169 0.00000000 0.46720675
0.23503638 0.00000000 0.47007276
0.35461932 0.00000000 0.47282577
0.47546578 0.00000000 0.47546578
0.59749099 0.00000000 0.47799280
0.72061022 0.00000000 0.48040682
0.84473872 0.00000000 0.48270784
0.96979173 0.00000000 0.48489586
0.00000000 0.11844999 0.47379998
0.11836321 0.11836321 0.48586321
0.24102852 0.11852852 0.48602852
0.36391169 0.11891169 0.48641169
0.48699471 0.11949471 0.48699471
0.61025957 0.12025957 0.48775957
0.73368825 0.12118825 0.48868825
0.85726273 0.12226273 0.48976273
0.98096499 0.12346499 0.49096499
0.00000000 0.24104672 0.48209344
0.11975307 0.24225307 0.48725307
0.24307965 0.24307965 0.48807968
0.36656359 0.24406345 0.48906373
0.49018675 0.24518651 0.49018675
0.61393091 0.24643088 0.49143090
0.73777840 0.24777840 0.49277840
0.86171110 0.24921110 0.49421110
0.98571097 0.25071097 0.49571097
0.00000000 0.36683109 0.48910812
0.12312650 0.36812650 0.49062650
0.24691026 0.36941050 0.49191074
0.37079021 0.37079021 0.49330233
0.49478767 0.37223545 0.49478767
0.61879886 0.37376068 0.49627977
0.74283398 0.37533220 0.49783279
0.86691965 0.37691964 0.49941965
0.99101323 0.37851323 0.50101323
0.00381419 0.49381419 0.49381419
0.12779758 0.49529758 0.49529758
0.25183489 0.49683506 0.49683506
0.37589081 0.49841328 0.49841328
0.50000000 0.50000000 0.50000000
0.62482821 0.50139258 0.50139258
0.74840007 0.50310150 0.50310150
0.87220720 0.50470113 0.50470113
0.99618582 0.50618581 0.50618581
0.00898677 0.62148677 0.49898677
0.13308036 0.62308036 0.50058036
0.25716738 0.62466738 0.50216738
0.38122847 0.62623027 0.50372937
0.50517632 0.62777889 0.50517632
0.62928053 0.62928053 0.50578872
0.75378914 0.63047526 0.50716138
0.87696685 0.63185349 0.50929681
1.00000000 0.63316891 0.51089188
0.01428903 0.74928903 0.50428903
0.13828890 0.75078890 0.50578890
0.26222160 0.75222160 0.50722160
0.38606911 0.75356911 0.50856911
0.50981276 0.75481368 0.50981276
0.63342188 0.75594462 0.51089914
0.75693420 0.75693420 0.51174227
0.88027896 0.75774459 0.51267584
1.00000000 0.75895328 0.51790656
0.01903501 0.87653501 0.50903501
0.14273727 0.87773727 0.51023727
0.26631175 0.87881175 0.51131175
0.38974043 0.87974043 0.51224043
0.51300529 0.88050529 0.51300529
0.63608830 0.88108832 0.51358828
0.75897134 0.88147159 0.51397086
0.88163689 0.88163689 0.51413553
1.00000000 0.88155000 0.52620002
0.03020827 1.00000000 0.51510414
0.15526128 1.00000000 0.51729216
0.27938978 1.00000000 0.51959318
0.40250901 1.00000000 0.52200720
0.52453422 1.00000000 0.52453422
0.64538068 1.00000000 0.52717423
0.76496362 1.00000000 0.52992725
0.88319831 1.00000000 0.53279325
1.00000000 1.00000000 0.53577226
0.00000000 0.00000000 0.58156512
0.11704818 0.00000000 0.58524091
0.23551018 0.00000000 0.58877545
0.35530125 0.00000000 0.59216875
0.47633664 0.00000000 0.59542080
0.59853160 0.00000000 0.59853160
0.72180139 0.00000000 0.60150116
0.84606125 0.00000000 0.60432947
0.97122645 0.00000000 0.60701653
0.00000000 0.11867381 0.59336905
0.11839380 0.11839380 0.60839380
0.24113511 0.11863511 0.60863511
0.36408818 0.11908818 0.60908818
0.48723498 0.11973498 0.60973498
0.61055749 0.12055749 0.61055749
0.73403770 0.12153770 0.61153770
0.85765759 0.12265759 0.61265759
0.98139915 0.12389915 0.61389915
0.00000000 0.24142980 0.60357451
0.12001503 0.24251503 0.61001503
0.24339704 0.24339704 0.61089704
0.36693019 0.24443019 0.61193019
0.49059646 0.24559646 0.61309646
0.61437784 0.24687784 0.61437784
0.73825630 0.24825630 0.61575630
0.86221383 0.24971383 0.61721383
0.98623242 0.25123242 0.61873242
0.00000000 0.36730890 0.61218149
0.12355059 0.36855059 0.61355059
0.24736940 0.36986940 0.61486940
0.37127873 0.37127873 0.61627876
0.49526067 0.37276053 0.61776081
0.61929708 0.37429685 0.61929708
0.74336975 0.37586972 0.62086974
0.86746100 0.37746100 0.62246100
0.99155271 0.37905271 0.62405271
0.00431077 0.49431077 0.61681077
0.12831454 0.49581454 0.61831454
0.25236625 0.49736625 0.61986625
0.37644766 0.49894790 0.62144814
0.50054051 0.50054051 0.62305263
0.62466613 0.50211391 0.62466613
0.74872073 0.50368255 0.62620164
0.87271451 0.50521273 0.62771332
0.99667410 0.50667409 0.62917409
0.00952758 0.62202758 0.62202758
0.13362095 0.62362095 0.62362095
0.25770165 0.62520165 0.62520165
0.38175152 0.62675169 0.62675169
0.50573525 0.62825772 0.62825772
0.62968750 0.62968750 0.62968750
0.75427402 0.63083840 0.63083840
0.87751945 0.63222088 0.63222088
1.00000000 0.63365649 0.63365649
0.01480481 0.74980481 0.62730481
0.13878389 0.75128389 0.62878389
0.26268968 0.75268968 0.63018968
0.38650416 0.75400416 0.63150416
0.51020797 0.75520977 0.63270887
0.63371377 0.75631635 0.63371377
0.75729120 0.75729120 0.63379939
0.88118829 0.75787441 0.63456052
1.00000000 0.75934288 0.63901432
0.01945652 0.87695652 0.63195652
0.14311740 0.87811740 0.63311740
0.26664439 0.87914439 0.63414439
0.39001945 0.88001945 0.63501945
0.51322458 0.88072458 0.63572458
0.63624110 0.88124201 0.63624110
0.75903834 0.88156107 0.63651560
0.88165403 0.88165403 0.63646210
1.00000000 0.88177708 0.64533124
0.03166906 1.00000000 0.63687590
0.15660663 1.00000000 0.63854570
0.28060049 1.00000000 0.64030024
0.40356590 1.00000000 0.64213954
0.52541811 1.00000000 0.64406358
0.64607237 1.00000000 0.64607237
0.76544394 1.00000000 0.64816591
0.88344807 1.00000000 0.65034420
1.00000000 1.00000000 0.65260723
0.00000000 0.00000000 0.69939513
0.11729142 0.00000000 0.70374852
0.23597747 0.00000000 0.70793241
0.35597340 0.00000000 0.71194680
0.47719446 0.00000000 0.71579170
0.59955591 0.00000000 0.71946710
0.72297300 0.00000000 0.72297300
0.84736099 0.00000000 0.72630942
0.97263511 0.00000000 0.72947633
0.00000000 0.11889437 0.71336621
0.11845089 0.11845089 0.73095089
0.24126613 0.11876613 0.73126613
0.36428701 0.11928701 0.73178701
0.48749550 0.11999550 0.73249550
0.61087359 0.12087359 0.73337359
0.73440326 0.12190326 0.73440326
0.85806649 0.12306649 0.73556649
0.98184527 0.12434527 0.73684527
0.00000000 0.24180637 0.72541912
0.12029650 0.24279650 0.73279650
0.24373186 0.24373186 0.73373186
0.36731224 0.24481224 0.73481224
0.49101962 0.24601962 0.73601962
0.61483599 0.24733599 0.73733599
0.73874332 0.24874332 0.73874332
0.86272361 0.25022361 0.74022361
0.98675883 0.25175883 0.74175883
0.00023805 0.36773805 0.73523805
0.12398719 0.36898719 0.73648719
0.24783876 0.37033876 0.73783876
0.37177475 0.37177475 0.73927475
0.49577712 0.37327712 0.74077712
0.61982786 0.37482786 0.74232786
0.74390896 0.37640896 0.74390896
0.86800241 0.37800241 0.74550241
0.99209017 0.37959017 0.74709017
0.00481497 0.49481497 0.73981497
0.12883704 0.49633704 0.74133704
0.25290092 0.49790092 0.74290092
0.37698860 0.49948860 0.74448860
0.50108206 0.50108206 0.74608209
0.62516337 0.50266323 0.74766351
0.74921442 0.50421418 0.74921442
0.87321696 0.50571694 0.75071695
0.99715335 0.50715335 0.75215335
0.01006900 0.62256900 0.74506900
0.13416009 0.62416009 0.74666009
0.25823238 0.62573238 0.74823238
0.38226786 0.62726786 0.74976786
0.50624830 0.62874854 0.75124878
0.63015543 0.63015543 0.75266756
0.75401059 0.63145837 0.75401059
0.87770997 0.63267179 0.75519088
1.00000000 0.63415384 0.75610256
0.01531421 0.75031421 0.75031421
0.13927042 0.75177042 0.75177042
0.26314722 0.75314722 0.75314722
0.38692660 0.75442660 0.75442660
0.51059040 0.75559057 0.75559057
0.63410332 0.75662578 0.75662578
0.75750000 0.75750000 0.75750000
0.88144621 0.75801059 0.75801059
1.00000000 0.75973900 0.75973900
0.01986466 0.87736466 0.75486466
0.14348209 0.87848209 0.75598209
0.26695950 0.87945950 0.75695950
0.39027887 0.88027887 0.75777887
0.51342219 0.88092219 0.75842219
0.63637008 0.88137189 0.75887098
0.75903523 0.88163781 0.75903523
0.88168725 0.88168725 0.75819544
1.00000000 0.88200741 0.76401482
0.03315591 1.00000000 0.75828898
0.15797477 1.00000000 0.75942136
0.28183075 1.00000000 0.76061025
0.40463909 1.00000000 0.76185563
0.52631503 1.00000000 0.76315752
0.64677385 1.00000000 0.76451590
0.76593078 1.00000000 0.76593078
0.88370108 1.00000000 0.76740216
1.00000000 1.00000000 0.76893003
0.00000000 0.00000000 0.81770800
0.11753140 0.00000000 0.82271979
0.23643824 0.00000000 0.82753384
0.35663578 0.00000000 0.83215014
0.47803926 0.00000000 0.83656870
0.60056394 0.00000000 0.84078952
0.72412507 0.00000000 0.84481259
0.84863791 0.00000000 0.84863791
0.97401770 0.00000000 0.85226549
0.00000000 0.11911167 0.83378167
0.11853377 0.11853377 0.85353377
0.24142087 0.11892087 0.85392087
0.36450748 0.11950748 0.85450748
0.48777559 0.12027559 0.85527559
0.61120718 0.12120718 0.85620718
0.73478422 0.12228422 0.85728422
0.85848871 0.12348871 0.85848871
0.98230263 0.12480263 0.85980263
0.00000000 0.24217642 0.84761748
0.12059677 0.24309677 0.85559677
0.24408340 0.24408340 0.85658340
0.36770893 0.24520893 0.85770893
0.49145535 0.24645535 0.85895535
0.61530463 0.24780463 0.86030463
0.73923876 0.24923876 0.86173876
0.86323972 0.25073972 0.86323972
0.98728950 0.25228950 0.86478950
0.00064966 0.36814966 0.85814966
0.12443561 0.36943561 0.85943561
0.24831787 0.37081787 0.86081787
0.37227842 0.37227842 0.86227842
0.49629924 0.37379924 0.86379924
0.62036231 0.37536231 0.86536231
0.74444962 0.37694962 0.86694962
0.86854316 0.37854316 0.86854316
0.99262489 0.38012489 0.87012489
0.00532606 0.49532606 0.86282606
0.12936435 0.49686435 0.86436435
0.25343834 0.49843834 0.86593834
0.37753000 0.50003000 0.86753000
0.50162132 0.50162132 0.86912132
0.62569429 0.50319429 0.87069429
0.74973089 0.50473089 0.87223089
0.87371309 0.50621309 0.87371309
0.99762289 0.50762289 0.87512289
0.01061033 0.62311033 0.86811033
0.13469706 0.62469706 0.86969706
0.25875887 0.62625887 0.87125887
0.38277775 0.62777775 0.87277775
0.50673568 0.62923568 0.87423568
0.63061463 0.63061463 0.87561466
0.75439670 0.63189656 0.87689684
0.87806375 0.63306352 0.87806375
1.00000000 0.63466097 0.87822032
0.01581653 0.75081653 0.87331653
0.13974780 0.75224780 0.87474780
0.26359353 0.75359353 0.87609353
0.38733572 0.75483572 0.87733572
0.51095635 0.75595635 0.87845635
0.63443720 0.75693744 0.87943768
0.75775998 0.75775998 0.88027211
0.88094605 0.75839383 0.88094605
1.00000000 0.76014163 0.88007081
0.02025873 0.87775873 0.87775873
0.14383063 0.87883063 0.87883063
0.26725639 0.87975639 0.87975639
0.39051799 0.88051799 0.88051799
0.51359742 0.88109742 0.88109742
0.63647653 0.88147670 0.88147670
0.75912000 0.88164247 0.88164247
0.88156250 0.88156250 0.88156250
1.00000000 0.88224100 0.88224100
0.03466882 1.00000000 0.87933360
0.15936573 1.00000000 0.87990939
0.28308056 1.00000000 0.88051343
0.40572856 1.00000000 0.88114571
0.52722499 1.00000000 0.88180625
0.64748509 1.00000000 0.88249503
0.76642413 1.00000000 0.88321206
0.88395735 1.00000000 0.88395735
1.00000000 1.00000000 0.88473088
0.00000000 0.00000000 0.93649395
0.11776812 0.00000000 0.94214496
0.23689250 0.00000000 0.94756998
0.35728838 0.00000000 0.95276901
0.47887102 0.00000000 0.95774204
0.60155567 0.00000000 0.96248908
0.72525759 0.00000000 0.96701012
0.84989203 0.00000000 0.97130518
0.97537423 0.00000000 0.97537423
0.00000000 0.11932571 0.95460567
0.11864174 0.11864174 0.97614174
0.24159862 0.11909862 0.97659862
0.36474889 0.11974889 0.97724889
0.48807453 0.12057453 0.97807453
0.61155754 0.12155754 0.97905754
0.73517989 0.12267989 0.98017989
0.85892356 0.12392356 0.98142356
0.98277054 0.12527054 0.98277054
0.00000000 0.24253996 0.97015984
0.12091514 0.24341514 0.97841514
0.24445096 0.24445096 0.97945096
0.36811957 0.24561957 0.98061957
0.49190293 0.24690293 0.98190293
0.61578305 0.24828305 0.98328305
0.73974190 0.24974190 0.98474190
0.86376146 0.25126146 0.98626146
0.98782372 0.25282372 0.98782372
0.00107446 0.36857446 0.98107446
0.12489513 0.36989513 0.98239513
0.24880600 0.37130600 0.98380600
0.37278904 0.37278904 0.98528904
0.49682623 0.37432623 0.98682623
0.62089955 0.37589955 0.98839955
0.74499100 0.37749100 0.98999100
0.86908255 0.37908255 0.99158255
0.99315618 0.38065618 0.99315618
0.00584335 0.49584335 0.98584335
0.12989578 0.49739578 0.98739578
0.25397779 0.49897779 0.98897779
0.37807136 0.50057136 0.99057136
0.50215847 0.50215847 0.99215847
0.62622111 0.50372111 0.99372111
0.75024125 0.50524125 0.99524125
0.87420089 0.50670089 0.99670089
0.99808199 0.50808199 0.99808199
0.01115087 0.62365087 0.99115087
0.13523115 0.62523115 0.99273115
0.25928041 0.62678041 0.99428041
0.38328060 0.62828060 0.99578060
0.50721373 0.62971373 0.99721373
0.63106178 0.63106178 0.99856178
0.75480672 0.63230672 0.99980672
0.87789460 0.63368379 1.00000000
1.00000000 0.63517787 1.00000000
0.01631107 0.75131107 0.99631107
0.14021531 0.75271531 0.99771531
0.26402790 0.75402790 0.99902790
0.38796288 0.75518515 1.00000000
0.51229056 0.75614528 1.00000000
0.63574286 0.75716191 1.00000000
0.75823503 0.75823503 1.00000000
0.87968233 0.75936466 1.00000000
1.00000000 0.76055078 1.00000000
0.02211264 0.87776408 1.00000000
0.14778100 0.87825443 1.00000000
0.27263816 0.87877303 1.00000000
0.39659937 0.87931987 1.00000000
0.51957988 0.87989497 1.00000000
0.64149495 0.88049832 1.00000000
0.76225982 0.88112991 1.00000000
0.88178975 0.88178975 1.00000000
1.00000000 0.88247785 1.00000000
0.03620780 1.00000000 1.00000000
0.16077949 1.00000000 1.00000000
0.28434992 1.00000000 1.00000000
0.40683433 1.00000000 1.00000000
0.52814798 1.00000000 1.00000000
0.64820611 1.00000000 1.00000000
0.76692400 1.00000000 1.00000000
0.88421687 1.00000000 1.00000000
1.00000000 1.00000000 1.00000000
