assets/luts/DB_Sodium_Cinema_Rec709_100.cube
TITLE "Sodium Cinema Rec709 100"
# Red changes fastest. Full-range normalized input.
LUT_3D_SIZE 33
DOMAIN_MIN 0 0 0
DOMAIN_MAX 1 1 1
0.00800000 0.00800000 0.00800000
0.03417260 0.00682078 0.00703057
0.06103823 0.00553694 0.00590514
0.08806181 0.00431365 0.00482376
0.11451483 0.00337772 0.00405421
0.13995422 0.00286762 0.00375440
0.16451002 0.00274237 0.00386971
0.18873113 0.00282879 0.00419401
0.21317851 0.00294895 0.00452061
0.23813745 0.00301097 0.00474601
0.26360746 0.00301286 0.00487117
0.28945211 0.00299567 0.00494563
0.31553412 0.00300099 0.00501830
0.34176728 0.00305438 0.00511909
0.36811087 0.00316711 0.00526133
0.39454909 0.00334257 0.00544937
0.42107620 0.00358099 0.00568394
0.44768966 0.00388156 0.00596464
0.47438774 0.00424322 0.00629076
0.50116891 0.00466487 0.00666155
0.52803162 0.00514537 0.00707626
0.55497438 0.00568361 0.00753410
0.58199567 0.00627846 0.00803431
0.60909396 0.00692880 0.00857612
0.63626776 0.00763350 0.00915877
0.66351553 0.00839144 0.00978149
0.69083577 0.00920150 0.01044350
0.71822695 0.01006254 0.01114405
0.74568758 0.01097346 0.01188235
0.77321612 0.01193311 0.01265766
0.80081107 0.01294039 0.01346918
0.82847091 0.01399416 0.01431617
0.85619413 0.01509330 0.01519785
0.00266698 0.03224819 0.00547022
0.02902551 0.03135303 0.00411089
0.05641222 0.03023932 0.00245542
0.08447744 0.02902479 0.00085678
0.11206281 0.02805902 0.00000000
0.13855203 0.02756839 0.00000000
0.16438122 0.02745842 0.00047871
0.18866239 0.02790337 0.00174818
0.21274769 0.02850529 0.00303918
0.23729308 0.02905070 0.00405081
0.26253391 0.02946348 0.00472619
0.28837743 0.02977363 0.00516001
0.31462143 0.03004603 0.00547699
0.34110027 0.03033321 0.00576658
0.36772115 0.03066383 0.00607484
0.39444380 0.03104936 0.00641997
0.42125360 0.03149296 0.00680738
0.44814542 0.03199469 0.00723797
0.47511691 0.03255368 0.00771134
0.50216640 0.03316886 0.00822679
0.52929236 0.03383912 0.00878356
0.55649326 0.03456334 0.00938088
0.58376759 0.03534038 0.01001799
0.61111383 0.03616913 0.01069412
0.63853047 0.03704846 0.01140851
0.66601600 0.03797725 0.01216037
0.69356890 0.03895437 0.01294895
0.72118765 0.03997871 0.01377348
0.74887073 0.04104912 0.01463318
0.77661665 0.04216450 0.01552730
0.80442387 0.04332372 0.01645506
0.83229088 0.04452565 0.01741570
0.86021618 0.04576917 0.01840844
0.00000000 0.05681907 0.00520913
0.02491732 0.05679442 0.00243823
0.05222159 0.05600773 0.00026565
0.07973909 0.05502964 0.00000000
0.10660608 0.05439399 0.00000000
0.13328914 0.05410022 0.00000000
0.16020536 0.05406365 0.00000000
0.18755708 0.05416360 0.00000000
0.21356639 0.05469614 0.00112585
0.23784867 0.05568562 0.00322866
0.26278351 0.05653526 0.00474417
0.28848425 0.05721112 0.00573293
0.31477603 0.05777424 0.00639446
0.34143169 0.05830110 0.00691099
0.36829162 0.05884429 0.00739312
0.39527469 0.05942955 0.00789149
0.42234821 0.06006625 0.00842425
0.44950084 0.06075654 0.00899629
0.47672851 0.06150017 0.00960825
0.50402918 0.06229617 0.01025967
0.53140123 0.06314347 0.01094982
0.55884312 0.06404093 0.01167793
0.58635335 0.06498745 0.01244325
0.61393040 0.06598189 0.01324501
0.64157275 0.06702313 0.01408243
0.66927888 0.06811005 0.01495476
0.69704729 0.06924152 0.01586121
0.72487646 0.07041641 0.01680103
0.75276486 0.07163361 0.01777345
0.78071100 0.07289200 0.01877769
0.80871334 0.07419043 0.01981299
0.83677039 0.07552780 0.02087858
0.86488061 0.07690298 0.02197370
0.00000000 0.08166987 0.00728740
0.02220314 0.08301254 0.00242537
0.04911390 0.08265254 0.00026384
0.07701555 0.08180796 0.00000000
0.10446105 0.08118497 0.00000000
0.13156081 0.08093036 0.00000000
0.15865537 0.08105044 0.00000000
0.18604630 0.08144513 0.00000000
0.21385891 0.08195537 0.00000000
0.23912305 0.08306273 0.00245133
0.26403586 0.08425861 0.00489411
0.28964439 0.08528067 0.00658386
0.31593741 0.08614009 0.00770188
0.34271248 0.08691103 0.00850353
0.36977007 0.08766348 0.00917961
0.39698619 0.08843955 0.00983252
0.42430296 0.08925783 0.01050477
0.45169838 0.09012428 0.01121024
0.47916491 0.09103988 0.01195225
0.50669957 0.09200400 0.01273096
0.53430056 0.09301561 0.01354580
0.56196630 0.09407361 0.01439602
0.58969529 0.09517688 0.01528085
0.61748599 0.09632429 0.01619955
0.64533690 0.09751471 0.01715132
0.67324650 0.09874704 0.01813541
0.70121327 0.10002013 0.01915105
0.72923571 0.10133287 0.02019747
0.75731229 0.10268414 0.02127390
0.78544150 0.10407280 0.02237957
0.81362182 0.10549774 0.02351372
0.84185175 0.10695783 0.02467558
0.87012976 0.10845194 0.02586438
0.00000000 0.10774452 0.00917153
0.02092997 0.10992479 0.00364188
0.04758082 0.10997154 0.00211424
0.07496724 0.10982488 0.00000000
0.10308997 0.10927966 0.00000000
0.13088856 0.10900367 0.00000000
0.15850281 0.10910240 0.00000000
0.18618400 0.10956484 0.00000000
0.21414351 0.11026410 0.00000000
0.24032431 0.11140899 0.00251376
0.26575437 0.11275495 0.00552047
0.29156906 0.11401420 0.00780491
0.31796555 0.11512552 0.00939059
0.34486500 0.11612532 0.01051025
0.37209681 0.11707864 0.01139967
0.39952145 0.11803609 0.01221131
0.42706070 0.11902467 0.01301889
0.45468054 0.12005504 0.01385039
0.48236845 0.12113001 0.01471404
0.51011990 0.12224954 0.01561142
0.53793267 0.12341276 0.01654226
0.56580512 0.12461857 0.01750589
0.59373571 0.12586587 0.01850156
0.62172292 0.12715352 0.01952849
0.64976524 0.12848042 0.02058592
0.67786116 0.12984543 0.02167309
0.70600916 0.13124743 0.02278922
0.73420772 0.13268529 0.02393355
0.76245532 0.13415790 0.02510530
0.79075047 0.13566412 0.02630372
0.81909163 0.13720284 0.02752803
0.84747729 0.13877292 0.02877746
0.87590595 0.14037325 0.03005125
0.00000000 0.13494689 0.01066658
0.02084969 0.13751157 0.00539037
0.04755102 0.13787535 0.00473661
0.07459249 0.13817709 0.00349058
0.10218370 0.13835900 0.00177713
0.13035599 0.13844271 0.00009972
0.15865434 0.13853302 0.00000000
0.18689185 0.13893615 0.00000000
0.21450104 0.13968602 0.00154392
0.24124664 0.14079770 0.00430399
0.26758200 0.14211582 0.00719974
0.29395910 0.14346302 0.00967604
0.32067120 0.14473530 0.01155348
0.34777861 0.14591925 0.01293801
0.37519825 0.14705208 0.01403106
0.40281938 0.14817734 0.01499890
0.43056336 0.14932406 0.01593698
0.45838968 0.15050599 0.01688730
0.48628151 0.15172775 0.01786434
0.51423250 0.15299001 0.01887179
0.54223989 0.15429211 0.01990996
0.57030189 0.15563302 0.02097832
0.59841694 0.15701162 0.02207612
0.62658352 0.15842681 0.02320261
0.65480011 0.15987745 0.02435701
0.68306520 0.16136243 0.02553856
0.71137727 0.16288061 0.02674649
0.73973481 0.16443088 0.02798003
0.76813630 0.16601210 0.02923842
0.79658023 0.16762317 0.03052089
0.82506508 0.16926294 0.03182667
0.85358934 0.17093030 0.03315498
0.88215148 0.17262413 0.03450507
0.00000000 0.16319896 0.01171679
0.02170057 0.16576793 0.00730919
0.04865253 0.16636680 0.00736801
0.07573802 0.16697687 0.00709404
0.10307835 0.16755654 0.00644872
0.13077759 0.16808446 0.00560563
0.15880647 0.16859715 0.00497528
0.18694686 0.16919448 0.00504015
0.21489167 0.16998887 0.00607014
0.24244631 0.17103026 0.00794152
0.26965432 0.17227310 0.01022113
0.29673779 0.17361397 0.01243893
0.32392869 0.17496004 0.01431940
0.35134704 0.17627007 0.01582711
0.37899433 0.17754949 0.01706815
0.40681477 0.17882321 0.01817216
0.43475135 0.18011384 0.01923091
0.46276777 0.18143445 0.02029184
0.49084635 0.18279032 0.02137389
0.51897969 0.18418261 0.02248283
0.54716453 0.18561088 0.02361967
0.57539893 0.18707416 0.02478406
0.60368130 0.18857136 0.02597531
0.63201010 0.19010135 0.02719265
0.66038381 0.19166302 0.02843533
0.68880093 0.19325524 0.02970258
0.71725993 0.19487689 0.03099362
0.74575930 0.19652683 0.03230769
0.77429753 0.19820396 0.03364402
0.80287310 0.19990714 0.03500185
0.83148449 0.20163525 0.03638040
0.86013020 0.20338717 0.03777891
0.88880870 0.20516177 0.03919660
0.00000000 0.19244071 0.01235163
0.02335719 0.19466927 0.00940517
0.05060188 0.19545765 0.00989833
0.07791432 0.19628653 0.01027007
0.10533494 0.19713736 0.01046045
0.13292476 0.19799090 0.01048416
0.16072264 0.19884454 0.01048525
0.18869122 0.19972736 0.01071527
0.21670872 0.20069338 0.01141040
0.24463581 0.20178965 0.01264301
0.27240907 0.20302357 0.01427199
0.30007630 0.20435908 0.01603692
0.32774738 0.20574348 0.01771157
0.35551593 0.20713867 0.01919613
0.38341838 0.20853304 0.02050682
0.41144395 0.20993353 0.02171139
0.43956464 0.21135216 0.02287422
0.46775645 0.21279787 0.02403539
0.49600515 0.21427496 0.02521355
0.52430377 0.21578455 0.02641530
0.55264892 0.21732628 0.02764214
0.58103858 0.21889921 0.02889388
0.60947111 0.22050227 0.03016988
0.63794499 0.22213435 0.03146940
0.66645868 0.22379433 0.03279166
0.69501068 0.22548107 0.03413591
0.72359947 0.22719346 0.03550137
0.75222353 0.22893037 0.03688727
0.78088135 0.23069067 0.03829286
0.80957141 0.23247325 0.03971735
0.83829220 0.23427698 0.04115999
0.86704221 0.23610073 0.04261999
0.89581991 0.23794339 0.04409661
0.00000000 0.22261666 0.01260808
0.02578400 0.22417351 0.01179625
0.05329232 0.22513021 0.01252928
0.08085913 0.22613297 0.01324749
0.10849073 0.22717568 0.01391781
0.13620589 0.22824948 0.01452136
0.16402904 0.22934734 0.01508361
0.19196982 0.23047164 0.01568977
0.22000366 0.23163795 0.01645788
0.24807646 0.23286835 0.01747354
0.27613713 0.23417684 0.01873349
0.30417121 0.23555909 0.02014738
0.33220499 0.23699582 0.02159598
0.36028036 0.23846579 0.02299533
0.38842660 0.23995644 0.02432123
0.41665071 0.24146559 0.02559232
0.44494486 0.24299666 0.02684010
0.47329760 0.24455368 0.02808952
0.50170009 0.24613896 0.02935430
0.53014702 0.24775306 0.03064002
0.55863537 0.24939550 0.03194814
0.58716314 0.25106537 0.03327854
0.61572870 0.25276158 0.03463061
0.64433051 0.25448302 0.03600360
0.67296703 0.25622858 0.03739676
0.70163677 0.25799713 0.03880932
0.73033819 0.25978753 0.04024050
0.75906979 0.26159868 0.04168955
0.78783006 0.26342945 0.04315570
0.81661747 0.26527870 0.04463816
0.84543051 0.26714533 0.04613619
0.87426768 0.26902819 0.04764901
0.90312744 0.27092618 0.04917585
0.00128054 0.25316735 0.01369902
0.02895666 0.25423400 0.01455314
0.05669372 0.25534588 0.01543649
0.08448896 0.25650165 0.01634125
0.11234096 0.25769923 0.01725554
0.14025186 0.25893540 0.01816727
0.16822822 0.26020636 0.01907352
0.19627733 0.26150977 0.01999125
0.22439947 0.26284724 0.02095826
0.25258267 0.26422453 0.02201695
0.28080699 0.26564807 0.02318862
0.30905666 0.26711995 0.02445866
0.33732935 0.26863589 0.02578597
0.36563460 0.27018780 0.02712798
0.39398432 0.27176843 0.02846062
0.42238494 0.27337405 0.02978122
0.45083610 0.27500403 0.03109912
0.47933376 0.27665904 0.03242527
0.50787346 0.27833953 0.03376703
0.53645175 0.28004534 0.03512778
0.56506619 0.28177577 0.03650844
0.59371495 0.28352984 0.03790880
0.62239639 0.28530648 0.03932824
0.65110897 0.28710457 0.04076602
0.67985119 0.28892299 0.04222138
0.70862151 0.29076061 0.04369356
0.73741843 0.29261632 0.04518178
0.76624043 0.29448899 0.04668528
0.79508599 0.29637749 0.04820330
0.82395361 0.29828070 0.04973505
0.85284176 0.30019750 0.05127978
0.88174893 0.30212676 0.05283672
0.91067361 0.30406736 0.05440509
0.00495170 0.28359193 0.01671739
0.03283477 0.28480551 0.01768663
0.06077531 0.28606042 0.01868692
0.08877139 0.28735552 0.01971607
0.11682111 0.28868959 0.02077065
0.14492310 0.29006111 0.02184617
0.17307726 0.29146828 0.02293893
0.20128471 0.29290926 0.02404936
0.22954640 0.29438289 0.02518474
0.25786070 0.29588926 0.02635764
0.28622246 0.29742942 0.02757934
0.31462492 0.29900415 0.02885218
0.34306327 0.30061263 0.03016750
0.37153662 0.30225233 0.03151085
0.40004677 0.30392009 0.03287000
0.42859557 0.30561334 0.03423940
0.45718312 0.30733055 0.03561942
0.48580792 0.30907092 0.03701291
0.51446771 0.31083385 0.03842245
0.54316029 0.31261860 0.03984936
0.57188372 0.31442428 0.04129382
0.60063631 0.31624983 0.04275543
0.62941649 0.31809418 0.04423355
0.65822271 0.31995619 0.04572742
0.68705347 0.32183475 0.04723630
0.71590723 0.32372874 0.04875940
0.74478250 0.32563703 0.05029597
0.77367775 0.32755849 0.05184523
0.80259147 0.32949201 0.05340642
0.83152215 0.33143646 0.05497877
0.86046826 0.33339071 0.05656151
0.88942829 0.33535364 0.05815387
0.91840074 0.33732413 0.05975509
0.00929432 0.31449647 0.02010470
0.03736620 0.31584441 0.02117850
0.06549078 0.31722986 0.02228150
0.09366648 0.31865170 0.02341273
0.12189164 0.32010879 0.02457094
0.15016466 0.32159997 0.02575455
0.17848411 0.32312400 0.02696182
0.20684890 0.32467957 0.02819148
0.23525825 0.32626543 0.02944366
0.26371121 0.32788051 0.03072027
0.29220606 0.32952410 0.03202417
0.32074029 0.33119560 0.03335708
0.34931115 0.33289423 0.03471803
0.37791653 0.33461882 0.03610341
0.40655520 0.33636780 0.03750890
0.43522645 0.33813960 0.03893128
0.46392944 0.33993281 0.04036915
0.49266292 0.34174631 0.04182237
0.52142533 0.34357905 0.04329114
0.55021500 0.34543004 0.04477547
0.57903027 0.34729824 0.04627502
0.60786956 0.34918255 0.04778919
0.63673133 0.35108188 0.04931729
0.66561404 0.35299510 0.05085857
0.69451619 0.35492108 0.05241226
0.72343626 0.35685871 0.05397760
0.75237273 0.35880685 0.05555383
0.78132409 0.36076440 0.05714016
0.81028882 0.36273021 0.05873583
0.83926540 0.36470317 0.06034008
0.86825233 0.36668216 0.06195214
0.89724809 0.36866604 0.06357124
0.92625115 0.37065370 0.06519661
0.01425113 0.34583809 0.02383233
0.04249451 0.34730771 0.02500171
0.07078554 0.34881103 0.02619781
0.09912271 0.35034696 0.02741984
0.12750448 0.35191435 0.02866696
0.15592929 0.35351208 0.02993828
0.18439562 0.35513903 0.03123282
0.21290198 0.35679403 0.03254964
0.24144698 0.35847592 0.03388792
0.27002925 0.36018356 0.03524725
0.29864739 0.36191587 0.03662753
0.32729981 0.36367180 0.03802877
0.35598476 0.36545035 0.03945056
0.38470050 0.36725043 0.04089185
0.41344542 0.36907087 0.04235117
0.44221809 0.37091047 0.04382701
0.47101714 0.37276800 0.04531820
0.49984117 0.37464232 0.04682396
0.52868871 0.37653230 0.04834370
0.55755822 0.37843685 0.04987685
0.58644817 0.38035485 0.05142280
0.61535701 0.38228521 0.05298083
0.64428322 0.38422680 0.05455023
0.67322529 0.38617850 0.05613022
0.70218169 0.38813918 0.05772004
0.73115091 0.39010773 0.05931893
0.76013144 0.39208301 0.06092611
0.78912175 0.39406391 0.06254082
0.81812035 0.39604930 0.06416229
0.84712570 0.39803805 0.06578976
0.87613630 0.40002905 0.06742244
0.90515063 0.40202116 0.06905958
0.93416717 0.40401327 0.07070041
0.01976452 0.37757400 0.02787111
0.04816222 0.37915256 0.02912736
0.07660250 0.38076106 0.03040775
0.10508383 0.38239836 0.03171151
0.13360469 0.38406336 0.03303787
0.16216357 0.38575491 0.03438605
0.19075894 0.38747191 0.03575525
0.21938929 0.38921321 0.03714466
0.24805310 0.39097770 0.03855348
0.27674890 0.39276424 0.03998097
0.30547519 0.39457170 0.04142644
0.33423048 0.39639898 0.04288926
0.36301322 0.39824496 0.04436878
0.39182187 0.40010853 0.04586428
0.42065487 0.40198859 0.04737488
0.44951069 0.40388398 0.04889970
0.47838784 0.40579357 0.05043782
0.50728483 0.40771622 0.05198845
0.53620015 0.40965082 0.05355083
0.56513229 0.41159622 0.05512423
0.59407975 0.41355133 0.05670791
0.62304099 0.41551500 0.05830113
0.65201450 0.41748613 0.05990313
0.68099877 0.41946359 0.06151314
0.70999227 0.42144626 0.06313040
0.73899350 0.42343300 0.06475414
0.76800094 0.42542270 0.06638359
0.79701307 0.42741423 0.06801799
0.82602838 0.42940648 0.06965657
0.85504536 0.43139830 0.07129855
0.88406248 0.43338859 0.07294317
0.91307824 0.43537622 0.07458967
0.94209111 0.43736005 0.07623727
0.02577681 0.40966138 0.03219182
0.05431170 0.41133617 0.03352624
0.08288406 0.41303712 0.03488221
0.11149238 0.41476310 0.03625898
0.14013514 0.41651298 0.03765577
0.16881083 0.41828564 0.03907182
0.19751793 0.42007996 0.04050635
0.22625493 0.42189481 0.04195859
0.25502030 0.42372906 0.04342777
0.28381254 0.42558160 0.04491311
0.31263014 0.42745130 0.04641386
0.34147158 0.42933704 0.04792926
0.37033536 0.43123768 0.04945856
0.39921995 0.43315212 0.05100102
0.42812383 0.43507922 0.05255587
0.45704548 0.43701787 0.05412231
0.48598339 0.43896693 0.05569956
0.51493604 0.44092529 0.05728683
0.54390192 0.44289181 0.05888336
0.57287952 0.44486538 0.06048838
0.60186732 0.44684487 0.06210112
0.63086382 0.44882914 0.06372083
0.65986748 0.45081710 0.06534674
0.68887680 0.45280759 0.06697809
0.71789027 0.45479952 0.06861409
0.74690636 0.45679174 0.07025400
0.77592356 0.45878313 0.07189703
0.80494036 0.46077258 0.07354242
0.83395525 0.46275896 0.07518941
0.86296670 0.46474114 0.07683722
0.89197320 0.46671799 0.07848509
0.92097324 0.46868841 0.08013225
0.94996530 0.47065125 0.08177792
0.03223032 0.44205746 0.03676523
0.06088525 0.44381576 0.03816912
0.08957255 0.44559644 0.03959199
0.11829072 0.44739836 0.04103307
0.14703823 0.44922040 0.04249159
0.17581357 0.45106145 0.04396678
0.20461523 0.45292037 0.04545788
0.23344168 0.45479604 0.04696411
0.26229143 0.45668734 0.04848471
0.29116294 0.45859314 0.05001891
0.32005471 0.46051232 0.05156594
0.34896522 0.46244376 0.05312503
0.37789296 0.46438632 0.05469543
0.40683642 0.46633889 0.05627635
0.43579406 0.46830035 0.05786705
0.46476439 0.47026956 0.05946674
0.49374589 0.47224541 0.06107465
0.52273703 0.47422677 0.06269003
0.55173631 0.47621252 0.06431209
0.58074221 0.47820153 0.06594007
0.60975321 0.48019267 0.06757320
0.63876781 0.48218484 0.06921071
0.66778448 0.48417689 0.07085184
0.69680172 0.48616770 0.07249583
0.72581799 0.48815616 0.07414189
0.75483180 0.49014114 0.07578926
0.78384163 0.49212151 0.07743718
0.81284595 0.49409616 0.07908488
0.84184326 0.49606394 0.08073159
0.87083204 0.49802375 0.08237654
0.89981078 0.49997446 0.08401896
0.92877796 0.50191494 0.08565809
0.95773206 0.50384407 0.08729315
0.03906739 0.47471943 0.04156208
0.06782520 0.47654852 0.04302676
0.09661030 0.47839621 0.04450783
0.12542116 0.48026135 0.04600453
0.15425628 0.48214285 0.04751609
0.18311412 0.48403955 0.04904173
0.21199319 0.48595036 0.05058070
0.24089196 0.48787413 0.05213222
0.26980892 0.48980975 0.05369552
0.29874255 0.49175609 0.05526984
0.32769135 0.49371202 0.05685441
0.35665378 0.49567643 0.05844846
0.38562835 0.49764819 0.06005123
0.41461353 0.49962618 0.06166194
0.44360781 0.50160926 0.06327983
0.47260968 0.50359633 0.06490413
0.50161761 0.50558624 0.06653407
0.53063010 0.50757789 0.06816889
0.55964563 0.50957014 0.06980781
0.58866268 0.51156187 0.07145007
0.61767974 0.51355196 0.07309490
0.64669530 0.51553929 0.07474153
0.67570783 0.51752272 0.07638919
0.70471583 0.51950113 0.07803712
0.73371778 0.52147341 0.07968454
0.76271216 0.52343842 0.08133070
0.79169746 0.52539505 0.08297482
0.82067216 0.52734216 0.08461613
0.84963475 0.52927864 0.08625386
0.87858372 0.53120336 0.08788726
0.90751754 0.53311520 0.08951554
0.93643471 0.53501302 0.09113795
0.96533371 0.53689572 0.09275371
0.04623032 0.50760450 0.04655315
0.07507388 0.50949167 0.04806993
0.10393963 0.51139364 0.04960051
0.13282604 0.51330929 0.05114414
0.16173161 0.51523750 0.05270003
0.19065482 0.51717716 0.05426744
0.21959414 0.51912712 0.05584558
0.24854808 0.52108627 0.05743369
0.27751511 0.52305349 0.05903101
0.30649372 0.52502764 0.06063676
0.33548239 0.52700762 0.06225017
0.36447960 0.52899228 0.06387048
0.39348385 0.53098051 0.06549693
0.42249362 0.53297119 0.06712873
0.45150739 0.53496319 0.06876513
0.48052365 0.53695538 0.07040535
0.50954088 0.53894664 0.07204863
0.53855757 0.54093586 0.07369421
0.56757220 0.54292189 0.07534130
0.59658326 0.54490363 0.07698915
0.62558923 0.54687994 0.07863698
0.65458860 0.54884970 0.08028404
0.68357984 0.55081179 0.08192954
0.71256146 0.55276508 0.08357272
0.74153193 0.55470845 0.08521282
0.77048974 0.55664078 0.08684907
0.79943337 0.55856094 0.08848069
0.82836130 0.56046781 0.09010692
0.85727203 0.56236026 0.09172700
0.88616404 0.56423716 0.09334015
0.91503580 0.56609741 0.09494560
0.94388582 0.56793986 0.09654260
0.97271256 0.56976340 0.09813036
0.05366144 0.54066989 0.05170920
0.08257360 0.54260240 0.05326938
0.11150285 0.54454593 0.05484078
0.14044767 0.54649937 0.05642264
0.16940655 0.54846159 0.05801419
0.19837797 0.55043146 0.05961467
0.22736042 0.55240787 0.06122330
0.25635237 0.55438968 0.06283931
0.28535233 0.55637577 0.06446194
0.31435876 0.55836502 0.06609043
0.34337016 0.56035631 0.06772399
0.37238501 0.56234851 0.06936187
0.40140180 0.56434049 0.07100330
0.43041901 0.56633114 0.07264750
0.45943512 0.56831933 0.07429372
0.48844863 0.57030393 0.07594118
0.51745801 0.57228382 0.07758911
0.54646175 0.57425787 0.07923675
0.57545834 0.57622497 0.08088333
0.60444626 0.57818399 0.08252807
0.63342399 0.58013380 0.08417022
0.66239003 0.58207328 0.08580901
0.69134285 0.58400131 0.08744366
0.72028094 0.58591676 0.08907341
0.74920278 0.58781851 0.09069749
0.77810687 0.58970543 0.09231513
0.80699168 0.59157640 0.09392557
0.83585571 0.59343030 0.09552803
0.86469742 0.59526600 0.09712175
0.89351532 0.59708237 0.09870597
0.92230789 0.59887830 0.10027990
0.95107360 0.60065266 0.10184279
0.97981095 0.60240433 0.10339387
0.06130306 0.57387279 0.05700099
0.09026668 0.57583792 0.05859588
0.11924229 0.57781030 0.06019941
0.14822838 0.57978881 0.06181081
0.17722342 0.58177231 0.06342933
0.20622591 0.58375968 0.06505418
0.23523433 0.58574980 0.06668460
0.26424716 0.58774155 0.06831983
0.29326289 0.58973380 0.06995909
0.32228001 0.59172543 0.07160161
0.35129699 0.59371531 0.07324664
0.38031233 0.59570232 0.07489340
0.40932451 0.59768534 0.07654112
0.43833201 0.59966323 0.07818903
0.46733333 0.60163489 0.07983637
0.49632693 0.60359917 0.08148237
0.52531132 0.60555497 0.08312626
0.55428497 0.60750115 0.08476728
0.58324637 0.60943659 0.08640464
0.61219400 0.61136017 0.08803760
0.64112635 0.61327076 0.08966537
0.67004191 0.61516724 0.09128720
0.69893916 0.61704849 0.09290231
0.72781657 0.61891337 0.09450993
0.75667265 0.62076077 0.09610930
0.78550587 0.62258957 0.09769965
0.81431473 0.62439863 0.09928021
0.84309769 0.62618684 0.10085021
0.87185325 0.62795307 0.10240889
0.90057990 0.62969619 0.10395548
0.92927612 0.63141508 0.10548920
0.95794039 0.63310863 0.10700930
0.98657119 0.63477570 0.10851500
0.06909753 0.60717041 0.06239927
0.09809545 0.60915545 0.06402018
0.12710028 0.61114395 0.06564715
0.15611048 0.61313480 0.06727941
0.18512454 0.61512686 0.06891620
0.21414095 0.61711901 0.07055673
0.24315819 0.61911014 0.07220026
0.27217476 0.62109910 0.07384600
0.30118912 0.62308479 0.07549320
0.33019977 0.62506607 0.07714108
0.35920520 0.62704182 0.07878887
0.38820388 0.62901093 0.08043582
0.41719431 0.63097225 0.08208114
0.44617496 0.63292468 0.08372407
0.47514432 0.63486708 0.08536384
0.50410089 0.63679833 0.08699970
0.53304313 0.63871731 0.08863085
0.56196954 0.64062290 0.09025655
0.59087861 0.64251396 0.09187602
0.61976881 0.64438938 0.09348849
0.64863864 0.64624803 0.09509320
0.67748657 0.64808879 0.09668937
0.70631109 0.64991053 0.09827625
0.73511070 0.65171213 0.09985305
0.76388386 0.65349246 0.10141902
0.79262907 0.65525041 0.10297339
0.82134482 0.65698484 0.10451538
0.85002958 0.65869464 0.10604423
0.87868184 0.66037867 0.10755917
0.90730009 0.66203582 0.10905944
0.93588281 0.66366496 0.11054426
0.96442849 0.66526497 0.11201287
0.99293561 0.66683472 0.11346450
0.07698714 0.64051995 0.06787482
0.10600223 0.64251218 0.06951306
0.13501912 0.64450409 0.07115478
0.16403629 0.64649456 0.07279920
0.19305223 0.64848246 0.07444556
0.22206542 0.65046667 0.07609309
0.25107434 0.65244607 0.07774103
0.28007749 0.65441953 0.07938861
0.30907334 0.65638593 0.08103505
0.33806038 0.65834415 0.08267959
0.36703710 0.66029305 0.08432146
0.39600198 0.66223153 0.08595989
0.42495351 0.66415844 0.08759413
0.45389016 0.66607268 0.08922338
0.48281044 0.66797310 0.09084690
0.51171281 0.66985860 0.09246391
0.54059577 0.67172805 0.09407365
0.56945780 0.67358031 0.09567534
0.59829738 0.67541428 0.09726822
0.62711301 0.67722881 0.09885151
0.65590316 0.67902280 0.10042446
0.68466633 0.68079512 0.10198630
0.71340099 0.68254463 0.10353624
0.74210562 0.68427023 0.10507354
0.77077873 0.68597077 0.10659742
0.79941878 0.68764515 0.10810711
0.82802428 0.68929223 0.10960184
0.85659369 0.69091090 0.11108085
0.88512550 0.69250002 0.11254336
0.91361821 0.69405848 0.11398862
