assets/luts/DB_Sports_Floodlight_Rec709_50.cube
TITLE "Sports Floodlight Rec709 50"
# Red changes fastest. Full-range normalized input.
LUT_3D_SIZE 5
DOMAIN_MIN 0 0 0
DOMAIN_MAX 1 1 1
0.00250000 0.00250000 0.00250000
0.24287744 0.00095939 0.00139944
0.48369259 0.00067215 0.00147673
0.72591246 0.00121083 0.00224669
0.96902830 0.00254818 0.00371806
0.00051584 0.24352479 0.00270601
0.24396938 0.24512747 0.00408661
0.48803945 0.24734194 0.00664443
0.73271443 0.25006192 0.00932192
0.97781788 0.25315178 0.01231068
0.00809673 0.49306314 0.01037954
0.25332039 0.49625627 0.01345466
0.49877886 0.49964628 0.01668870
0.74433230 0.50310587 0.01996695
0.98984088 0.50650777 0.02317466
0.01991656 0.74627026 0.02114896
0.26537409 0.74961955 0.02430251
0.51059602 0.75273751 0.02722901
0.75544253 0.75549688 0.02981373
0.99977377 0.75777036 0.03194195
0.03065261 0.99830002 0.03064742
0.27557803 1.00000000 0.03379233
0.52135048 1.00000000 0.04205790
0.76309018 1.00000000 0.05118607
1.00000000 0.99981423 0.06357698
0.00171287 0.00188477 0.24396921
0.24213655 0.00081608 0.24332132
0.48368782 0.00075763 0.24356494
0.72622765 0.00158181 0.24458597
0.96961596 0.00316145 0.24626944
0.00093640 0.24398869 0.24512823
0.24472476 0.24573316 0.24674155
0.48930359 0.24809421 0.24924293
0.73375738 0.25107608 0.25221979
0.97897353 0.25426281 0.25528958
0.00918621 0.49411757 0.25331142
0.25450436 0.49739211 0.25645214
0.50003470 0.50081651 0.25939936
0.74556821 0.50427331 0.26297841
0.99102712 0.50762737 0.26614011
0.02113821 0.74742573 0.26415076
0.26653141 0.75071074 0.26724006
0.51164153 0.75372119 0.27006336
0.75632873 0.75632982 0.27250592
1.00000000 0.75844255 0.27545844
0.03146902 0.99906735 0.27327818
0.27767003 1.00000000 0.27733567
0.52287314 1.00000000 0.28373833
0.76390435 1.00000000 0.29080634
1.00000000 0.99984730 0.30051371
0.00107199 0.00140072 0.48555445
0.24189419 0.00068941 0.48522214
0.48379704 0.00094491 0.48574278
0.72664070 0.00203992 0.48700165
0.97028534 0.00384717 0.48888399
0.00144845 0.24453463 0.48762080
0.24534998 0.24656956 0.48970168
0.48986202 0.24914299 0.49224966
0.73484392 0.25212798 0.49514955
0.98015666 0.25539690 0.49828713
0.01031342 0.49520440 0.49627037
0.25571160 0.49854515 0.49946594
0.50125000 0.50187055 0.50249110
0.74712851 0.50529719 0.50582397
0.99218659 0.50872064 0.50907970
0.02234334 0.74856422 0.50713511
0.26765608 0.75177026 0.51014694
0.51263718 0.75465881 0.51285270
0.75714717 0.75710046 0.51485479
1.00000000 0.75914411 0.51828823
0.03221466 0.99976832 0.51584698
0.27982516 1.00000000 0.51955918
0.52443478 1.00000000 0.52396391
0.76473349 1.00000000 0.52883634
1.00000000 0.99988918 0.53561082
0.00057186 0.00104284 0.72725133
0.24177674 0.00067414 0.72722155
0.48401477 0.00122902 0.72800576
0.72714613 0.00258018 0.72948923
0.97103098 0.00460035 0.73155722
0.00204683 0.24515740 0.73018048
0.24617127 0.24738953 0.73243279
0.49085847 0.25011704 0.73511310
0.73596859 0.25321264 0.73810670
0.98136179 0.25654907 0.74129884
0.01147288 0.49631864 0.73925190
0.25693442 0.49971113 0.74248783
0.50248831 0.50317080 0.74576584
0.74799495 0.50657027 0.74897130
0.99331379 0.50978262 0.75198895
0.02352647 0.74968074 0.75009752
0.26874263 0.75279314 0.75301865
0.51358051 0.75554457 0.75559588
0.75777524 0.75769767 0.75762010
1.00000000 0.75983792 0.75965586
0.03421116 1.00000000 0.75838328
0.28204306 1.00000000 0.76039392
0.52603510 1.00000000 0.76266553
0.76557717 1.00000000 0.76520670
1.00000000 0.99994209 0.76874069
0.00020701 0.00080616 0.96905531
0.24177844 0.00076539 0.96931484
0.48433553 0.00160496 0.97034939
0.72773846 0.00319759 0.97204423
0.97184739 0.00541600 0.97428462
0.00272623 0.24585199 0.97280276
0.24705747 0.24826663 0.97521328
0.49190398 0.25113342 0.97801286
0.73712591 0.25432508 0.98108675
0.98258344 0.25771433 0.98432022
0.01265912 0.49745531 0.98225150
0.25816770 0.50088489 0.98551458
0.50372114 0.50433844 0.98878074
0.74917961 0.50768867 0.99193523
0.99440327 0.51080830 0.99486334
0.02468212 0.75077031 0.99303350
0.26978557 0.75377438 0.99585069
0.51446348 0.75637423 0.99828499
0.75859303 0.75845988 1.00000000
1.00000000 0.76064082 0.99957301
0.03699408 1.00000000 0.99983114
0.28432339 1.00000000 0.99977088
0.52767381 1.00000000 0.99977402
0.76643565 1.00000000 0.99984840
1.00000000 1.00000000 1.00000000
