assets/luts/DB_Studio_Neutral_Rec709_50.cube
TITLE "Studio Neutral Rec709 50"
# Red changes fastest. Full-range normalized input.
LUT_3D_SIZE 33
DOMAIN_MIN 0 0 0
DOMAIN_MAX 1 1 1
0.00000000 0.00000000 0.00000000
0.03002480 0.00000000 0.00000000
0.06009877 0.00000000 0.00000000
0.09022125 0.00000000 0.00000000
0.12039156 0.00000000 0.00000000
0.15060906 0.00000000 0.00000000
0.18087307 0.00000000 0.00000000
0.21118294 0.00000000 0.00000000
0.24153800 0.00000000 0.00000000
0.27193759 0.00000000 0.00000000
0.30238106 0.00000000 0.00000000
0.33286773 0.00000000 0.00000000
0.36339694 0.00000000 0.00000000
0.39396804 0.00000000 0.00000000
0.42458036 0.00000000 0.00000000
0.45523324 0.00000000 0.00000000
0.48592601 0.00000000 0.00000000
0.51665802 0.00000000 0.00000000
0.54742860 0.00000000 0.00000000
0.57823710 0.00000000 0.00000000
0.60908284 0.00000000 0.00000000
0.63996516 0.00000000 0.00000000
0.67088342 0.00000000 0.00000000
0.70183693 0.00000000 0.00000000
0.73282504 0.00000000 0.00000000
0.76384709 0.00000000 0.00000000
0.79490242 0.00000000 0.00000000
0.82599036 0.00000000 0.00000000
0.85711025 0.00000000 0.00000000
0.88826144 0.00000000 0.00000000
0.91944325 0.00000000 0.00000000
0.95065502 0.00000000 0.00000000
0.98189610 0.00000000 0.00000000
0.00000000 0.03008256 0.00000000
0.03010662 0.03010662 0.00000000
0.06026093 0.03013047 0.00000000
0.09046226 0.03015409 0.00000000
0.12070994 0.03017748 0.00000000
0.15100332 0.03020066 0.00000000
0.18134173 0.03022362 0.00000000
0.21172451 0.03024636 0.00000000
0.24215099 0.03026887 0.00000000
0.27262053 0.03029117 0.00000000
0.30313245 0.03031325 0.00000000
0.33368609 0.03033510 0.00000000
0.36428080 0.03035673 0.00000000
0.39491590 0.03037815 0.00000000
0.42559073 0.03039934 0.00000000
0.45630464 0.03042031 0.00000000
0.48705697 0.03044106 0.00000000
0.51784704 0.03046159 0.00000000
0.54867420 0.03048190 0.00000000
0.57953779 0.03050199 0.00000000
0.61043713 0.03052186 0.00000000
0.64137159 0.03054150 0.00000000
0.67234048 0.03056093 0.00000000
0.70334314 0.03058014 0.00000000
0.73437893 0.03059912 0.00000000
0.76544716 0.03061789 0.00000000
0.79654719 0.03063643 0.00000000
0.82767834 0.03065475 0.00000000
0.85883997 0.03067286 0.00000000
0.89003139 0.03069074 0.00000000
0.92125196 0.03070840 0.00000000
0.95250101 0.03072584 0.00000000
0.98377788 0.03074306 0.00000000
0.00000000 0.06032526 0.00000000
0.03018595 0.06037190 0.00000000
0.06041809 0.06041809 0.00000000
0.09069577 0.06046385 0.00000000
0.12101832 0.06050916 0.00000000
0.15138508 0.06055403 0.00000000
0.18179539 0.06059846 0.00000000
0.21224859 0.06064245 0.00000000
0.24274401 0.06068600 0.00000000
0.27328099 0.06072911 0.00000000
0.30385887 0.06077177 0.00000000
0.33447698 0.06081400 0.00000000
0.36513468 0.06085578 0.00000000
0.39583128 0.06089712 0.00000000
0.42656614 0.06093802 0.00000000
0.45733859 0.06097848 0.00000000
0.48814796 0.06101849 0.00000000
0.51899360 0.06105807 0.00000000
0.54987484 0.06109720 0.00000000
0.58079102 0.06113590 0.00000000
0.61174148 0.06117415 0.00000000
0.64272556 0.06121196 0.00000000
0.67374259 0.06124933 0.00000000
0.70479191 0.06128625 0.00000000
0.73587287 0.06132274 0.00000000
0.76698479 0.06135878 0.00000000
0.79812702 0.06139439 0.00000000
0.82929889 0.06142955 0.00000000
0.86049974 0.06146427 0.00000000
0.89172892 0.06149855 0.00000000
0.92298575 0.06153238 0.00000000
0.95426958 0.06156578 0.00000000
0.98557974 0.06159873 0.00000000
0.00000000 0.09072059 0.00000000
0.03026277 0.09078832 0.00000000
0.06057026 0.09085539 0.00000000
0.09092180 0.09092180 0.00000000
0.12131672 0.09098754 0.00000000
0.15175437 0.09105262 0.00000000
0.18223408 0.09111704 0.00000000
0.21275519 0.09118080 0.00000000
0.24331704 0.09124389 0.00000000
0.27391897 0.09130632 0.00000000
0.30456031 0.09136809 0.00000000
0.33524040 0.09142920 0.00000000
0.36595859 0.09148965 0.00000000
0.39671420 0.09154943 0.00000000
0.42750658 0.09160855 0.00000000
0.45833507 0.09166701 0.00000000
0.48919899 0.09172481 0.00000000
0.52009770 0.09178195 0.00000000
0.55103052 0.09183842 0.00000000
0.58199680 0.09189423 0.00000000
0.61299587 0.09194938 0.00000000
0.64402708 0.09200387 0.00000000
0.67508975 0.09205769 0.00000000
0.70618324 0.09211086 0.00000000
0.73730686 0.09216336 0.00000000
0.76845998 0.09221520 0.00000000
0.79964191 0.09226637 0.00000000
0.83085200 0.09231689 0.00000000
0.86208959 0.09236674 0.00000000
0.89335401 0.09241593 0.00000000
0.92464461 0.09246446 0.00000000
0.95596071 0.09251233 0.00000000
0.98730167 0.09255953 0.00000000
0.00000000 0.12126108 0.00000000
0.03033710 0.12134841 0.00000000
0.06071743 0.12143487 0.00000000
0.09114033 0.12152044 0.00000000
0.12160512 0.12160512 0.00000000
0.15211116 0.12168893 0.00000000
0.18265777 0.12177185 0.00000000
0.21324431 0.12185389 0.00000000
0.24387009 0.12193504 0.00000000
0.27453447 0.12201532 0.00000000
0.30523677 0.12209471 0.00000000
0.33597635 0.12217322 0.00000000
0.36675253 0.12225084 0.00000000
0.39756465 0.12232758 0.00000000
0.42841206 0.12240344 0.00000000
0.45929408 0.12247842 0.00000000
0.49021006 0.12255252 0.00000000
0.52115934 0.12262573 0.00000000
0.55214125 0.12269805 0.00000000
0.58315513 0.12276950 0.00000000
0.61420032 0.12284006 0.00000000
0.64527615 0.12290974 0.00000000
0.67638197 0.12297854 0.00000000
0.70751712 0.12304646 0.00000000
0.73868092 0.12311349 0.00000000
0.76987272 0.12317964 0.00000000
0.80109186 0.12324490 0.00000000
0.83233767 0.12330929 0.00000000
0.86360950 0.12337279 0.00000000
0.89490668 0.12343540 0.00000000
0.92622854 0.12349714 0.00000000
0.95757443 0.12355799 0.00000000
0.98894368 0.12361796 0.00000000
0.00000000 0.15193921 0.00000000
0.03040893 0.15204467 0.00000000
0.06085961 0.15214902 0.00000000
0.09135136 0.15225227 0.00000000
0.12188354 0.15235442 0.00000000
0.15245546 0.15245546 0.00000000
0.18306649 0.15255540 0.00000000
0.21371594 0.15265424 0.00000000
0.24440316 0.15275197 0.00000000
0.27512749 0.15284860 0.00000000
0.30588826 0.15294413 0.00000000
0.33668482 0.15303855 0.00000000
0.36751649 0.15313187 0.00000000
0.39838263 0.15322409 0.00000000
0.42928256 0.15331520 0.00000000
0.46021563 0.15340521 0.00000000
0.49118117 0.15349411 0.00000000
0.52217852 0.15358192 0.00000000
0.55320701 0.15366862 0.00000000
0.58426600 0.15375421 0.00000000
0.61535481 0.15383870 0.00000000
0.64647277 0.15392209 0.00000000
0.67761924 0.15400437 0.00000000
0.70879355 0.15408555 0.00000000
0.73999503 0.15416563 0.00000000
0.77122303 0.15424461 0.00000000
0.80247688 0.15432248 0.00000000
0.83375591 0.15439924 0.00000000
0.86505948 0.15447491 0.00000000
0.89638691 0.15454947 0.00000000
0.92773754 0.15462292 0.00000000
0.95907831 0.15470331 0.00001581
0.99016405 0.15485155 0.00016405
0.00000000 0.18274751 0.00000000
0.03047827 0.18286960 0.00000000
0.06099679 0.18299037 0.00000000
0.09155491 0.18310982 0.00000000
0.12215196 0.18322794 0.00000000
0.15278728 0.18334474 0.00000000
0.18346021 0.18346021 0.00000000
0.21417009 0.18357436 0.00000000
0.24491625 0.18368719 0.00000000
0.27569803 0.18379869 0.00000000
0.30651477 0.18390886 0.00000000
0.33736581 0.18401772 0.00000000
0.36825049 0.18412525 0.00000000
0.39916814 0.18423145 0.00000000
0.43011810 0.18433633 0.00000000
0.46109971 0.18443989 0.00000000
0.49211231 0.18454212 0.00000000
0.52315524 0.18464303 0.00000000
0.55422783 0.18474261 0.00000000
0.58532941 0.18484087 0.00000000
0.61645934 0.18493780 0.00000000
0.64761695 0.18503341 0.00000000
0.67880157 0.18512770 0.00000000
0.71001254 0.18522066 0.00000000
0.74124920 0.18531230 0.00000000
0.77251090 0.18540262 0.00000000
0.80379695 0.18549160 0.00000000
0.83510672 0.18557927 0.00000000
0.86631934 0.18569434 0.00006934
0.89740644 0.18584394 0.00021894
0.92849722 0.18599722 0.00037222
0.95959152 0.18615402 0.00052902
0.99068921 0.18631421 0.00068921
0.00000000 0.21367847 0.00000000
0.03054510 0.21381572 0.00000000
0.06112898 0.21395142 0.00000000
0.09175096 0.21408558 0.00000000
0.12241039 0.21421819 0.00000000
0.15310661 0.21434926 0.00000000
0.18383895 0.21447878 0.00000000
0.21460675 0.21460675 0.00000000
0.24540936 0.21473319 0.00000000
0.27624610 0.21485807 0.00000000
0.30711631 0.21498142 0.00000000
0.33801934 0.21510321 0.00000000
0.36895452 0.21522347 0.00000000
0.39992118 0.21534218 0.00000000
0.43091868 0.21545934 0.00000000
0.46194634 0.21557496 0.00000000
0.49300350 0.21568903 0.00000000
0.52408950 0.21580156 0.00000000
0.55520368 0.21591254 0.00000000
0.58634538 0.21602198 0.00000000
0.61751393 0.21612987 0.00000000
0.64870867 0.21623622 0.00000000
0.67992894 0.21634103 0.00000000
0.71117408 0.21644429 0.00000000
0.74244343 0.21654600 0.00000000
0.77356087 0.21668587 0.00012337
0.80464933 0.21683683 0.00027433
0.83574140 0.21699140 0.00042890
0.86683696 0.21714946 0.00058696
0.89793585 0.21731085 0.00074835
0.92903794 0.21747544 0.00091294
0.96014308 0.21764308 0.00108058
0.99125114 0.21781364 0.00125114
0.00000000 0.24472461 0.00000000
0.03060944 0.24487552 0.00000000
0.06125617 0.24502467 0.00000000
0.09193952 0.24517206 0.00000000
0.12265884 0.24531767 0.00000000
0.15341345 0.24546152 0.00000000
0.18420271 0.24560361 0.00000000
0.21502594 0.24574393 0.00000000
0.24588248 0.24588248 0.00000000
0.27677168 0.24601927 0.00000000
0.30769287 0.24615430 0.00000000
0.33864539 0.24628755 0.00000000
0.36962857 0.24641905 0.00000000
0.40064176 0.24654877 0.00000000
0.43168429 0.24667673 0.00000000
0.46275549 0.24680293 0.00000000
0.49385472 0.24692736 0.00000000
0.52498130 0.24705002 0.00000000
0.55613458 0.24717092 0.00000000
0.58731388 0.24729006 0.00000000
0.61851856 0.24740742 0.00000000
0.64971682 0.24752932 0.00002932
0.68080290 0.24767790 0.00017790
0.71189269 0.24783019 0.00033019
0.74298605 0.24798605 0.00048605
0.77408284 0.24814534 0.00064534
0.80518291 0.24830791 0.00080791
0.83628612 0.24847362 0.00097362
0.86739235 0.24864235 0.00114235
0.89850143 0.24881393 0.00131393
0.92961324 0.24898824 0.00148824
0.96072763 0.24916513 0.00166513
0.99184447 0.24934447 0.00184447
0.00000000 0.27587843 0.00000000
0.03067128 0.27604153 0.00000000
0.06137836 0.27620264 0.00000000
0.09212059 0.27636176 0.00000000
0.12289729 0.27651890 0.00000000
0.15370781 0.27667405 0.00000000
0.18455148 0.27682721 0.00000000
0.21542764 0.27697839 0.00000000
0.24633563 0.27712758 0.00000000
0.27727479 0.27727479 0.00000000
0.30824445 0.27742001 0.00000000
0.33924396 0.27756324 0.00000000
0.37027265 0.27770449 0.00000000
0.40132986 0.27784375 0.00000000
0.43241493 0.27798102 0.00000000
0.46352719 0.27811631 0.00000000
0.49466598 0.27824961 0.00000000
0.52583064 0.27838093 0.00000000
0.55695804 0.27852046 0.00008289
0.58804544 0.27867042 0.00023290
0.61913653 0.27882403 0.00038652
0.65023115 0.27898115 0.00054365
0.68132915 0.27914165 0.00070415
0.71243038 0.27930538 0.00086788
0.74353471 0.27947221 0.00103471
0.77464199 0.27964199 0.00120449
0.80575208 0.27981458 0.00137708
0.83686485 0.27998985 0.00155235
0.86798015 0.28016765 0.00173015
0.89909783 0.28034783 0.00191033
0.93021777 0.28053027 0.00209277
0.96133982 0.28071482 0.00227732
0.99246383 0.28090133 0.00246383
0.00000000 0.30713244 0.00000000
0.03073062 0.30730624 0.00000000
0.06149556 0.30747782 0.00000000
0.09229416 0.30764720 0.00000000
0.12312575 0.30781437 0.00000000
0.15398967 0.30797934 0.00000000
0.18488526 0.30814210 0.00000000
0.21581185 0.30830265 0.00000000
0.24676880 0.30846099 0.00000000
0.27775542 0.30861713 0.00000000
0.30877106 0.30877106 0.00000000
0.33981506 0.30892279 0.00000000
0.37088676 0.30907230 0.00000000
0.40198550 0.30921961 0.00000000
0.43311060 0.30936471 0.00000000
0.46420026 0.30951209 0.00013574
0.49528873 0.30966340 0.00028785
0.52638095 0.30981832 0.00044313
0.55747674 0.30997669 0.00060164
0.58857590 0.31013839 0.00076338
0.61967827 0.31030327 0.00092826
0.65078369 0.31047119 0.00109619
0.68189201 0.31064201 0.00126701
0.71300309 0.31081559 0.00144059
0.74411679 0.31099179 0.00161679
0.77523298 0.31117048 0.00179548
0.80635150 0.31135150 0.00197650
0.83747222 0.31153472 0.00215972
0.86859500 0.31172000 0.00234500
0.89971969 0.31190719 0.00253219
0.93084617 0.31209617 0.00272117
0.96197427 0.31228677 0.00291177
0.99310387 0.31247887 0.00310387
0.00000000 0.33847915 0.00000000
0.03078747 0.33866216 0.00000000
0.06160777 0.33884274 0.00000000
0.09246024 0.33902089 0.00000000
0.12334422 0.33919661 0.00000000
0.15425905 0.33936990 0.00000000
0.18520406 0.33954077 0.00000000
0.21617859 0.33970921 0.00000000
0.24718198 0.33987522 0.00000000
0.27821357 0.34003881 0.00000000
0.30927269 0.34019996 0.00000000
0.34035558 0.34035558 0.00003994
0.37144216 0.34050443 0.00018930
0.40253232 0.34065698 0.00034260
0.43362592 0.34081311 0.00049946
0.46472290 0.34097268 0.00065958
0.49582317 0.34113555 0.00082278
0.52692661 0.34130155 0.00098895
0.55803307 0.34147055 0.00115801
0.58914240 0.34164239 0.00132988
0.62025445 0.34181694 0.00150444
0.65136907 0.34199407 0.00168157
0.68248612 0.34217362 0.00186112
0.71360546 0.34235546 0.00204296
0.74472694 0.34253944 0.00222694
0.77585043 0.34272543 0.00241293
0.80697579 0.34291329 0.00260079
0.83810288 0.34310288 0.00279038
0.86923154 0.34329404 0.00298154
0.90036165 0.34348665 0.00317415
0.93149307 0.34368057 0.00336807
0.96262564 0.34387564 0.00356314
0.99375924 0.34407174 0.00375924
0.00000000 0.36991106 0.00000000
0.03084182 0.37010180 0.00000000
0.06171498 0.37028988 0.00000000
0.09261883 0.37047532 0.00000000
0.12355270 0.37065811 0.00000000
0.15451594 0.37083825 0.00000000
0.18550787 0.37101574 0.00000000
0.21652784 0.37119058 0.00000000
0.24759657 0.37134669 0.00009633
0.27868437 0.37149700 0.00024646
0.30977583 0.37165094 0.00040026
0.34087081 0.37180837 0.00055764
0.37196916 0.37196916 0.00071848
0.40307071 0.37213316 0.00088263
0.43417531 0.37230025 0.00104989
0.46528284 0.37247029 0.00122008
0.49639317 0.37264313 0.00139303
0.52750616 0.37281864 0.00156859
0.55862167 0.37299666 0.00174664
0.58973956 0.37317706 0.00192706
0.62085970 0.37335970 0.00210970
0.65198193 0.37354443 0.00229443
0.68310612 0.37373112 0.00248112
0.71423212 0.37391962 0.00266962
0.74535980 0.37410980 0.00285980
0.77648901 0.37430151 0.00305151
0.80761961 0.37449461 0.00324461
0.83875146 0.37468896 0.00343896
0.86988442 0.37488442 0.00363442
0.90101836 0.37508086 0.00383086
0.93215312 0.37527812 0.00402812
0.96328857 0.37547607 0.00422607
0.99442457 0.37567457 0.00442457
0.00000000 0.40142069 0.00000000
0.03089367 0.40161766 0.00000000
0.06181720 0.40181177 0.00000000
0.09276992 0.40200301 0.00000000
0.12375302 0.40219053 0.00000302
0.15483842 0.40233843 0.00015092
0.18592756 0.40249006 0.00030255
0.21702028 0.40264529 0.00045777
0.24811646 0.40280398 0.00061643
0.27921595 0.40296597 0.00077839
0.31031861 0.40313114 0.00094353
0.34142431 0.40329933 0.00111170
0.37253290 0.40347041 0.00128277
0.40364424 0.40364424 0.00145662
0.43475818 0.40382067 0.00163308
0.46587458 0.40399957 0.00181201
0.49699331 0.40418080 0.00199327
0.52811422 0.40436422 0.00217670
0.55923718 0.40454968 0.00236217
0.59036204 0.40473704 0.00254954
0.62148867 0.40492617 0.00273867
0.65261692 0.40511692 0.00292942
0.68374665 0.40530915 0.00312165
0.71487773 0.40550273 0.00331523
0.74601000 0.40569750 0.00351000
0.77714333 0.40589333 0.00370583
0.80827758 0.40609008 0.00390258
0.83941261 0.40628761 0.00410011
0.87054828 0.40648578 0.00429828
0.90168444 0.40668444 0.00449694
0.93282096 0.40688346 0.00469596
0.96395769 0.40708269 0.00489519
0.99509450 0.40728200 0.00509450
0.00000000 0.43300053 0.00000000
0.03099393 0.43318143 0.00005643
0.06208071 0.43333071 0.00020571
0.09317117 0.43348367 0.00035867
0.12426517 0.43364017 0.00051517
0.15536257 0.43380007 0.00067507
0.18646323 0.43396323 0.00083823
0.21756701 0.43412951 0.00100451
0.24867377 0.43429877 0.00117377
0.27978337 0.43447087 0.00134586
0.31089567 0.43464567 0.00152065
0.34201052 0.43482302 0.00169800
0.37312779 0.43500279 0.00187777
0.40424733 0.43518483 0.00205981
0.43536901 0.43536901 0.00224399
0.46649268 0.43555518 0.00243017
0.49761820 0.43574320 0.00261819
0.52874544 0.43593294 0.00280793
0.55987424 0.43612424 0.00299924
0.59100448 0.43631698 0.00319198
0.62213601 0.43651101 0.00338601
0.65326868 0.43670618 0.00358118
0.68440236 0.43690236 0.00377736
0.71553691 0.43709941 0.00397441
0.74667219 0.43729719 0.00417219
0.77780805 0.43749555 0.00437055
0.80894436 0.43769436 0.00456936
0.84008097 0.43789347 0.00476847
0.87121775 0.43809275 0.00496775
0.90235455 0.43829205 0.00516705
0.93349123 0.43849123 0.00536623
0.96462765 0.43869015 0.00556515
0.99576367 0.43888867 0.00576367
0.00041524 0.46447774 0.00041524
0.03151049 0.46463549 0.00057299
0.06260910 0.46479660 0.00073410
0.09371091 0.46496091 0.00089841
0.12481580 0.46512830 0.00106580
0.15592361 0.46529861 0.00123611
0.18703420 0.46547170 0.00140920
0.21814745 0.46564745 0.00158495
0.24926319 0.46582569 0.00176319
0.28038131 0.46600631 0.00194381
0.31150164 0.46618914 0.00212664
0.34262406 0.46637406 0.00231156
0.37374842 0.46656092 0.00249842
0.40487459 0.46674959 0.00268708
0.43600241 0.46693991 0.00287741
0.46713175 0.46713175 0.00306925
0.49826248 0.46732498 0.00326247
0.52939444 0.46751944 0.00345694
0.56052749 0.46771499 0.00365249
0.59166151 0.46791151 0.00384901
0.62279634 0.46810884 0.00404634
0.65393185 0.46830685 0.00424435
0.68506789 0.46850539 0.00444289
0.71620432 0.46870432 0.00464182
0.74734101 0.46890351 0.00484101
0.77847781 0.46910281 0.00504031
0.80961458 0.46930208 0.00523958
0.84075119 0.46950119 0.00543869
0.87188748 0.46969998 0.00563748
0.90302332 0.46989832 0.00583582
0.93415857 0.47009607 0.00603357
0.96529309 0.47029309 0.00623059
0.99642674 0.47048924 0.00642674
0.00095900 0.49595900 0.00095900
0.03206497 0.49612747 0.00112747
0.06317381 0.49629881 0.00129881
0.09428539 0.49647289 0.00147289
0.12539956 0.49664956 0.00164956
0.15651618 0.49682868 0.00182868
0.18763512 0.49701012 0.00201012
0.21875623 0.49719373 0.00219373
0.24987937 0.49737937 0.00237937
0.28100441 0.49756691 0.00256691
0.31213119 0.49775619 0.00275619
0.34325958 0.49794708 0.00294708
0.37438945 0.49813945 0.00313945
0.40552064 0.49833314 0.00333314
0.43665301 0.49852801 0.00352801
0.46778644 0.49872394 0.00372393
0.49892076 0.49892076 0.00392076
0.53005586 0.49911836 0.00411836
0.56119157 0.49931657 0.00431657
0.59232778 0.49951528 0.00451528
0.62346432 0.49971432 0.00471432
0.65460106 0.49991356 0.00491356
0.68573787 0.50011287 0.00511287
0.71687460 0.50031210 0.00531210
0.74801110 0.50051110 0.00551110
0.77914725 0.50070975 0.00570975
0.81028289 0.50090789 0.00590789
0.84141789 0.50110539 0.00610539
0.87255211 0.50130211 0.00630211
0.90368540 0.50149790 0.00649790
0.93481763 0.50169263 0.00669263
0.96594865 0.50188615 0.00688615
0.99707832 0.50207832 0.00707832
0.00153691 0.52747441 0.00153691
0.03265199 0.52765199 0.00171449
0.06376948 0.52783198 0.00189448
0.09488922 0.52801422 0.00207672
0.12601109 0.52819859 0.00226109
0.15713494 0.52838494 0.00244744
0.18826062 0.52857312 0.00263562
0.21938801 0.52876301 0.00282551
0.25051695 0.52895445 0.00301695
0.28164731 0.52914731 0.00320981
0.31277895 0.52934145 0.00340395
0.34391173 0.52953673 0.00359923
0.37504550 0.52973300 0.00379550
0.40618012 0.52993012 0.00399262
0.43731546 0.53012796 0.00419046
0.46845137 0.53032637 0.00438887
0.49958771 0.53052521 0.00458771
0.53072434 0.53072434 0.00478684
0.56186113 0.53092363 0.00498612
0.59299792 0.53112292 0.00518542
0.62413458 0.53132208 0.00538458
0.65527097 0.53152097 0.00558347
0.68640695 0.53171945 0.00578195
0.71754238 0.53191738 0.00597988
0.74867711 0.53211461 0.00617711
0.77981100 0.53231100 0.00637350
0.81094392 0.53250642 0.00656892
0.84207573 0.53270073 0.00676323
0.87320628 0.53289378 0.00695628
0.90433543 0.53308543 0.00714793
0.93546304 0.53327554 0.00733804
0.96658897 0.53346397 0.00752647
0.99771308 0.53365058 0.00771308
0.00214361 0.55901861 0.00214361
0.03326621 0.55920371 0.00232871
0.06439074 0.55939074 0.00251574
0.09551706 0.55957956 0.00270456
0.12664503 0.55977003 0.00289503
0.15777451 0.55996201 0.00308701
0.18890535 0.56015535 0.00328035
0.22003742 0.56034992 0.00347492
0.25117057 0.56054557 0.00367057
0.28230467 0.56074217 0.00386717
0.31343957 0.56093957 0.00406457
0.34457513 0.56113763 0.00426263
0.37571121 0.56133621 0.00446121
0.40684768 0.56153518 0.00466018
0.43798438 0.56173438 0.00485938
0.46912119 0.56193369 0.00505869
0.50025795 0.56213295 0.00525795
0.53139453 0.56233203 0.00545703
0.56253079 0.56253079 0.00565579
0.59366658 0.56272908 0.00585408
0.62480177 0.56292677 0.00605177
0.65593621 0.56312371 0.00624871
0.68706977 0.56331977 0.00644477
0.71820230 0.56351480 0.00663980
0.74933366 0.56370866 0.00683366
0.78046372 0.56390122 0.00702622
0.81159232 0.56409232 0.00721732
0.84271934 0.56428184 0.00740684
0.87384463 0.56446963 0.00759463
0.90496804 0.56465554 0.00778054
0.93608944 0.56483944 0.00796444
0.96720869 0.56502119 0.00814619
0.99832565 0.56520065 0.00832565
0.00277372 0.59058622 0.00277372
0.03390226 0.59077726 0.00296476
0.06503225 0.59096975 0.00315725
0.09616355 0.59116355 0.00335105
0.12729603 0.59135853 0.00354603
0.15842955 0.59155455 0.00374205
0.18956395 0.59175145 0.00393895
0.22069911 0.59194911 0.00413661
0.25183488 0.59214738 0.00433488
0.28297111 0.59234611 0.00453361
0.31410768 0.59254518 0.00473268
0.34524444 0.59274444 0.00493194
0.37638124 0.59294374 0.00513124
0.40751796 0.59314296 0.00533046
0.43865443 0.59334193 0.00552943
0.46979054 0.59354054 0.00572804
0.50092613 0.59373863 0.00592613
0.53206106 0.59393606 0.00612356
0.56319520 0.59413270 0.00632020
0.59432840 0.59432840 0.00651590
0.62546052 0.59452302 0.00671052
0.65659142 0.59471642 0.00690392
0.68772097 0.59490847 0.00709597
0.71884901 0.59509901 0.00728651
0.74997541 0.59528791 0.00747541
0.78110003 0.59547503 0.00766253
0.81222273 0.59566023 0.00784773
0.84334337 0.59584337 0.00803087
0.87446180 0.59602430 0.00821180
0.90557788 0.59620288 0.00839038
0.93669148 0.59637898 0.00856648
0.96780246 0.59655246 0.00873996
0.99891066 0.59672316 0.00891066
0.00342191 0.62217191 0.00342191
0.03455478 0.62236728 0.00361728
0.06568864 0.62256364 0.00381364
0.09682333 0.62276083 0.00401083
0.12795873 0.62295873 0.00420873
0.15909468 0.62315718 0.00440718
0.19023106 0.62335606 0.00460606
0.22136771 0.62355521 0.00480521
0.25250450 0.62375450 0.00500450
0.28364129 0.62395379 0.00520379
0.31477793 0.62415293 0.00540293
0.34591429 0.62435179 0.00560179
0.37705022 0.62455022 0.00580022
0.40818559 0.62474809 0.00599809
0.43932025 0.62494525 0.00619525
0.47045406 0.62514156 0.00639156
0.50158689 0.62533689 0.00658689
0.53271858 0.62553108 0.00678108
0.56384901 0.62572401 0.00697401
0.59497802 0.62591552 0.00716552
0.62610548 0.62610548 0.00735548
0.65723125 0.62629375 0.00754375
0.68835519 0.62648019 0.00773019
0.71947715 0.62666465 0.00791465
0.75059700 0.62684700 0.00809700
0.78171459 0.62702709 0.00827709
0.81282979 0.62720479 0.00845479
0.84394245 0.62737995 0.00862995
0.87505243 0.62755243 0.00880243
0.90615960 0.62772210 0.00897210
0.93726380 0.62788880 0.00913880
0.96836491 0.62805241 0.00930241
0.99946277 0.62821277 0.00946277
0.00408280 0.65377030 0.00408280
0.03521842 0.65396842 0.00428092
0.06635454 0.65416704 0.00447954
0.09749104 0.65436604 0.00467854
0.12862776 0.65456526 0.00487776
0.15976456 0.65476456 0.00507706
0.19090131 0.65496381 0.00527631
0.22203787 0.65516287 0.00547537
0.25317409 0.65536159 0.00567409
0.28430983 0.65555983 0.00587233
0.31544496 0.65575746 0.00606996
0.34657933 0.65595433 0.00626683
0.37771279 0.65615029 0.00646279
0.40884522 0.65634522 0.00665772
0.43997647 0.65653897 0.00685147
0.47110640 0.65673140 0.00704390
0.50223486 0.65692236 0.00723486
0.53336173 0.65711173 0.00742423
0.56448685 0.65729935 0.00761185
0.59561008 0.65748508 0.00779758
0.62673129 0.65766879 0.00798129
0.65785033 0.65785033 0.00816283
0.68896707 0.65802957 0.00834207
0.72008136 0.65820636 0.00851886
0.75119306 0.65838056 0.00869306
0.78230204 0.65855204 0.00886454
0.81340814 0.65872064 0.00903314
0.84451123 0.65888623 0.00919873
0.87561117 0.65904867 0.00936117
0.90670782 0.65920782 0.00952032
