assets/luts/DB_Sports_Highlight_Reel_Rec709_100.cube
TITLE "Sports Highlight Reel Rec709 100"
# Red changes fastest. Full-range normalized input.
LUT_3D_SIZE 5
DOMAIN_MIN 0 0 0
DOMAIN_MAX 1 1 1
0.00000000 0.00000000 0.00000000
0.15306670 0.00000000 0.00063410
0.33944051 0.00000000 0.00116769
0.55508682 0.00000000 0.00145685
0.79604851 0.00000000 0.00150253
0.00000000 0.19000257 0.00418221
0.20148911 0.20454731 0.00000000
0.43074396 0.21640303 0.00000000
0.67953978 0.22709717 0.00000000
0.94391157 0.23667263 0.00000000
0.00000000 0.46051257 0.00333704
0.23739817 0.47942734 0.00000000
0.49273232 0.49456852 0.00000000
0.75875274 0.50724243 0.00000000
1.00000000 0.52254996 0.04214084
0.00158925 0.76566385 0.00000000
0.26185504 0.77910430 0.00000000
0.52790436 0.78873201 0.00000000
0.79593539 0.79449147 0.00000000
1.00000000 0.79609436 0.18530267
0.15480026 1.00000000 0.14989787
0.40383684 1.00000000 0.19963636
0.63051261 1.00000000 0.25497117
0.83084096 1.00000000 0.31589682
1.00000000 0.99917226 0.39306681
0.00000000 0.00033505 0.13830009
0.15855130 0.00000000 0.16072298
0.34982473 0.00000000 0.17727416
0.56949935 0.00000000 0.19225125
0.81359196 0.00000000 0.20563884
0.00000000 0.19500936 0.19649618
0.20500399 0.20859009 0.21014926
0.48425053 0.20757954 0.20881774
0.77005812 0.20867539 0.20921354
1.00000000 0.22758679 0.22725941
0.00000000 0.46710172 0.23512770
0.21128055 0.49642964 0.21323186
0.49969403 0.50143992 0.21856890
0.78864627 0.50705839 0.22195407
1.00000000 0.52825898 0.28948572
0.00000000 0.77141333 0.25480335
0.23107361 0.79575966 0.22700517
0.51692941 0.79832407 0.22893638
0.80001536 0.79827003 0.22849050
1.00000000 0.80055952 0.40131443
0.17114273 1.00000000 0.37373092
0.41739595 1.00000000 0.41252200
0.64038582 1.00000000 0.45557853
0.83612961 1.00000000 0.50288360
1.00000000 0.99935977 0.56266040
0.00000000 0.00066526 0.28882082
0.16387542 0.00000000 0.33200953
0.35992286 0.00000000 0.36368670
0.58347644 0.00000000 0.39243701
0.83054873 0.00000000 0.41825734
0.00000000 0.19984016 0.39816844
0.20371471 0.20798646 0.49219328
0.48600333 0.20746380 0.49102481
0.77127945 0.20968588 0.49243105
1.00000000 0.23199655 0.48818978
0.00000000 0.47335671 0.47328782
0.21325040 0.49812560 0.49709412
0.50166312 0.50291046 0.50124734
0.78902415 0.50902474 0.50624916
1.00000000 0.53429646 0.53121822
0.00000000 0.77604700 0.51448276
0.23246794 0.79687206 0.51037950
0.51748761 0.79863915 0.51159472
0.79916519 0.79731009 0.51136886
1.00000000 0.80520052 0.60865410
0.18807243 1.00000000 0.58978090
0.43138881 1.00000000 0.61672198
0.65054098 1.00000000 0.64659274
0.84155029 1.00000000 0.67936423
1.00000000 0.99956229 0.72063339
0.00000000 0.00098658 0.45114233
0.16906381 0.00000000 0.51405384
0.36973708 0.00000000 0.55993892
0.59701942 0.00000000 0.60155018
0.84691940 0.00000000 0.63889628
0.00000000 0.20449343 0.60875497
0.20325259 0.20744888 0.77396047
0.48665715 0.20795239 0.77375354
0.77274114 0.21091617 0.77585589
1.00000000 0.23688063 0.74615975
0.00000000 0.47927791 0.71735383
0.21532139 0.49990775 0.78104630
0.50415751 0.50534910 0.78552706
0.79264126 0.51042652 0.78971005
1.00000000 0.54066341 0.76686855
0.00000000 0.78019986 0.77696767
0.23361144 0.79774642 0.79353867
0.51768481 0.79862349 0.79393954
0.79749069 0.79577559 0.79172174
1.00000000 0.80981965 0.80680818
0.20558913 1.00000000 0.79758848
0.44581588 1.00000000 0.81177499
0.66097929 1.00000000 0.82755028
0.84710418 1.00000000 0.84487216
1.00000000 0.99978270 0.86631868
0.00000000 0.00129534 0.62484088
0.17411917 0.00000000 0.70638800
0.37926921 0.00000000 0.76556544
0.61012932 0.00000000 0.81912776
0.86270431 0.00000000 0.86709475
0.00000000 0.20896794 0.82780835
0.20779191 0.21158954 1.00000000
0.47526530 0.21812598 1.00000000
0.74038056 0.22845064 1.00000000
0.99931079 0.24251549 1.00000000
0.00000000 0.48486591 0.96685990
0.24696871 0.49953883 1.00000000
0.51177501 0.51253926 1.00000000
0.76545468 0.52794595 1.00000000
1.00000000 0.54736059 0.99596898
0.06544254 0.76863805 1.00000000
0.32835476 0.77815930 1.00000000
0.57520077 0.78875228 1.00000000
0.80198497 0.80041909 1.00000000
1.00000000 0.81501452 0.99552120
0.22369288 1.00000000 0.99669357
0.46067790 1.00000000 0.99721887
0.67170229 1.00000000 0.99798662
0.85279605 1.00000000 0.99894196
1.00000000 1.00000000 1.00000000
