assets/luts/DB_Sports_Field_Day_Rec709_50.cube
TITLE "Sports Field Day Rec709 50"
# Red changes fastest. Full-range normalized input.
LUT_3D_SIZE 33
DOMAIN_MIN 0 0 0
DOMAIN_MAX 1 1 1
0.00000000 0.00000000 0.00000000
0.02818743 0.00000015 0.00000000
0.05649845 0.00000055 0.00000000
0.08493134 0.00000119 0.00000000
0.11348478 0.00000219 0.00000000
0.14215763 0.00000371 0.00000000
0.17094854 0.00000587 0.00000000
0.19985569 0.00000860 0.00000000
0.22887697 0.00001178 0.00000000
0.25801028 0.00001528 0.00000000
0.28725377 0.00001905 0.00000000
0.31660578 0.00002310 0.00000000
0.34606473 0.00002746 0.00000000
0.37562903 0.00003214 0.00000000
0.40529702 0.00003716 0.00000000
0.43506705 0.00004252 0.00000000
0.46493744 0.00004822 0.00000000
0.49490649 0.00005425 0.00000000
0.52497253 0.00006060 0.00000000
0.55513387 0.00006726 0.00000000
0.58538882 0.00007425 0.00000000
0.61573571 0.00008153 0.00000000
0.64617284 0.00008912 0.00000000
0.67669855 0.00009700 0.00000000
0.70731113 0.00010516 0.00000000
0.73800893 0.00011361 0.00000000
0.76879025 0.00012232 0.00000000
0.79965342 0.00013130 0.00000000
0.83059675 0.00014054 0.00000000
0.86161857 0.00015002 0.00000000
0.89271720 0.00015975 0.00000000
0.92389096 0.00016970 0.00000000
0.95513817 0.00017988 0.00000000
0.00000250 0.02833409 0.00000000
0.02839615 0.02839522 0.00000000
0.05690889 0.02845565 0.00000000
0.08553924 0.02851559 0.00000000
0.11428648 0.02857555 0.00000000
0.14315023 0.02863613 0.00000000
0.17212961 0.02869760 0.00000000
0.20122270 0.02875969 0.00000000
0.23042673 0.02882182 0.00000000
0.25973886 0.02888349 0.00000000
0.28915679 0.02894451 0.00000000
0.31867884 0.02900491 0.00000000
0.34830362 0.02906483 0.00000000
0.37802972 0.02912439 0.00000000
0.40785565 0.02918368 0.00000000
0.43777979 0.02924271 0.00000000
0.46780049 0.02930149 0.00000000
0.49791608 0.02936002 0.00000000
0.52812486 0.02941829 0.00000000
0.55842517 0.02947630 0.00000000
0.58881531 0.02953404 0.00000000
0.61929361 0.02959151 0.00000000
0.64985838 0.02964869 0.00000000
0.68050794 0.02970559 0.00000000
0.71124062 0.02976218 0.00000000
0.74205472 0.02981847 0.00000000
0.77294858 0.02987445 0.00000000
0.80392052 0.02993011 0.00000000
0.83496885 0.02998544 0.00000000
0.86609190 0.03004044 0.00000000
0.89728800 0.03009509 0.00000000
0.92855546 0.03014939 0.00000000
0.95989261 0.03020332 0.00000000
0.00001035 0.05707409 0.00000000
0.02860358 0.05719194 0.00000000
0.05731113 0.05730784 0.00000000
0.08613154 0.05742216 0.00000000
0.11506471 0.05753600 0.00000000
0.14411143 0.05765080 0.00000000
0.17327190 0.05776743 0.00000000
0.20254454 0.05788558 0.00000000
0.23192591 0.05800400 0.00000000
0.26141199 0.05812134 0.00000000
0.29099943 0.05823684 0.00000000
0.32068618 0.05835043 0.00000000
0.35047097 0.05846244 0.00000000
0.38035275 0.05857320 0.00000000
0.41033031 0.05868297 0.00000000
0.44040220 0.05879184 0.00000000
0.47056684 0.05889988 0.00000000
0.50082257 0.05900707 0.00000000
0.53116772 0.05911343 0.00000000
0.56160061 0.05921895 0.00000000
0.59211956 0.05932361 0.00000000
0.62272289 0.05942742 0.00000000
0.65340891 0.05953036 0.00000000
0.68417596 0.05963243 0.00000000
0.71502234 0.05973362 0.00000000
0.74594639 0.05983392 0.00000000
0.77694642 0.05993332 0.00000000
0.80802075 0.06003182 0.00000000
0.83916772 0.06012940 0.00000000
0.87038563 0.06022607 0.00000000
0.90167282 0.06032180 0.00000000
0.93302762 0.06041660 0.00000000
0.96444834 0.06051045 0.00000000
0.00002429 0.08620181 0.00000000
0.02881131 0.08637298 0.00000000
0.05770811 0.08654090 0.00000000
0.08671277 0.08670576 0.00000000
0.11582523 0.08686893 0.00000000
0.14504715 0.08703268 0.00000000
0.17438024 0.08719900 0.00000000
0.20382414 0.08736830 0.00000000
0.23337556 0.08753906 0.00000000
0.26302943 0.08770893 0.00000000
0.29278097 0.08787611 0.00000000
0.32262707 0.08803997 0.00000000
0.35256626 0.08820080 0.00000000
0.38259777 0.08835923 0.00000000
0.41272076 0.08851576 0.00000000
0.44293407 0.08867069 0.00000000
0.47323627 0.08882415 0.00000000
0.50362577 0.08897619 0.00000000
0.53410089 0.08912680 0.00000000
0.56465999 0.08927598 0.00000000
0.59530136 0.08942373 0.00000000
0.62602334 0.08957004 0.00000000
0.65682424 0.08971490 0.00000000
0.68770239 0.08985830 0.00000000
0.71865610 0.09000024 0.00000000
0.74968371 0.09014071 0.00000000
0.78078353 0.09027969 0.00000000
0.81195389 0.09041719 0.00000000
0.84319312 0.09055319 0.00000000
0.87449952 0.09068768 0.00000000
0.90587144 0.09082066 0.00000000
0.93730720 0.09095211 0.00000000
0.96880512 0.09108203 0.00000000
0.00004440 0.11569835 0.00000000
0.02901983 0.11592002 0.00000000
0.05810128 0.11613764 0.00000000
0.08728626 0.11635092 0.00000000
0.11657386 0.11656084 0.00000000
0.14596546 0.11676974 0.00000000
0.17546361 0.11698050 0.00000000
0.20506961 0.11719474 0.00000000
0.23478152 0.11741178 0.00000000
0.26459445 0.11762905 0.00000000
0.29450264 0.11784376 0.00000000
0.32450169 0.11805433 0.00000000
0.35458927 0.11826058 0.00000000
0.38476446 0.11846315 0.00000000
0.41502671 0.11866278 0.00000000
0.44537516 0.11886000 0.00000000
0.47580857 0.11905508 0.00000000
0.50632544 0.11924812 0.00000000
0.53692416 0.11943915 0.00000000
0.56760306 0.11962816 0.00000000
0.59836047 0.11981516 0.00000000
0.62919471 0.12000014 0.00000000
0.66010410 0.12018308 0.00000000
0.69108697 0.12036398 0.00000000
0.72214164 0.12054283 0.00000000
0.75326643 0.12071963 0.00000000
0.78445967 0.12089436 0.00000000
0.81571968 0.12106701 0.00000000
0.84704479 0.12123759 0.00000000
0.87843331 0.12140607 0.00000000
0.90988359 0.12157244 0.00000000
0.94139394 0.12173671 0.00000000
0.97296269 0.12189886 0.00000000
0.00007002 0.14554395 0.00000000
0.02922800 0.14581295 0.00000000
0.05848897 0.14607778 0.00000000
0.08785024 0.14633782 0.00000000
0.11730997 0.14659328 0.00000000
0.14686817 0.14684571 0.00000000
0.17652671 0.14709779 0.00000000
0.20628758 0.14735193 0.00000000
0.23615060 0.14760878 0.00000000
0.26611244 0.14786674 0.00000000
0.29616778 0.14812306 0.00000000
0.32631154 0.14837544 0.00000000
0.35654039 0.14862294 0.00000000
0.38685276 0.14886583 0.00000000
0.41724794 0.14910482 0.00000000
0.44772519 0.14934056 0.00000000
0.47828344 0.14957345 0.00000000
0.50892131 0.14980367 0.00000000
0.53963723 0.15003128 0.00000000
0.57042956 0.15025630 0.00000000
0.60129662 0.15047871 0.00000000
0.63223673 0.15069851 0.00000000
0.66324823 0.15091570 0.00000000
0.69432944 0.15113026 0.00000000
0.72547867 0.15134219 0.00000000
0.75669427 0.15155147 0.00000000
0.78797454 0.15175811 0.00000000
0.81931782 0.15196209 0.00000000
0.85072243 0.15216339 0.00000000
0.88218669 0.15236202 0.00000000
0.91370895 0.15255796 0.00000000
0.94528751 0.15275120 0.00000000
0.97692072 0.15294174 0.00000000
0.00010041 0.17571889 0.00000000
0.02943438 0.17603135 0.00000000
0.05886851 0.17633979 0.00000000
0.08840029 0.17664364 0.00000000
0.11802751 0.17694261 0.00000000
0.14774891 0.17723727 0.00000000
0.17756473 0.17752924 0.00000000
0.20747617 0.17782062 0.00000000
0.23748378 0.17811283 0.00000000
0.26758598 0.17840563 0.00000000
0.29777906 0.17869729 0.00000000
0.32805848 0.17898571 0.00000000
0.35842052 0.17926952 0.00000000
0.38886287 0.17954840 0.00000000
0.41938430 0.17982277 0.00000000
0.44998390 0.18009318 0.00000000
0.48066061 0.18036006 0.00000000
0.51141309 0.18062363 0.00000000
0.54223982 0.18088400 0.00000000
0.57313917 0.18114117 0.00000000
0.60410949 0.18139516 0.00000000
0.63514909 0.18164596 0.00000000
0.66625631 0.18189355 0.00000000
0.69742946 0.18213794 0.00000000
0.72866688 0.18237910 0.00000000
0.75996689 0.18261705 0.00000000
0.79132781 0.18285175 0.00000000
0.82274798 0.18308321 0.00000000
0.85422571 0.18331141 0.00000000
0.88575934 0.18353635 0.00000000
0.91734719 0.18375801 0.00000000
0.94898759 0.18397639 0.00000000
0.98067887 0.18419148 0.00000000
0.00013515 0.20620384 0.00000000
0.02963830 0.20655557 0.00000000
0.05923845 0.20690327 0.00000000
0.08893350 0.20724658 0.00000000
0.11872130 0.20758520 0.00000000
0.14860003 0.20791911 0.00000000
0.17856865 0.20824891 0.00000000
0.20862695 0.20857580 0.00000000
0.23877496 0.20890101 0.00000000
0.26901188 0.20922503 0.00000000
0.29933554 0.20954732 0.00000000
0.32974268 0.20986660 0.00000000
0.36023000 0.21018171 0.00000000
0.39079492 0.21049203 0.00000000
0.42143570 0.21079760 0.00000000
0.45215105 0.21109872 0.00000000
0.48293975 0.21139572 0.00000000
0.51380044 0.21168881 0.00000000
0.54473158 0.21197809 0.00000000
0.57573157 0.21226359 0.00000000
0.60679875 0.21254533 0.00000000
0.63793144 0.21282328 0.00000000
0.66912799 0.21309745 0.00000000
0.70038670 0.21336782 0.00000000
0.73170591 0.21363440 0.00000000
0.76308395 0.21389715 0.00000000
0.79451914 0.21415609 0.00000000
0.82600980 0.21441119 0.00000000
0.85755428 0.21466245 0.00000000
0.88915088 0.21490986 0.00000000
0.92079795 0.21515341 0.00000000
0.95249381 0.21539309 0.00000000
0.98423679 0.21562889 0.00000000
0.00017399 0.23697973 0.00000000
0.02983958 0.23736661 0.00000000
0.05959868 0.23774915 0.00000000
0.08944946 0.23812722 0.00000000
0.11939000 0.23850061 0.00000000
0.14941843 0.23886922 0.00000000
0.17953313 0.23923313 0.00000000
0.20973292 0.23959277 0.00000000
0.24001695 0.23994879 0.00000000
0.27038428 0.24030171 0.00000000
0.30083340 0.24065157 0.00000000
0.33136215 0.24099792 0.00000000
0.36196798 0.24134009 0.00000000
0.39264853 0.24167758 0.00000000
0.42340184 0.24201020 0.00000000
0.45422633 0.24233804 0.00000000
0.48512054 0.24266127 0.00000000
0.51608300 0.24298002 0.00000000
0.54711215 0.24329439 0.00000000
0.57820637 0.24360439 0.00000000
0.60936402 0.24391003 0.00000000
0.64058342 0.24421131 0.00000000
0.67186289 0.24450821 0.00000000
0.70320078 0.24480074 0.00000000
0.73459539 0.24508888 0.00000000
0.76604507 0.24537262 0.00000000
0.79754813 0.24565195 0.00000000
0.82910291 0.24592686 0.00000000
0.86070774 0.24619734 0.00000000
0.89236094 0.24646339 0.00000000
0.92406084 0.24672499 0.00000000
0.95580577 0.24698212 0.00000000
0.98759406 0.24723479 0.00000000
0.00021663 0.26802748 0.00000000
0.03003810 0.26844555 0.00000000
0.05994940 0.26885881 0.00000000
0.08994880 0.26926719 0.00000000
0.12003454 0.26967063 0.00000000
0.15020486 0.27006905 0.00000000
0.18045801 0.27046242 0.00000000
0.21079241 0.27085083 0.00000000
0.24120665 0.27123449 0.00000000
0.27169940 0.27161366 0.00000000
0.30226922 0.27198849 0.00000000
0.33291438 0.27235892 0.00000000
0.36363293 0.27272470 0.00000000
0.39442284 0.27308555 0.00000000
0.42528222 0.27344131 0.00000000
0.45620933 0.27379196 0.00000000
0.48720259 0.27413753 0.00000000
0.51826039 0.27447810 0.00000000
0.54938114 0.27481371 0.00000000
0.58056320 0.27514437 0.00000000
0.61180492 0.27547008 0.00000000
0.64310462 0.27579085 0.00000000
0.67446063 0.27610666 0.00000000
0.70587129 0.27641751 0.00000000
0.73733492 0.27672338 0.00000000
0.76884984 0.27702427 0.00000000
0.80041439 0.27732016 0.00000000
0.83202690 0.27761104 0.00000000
0.86368569 0.27789691 0.00000000
0.89538909 0.27817775 0.00000000
0.92713544 0.27845356 0.00000000
0.95892305 0.27872432 0.00000000
0.99075027 0.27899003 0.00000000
0.00026273 0.29932798 0.00000000
0.03023360 0.29977338 0.00000000
0.06029054 0.30021340 0.00000000
0.09043186 0.30064803 0.00000000
0.12065586 0.30107724 0.00000000
0.15096084 0.30150100 0.00000000
0.18134507 0.30191928 0.00000000
0.21180689 0.30233208 0.00000000
0.24234467 0.30273944 0.00000000
0.27295683 0.30314144 0.00000000
0.30364182 0.30353815 0.00000000
0.33439799 0.30392959 0.00000000
0.36522364 0.30431571 0.00000000
0.39611696 0.30469642 0.00000000
0.42707618 0.30507161 0.00000000
0.45809957 0.30544125 0.00000000
0.48918545 0.30580533 0.00000000
0.52033219 0.30616387 0.00000000
0.55153813 0.30651688 0.00000000
0.58280163 0.30686437 0.00000000
0.61412101 0.30720633 0.00000000
0.64549462 0.30754275 0.00000000
0.67692078 0.30787364 0.00000000
0.70839782 0.30819897 0.00000000
0.73992406 0.30851873 0.00000000
0.77149784 0.30883293 0.00000000
0.80311749 0.30914155 0.00000000
0.83478133 0.30944457 0.00000000
0.86648769 0.30974199 0.00000000
0.89823490 0.31003380 0.00000000
0.93002131 0.31031998 0.00000000
0.96184522 0.31060053 0.00000000
0.99370498 0.31087544 0.00000000
0.00031187 0.33086207 0.00000000
0.03042570 0.33133096 0.00000000
0.06062182 0.33179390 0.00000000
0.09089855 0.33225088 0.00000000
0.12125421 0.33270188 0.00000000
0.15168712 0.33314689 0.00000000
0.18219559 0.33358591 0.00000000
0.21277792 0.33401891 0.00000000
0.24343246 0.33444589 0.00000000
0.27415755 0.33486686 0.00000000
0.30495153 0.33528185 0.00000000
0.33581277 0.33569086 0.00000000
0.36673959 0.33609387 0.00000000
0.39773029 0.33649088 0.00000000
0.42878317 0.33688183 0.00000000
0.45989652 0.33726671 0.00000000
0.49106867 0.33764549 0.00000000
0.52229794 0.33801817 0.00000000
0.55358268 0.33838475 0.00000000
0.58492121 0.33874523 0.00000000
0.61631186 0.33909960 0.00000000
0.64775298 0.33944785 0.00000000
0.67924288 0.33978997 0.00000000
0.71077991 0.34012595 0.00000000
0.74236237 0.34045578 0.00000000
0.77398861 0.34077946 0.00000000
0.80565696 0.34109696 0.00000000
0.83736574 0.34140829 0.00000000
0.86911328 0.34171342 0.00000000
0.90089792 0.34201236 0.00000000
0.93271798 0.34230508 0.00000000
0.96457180 0.34259159 0.00000000
0.99645771 0.34287186 0.00000000
0.00036359 0.36261059 0.00000000
0.03061394 0.36309915 0.00000000
0.06094281 0.36358118 0.00000000
0.09134851 0.36405667 0.00000000
0.12182937 0.36452560 0.00000000
0.15238371 0.36498798 0.00000000
0.18300984 0.36544378 0.00000000
0.21370610 0.36589301 0.00000000
0.24447080 0.36633565 0.00000000
0.27530227 0.36677169 0.00000000
0.30619884 0.36720113 0.00000000
0.33715884 0.36762398 0.00000000
0.36818061 0.36804021 0.00000000
0.39926247 0.36844983 0.00000000
0.43040274 0.36885281 0.00000000
0.46159973 0.36924915 0.00000000
0.49285177 0.36963883 0.00000000
0.52415719 0.37002183 0.00000000
0.55551432 0.37039816 0.00000000
0.58692148 0.37076780 0.00000000
0.61837701 0.37113075 0.00000000
0.64987923 0.37148698 0.00000000
0.68142648 0.37183651 0.00000000
0.71301709 0.37217931 0.00000000
0.74464938 0.37251537 0.00000000
0.77632168 0.37284469 0.00000000
0.80803233 0.37316725 0.00000000
0.83977966 0.37348304 0.00000000
0.87156199 0.37379206 0.00000000
0.90337765 0.37409429 0.00000000
0.93522499 0.37438972 0.00000000
0.96710233 0.37467834 0.00000000
0.99900799 0.37496014 0.00000000
0.00041741 0.39455441 0.00000000
0.03079786 0.39505881 0.00000000
0.06125304 0.39555611 0.00000000
0.09178128 0.39604627 0.00000000
0.12238091 0.39652931 0.00000000
0.15305023 0.39700520 0.00000000
0.18378759 0.39747395 0.00000000
0.21459129 0.39793553 0.00000000
0.24545968 0.39838995 0.00000000
0.27639106 0.39883719 0.00000000
0.30738378 0.39927724 0.00000000
0.33843615 0.39971011 0.00000000
0.36954650 0.40013577 0.00000000
0.40071316 0.40055422 0.00000000
0.43193446 0.40096545 0.00000000
0.46320872 0.40136945 0.00000000
0.49453428 0.40176621 0.00000000
0.52590945 0.40215571 0.00000000
0.55733257 0.40253795 0.00000000
0.58880196 0.40291292 0.00000000
0.62031596 0.40328061 0.00000000
0.65187289 0.40364101 0.00000000
0.68347109 0.40399410 0.00000000
0.71510888 0.40433989 0.00000000
0.74678459 0.40467835 0.00000000
0.77849656 0.40500948 0.00000000
0.81024312 0.40533326 0.00000000
0.84202259 0.40564969 0.00000000
0.87383332 0.40595875 0.00000000
0.90567362 0.40626044 0.00000000
0.93754183 0.40655474 0.00000000
0.96943628 0.40684165 0.00000000
1.00000000 0.40738522 0.00137501
0.00047284 0.42667436 0.00000000
0.03097695 0.42719079 0.00000000
0.06155202 0.42769952 0.00000000
0.09219638 0.42820055 0.00000000
0.12290834 0.42869386 0.00000000
0.15368623 0.42917944 0.00000000
0.18452837 0.42965729 0.00000000
0.21543310 0.43012740 0.00000000
0.24639874 0.43058976 0.00000000
0.27742361 0.43104436 0.00000000
0.30850604 0.43149119 0.00000000
0.33964435 0.43193024 0.00000000
0.37083688 0.43236151 0.00000000
0.40208195 0.43278497 0.00000000
0.43337789 0.43320063 0.00000000
0.46472303 0.43360847 0.00000000
0.49611570 0.43400848 0.00000000
0.52755422 0.43440066 0.00000000
0.55903693 0.43478499 0.00000000
0.59056215 0.43516146 0.00000000
0.62212821 0.43553006 0.00000000
0.65373345 0.43589078 0.00000000
0.68537619 0.43624362 0.00000000
0.71705477 0.43658855 0.00000000
0.74876751 0.43692558 0.00000000
0.78051275 0.43725468 0.00000000
0.81228882 0.43757585 0.00000000
0.84409404 0.43788908 0.00000000
0.87592676 0.43819436 0.00000000
0.90778529 0.43849168 0.00000000
0.93966799 0.43878102 0.00000000
0.97157316 0.43906237 0.00000000
1.00000000 0.43998400 0.00388199
0.00052935 0.45895132 0.00000000
0.03115070 0.45947595 0.00000000
0.06183923 0.45999230 0.00000000
0.09259327 0.46050035 0.00000000
0.12341115 0.46100011 0.00000000
0.15429118 0.46149156 0.00000000
0.18523170 0.46197469 0.00000000
0.21623103 0.46244950 0.00000000
0.24728749 0.46291597 0.00000000
0.27839943 0.46337410 0.00000000
0.30956515 0.46382387 0.00000000
0.34078300 0.46426528 0.00000000
0.37205129 0.46469832 0.00000000
0.40336836 0.46512297 0.00000000
0.43473254 0.46553923 0.00000000
0.46614215 0.46594708 0.00000000
0.49759553 0.46634652 0.00000000
0.52909099 0.46673754 0.00000000
0.56062688 0.46712012 0.00000000
0.59220153 0.46749426 0.00000000
0.62381326 0.46785994 0.00000000
0.65546040 0.46821716 0.00000000
0.68714128 0.46856590 0.00000000
0.71885424 0.46890615 0.00000000
0.75059761 0.46923791 0.00000000
0.78236972 0.46956116 0.00000000
0.81416890 0.46987589 0.00000000
0.84599347 0.47018209 0.00000000
0.87784178 0.47047975 0.00000000
0.90971216 0.47076886 0.00000000
0.94160293 0.47104940 0.00000000
0.97351244 0.47132137 0.00000000
1.00000000 0.47253518 0.00660094
0.00058642 0.49136615 0.00000000
0.03131858 0.49189515 0.00000000
0.06211414 0.49241529 0.00000000
0.09297144 0.49292655 0.00000000
0.12388880 0.49342893 0.00000000
0.15486456 0.49392242 0.00000000
0.18589703 0.49440701 0.00000000
0.21698454 0.49488268 0.00000000
0.24812542 0.49534944 0.00000000
0.27931800 0.49580727 0.00000000
0.31056061 0.49625615 0.00000000
0.34185157 0.49669609 0.00000000
0.37318922 0.49712707 0.00000000
0.40457188 0.49754908 0.00000000
0.43599788 0.49796211 0.00000000
0.46746556 0.49836615 0.00000000
0.49897323 0.49876119 0.00000000
0.53051924 0.49914721 0.00000000
0.56210191 0.49952422 0.00000000
0.59371957 0.49989220 0.00000000
0.62537056 0.50025113 0.00000000
0.65705320 0.50060101 0.00000000
0.68876583 0.50094182 0.00000000
0.72050677 0.50127357 0.00000000
0.75227437 0.50159622 0.00000000
0.78406694 0.50190978 0.00000000
0.81588283 0.50221424 0.00000000
0.84772036 0.50250957 0.00000000
0.87957786 0.50279578 0.00000000
0.91145368 0.50307285 0.00000000
0.94334614 0.50334076 0.00000000
0.97525357 0.50359952 0.00000000
1.00000000 0.50501944 0.00953224
0.00064350 0.52389972 0.00000000
0.03148003 0.52442927 0.00000000
0.06237620 0.52494937 0.00000000
0.09333033 0.52546001 0.00000000
0.12434077 0.52596119 0.00000000
0.15540582 0.52645289 0.00000000
0.18652382 0.52693511 0.00000000
0.21769309 0.52740782 0.00000000
0.24891197 0.52787104 0.00000000
0.28017879 0.52832474 0.00000000
0.31149187 0.52876891 0.00000000
0.34284953 0.52920355 0.00000000
0.37425012 0.52962864 0.00000000
0.40569196 0.53004418 0.00000000
0.43717338 0.53045015 0.00000000
0.46869271 0.53084654 0.00000000
0.50024828 0.53123334 0.00000000
0.53183842 0.53161055 0.00000000
0.56346146 0.53197815 0.00000000
0.59511574 0.53233613 0.00000000
0.62679958 0.53268448 0.00000000
0.65851132 0.53302319 0.00000000
0.69024929 0.53335225 0.00000000
0.72201181 0.53367165 0.00000000
0.75379723 0.53398138 0.00000000
0.78560387 0.53428142 0.00000000
0.81743007 0.53457176 0.00000000
0.84927415 0.53485240 0.00000000
0.88113445 0.53512332 0.00000000
0.91300931 0.53538452 0.00000000
0.94489705 0.53563597 0.00000000
0.97679600 0.53587768 0.00000000
1.00000000 0.53741744 0.01267624
0.00070001 0.55653290 0.00000000
0.03163450 0.55705917 0.00000000
0.06262485 0.55757541 0.00000000
0.09366940 0.55808161 0.00000000
0.12476648 0.55857776 0.00000000
0.15591441 0.55906385 0.00000000
0.18711152 0.55953986 0.00000000
0.21835614 0.56000579 0.00000000
0.24964661 0.56046164 0.00000000
0.28098124 0.56090738 0.00000000
0.31235837 0.56134301 0.00000000
0.34377633 0.56176852 0.00000000
0.37523345 0.56218389 0.00000000
0.40672806 0.56258913 0.00000000
0.43825848 0.56298421 0.00000000
0.46982306 0.56336912 0.00000000
0.50142012 0.56374387 0.00000000
0.53304799 0.56410842 0.00000000
0.56470500 0.56446279 0.00000000
0.59638949 0.56480694 0.00000000
0.62809978 0.56514088 0.00000000
0.65983421 0.56546459 0.00000000
0.69159111 0.56577806 0.00000000
0.72336882 0.56608128 0.00000000
0.75516565 0.56637424 0.00000000
0.78697996 0.56665693 0.00000000
0.81881006 0.56692933 0.00000000
0.85065430 0.56719144 0.00000000
0.88251099 0.56744325 0.00000000
0.91437849 0.56768474 0.00000000
0.94625511 0.56791590 0.00000000
0.97813919 0.56813672 0.00000000
1.00000000 0.56970987 0.01603323
0.00075540 0.58924656 0.00000000
0.03178141 0.58976574 0.00000000
0.06285952 0.59027429 0.00000000
0.09398806 0.59077222 0.00000000
0.12516537 0.59125951 0.00000000
0.15638976 0.59173616 0.00000000
0.18765956 0.59220215 0.00000000
0.21897312 0.59265747 0.00000000
0.25032875 0.59310211 0.00000000
0.28172479 0.59353607 0.00000000
0.31315956 0.59395932 0.00000000
0.34463140 0.59437187 0.00000000
0.37613864 0.59477371 0.00000000
0.40767961 0.59516481 0.00000000
0.43925263 0.59554517 0.00000000
0.47085605 0.59591478 0.00000000
0.50248819 0.59627363 0.00000000
0.53414738 0.59662170 0.00000000
0.56583195 0.59695900 0.00000000
0.59754025 0.59728549 0.00000000
0.62927059 0.59760119 0.00000000
0.66102131 0.59790606 0.00000000
0.69279074 0.59820012 0.00000000
0.72457722 0.59848333 0.00000000
0.75637908 0.59875569 0.00000000
0.78819465 0.59901719 0.00000000
0.82002226 0.59926783 0.00000000
0.85186024 0.59950758 0.00000000
0.88370693 0.59973643 0.00000000
0.91556066 0.59995438 0.00000000
0.94741977 0.60016142 0.00000000
0.97928258 0.60035753 0.00000000
1.00000000 0.60187739 0.01960352
0.00080909 0.62202160 0.00000000
0.03192020 0.62252984 0.00000000
0.06307964 0.62302689 0.00000000
0.09428576 0.62351272 0.00000000
0.12553686 0.62398733 0.00000000
0.15683130 0.62445070 0.00000000
0.18816738 0.62490284 0.00000000
0.21954345 0.62534372 0.00000000
0.25095784 0.62577333 0.00000000
0.28240887 0.62619168 0.00000000
0.31389487 0.62659873 0.00000000
0.34541418 0.62699449 0.00000000
0.37696513 0.62737895 0.00000000
0.40854605 0.62775209 0.00000000
0.44015527 0.62811390 0.00000000
0.47179112 0.62846437 0.00000000
0.50345193 0.62880350 0.00000000
0.53513604 0.62913126 0.00000000
0.56684177 0.62944765 0.00000000
0.59856746 0.62975266 0.00000000
0.63031145 0.63004628 0.00000000
0.66207206 0.63032849 0.00000000
0.69384762 0.63059929 0.00000000
0.72563647 0.63085866 0.00000000
0.75743695 0.63110660 0.00000000
0.78924738 0.63134309 0.00000000
0.82106609 0.63156811 0.00000000
0.85289142 0.63178167 0.00000000
0.88472170 0.63198374 0.00000000
0.91655527 0.63217433 0.00000000
0.94839045 0.63235340 0.00000000
0.98022559 0.63252097 0.00000000
1.00000000 0.63390068 0.02338735
0.00086047 0.65483888 0.00000000
0.03205026 0.65533237 0.00000000
0.06328463 0.65581408 0.00000000
0.09456189 0.65628399 0.00000000
0.12588039 0.65674208 0.00000000
0.15723845 0.65718836 0.00000000
0.18863440 0.65762281 0.00000000
0.22006657 0.65804542 0.00000000
0.25153330 0.65845618 0.00000000
0.28303291 0.65885508 0.00000000
0.31456373 0.65924211 0.00000000
0.34612411 0.65961725 0.00000000
0.37771236 0.65998050 0.00000000
0.40932682 0.66033185 0.00000000
0.44096582 0.66067128 0.00000000
0.47262769 0.66099879 0.00000000
0.50431077 0.66131435 0.00000000
0.53601339 0.66161797 0.00000000
0.56773388 0.66190963 0.00000000
0.59947057 0.66218932 0.00000000
0.63122180 0.66245703 0.00000000
0.66298589 0.66271275 0.00000000
0.69476118 0.66295647 0.00000000
0.72654601 0.66318817 0.00000000
0.75833869 0.66340784 0.00000000
0.79013758 0.66361548 0.00000000
0.82194099 0.66381107 0.00000000
0.85374727 0.66399460 0.00000000
0.88555475 0.66416606 0.00000000
0.91736175 0.66432544 0.00000000
